; generated by Slic3r 1.0.0RC3 on 2014-03-12 at 08:34:47

; layer_height = 0.3
; perimeters = 2
; top_solid_layers = 3
; bottom_solid_layers = 3
; fill_density = 0.1
; perimeter_speed = 60
; infill_speed = 60
; travel_speed = 120
; nozzle_diameter = 0.4
; filament_diameter = 1.75
; extrusion_multiplier = 0.98
; perimeters extrusion width = 0.40mm
; infill extrusion width = 0.42mm
; solid infill extrusion width = 0.42mm
; top infill extrusion width = 0.42mm
; first layer extrusion width = 0.60mm

G21 ; set units to millimeters
M107
M104 S220 ; set temperature
G28 ; home all axes
M106 S255;
G1 Z200 F1200 ; lift nozzle
M109 S220 ; wait for temperature to be reached
G90 ; use absolute coordinates
G92 E0
M82 ; use absolute distances for extrusion
G1 F1800.000 E-1.00000
G92 E0
G1 Z0.300 F7200.000
G1 X113.095 Y55.951 F7200.000
G1 E1.00000 F1800.000
G1 X113.895 Y54.821 E1.09428 F1080.000
G1 X114.925 Y53.871 E1.18969
G1 X116.115 Y53.171 E1.28370
G1 X117.445 Y52.731 E1.37909
G1 X118.825 Y52.581 E1.47361
G1 X122.185 Y52.581 E1.70240
G1 X122.955 Y52.631 E1.75494
G1 X123.705 Y52.761 E1.80677
G1 X190.955 Y68.841 E6.51507
G1 X192.055 Y69.211 E6.59409
G1 X193.075 Y69.761 E6.67300
G1 X194.095 Y70.441 E6.75647
G1 X195.085 Y71.251 E6.84357
G1 X195.895 Y72.241 E6.93067
G1 X196.575 Y73.251 E7.01358
G1 X197.185 Y74.391 E7.10162
G1 X197.565 Y75.621 E7.18928
G1 X197.805 Y76.821 E7.27261
G1 X197.935 Y78.011 E7.35412
G1 X197.835 Y79.211 E7.43612
G1 X188.085 Y136.561 E11.39725
G1 X187.885 Y137.411 E11.45671
G1 X187.555 Y138.471 E11.53230
G1 X187.355 Y139.031 E11.57279
G1 X187.105 Y139.571 E11.61331
G1 X186.585 Y140.561 E11.68946
G1 X186.235 Y141.141 E11.73558
G1 X185.835 Y141.681 E11.78134
G1 X185.125 Y142.541 E11.85728
G1 X184.685 Y143.021 E11.90162
G1 X184.205 Y143.461 E11.94596
G1 X183.345 Y144.161 E12.02146
G1 X182.855 Y144.521 E12.06287
G1 X182.325 Y144.841 E12.10502
G1 X181.345 Y145.371 E12.18089
G1 X180.745 Y145.651 E12.22597
G1 X180.125 Y145.881 E12.27100
G1 X179.065 Y146.201 E12.34640
G1 X178.375 Y146.361 E12.39463
G1 X120.035 Y157.291 E16.43625
G1 X118.695 Y157.411 E16.52786
G1 X117.365 Y157.241 E16.61916
G1 X116.095 Y156.811 E16.71046
G1 X114.945 Y156.131 E16.80143
G1 X113.955 Y155.241 E16.89208
G1 X113.165 Y154.151 E16.98374
G1 X104.375 Y139.081 E18.17170
G1 X103.705 Y137.501 E18.28856
G1 X103.475 Y135.791 E18.40604
G1 X103.405 Y75.071 E22.54062
G1 X103.615 Y73.421 E22.65387
G1 X104.235 Y71.881 E22.76692
G1 X113.054 Y56.025 E24.00242
G1 F1800.000 E23.00242
G92 E0
G1 X119.686 Y59.999 F7200.000
G1 E1.00000 F1800.000
G1 X121.332 Y59.999 E1.11211 F1080.000
G1 X121.332 Y75.840 E2.19076
G1 X188.155 Y75.840 E6.74087
G1 X189.105 Y76.029 E6.80683
G1 X189.839 Y76.519 E6.86692
G1 X190.329 Y77.253 E6.92700
G1 X190.492 Y78.073 E6.98389
G1 X189.901 Y79.980 E7.11986
G1 X180.911 Y105.311 E8.95010
G1 X180.911 Y130.663 E10.67638
G1 X180.879 Y134.311 E10.92482
G1 X180.782 Y135.297 E10.99226
G1 X180.508 Y136.201 E11.05657
G1 X180.063 Y137.034 E11.12087
G1 X179.464 Y137.763 E11.18517
G1 X178.734 Y138.363 E11.24947
G1 X177.901 Y138.808 E11.31378
G1 X176.966 Y139.091 E11.38029
G1 X173.741 Y139.657 E11.60325
G1 X119.686 Y149.825 E15.34853
G1 X119.686 Y135.024 E16.35638
G1 X110.897 Y135.024 E16.95485
G1 X110.897 Y131.524 E17.19317
G1 X119.686 Y131.524 E17.79164
G1 X119.686 Y79.393 E21.34135
G1 X110.827 Y79.393 E21.94456
G1 X110.827 Y75.840 E22.18652
G1 X119.686 Y75.840 E22.78973
G1 X119.686 Y60.082 E23.86270
G1 X119.129 Y59.441 F7200.000
G1 X121.890 Y59.441 E24.05067 F540.000
G1 X121.890 Y75.282 E25.12932
G1 X188.210 Y75.283 E29.64525
G1 X189.322 Y75.505 E29.72248
G1 X190.240 Y76.118 E29.79765
G1 X190.854 Y77.036 E29.87283
G1 X191.066 Y78.103 E29.94689
G1 X190.430 Y80.156 E30.09324
G1 X181.468 Y105.407 E31.91772
G1 X181.468 Y130.665 E33.63764
G1 X181.436 Y134.341 E33.88794
G1 X181.331 Y135.406 E33.96081
G1 X181.025 Y136.415 E34.03259
G1 X180.528 Y137.344 E34.10436
G1 X179.859 Y138.159 E34.17614
G1 X179.045 Y138.828 E34.24791
G1 X178.115 Y139.325 E34.31969
G1 X177.095 Y139.634 E34.39224
G1 X173.840 Y140.205 E34.61726
G1 X119.129 Y150.497 E38.40803
G1 X119.129 Y135.581 E39.42369
G1 X110.340 Y135.581 E40.02215
G1 X110.340 Y130.967 E40.33635
G1 X119.129 Y130.967 E40.93481
G1 X119.129 Y79.950 E44.40866
G1 X110.270 Y79.950 E45.01187
G1 X110.270 Y75.282 E45.32970
G1 X119.129 Y75.282 E45.93291
G1 X119.129 Y59.525 E47.00587
G1 X119.611 Y59.720 F7200.000
G1 F1800.000 E46.00587
G92 E0
G1 X119.166 Y78.999 F7200.000
G1 E1.00000 F1800.000
G1 X116.400 Y76.233 E1.26667 F1080.000
G1 X115.611 Y76.233 E1.32044
G1 X118.377 Y78.999 E1.58711
G1 X117.588 Y78.999 E1.64089
G1 X114.823 Y76.233 E1.90755
G1 X114.034 Y76.233 E1.96133
G1 X116.800 Y78.999 E2.22800
G1 X116.011 Y78.999 E2.28178
G1 X113.245 Y76.233 E2.54844
G1 X112.456 Y76.233 E2.60222
G1 X115.222 Y78.999 E2.86889
G1 X114.433 Y78.999 E2.92267
G1 X111.667 Y76.233 E3.18933
G1 X111.221 Y76.576 E3.22768
G1 X113.644 Y78.999 E3.46131
G1 X112.855 Y78.999 E3.51509
G1 X111.221 Y77.365 E3.67266
G1 X111.221 Y78.154 E3.72644
G1 X112.067 Y78.999 E3.80796
G1 X111.278 Y78.999 E3.86174
G1 X111.221 Y78.942 E3.86721
G1 F1800.000 E2.86721
G92 E0
G1 X111.346 Y131.918 F7200.000
G1 E1.00000 F1800.000
G1 X114.059 Y134.630 E1.26151 F1080.000
G1 X113.270 Y134.630 E1.31529
G1 X111.291 Y132.651 E1.50609
G1 X111.291 Y133.440 E1.55986
G1 X112.481 Y134.630 E1.67461
G1 X111.692 Y134.630 E1.72838
G1 X111.291 Y134.229 E1.76707
G1 F1800.000 E0.76707
G92 E0
G1 X112.135 Y131.918 F7200.000
G1 E1.00000 F1800.000
G1 X114.847 Y134.630 E1.26151 F1080.000
G1 X115.636 Y134.630 E1.31529
G1 X112.924 Y131.918 E1.57680
G1 X113.713 Y131.918 E1.63058
G1 X116.425 Y134.630 E1.89209
G1 X117.214 Y134.630 E1.94587
G1 X114.501 Y131.918 E2.20738
G1 X115.290 Y131.918 E2.26116
G1 X118.003 Y134.630 E2.52267
G1 X118.791 Y134.630 E2.57645
G1 X116.079 Y131.918 E2.83796
G1 X116.868 Y131.918 E2.89174
G1 X119.580 Y134.630 E3.15326
G1 F1800.000 E2.15326
G92 E0
G1 X120.098 Y149.347 F7200.000
G1 E1.00000 F1800.000
G1 X120.080 Y149.328 E1.00179 F1080.000
G1 X120.762 Y149.222 E1.04888
G1 X120.080 Y148.539 E1.11468
G1 X120.080 Y147.751 E1.16846
G1 X121.426 Y149.097 E1.29828
G1 X122.090 Y148.972 E1.34434
G1 X120.080 Y146.962 E1.53817
G1 X120.080 Y146.173 E1.59195
G1 X122.754 Y148.847 E1.84979
G1 X123.418 Y148.722 E1.89585
G1 X120.080 Y145.384 E2.21770
G1 X120.080 Y144.595 E2.27148
G1 X124.082 Y148.598 E2.65735
G1 X124.746 Y148.473 E2.70341
G1 X120.080 Y143.807 E3.15329
G1 X120.080 Y143.018 E3.20707
G1 X125.410 Y148.348 E3.72097
G1 X126.074 Y148.223 E3.76703
G1 X120.080 Y142.229 E4.34493
G1 X120.080 Y141.440 E4.39871
G1 X126.738 Y148.098 E5.04064
G1 X127.402 Y147.973 E5.08669
G1 X120.080 Y140.651 E5.79263
G1 X120.080 Y139.863 E5.84641
G1 X128.065 Y147.848 E6.61636
G1 X128.729 Y147.723 E6.66242
G1 X120.080 Y139.074 E7.49638
G1 X120.080 Y138.285 E7.55016
G1 X129.393 Y147.598 E8.44813
G1 X130.057 Y147.474 E8.49419
G1 X120.080 Y137.496 E9.45618
G1 X120.080 Y136.707 E9.50996
G1 X130.721 Y147.349 E10.53596
G1 X131.385 Y147.224 E10.58202
G1 X120.080 Y135.919 E11.67203
G1 X120.080 Y135.130 E11.72581
G1 X132.049 Y147.099 E12.87984
G1 X132.713 Y146.974 E12.92590
G1 X117.657 Y131.918 E14.37757
G1 X118.445 Y131.918 E14.43135
G1 X133.377 Y146.849 E15.87099
G1 X134.041 Y146.724 E15.91705
G1 X119.234 Y131.918 E17.34464
G1 X120.023 Y131.918 E17.39842
G1 X134.705 Y146.599 E18.81397
G1 X135.369 Y146.474 E18.86003
G1 X120.080 Y131.186 E20.33412
G1 X120.080 Y130.397 E20.38790
G1 X136.033 Y146.350 E21.92601
G1 X136.696 Y146.225 E21.97207
G1 X120.080 Y129.608 E23.57419
G1 X120.080 Y128.819 E23.62797
G1 X137.360 Y146.100 E25.29410
G1 X138.024 Y145.975 E25.34016
G1 X120.080 Y128.030 E27.07031
G1 X120.080 Y127.242 E27.12409
G1 X138.688 Y145.850 E28.91825
G1 X139.352 Y145.725 E28.96431
G1 X120.080 Y126.453 E30.82248
G1 X120.080 Y125.664 E30.87626
G1 X140.016 Y145.600 E32.79845
G1 X140.680 Y145.475 E32.84451
G1 X120.080 Y124.875 E34.83071
G1 X120.080 Y124.086 E34.88449
G1 X141.344 Y145.350 E36.93470
G1 X142.008 Y145.226 E36.98076
G1 X120.080 Y123.298 E39.09499
G1 X120.080 Y122.509 E39.14876
G1 X142.672 Y145.101 E41.32700
G1 X143.336 Y144.976 E41.37306
G1 X120.080 Y121.720 E43.61532
G1 X120.080 Y120.931 E43.66910
G1 X144.000 Y144.851 E45.97536
G1 X144.664 Y144.726 E46.02142
G1 X120.080 Y120.142 E48.39170
G1 X120.080 Y119.354 E48.44548
G1 X145.327 Y144.601 E50.87977
G1 X145.991 Y144.476 E50.92583
G1 X120.080 Y118.565 E53.42414
G1 X120.080 Y117.776 E53.47792
G1 X146.655 Y144.351 E56.04024
G1 X147.319 Y144.226 E56.08630
G1 X120.080 Y116.987 E58.71263
G1 X120.080 Y116.198 E58.76641
G1 X147.983 Y144.102 E61.45675
G1 X148.647 Y143.977 E61.50281
G1 X120.080 Y115.409 E64.25717
G1 X120.080 Y114.621 E64.31095
G1 X149.311 Y143.852 E67.12932
G1 X149.975 Y143.727 E67.17538
G1 X120.080 Y113.832 E70.05777
G1 X120.080 Y113.043 E70.11155
G1 X150.639 Y143.602 E73.05795
G1 X151.303 Y143.477 E73.10401
G1 X120.080 Y112.254 E76.11442
G1 X120.080 Y111.465 E76.16820
G1 X151.967 Y143.352 E79.24262
G1 X152.631 Y143.227 E79.28868
G1 X120.080 Y110.677 E82.42712
G1 X120.080 Y109.888 E82.48090
G1 X153.295 Y143.102 E85.68335
G1 X153.958 Y142.978 E85.72941
G1 X120.080 Y109.099 E88.99588
G1 X120.080 Y108.310 E89.04965
G1 X154.622 Y142.853 E92.38013
G1 X155.286 Y142.728 E92.42619
G1 X120.080 Y107.521 E95.82068
G1 X120.080 Y106.733 E95.87446
G1 X155.950 Y142.603 E99.33297
G1 X156.614 Y142.478 E99.37903
G1 X120.080 Y105.944 E102.90155
G1 X120.080 Y105.155 E102.95532
G1 X157.278 Y142.353 E106.54186
G1 X157.942 Y142.228 E106.58792
G1 X120.080 Y104.366 E110.23846
G1 X120.080 Y103.577 E110.29224
G1 X158.606 Y142.103 E114.00680
G1 X159.270 Y141.979 E114.05286
G1 X120.080 Y102.789 E117.83143
G1 X120.080 Y102.000 E117.88521
G1 X159.934 Y141.854 E121.72779
G1 X160.598 Y141.729 E121.77385
G1 X120.080 Y101.211 E125.68045
G1 X120.080 Y100.422 E125.73423
G1 X161.262 Y141.604 E129.70484
G1 X161.925 Y141.479 E129.75090
G1 X120.080 Y99.633 E133.78552
G1 X120.080 Y98.845 E133.83930
G1 X162.589 Y141.354 E137.93794
G1 X163.253 Y141.229 E137.98400
G1 X120.080 Y98.056 E142.14665
G1 X120.080 Y97.267 E142.20043
G1 X163.917 Y141.104 E146.42709
G1 X164.581 Y140.979 E146.47315
G1 X120.080 Y96.478 E150.76383
G1 X120.080 Y95.689 E150.81761
G1 X165.245 Y140.855 E155.17230
G1 X165.909 Y140.730 E155.21836
G1 X120.080 Y94.900 E159.63706
G1 X120.080 Y94.112 E159.69084
G1 X166.573 Y140.605 E164.17356
G1 X167.237 Y140.480 E164.21962
G1 X120.080 Y93.323 E168.76635
G1 X120.080 Y92.534 E168.82013
G1 X167.901 Y140.355 E173.43087
G1 X168.565 Y140.230 E173.47693
G1 X120.080 Y91.745 E178.15169
G1 X120.080 Y90.956 E178.20547
G1 X169.229 Y140.105 E182.94424
G1 X169.893 Y139.980 E182.99029
G1 X120.080 Y90.168 E187.79308
G1 X120.080 Y89.379 E187.84686
G1 X170.556 Y139.855 E192.71365
G1 X171.220 Y139.731 E192.75971
G1 X120.080 Y88.590 E197.69052
G1 X120.080 Y87.801 E197.74430
G1 X171.884 Y139.606 E202.73913
G1 X172.548 Y139.481 E202.78518
G1 X120.080 Y87.012 E207.84402
G1 X120.080 Y86.224 E207.89780
G1 X173.212 Y139.356 E213.02065
G1 X173.878 Y139.233 E213.06683
G1 X120.080 Y85.435 E218.25391
G1 X120.080 Y84.646 E218.30768
G1 X174.549 Y139.115 E223.55946
G1 X175.220 Y138.998 E223.60591
G1 X120.080 Y83.857 E228.92239
G1 X120.080 Y83.068 E228.97617
G1 X175.891 Y138.880 E234.35735
G1 X176.563 Y138.762 E234.40380
G1 X120.080 Y82.280 E239.84968
G1 X120.080 Y81.491 E239.90346
G1 X177.198 Y138.609 E245.41064
G1 X177.795 Y138.417 E245.45340
G1 X120.080 Y80.702 E251.01815
G1 X120.080 Y79.913 E251.07192
G1 X178.309 Y138.143 E256.68624
G1 X178.775 Y137.819 E256.72487
G1 X117.189 Y76.233 E262.66278
G1 X117.978 Y76.233 E262.71656
G1 X179.199 Y137.454 E268.61930
G1 X179.559 Y137.026 E268.65746
G1 X118.767 Y76.233 E274.51890
G1 X119.555 Y76.233 E274.57268
G1 X179.874 Y136.552 E280.38837
G1 X180.146 Y136.035 E280.42817
G1 X120.623 Y76.512 E286.16724
G1 X121.412 Y76.512 E286.22102
G1 X180.330 Y135.430 E291.90174
G1 X180.440 Y134.751 E291.94862
G1 X121.922 Y76.233 E297.59075
G1 X122.711 Y76.233 E297.64453
G1 X180.488 Y134.011 E303.21522
G1 X180.495 Y133.229 E303.26852
G1 X123.499 Y76.233 E308.76382
G1 X124.288 Y76.233 E308.81760
G1 X180.502 Y132.447 E314.23752
G1 X180.509 Y131.665 E314.29083
G1 X125.077 Y76.233 E319.63536
G1 X125.866 Y76.233 E319.68914
G1 X180.516 Y130.883 E324.95829
G1 X180.518 Y130.096 E325.01193
G1 X126.655 Y76.233 E330.20521
G1 X127.444 Y76.233 E330.25899
G1 X180.518 Y129.307 E335.37622
G1 X180.518 Y128.519 E335.43000
G1 X128.232 Y76.233 E340.47117
G1 X129.021 Y76.234 E340.52495
G1 X180.518 Y127.730 E345.49007
G1 X180.518 Y126.941 E345.54385
G1 X129.810 Y76.234 E350.43291
G1 X130.599 Y76.234 E350.48669
G1 X180.518 Y126.152 E355.29970
G1 X180.518 Y125.363 E355.35347
G1 X131.388 Y76.234 E360.09043
G1 X132.176 Y76.234 E360.14421
G1 X180.518 Y124.575 E364.80510
G1 X180.518 Y123.786 E364.85888
G1 X132.965 Y76.234 E369.44372
G1 X133.754 Y76.234 E369.49750
G1 X180.518 Y122.997 E374.00629
G1 X180.518 Y122.208 E374.06007
G1 X134.543 Y76.234 E378.49280
G1 X135.332 Y76.234 E378.54658
G1 X180.518 Y121.419 E382.90325
G1 X180.518 Y120.631 E382.95703
G1 X136.121 Y76.234 E387.23765
G1 X136.909 Y76.234 E387.29143
G1 X180.518 Y119.842 E391.49600
G1 X180.518 Y119.053 E391.54977
G1 X137.698 Y76.234 E395.67828
G1 X138.487 Y76.234 E395.73206
G1 X180.518 Y118.264 E399.78452
G1 X180.518 Y117.475 E399.83830
G1 X139.276 Y76.234 E403.81470
G1 X140.065 Y76.234 E403.86847
G1 X180.518 Y116.687 E407.76882
G1 X180.518 Y115.898 E407.82260
G1 X140.853 Y76.234 E411.64689
G1 X141.642 Y76.234 E411.70067
G1 X180.518 Y115.109 E415.44890
G1 X180.518 Y114.320 E415.50268
G1 X142.431 Y76.234 E419.17486
G1 X143.220 Y76.234 E419.22863
G1 X180.518 Y113.531 E422.82476
G1 X180.518 Y112.742 E422.87854
G1 X144.009 Y76.234 E426.39860
G1 X144.798 Y76.234 E426.45238
G1 X180.518 Y111.954 E429.89640
G1 X180.518 Y111.165 E429.95017
G1 X145.586 Y76.234 E433.31813
G1 X146.375 Y76.234 E433.37191
G1 X180.518 Y110.376 E436.66381
G1 X180.518 Y109.587 E436.71759
G1 X147.164 Y76.234 E439.93344
G1 X147.953 Y76.234 E439.98722
G1 X180.518 Y108.798 E443.12701
G1 X180.518 Y108.010 E443.18079
G1 X148.742 Y76.234 E446.24452
G1 X149.530 Y76.234 E446.29830
G1 X180.518 Y107.221 E449.28598
G1 X180.518 Y106.432 E449.33976
G1 X150.319 Y76.234 E452.25139
G1 X151.108 Y76.234 E452.30517
G1 X180.518 Y105.643 E455.14074
G1 X180.619 Y104.956 E455.18809
G1 X151.897 Y76.234 E457.95742
G1 X152.686 Y76.234 E458.01120
G1 X180.826 Y104.374 E460.72439
G1 X181.033 Y103.792 E460.76651
G1 X153.475 Y76.234 E463.42357
G1 X154.263 Y76.234 E463.47735
G1 X181.239 Y103.210 E466.07828
G1 X181.446 Y102.627 E466.12040
G1 X155.052 Y76.234 E468.66519
G1 X155.841 Y76.234 E468.71897
G1 X181.652 Y102.045 E471.20763
G1 X181.859 Y101.463 E471.24974
G1 X156.630 Y76.234 E473.68227
G1 X157.419 Y76.234 E473.73605
G1 X182.066 Y100.881 E476.11243
G1 X182.272 Y100.299 E476.15455
G1 X158.207 Y76.234 E478.47481
G1 X158.996 Y76.234 E478.52859
G1 X182.479 Y99.716 E480.79270
G1 X182.685 Y99.134 E480.83482
G1 X159.785 Y76.234 E483.04281
G1 X160.574 Y76.234 E483.09659
G1 X182.892 Y98.552 E485.24844
G1 X183.099 Y97.970 E485.29056
G1 X161.363 Y76.234 E487.38627
G1 X162.151 Y76.234 E487.44005
G1 X183.305 Y97.388 E489.47963
G1 X183.512 Y96.805 E489.52175
G1 X162.940 Y76.234 E491.50520
G1 X163.729 Y76.234 E491.55898
G1 X183.719 Y96.223 E493.48629
G1 X183.925 Y95.641 E493.52841
G1 X164.518 Y76.234 E495.39958
G1 X165.307 Y76.234 E495.45336
G1 X184.132 Y95.059 E497.26841
G1 X184.338 Y94.477 E497.31053
G1 X166.096 Y76.234 E499.06943
G1 X166.884 Y76.234 E499.12321
G1 X184.545 Y93.894 E500.82599
G1 X184.752 Y93.312 E500.86811
G1 X167.673 Y76.234 E502.51475
G1 X168.462 Y76.234 E502.56852
G1 X184.958 Y92.730 E504.15903
G1 X185.165 Y92.148 E504.20115
G1 X169.251 Y76.234 E505.73552
G1 X170.040 Y76.234 E505.78930
G1 X185.371 Y91.566 E507.26753
G1 X185.578 Y90.983 E507.30965
G1 X170.828 Y76.234 E508.73175
G1 X171.617 Y76.234 E508.78553
G1 X185.785 Y90.401 E510.15150
G1 X185.991 Y89.819 E510.19362
G1 X172.406 Y76.234 E511.50345
G1 X173.195 Y76.234 E511.55723
G1 X186.198 Y89.237 E512.81093
