; generated by Slic3r 1.0.0RC2 on 2014-05-17 at 11:45:04

; layer_height = 0.3
; perimeters = 4
; top_solid_layers = 3
; bottom_solid_layers = 3
; fill_density = 0.1
; perimeter_speed = 60
; infill_speed = 60
; travel_speed = 120
; nozzle_diameter = 0.4
; filament_diameter = 1.75
; extrusion_multiplier = 0.98
; perimeters extrusion width = 0.40mm
; infill extrusion width = 0.42mm
; solid infill extrusion width = 0.42mm
; top infill extrusion width = 0.42mm
; first layer extrusion width = 0.80mm

G21 ; set units to millimeters
M107
M104 S220 ; set temperature
G28 ; home all axes
M106 S255;
G1 Z200 F1200 ; lift nozzle
M109 S220 ; wait for temperature to be reached
G90 ; use absolute coordinates
G92 E0
M82 ; use absolute distances for extrusion
G1 F1800.000 E-1.00000
G92 E0
G1 Z0.400 F7200.000
G1 X93.420 Y62.350 F7200.000
G1 E1.00000 F1800.000
G1 X94.260 Y61.330 E1.15379 F1080.000
G1 X104.240 Y51.370 E2.79486
G1 X105.250 Y50.540 E2.94701
G1 X106.400 Y49.920 E3.09907
G1 X107.640 Y49.540 E3.25002
G1 X108.940 Y49.410 E3.40208
G1 X130.640 Y49.290 E5.92778
G1 X143.320 Y49.290 E7.40361
G1 X165.670 Y49.410 E10.00496
G1 X167.320 Y49.620 E10.19855
G1 X168.860 Y50.240 E10.39177
G1 X170.210 Y51.210 E10.58525
G1 X180.200 Y60.530 E12.17542
G1 X180.840 Y61.220 E12.28496
G1 X206.210 Y92.650 E16.98613
G1 X207.030 Y93.930 E17.16306
G1 X207.530 Y95.360 E17.33938
G1 X207.700 Y96.870 E17.51624
G1 X207.710 Y143.910 E22.99122
G1 X207.580 Y145.220 E23.14444
G1 X207.200 Y146.480 E23.29761
G1 X206.580 Y147.650 E23.45173
G1 X205.740 Y148.660 E23.60462
G1 X195.750 Y158.620 E25.24651
G1 X194.740 Y159.450 E25.39866
G1 X193.590 Y160.070 E25.55073
G1 X192.340 Y160.450 E25.70279
G1 X191.050 Y160.580 E25.85369
G1 X169.350 Y160.700 E28.37939
G1 X156.670 Y160.710 E29.85521
G1 X134.320 Y160.580 E32.45657
G1 X132.670 Y160.370 E32.65016
G1 X131.130 Y159.750 E32.84338
G1 X129.780 Y158.780 E33.03687
G1 X119.790 Y149.460 E34.62704
G1 X119.150 Y148.770 E34.73657
G1 X93.780 Y117.340 E39.43775
G1 X92.960 Y116.060 E39.61467
G1 X92.460 Y114.630 E39.79099
G1 X92.290 Y113.120 E39.96785
G1 X92.290 Y66.080 E45.44283
G1 X92.420 Y64.770 E45.59605
G1 X92.800 Y63.510 E45.74923
G1 X93.370 Y62.444 E45.88984
G1 F1800.000 E44.88984
G92 E0
G1 X101.542 Y68.623 F7200.000
G1 E1.00000 F1800.000
G1 X111.529 Y68.623 E2.16232 F1080.000
G1 X111.529 Y58.650 E3.32313
G1 X128.143 Y58.557 E5.25687
G1 X128.143 Y59.864 E5.40898
G1 X123.822 Y67.356 E6.41567
G1 X150.980 Y67.356 E9.57656
G1 X145.828 Y59.763 E10.64452
G1 X145.828 Y58.556 E10.78498
G1 X163.096 Y58.650 E12.79480
G1 X163.096 Y67.991 E13.88193
G1 X173.083 Y67.991 E15.04425
G1 X173.083 Y74.714 E15.82681
G1 X163.096 Y74.714 E16.98913
G1 X163.096 Y103.745 E20.36802
G1 X173.083 Y103.745 E21.53033
G1 X173.083 Y110.494 E22.31579
G1 X163.096 Y110.494 E23.47811
G1 X163.096 Y114.272 E23.91783
G1 X155.567 Y114.272 E24.79417
G1 X155.567 Y89.174 E27.71523
G1 X118.555 Y89.048 E32.02309
G1 X118.555 Y114.283 E34.96018
G1 X111.529 Y114.283 E35.77791
G1 X111.529 Y110.581 E36.20875
G1 X101.542 Y110.581 E37.37107
G1 X101.542 Y103.815 E38.15862
G1 X111.529 Y103.815 E39.32094
G1 X111.529 Y74.789 E42.69930
G1 X101.542 Y74.789 E43.86161
G1 X101.542 Y68.731 E44.56673
G1 X100.828 Y67.909 F7200.000
G1 X110.815 Y67.909 E45.72904 F1080.000
G1 X110.815 Y57.940 E46.88939
G1 X128.857 Y57.839 E48.98937
G1 X128.857 Y60.055 E49.24733
G1 X125.058 Y66.642 E50.13237
G1 X149.632 Y66.642 E52.99254
G1 X145.114 Y59.983 E53.92920
G1 X145.114 Y57.838 E54.17878
G1 X163.810 Y57.940 E56.35484
G1 X163.810 Y67.277 E57.44152
G1 X173.797 Y67.277 E58.60384
G1 X173.797 Y75.429 E59.55264
G1 X163.810 Y75.429 E60.71496
G1 X163.810 Y103.031 E63.92760
G1 X173.797 Y103.031 E65.08992
G1 X173.797 Y111.208 E66.04162
G1 X163.810 Y111.208 E67.20394
G1 X163.810 Y114.986 E67.64366
G1 X154.853 Y114.986 E68.68624
G1 X154.853 Y89.886 E71.60758
G1 X119.269 Y89.765 E75.74920
G1 X119.269 Y114.997 E78.68601
G1 X110.815 Y114.997 E79.66997
G1 X110.815 Y111.296 E80.10082
G1 X100.828 Y111.296 E81.26314
G1 X100.828 Y103.101 E82.21693
G1 X110.815 Y103.101 E83.37925
G1 X110.815 Y75.503 E86.59137
G1 X100.828 Y75.503 E87.75368
G1 X100.828 Y68.016 E88.62504
G1 X100.114 Y67.195 F7200.000
G1 X110.101 Y67.195 E89.78735 F1080.000
G1 X110.101 Y57.230 E90.94724
G1 X129.571 Y57.120 E93.21346
G1 X129.571 Y60.246 E93.57725
G1 X126.295 Y65.928 E94.34067
G1 X148.285 Y65.928 E96.90011
G1 X144.400 Y60.202 E97.70547
G1 X144.400 Y57.120 E98.06415
G1 X164.524 Y57.230 E100.40646
G1 X164.524 Y66.562 E101.49269
G1 X174.511 Y66.562 E102.65501
G1 X174.511 Y76.143 E103.77005
G1 X164.524 Y76.143 E104.93237
G1 X164.524 Y102.317 E107.97877
G1 X174.511 Y102.317 E109.14109
G1 X174.511 Y111.922 E110.25903
G1 X164.524 Y111.922 E111.42135
G1 X164.524 Y115.700 E111.86107
G1 X154.138 Y115.700 E113.06990
G1 X154.138 Y90.598 E115.99152
G1 X119.983 Y90.481 E119.96689
G1 X119.983 Y115.712 E122.90342
G1 X110.101 Y115.712 E124.05363
G1 X110.101 Y112.010 E124.48448
G1 X100.114 Y112.010 E125.64679
G1 X100.114 Y102.387 E126.76683
G1 X110.101 Y102.387 E127.92914
G1 X110.101 Y76.217 E130.97502
G1 X100.114 Y76.217 E132.13734
G1 X100.114 Y67.302 E133.17493
G1 X99.400 Y66.481 F7200.000
G1 X109.386 Y66.481 E134.33725 F756.000
G1 X109.386 Y56.519 E135.49667
G1 X130.285 Y56.402 E137.92914
G1 X130.285 Y60.437 E138.39877
G1 X127.531 Y65.214 E139.04054
G1 X146.937 Y65.214 E141.29927
G1 X143.686 Y60.421 E141.97332
G1 X143.686 Y56.402 E142.44112
G1 X165.239 Y56.519 E144.94967
G1 X165.239 Y65.848 E146.03544
G1 X175.225 Y65.848 E147.19776
G1 X175.225 Y76.857 E148.47905
G1 X165.239 Y76.857 E149.64137
G1 X165.239 Y101.603 E152.52153
G1 X175.225 Y101.603 E153.68384
G1 X175.225 Y112.636 E154.96803
G1 X165.239 Y112.636 E156.13034
G1 X165.239 Y116.414 E156.57007
G1 X153.424 Y116.414 E157.94513
G1 X153.424 Y91.310 E160.86704
G1 X120.697 Y91.198 E164.67617
G1 X120.697 Y116.426 E167.61241
G1 X109.386 Y116.426 E168.92886
G1 X109.386 Y112.724 E169.35971
G1 X99.400 Y112.724 E170.52203
G1 X99.400 Y101.672 E171.80830
G1 X109.386 Y101.672 E172.97062
G1 X109.386 Y76.931 E175.85026
G1 X99.400 Y76.931 E177.01257
G1 X99.400 Y66.588 E178.21641
G1 X100.018 Y66.838 F7200.000
G1 X102.978 Y74.307 F7200.000
G1 X102.024 Y73.354 E178.37471 F1080.000
G1 X102.024 Y72.335 E178.49430
G1 X103.996 Y74.307 E178.82174
G1 X105.015 Y74.307 E178.94134
G1 X102.024 Y71.316 E179.43790
G1 X102.024 Y70.297 E179.55750
G1 X106.034 Y74.307 E180.22321
G1 X107.053 Y74.307 E180.34280
G1 X102.024 Y69.279 E181.17764
G1 X102.869 Y69.105 E181.27894
G1 X108.071 Y74.307 E182.14259
G1 X109.090 Y74.307 E182.26218
G1 X103.888 Y69.105 E183.12583
G1 X104.907 Y69.105 E183.24543
G1 X110.109 Y74.307 E184.10908
G1 X111.127 Y74.307 F7200.000
G1 X105.926 Y69.105 E184.97273 F1080.000
G1 X106.944 Y69.105 E185.09232
G1 X126.433 Y88.593 E188.32789
G1 X127.455 Y88.597 E188.44790
G1 X107.963 Y69.105 E191.68405
G1 X108.982 Y69.105 E191.80365
G1 X128.477 Y88.600 E195.04038
G1 X129.499 Y88.604 E195.16038
G1 X110.000 Y69.105 E198.39769
G1 X111.019 Y69.105 E198.51729
G1 X130.521 Y88.607 E201.75517
G1 X131.544 Y88.611 E201.87518
G1 X112.011 Y69.078 E205.11818
G1 X112.011 Y68.059 E205.23778
G1 X132.566 Y88.614 E208.65050
G1 X133.588 Y88.618 E208.77050
G1 X112.011 Y67.040 E212.35293
G1 X112.011 Y66.022 E212.47253
G1 X134.610 Y88.621 E216.22468
G1 X135.632 Y88.625 E216.34468
G1 X112.011 Y65.003 E220.26654
G1 X112.011 Y63.984 E220.38614
G1 X136.655 Y88.628 E224.47771
G1 X137.677 Y88.632 E224.59772
G1 X112.011 Y62.965 E228.85901
G1 X112.011 Y61.947 E228.97861
G1 X138.699 Y88.635 E233.40961
G1 X139.721 Y88.639 E233.52961
G1 X112.011 Y60.928 E238.13033
G1 X112.011 Y59.909 E238.24993
G1 X140.744 Y88.642 E243.02036
G1 X141.766 Y88.646 E243.14037
G1 X112.248 Y59.128 E248.04115
G1 X113.261 Y59.122 E248.16008
G1 X142.788 Y88.649 E253.06239
G1 X143.810 Y88.653 E253.18240
G1 X114.274 Y59.116 E258.08622
G1 X115.287 Y59.111 E258.20516
G1 X123.364 Y67.187 E259.54610
G1 X123.736 Y66.541 E259.63367
G1 X116.300 Y59.105 E260.86828
G1 X117.313 Y59.099 E260.98721
G1 X124.109 Y65.895 E262.11550
G1 X124.481 Y65.249 E262.20306
G1 X118.326 Y59.094 E263.22502
G1 X119.339 Y59.088 E263.34395
G1 X124.854 Y64.603 E264.25957
G1 X125.227 Y63.957 E264.34713
G1 X120.352 Y59.082 E265.15643
G1 X121.365 Y59.076 E265.27536
G1 X125.599 Y63.311 E265.97832
G1 X125.972 Y62.664 E266.06588
G1 X122.378 Y59.071 E266.66251
G1 X123.391 Y59.065 E266.78144
G1 X126.344 Y62.018 E267.27174
G1 X126.717 Y61.372 E267.35930
G1 X124.404 Y59.059 E267.74327
G1 X125.417 Y59.054 E267.86220
G1 X127.090 Y60.726 E268.13984
G1 X127.462 Y60.080 E268.22740
G1 X126.430 Y59.048 E268.39871
G1 X127.443 Y59.042 E268.51764
G1 X127.661 Y59.260 E268.55380
G1 X128.089 Y67.838 F7200.000
G1 X148.921 Y88.670 E272.01245 F1080.000
G1 X149.943 Y88.674 E272.13246
G1 X129.108 Y67.838 E275.59170
G1 X130.127 Y67.838 E275.71129
G1 X150.966 Y88.677 E279.17111
G1 X151.988 Y88.681 E279.29111
G1 X131.145 Y67.838 E282.75151
G1 X132.164 Y67.838 E282.87110
G1 X153.010 Y88.684 E286.33208
G1 X154.032 Y88.687 E286.45208
G1 X133.183 Y67.838 E289.91363
G1 X134.202 Y67.838 E290.03323
G1 X155.054 Y88.691 E293.49536
G1 X156.048 Y89.685 F7200.000
G1 X162.614 Y96.251 E294.58548 F1080.000
G1 X162.614 Y95.232 E294.70507
G1 X135.220 Y67.838 E299.25322
G1 X136.239 Y67.838 E299.37281
G1 X162.614 Y94.213 E303.75182
G1 X162.614 Y93.195 E303.87141
G1 X137.258 Y67.838 E308.08128
G1 X138.277 Y67.838 E308.20088
G1 X162.614 Y92.176 E312.24162
G1 X162.614 Y91.157 E312.36121
G1 X139.295 Y67.838 E316.23281
G1 X140.314 Y67.838 E316.35241
G1 X162.614 Y90.139 E320.05487
G1 X162.614 Y89.120 E320.17447
G1 X141.333 Y67.838 E323.70780
G1 X142.351 Y67.838 E323.82740
G1 X162.614 Y88.101 E327.19159
G1 X162.614 Y87.082 E327.31119
G1 X143.370 Y67.838 E330.50624
G1 X144.389 Y67.838 E330.62584
G1 X162.614 Y86.064 E333.65176
G1 X162.614 Y85.045 E333.77136
G1 X145.408 Y67.838 E336.62815
G1 X146.426 Y67.838 E336.74774
G1 X162.614 Y84.026 E339.43540
G1 X162.614 Y83.007 E339.55499
G1 X147.445 Y67.838 E342.07351
G1 X148.464 Y67.838 E342.19311
G1 X162.614 Y81.989 E344.54249
G1 X162.614 Y80.970 E344.66208
G1 X149.482 Y67.838 E346.84233
G1 X150.501 Y67.838 E346.96193
G1 X162.614 Y79.951 E348.97304
G1 X162.614 Y78.933 E349.09263
G1 X151.520 Y67.838 E350.93461
G1 X150.518 Y65.817 F7200.000
G1 X162.614 Y77.914 E352.94297 F1080.000
G1 X162.614 Y76.895 E353.06256
G1 X148.368 Y62.649 E355.42776
G1 X148.849 Y59.055 F7200.000
G1 X164.027 Y74.233 E357.94773 F1080.000
G1 X165.046 Y74.233 E358.06733
G1 X149.873 Y59.060 E360.58638
G1 X150.897 Y59.066 E360.70663
G1 X166.064 Y74.233 E363.22475
G1 X167.083 Y74.233 E363.34435
G1 X151.922 Y59.071 E365.86154
G1 X152.946 Y59.077 E365.98179
G1 X168.102 Y74.233 E368.49806
G1 X169.120 Y74.233 E368.61766
G1 X163.360 Y68.472 E369.57401
G1 X164.379 Y68.472 E369.69360
G1 X170.139 Y74.233 E370.64995
G1 X171.158 Y74.233 E370.76955
G1 X165.398 Y68.472 E371.72589
G1 X166.416 Y68.472 E371.84549
G1 X172.177 Y74.233 E372.80183
G1 X172.601 Y73.638 E372.88758
G1 X167.435 Y68.472 E373.74521
G1 X168.454 Y68.472 E373.86480
G1 X172.601 Y72.619 E374.55330
G1 X172.601 Y71.601 E374.67290
G1 X169.473 Y68.472 E375.19226
G1 X170.491 Y68.472 E375.31185
G1 X172.601 Y70.582 E375.66208
G1 X172.601 Y69.563 E375.78167
G1 X171.510 Y68.472 E375.96276
G1 X172.529 Y68.472 E376.08236
G1 X172.601 Y68.544 E376.09431
G1 X162.614 Y67.727 F7200.000
G1 X153.970 Y59.082 E377.52947 F1080.000
G1 X154.995 Y59.088 E377.64973
G1 X162.614 Y66.708 E378.91483
G1 X162.614 Y65.689 E379.03443
G1 X156.019 Y59.094 E380.12947
G1 X157.043 Y59.099 E380.24972
G1 X162.614 Y64.670 E381.17470
G1 X162.614 Y63.652 E381.29430
G1 X158.067 Y59.105 E382.04922
G1 X159.092 Y59.110 E382.16947
G1 X162.614 Y62.633 E382.75433
G1 X162.614 Y61.614 E382.87393
G1 X160.116 Y59.116 E383.28873
G1 X161.140 Y59.121 E383.40898
G1 X162.614 Y60.595 E383.65372
G1 X162.614 Y59.577 E383.77332
G1 X162.165 Y59.127 E383.84800
G1 X147.824 Y59.049 F7200.000
G1 X163.008 Y74.233 E386.36889 F1080.000
G1 X162.614 Y74.858 E386.45561
G1 X146.800 Y59.043 E389.08120
G1 X146.310 Y59.572 E389.16583
G1 X162.614 Y75.876 E391.87277
G1 X156.048 Y90.704 F7200.000
G1 X162.614 Y97.270 E392.96289 F1080.000
G1 X162.614 Y98.288 E393.08249
G1 X156.048 Y91.722 E394.17260
G1 X156.048 Y92.741 E394.29220
G1 X162.614 Y99.307 E395.38232
G1 X162.614 Y100.326 E395.50192
G1 X156.048 Y93.760 E396.59203
G1 X156.048 Y94.779 E396.71163
G1 X162.614 Y101.345 E397.80175
G1 X162.614 Y102.363 E397.92134
G1 X156.048 Y95.797 E399.01146
G1 X156.048 Y96.816 E399.13106
G1 X162.614 Y103.382 E400.22118
G1 X163.459 Y104.227 F7200.000
G1 X169.244 Y110.012 E401.18165 F1080.000
G1 X170.263 Y110.012 E401.30125
G1 X164.478 Y104.227 E402.26172
G1 X165.497 Y104.227 E402.38132
G1 X171.282 Y110.012 E403.34179
G1 X172.301 Y110.012 E403.46138
G1 X166.515 Y104.227 E404.42186
G1 X167.534 Y104.227 E404.54145
G1 X172.601 Y109.293 E405.38265
G1 X172.601 Y108.275 E405.50225
G1 X168.553 Y104.227 E406.17431
G1 X169.572 Y104.227 E406.29390
G1 X172.601 Y107.256 E406.79683
G1 X172.601 Y106.237 E406.91642
G1 X170.590 Y104.227 E407.25021
G1 X171.609 Y104.227 E407.36981
G1 X172.601 Y105.219 E407.53446
G1 X168.226 Y110.012 F7200.000
G1 X156.048 Y97.835 E409.55619 F1080.000
G1 X156.048 Y98.853 E409.67579
G1 X167.207 Y110.012 E411.52838
G1 X166.188 Y110.012 E411.64797
G1 X156.048 Y99.872 E413.33143
G1 X156.048 Y100.891 E413.45103
G1 X165.169 Y110.012 E414.96535
G1 X164.151 Y110.012 E415.08494
G1 X156.048 Y101.910 E416.43013
G1 X156.048 Y102.928 E416.54972
G1 X163.132 Y110.012 E417.72577
G1 X162.614 Y110.513 E417.81035
G1 X156.048 Y103.947 E418.90047
G1 X156.048 Y104.966 E419.02007
G1 X162.614 Y111.532 E420.11018
G1 X162.614 Y112.551 E420.22978
G1 X156.048 Y105.985 E421.31990
G1 X156.048 Y107.003 E421.43950
G1 X162.614 Y113.569 E422.52961
G1 X161.816 Y113.790 E422.62682
G1 X156.048 Y108.022 E423.58444
G1 X156.048 Y109.041 E423.70404
G1 X160.798 Y113.790 E424.49252
G1 X159.779 Y113.790 E424.61212
G1 X156.048 Y110.059 E425.23146
G1 X156.048 Y111.078 E425.35106
G1 X158.760 Y113.790 E425.80127
G1 X157.741 Y113.790 E425.92087
G1 X156.048 Y112.097 E426.20195
G1 X156.048 Y113.116 E426.32154
G1 X156.723 Y113.790 E426.43348
G1 F1800.000 E425.43348
G92 E0
G1 X147.899 Y88.667 F7200.000
G1 E1.00000 F1800.000
G1 X127.071 Y67.838 E4.45808 F1080.000
G1 X126.052 Y67.838 E4.57768
G1 X146.877 Y88.663 E8.03518
G1 X145.855 Y88.660 E8.15518
G1 X125.033 Y67.838 E11.61210
G1 X124.014 Y67.838 E11.73170
G1 X144.832 Y88.656 E15.18804
G1 X112.011 Y75.190 F7200.000
G1 X125.410 Y88.590 E17.41276 F1080.000
G1 X124.388 Y88.586 E17.53277
G1 X112.011 Y76.209 E19.58777
G1 X112.011 Y77.228 E19.70737
G1 X123.366 Y88.583 E21.59266
G1 X122.344 Y88.579 E21.71266
G1 X112.011 Y78.246 E23.42824
G1 X112.011 Y79.265 E23.54784
G1 X121.322 Y88.576 E25.09370
G1 X120.299 Y88.572 E25.21371
G1 X112.011 Y80.284 E26.58985
G1 X112.011 Y81.302 E26.70945
G1 X119.277 Y88.569 E27.91588
G1 X118.255 Y88.566 E28.03589
G1 X112.011 Y82.321 E29.07261
G1 X112.011 Y83.340 E29.19221
G1 X118.073 Y89.402 E30.19871
G1 X118.073 Y90.421 E30.31831
G1 X112.011 Y84.359 E31.32481
G1 X112.011 Y85.377 E31.44441
G1 X118.073 Y91.440 E32.45091
G1 X118.073 Y92.458 E32.57051
G1 X112.011 Y86.396 E33.57701
G1 X112.011 Y87.415 E33.69661
G1 X118.073 Y93.477 E34.70311
G1 X118.073 Y94.496 E34.82271
G1 X112.011 Y88.434 E35.82921
G1 X112.011 Y89.452 E35.94881
G1 X118.073 Y95.515 E36.95531
G1 X118.073 Y96.533 E37.07491
G1 X112.011 Y90.471 E38.08141
G1 X112.011 Y91.490 E38.20101
G1 X118.073 Y97.552 E39.20751
G1 X118.073 Y98.571 E39.32710
G1 X112.011 Y92.508 E40.33361
G1 X112.011 Y93.527 E40.45320
G1 X118.073 Y99.590 E41.45971
G1 X118.073 Y100.608 E41.57930
G1 X112.011 Y94.546 E42.58581
G1 X112.011 Y95.565 E42.70540
G1 X118.073 Y101.627 E43.71191
G1 X118.073 Y102.646 E43.83150
G1 X112.011 Y96.583 E44.83800
G1 X112.011 Y97.602 E44.95760
G1 X118.073 Y103.664 E45.96410
G1 X118.073 Y104.683 E46.08370
G1 X112.011 Y98.621 E47.09020
G1 X112.011 Y99.640 E47.20980
G1 X118.073 Y105.702 E48.21630
G1 X118.073 Y106.721 E48.33590
G1 X112.011 Y100.658 E49.34240
G1 X112.011 Y101.677 E49.46200
