; generated by Slic3r 1.0.0RC2 on 2014-05-16 at 10:27:37

; layer_height = 0.3
; perimeters = 4
; top_solid_layers = 3
; bottom_solid_layers = 3
; fill_density = 0.1
; perimeter_speed = 60
; infill_speed = 60
; travel_speed = 120
; nozzle_diameter = 0.4
; filament_diameter = 1.75
; extrusion_multiplier = 0.98
; perimeters extrusion width = 0.40mm
; infill extrusion width = 0.42mm
; solid infill extrusion width = 0.42mm
; top infill extrusion width = 0.42mm
; first layer extrusion width = 0.80mm

G21 ; set units to millimeters
M107
M104 S220 ; set temperature
G28 ; home all axes
M106 S255;
G1 Z200 F1200 ; lift nozzle
M109 S220 ; wait for temperature to be reached
G90 ; use absolute coordinates
G92 E0
M82 ; use absolute distances for extrusion
G1 F1800.000 E-1.00000
G92 E0
G1 Z0.400 F7200.000
G1 X94.100 Y51.440 F7200.000
G1 E1.00000 F1800.000
G1 X94.930 Y50.410 E1.15396 F1080.000
G1 X95.950 Y49.570 E1.30775
G1 X97.120 Y48.940 E1.46242
G1 X98.390 Y48.550 E1.61704
G1 X99.710 Y48.420 E1.77142
G1 X180.210 Y48.420 E11.14081
G1 X181.720 Y48.590 E11.31767
G1 X183.150 Y49.090 E11.49398
G1 X184.430 Y49.910 E11.67091
G1 X185.500 Y50.990 E11.84786
G1 X186.290 Y52.290 E12.02491
G1 X206.310 Y95.180 E17.53392
G1 X212.920 Y110.340 E19.45882
G1 X213.340 Y111.660 E19.62004
G1 X213.480 Y113.040 E19.78149
G1 X213.400 Y146.760 E23.70616
G1 X213.250 Y148.150 E23.86888
G1 X212.820 Y149.480 E24.03157
G1 X212.120 Y150.690 E24.19427
G1 X211.180 Y151.730 E24.35743
G1 X210.050 Y152.560 E24.52062
G1 X208.770 Y153.120 E24.68323
G1 X207.400 Y153.420 E24.84647
G1 X130.580 Y161.550 E33.83747
G1 X129.270 Y161.560 E33.98994
G1 X127.990 Y161.320 E34.14152
G1 X126.780 Y160.830 E34.29346
G1 X125.690 Y160.120 E34.44486
G1 X124.750 Y159.220 E34.59633
G1 X124.010 Y158.140 E34.74871
G1 X87.370 Y92.540 E43.49411
G1 X86.730 Y90.960 E43.69252
G1 X86.520 Y89.270 E43.89073
G1 X86.520 Y71.210 E45.99273
G1 X86.640 Y69.930 E46.14237
G1 X87.000 Y68.700 E46.29153
G1 X93.480 Y52.620 E48.30933
G1 X94.050 Y51.535 E48.45201
G1 F1800.000 E47.45201
G92 E0
G1 X111.392 Y64.595 F7200.000
G1 E1.00000 F1800.000
G1 X121.229 Y66.386 E2.16373 F540.000
G1 X119.948 Y72.556 E2.89712
G1 X110.300 Y70.603 E4.04274
G1 X111.373 Y64.700 E4.74107
G1 X111.967 Y65.425 F7200.000
G1 X120.381 Y66.958 E5.73646 F540.000
G1 X119.393 Y71.715 E6.30195
G1 X111.128 Y70.042 E7.28340
G1 X111.948 Y65.531 E7.81709
G1 X112.095 Y64.723 F7200.000
G1 F1800.000 E6.81709
G92 E0
G1 X117.243 Y74.069 F7200.000
G1 E1.00000 F1800.000
G1 X117.217 Y83.975 E2.15287 F1080.000
G1 X103.057 Y83.960 E3.80095
G1 X103.097 Y74.055 E4.95382
G1 X117.136 Y74.069 E6.58785
G1 X116.527 Y74.783 F7200.000
G1 X116.505 Y83.260 E7.57448 F756.000
G1 X103.774 Y83.247 E9.05620
G1 X103.808 Y74.770 E10.04283
G1 X116.420 Y74.783 E11.51073
G1 X117.241 Y74.784 F7200.000
G1 X137.509 Y75.313 F7200.000
G1 X137.520 Y72.625 E11.82357 F1080.000
G1 X154.521 Y72.643 E13.80233
G1 X154.491 Y83.897 E15.11223
G1 X158.061 Y82.814 E15.54634
G1 X162.040 Y82.422 E16.01175
G1 X166.019 Y82.814 E16.47715
G1 X169.846 Y83.975 E16.94255
G1 X173.372 Y85.860 E17.40796
G1 X176.463 Y88.397 E17.87336
G1 X179.000 Y91.488 E18.33876
G1 X180.885 Y95.014 E18.80417
G1 X182.046 Y98.841 E19.26957
G1 X182.438 Y102.820 E19.73497
G1 X182.046 Y106.799 E20.20037
G1 X180.885 Y110.626 E20.66578
G1 X179.000 Y114.152 E21.13117
G1 X176.463 Y117.243 E21.59658
G1 X173.372 Y119.780 E22.06198
G1 X169.846 Y121.665 E22.52739
G1 X166.019 Y122.826 E22.99279
G1 X162.040 Y123.218 E23.45819
G1 X158.061 Y122.826 E23.92359
G1 X154.234 Y121.665 E24.38899
G1 X150.708 Y119.780 E24.85439
G1 X147.617 Y117.243 E25.31979
G1 X145.080 Y114.152 E25.78520
G1 X143.195 Y110.626 E26.25060
G1 X142.034 Y106.799 E26.71600
G1 X141.642 Y102.820 E27.18140
G1 X142.034 Y98.841 E27.64680
G1 X143.195 Y95.014 E28.11220
G1 X145.080 Y91.488 E28.57761
G1 X147.617 Y88.397 E29.04301
G1 X151.267 Y85.401 E29.59259
G1 X137.469 Y85.387 E31.19853
G1 X137.509 Y75.420 E32.35856
G1 X138.223 Y75.316 F7200.000
G1 X138.231 Y73.340 E32.58854 F1080.000
G1 X153.805 Y73.356 E34.40116
G1 X153.775 Y84.690 E35.72027
G1 X138.186 Y84.674 E37.53471
G1 X138.223 Y75.423 E38.61138
G1 X138.938 Y75.319 F7200.000
G1 X138.943 Y74.055 E38.75848 F1080.000
G1 X153.089 Y74.069 E40.40498
G1 X153.063 Y83.975 E41.55785
G1 X138.903 Y83.960 E43.20593
G1 X138.937 Y75.426 E44.19923
G1 X139.652 Y75.322 F7200.000
G1 X139.654 Y74.770 E44.26346 F756.000
G1 X152.373 Y74.783 E45.74383
G1 X152.351 Y83.260 E46.73045
G1 X139.620 Y83.247 E48.21218
G1 X139.651 Y75.429 E49.12211
G1 X139.175 Y75.044 F7200.000
G1 X139.341 Y83.847 F7200.000
G1 X152.525 Y86.637 F7200.000
G1 X148.317 Y88.746 F7200.000
G1 X151.106 Y86.457 E49.54206 F1080.000
G1 X154.509 Y84.638 E49.99109
G1 X158.201 Y83.518 E50.44011
G1 X162.040 Y83.140 E50.88915
G1 X165.879 Y83.518 E51.33818
G1 X169.571 Y84.638 E51.78720
G1 X172.974 Y86.457 E52.23624
G1 X175.956 Y88.904 E52.68527
G1 X178.403 Y91.886 E53.13430
G1 X180.222 Y95.289 E53.58333
G1 X181.342 Y98.981 E54.03235
G1 X181.720 Y102.820 E54.48139
G1 X181.342 Y106.659 E54.93041
G1 X180.222 Y110.351 E55.37944
G1 X178.403 Y113.754 E55.82847
G1 X175.956 Y116.736 E56.27749
G1 X172.974 Y119.183 E56.72653
G1 X169.571 Y121.002 E57.17556
G1 X165.879 Y122.122 E57.62459
G1 X162.040 Y122.500 E58.07361
G1 X158.201 Y122.122 E58.52264
G1 X154.509 Y121.002 E58.97167
G1 X151.106 Y119.183 E59.42069
G1 X148.124 Y116.736 E59.86973
G1 X145.677 Y113.754 E60.31876
G1 X143.858 Y110.351 E60.76778
G1 X142.738 Y106.659 E61.21681
G1 X142.360 Y102.820 E61.66584
G1 X142.738 Y98.981 E62.11487
G1 X143.858 Y95.289 E62.56390
G1 X145.677 Y91.886 E63.01293
G1 X148.124 Y88.904 E63.46196
G1 X148.234 Y88.814 E63.47857
G1 X148.632 Y89.412 F7200.000
G1 X151.505 Y87.053 E63.91122 F1080.000
G1 X154.783 Y85.301 E64.34388
G1 X158.341 Y84.222 E64.77653
G1 X162.040 Y83.858 E65.20919
G1 X165.739 Y84.222 E65.64184
G1 X169.297 Y85.301 E66.07450
G1 X172.575 Y87.053 E66.50716
G1 X175.449 Y89.412 E66.93981
G1 X177.807 Y92.285 E67.37247
G1 X179.559 Y95.563 E67.80513
G1 X180.638 Y99.121 E68.23778
G1 X181.003 Y102.820 E68.67044
G1 X180.638 Y106.519 E69.10309
G1 X179.559 Y110.077 E69.53575
G1 X177.807 Y113.355 E69.96840
G1 X175.449 Y116.229 E70.40105
G1 X172.575 Y118.587 E70.83371
G1 X169.297 Y120.339 E71.26637
G1 X165.739 Y121.418 E71.69903
G1 X162.040 Y121.782 E72.13168
G1 X158.341 Y121.418 E72.56433
G1 X154.783 Y120.339 E72.99699
G1 X151.505 Y118.587 E73.42964
G1 X148.632 Y116.229 E73.86230
G1 X146.273 Y113.355 E74.29496
G1 X144.521 Y110.077 E74.72761
G1 X143.442 Y106.519 E75.16026
G1 X143.078 Y102.820 E75.59292
G1 X143.442 Y99.121 E76.02558
G1 X144.521 Y95.563 E76.45823
G1 X146.273 Y92.285 E76.89088
G1 X148.564 Y89.494 E77.31107
G1 X149.139 Y89.919 F7200.000
G1 X151.904 Y87.650 E77.72736 F756.000
G1 X155.058 Y85.964 E78.14364
G1 X158.481 Y84.926 E78.55992
G1 X162.040 Y84.575 E78.97620
G1 X165.599 Y84.926 E79.39249
G1 X169.022 Y85.964 E79.80877
G1 X172.176 Y87.650 E80.22505
G1 X174.941 Y89.919 E80.64134
G1 X177.210 Y92.684 E81.05762
G1 X178.896 Y95.838 E81.47390
G1 X179.934 Y99.261 E81.89018
G1 X180.285 Y102.820 E82.30647
G1 X179.934 Y106.379 E82.72275
G1 X178.896 Y109.802 E83.13903
G1 X177.210 Y112.956 E83.55531
G1 X174.941 Y115.721 E83.97159
G1 X172.176 Y117.990 E84.38788
G1 X169.022 Y119.676 E84.80416
G1 X165.599 Y120.714 E85.22044
G1 X162.040 Y121.065 E85.63672
G1 X158.481 Y120.714 E86.05300
G1 X155.058 Y119.676 E86.46928
G1 X151.904 Y117.990 E86.88556
G1 X149.139 Y115.721 E87.30185
G1 X146.870 Y112.956 E87.71813
G1 X145.184 Y109.802 E88.13441
G1 X144.146 Y106.379 E88.55069
G1 X143.795 Y102.820 E88.96698
G1 X144.146 Y99.261 E89.38326
G1 X145.184 Y95.838 E89.79954
G1 X146.870 Y92.684 E90.21582
G1 X149.071 Y90.002 E90.61964
G1 X148.977 Y89.223 F7200.000
G1 X132.423 Y89.400 F7200.000
G1 X132.373 Y86.728 E90.93077 F1080.000
G1 X95.772 Y86.728 E95.19073
G1 X95.772 Y71.709 E96.93871
G1 X101.427 Y57.680 E98.69926
G1 X106.856 Y57.680 E99.33115
G1 X106.891 Y58.967 E99.48100
G1 X103.122 Y64.703 E100.27977
G1 X109.921 Y64.702 E101.07104
G1 X108.645 Y71.726 E101.90188
G1 X110.587 Y72.119 E102.13249
G1 X110.535 Y72.634 E102.19281
G1 X101.674 Y72.625 E103.22406
G1 X101.623 Y85.387 E104.70941
G1 X118.642 Y85.404 E106.69021
G1 X118.673 Y73.755 E108.04612
G1 X121.057 Y74.237 E108.32930
G1 X123.037 Y64.702 E109.46280
G1 X126.342 Y64.702 E109.84752
G1 X121.932 Y58.765 E110.70826
G1 X121.905 Y57.680 E110.83465
G1 X142.075 Y57.680 E113.18218
G1 X142.109 Y58.967 E113.33204
G1 X138.341 Y64.703 E114.13081
G1 X161.561 Y64.702 E116.83342
G1 X157.150 Y58.765 E117.69417
G1 X157.124 Y57.680 E117.82056
G1 X177.932 Y57.675 E120.24238
G1 X178.517 Y63.151 E120.88338
G1 X177.995 Y63.187 E120.94427
G1 X171.684 Y59.404 E121.80067
G1 X173.935 Y82.475 E124.49859
G1 X179.280 Y78.189 E125.29594
G1 X180.309 Y78.121 E125.41597
G1 X181.578 Y83.992 E126.11507
G1 X191.227 Y86.567 E127.27742
G1 X197.944 Y99.130 E128.93560
G1 X203.838 Y112.659 E130.65315
G1 X197.899 Y120.337 E131.78290
G1 X199.045 Y125.253 E132.37044
G1 X198.071 Y125.603 E132.49097
G1 X191.519 Y123.863 E133.27988
G1 X197.850 Y142.777 E135.60129
G1 X179.986 Y139.967 E137.70597
G1 X173.464 Y138.502 E138.48402
G1 X154.179 Y144.539 E140.83603
G1 X153.761 Y143.321 E140.98588
G1 X155.640 Y136.720 E141.78465
G1 X133.484 Y143.670 E144.48726
G1 X139.469 Y148.015 E145.34801
G1 X139.819 Y149.043 E145.47440
G1 X132.422 Y151.387 E146.37759
G1 X132.431 Y130.779 E148.77619
G1 X134.934 Y127.892 E149.22085
G1 X137.252 Y123.555 E149.79322
G1 X138.669 Y118.882 E150.36156
G1 X139.148 Y114.023 E150.92988
G1 X138.669 Y109.163 E151.49822
G1 X137.252 Y104.490 E152.06655
G1 X134.950 Y100.184 E152.63488
G1 X132.571 Y97.285 E153.07131
G1 X132.425 Y89.508 E153.97675
G1 X131.709 Y89.414 F7200.000
G1 X131.672 Y87.442 E154.20631 F1080.000
G1 X95.058 Y87.442 E158.46781
G1 X95.058 Y71.571 E160.31503
G1 X100.945 Y56.966 E162.14782
G1 X107.552 Y56.966 E162.91677
G1 X107.610 Y59.172 E163.17364
G1 X104.446 Y63.988 E163.84440
G1 X110.776 Y63.988 E164.58118
G1 X109.472 Y71.165 E165.43012
G1 X117.753 Y72.840 E166.41343
G1 X117.701 Y73.356 E166.47376
G1 X102.386 Y73.340 E168.25631
G1 X102.340 Y84.674 E169.57542
G1 X117.930 Y84.690 E171.38986
G1 X117.961 Y72.882 E172.76413
G1 X120.502 Y73.396 E173.06596
G1 X122.077 Y65.815 E173.96724
G1 X114.973 Y64.521 E174.80766
G1 X115.021 Y63.988 E174.86994
G1 X124.922 Y63.988 E176.02236
G1 X121.224 Y59.009 E176.74418
G1 X121.173 Y56.966 E176.98213
G1 X142.770 Y56.966 E179.49580
G1 X142.829 Y59.172 E179.75267
G1 X139.664 Y63.988 E180.42343
G1 X160.141 Y63.988 E182.80667
G1 X156.442 Y59.009 E183.52849
G1 X156.392 Y56.966 E183.76644
G1 X178.573 Y56.960 E186.34815
G1 X179.306 Y63.813 E187.15035
G1 X177.820 Y63.914 E187.32371
G1 X172.532 Y60.745 E188.04124
G1 X174.518 Y81.092 E190.42066
G1 X179.008 Y77.491 E191.09060
G1 X180.876 Y77.368 E191.30852
G1 X182.184 Y83.414 E192.02854
G1 X191.711 Y85.956 E193.17618
G1 X198.588 Y98.819 E194.87377
G1 X204.661 Y112.762 E196.64387
G1 X198.671 Y120.505 E197.78332
G1 X199.885 Y125.710 E198.40539
G1 X198.102 Y126.350 E198.62586
G1 X192.617 Y124.894 E199.28638
G1 X198.900 Y143.666 E201.59034
G1 X179.852 Y140.669 E203.83455
G1 X173.494 Y139.241 E204.59300
G1 X153.729 Y145.428 E207.00360
G1 X153.013 Y143.341 E207.26047
G1 X154.591 Y137.798 E207.93123
G1 X135.053 Y143.927 E210.31447
G1 X140.072 Y147.570 E211.03628
G1 X140.732 Y149.505 E211.27423
G1 X136.525 Y150.824 E211.78736
G1 X131.707 Y152.365 E212.37606
G1 X131.717 Y130.512 E214.91958
G1 X134.342 Y127.485 E215.38591
G1 X136.589 Y123.280 E215.94077
G1 X137.966 Y118.742 E216.49273
G1 X138.430 Y114.023 E217.04468
G1 X137.966 Y109.303 E217.59664
G1 X136.589 Y104.765 E218.14860
G1 X134.353 Y100.583 E218.70056
G1 X131.862 Y97.547 E219.15767
G1 X131.711 Y89.521 E220.09197
G1 X143.236 Y103.259 F7200.000
G1 X137.418 Y115.854 F7200.000
G1 X197.951 Y144.355 F7200.000
G1 X203.098 Y139.772 F7200.000
G1 X203.677 Y143.694 E220.55345 F540.000
G1 X200.631 Y143.215 E220.91235
G1 X203.035 Y139.859 E221.39283
G1 X202.597 Y139.244 F7200.000
G1 X203.684 Y138.859 E221.52705 F540.000
G1 X204.526 Y144.551 E222.19673
G1 X199.376 Y143.741 E222.80346
G1 X202.535 Y139.331 E223.43479
G1 X202.148 Y138.646 F7200.000
G1 X204.264 Y137.896 E223.69613 F1080.000
G1 X205.374 Y145.407 E224.57986
G1 X179.719 Y141.371 E227.60267
G1 X173.525 Y139.980 E228.34152
G1 X153.279 Y146.318 E230.81071
G1 X152.264 Y143.361 E231.17459
G1 X153.541 Y138.876 E231.71735
G1 X136.622 Y144.183 E233.78122
G1 X140.675 Y147.125 E234.36410
G1 X141.644 Y149.967 E234.71361
G1 X136.741 Y151.505 E235.31169
G1 X130.993 Y153.344 E236.01408
G1 X131.003 Y130.245 E238.70250
G1 X133.750 Y127.077 E239.19050
G1 X135.926 Y123.006 E239.72785
G1 X137.262 Y118.602 E240.26344
G1 X137.713 Y114.023 E240.79902
G1 X137.262 Y109.443 E241.33461
G1 X135.926 Y105.040 E241.87019
G1 X133.757 Y100.981 E242.40578
G1 X131.153 Y97.808 E242.88356
G1 X130.971 Y88.156 E244.00718
G1 X94.344 Y88.156 E248.27022
G1 X94.344 Y71.432 E250.21669
G1 X100.463 Y56.251 E252.12171
G1 X108.247 Y56.251 E253.02773
G1 X108.330 Y59.377 E253.39161
G1 X105.770 Y63.274 E253.93436
G1 X123.502 Y63.274 E255.99823
G1 X120.515 Y59.254 E256.58111
G1 X120.441 Y56.251 E256.93063
G1 X143.466 Y56.251 E259.61044
G1 X143.549 Y59.377 E259.97432
G1 X140.988 Y63.274 E260.51707
G1 X158.720 Y63.274 E262.58094
G1 X155.734 Y59.254 E263.16382
G1 X155.660 Y56.251 E263.51334
G1 X179.215 Y56.245 E266.25494
G1 X180.096 Y64.476 E267.21833
G1 X177.645 Y64.642 E267.50416
G1 X173.381 Y62.086 E268.08283
G1 X175.100 Y79.710 E270.14375
G1 X178.737 Y76.794 E270.68627
G1 X181.444 Y76.615 E271.00208
G1 X182.790 Y82.837 E271.74303
G1 X192.194 Y85.346 E272.87595
G1 X199.231 Y98.507 E274.61295
G1 X205.485 Y112.864 E276.43561
G1 X199.444 Y120.674 E277.58477
G1 X200.725 Y126.168 E278.24136
G1 X198.134 Y127.097 E278.56177
G1 X193.715 Y125.924 E279.09390
G1 X199.302 Y142.618 E281.14277
G1 X202.085 Y138.733 E281.69898
G1 X201.698 Y138.047 F7200.000
G1 X204.844 Y136.933 E282.08743 F756.000
G1 X206.223 Y146.264 E283.18521
G1 X179.585 Y142.073 E286.32377
G1 X173.555 Y140.719 E287.04302
G1 X152.829 Y147.208 E289.57080
G1 X151.516 Y143.381 E290.04170
G1 X152.492 Y139.953 E290.45645
G1 X138.191 Y144.439 E292.20094
G1 X141.278 Y146.680 E292.64489
G1 X142.556 Y150.430 E293.10597
G1 X136.956 Y152.186 E293.78901
G1 X130.278 Y154.322 E294.60507
G1 X130.289 Y129.979 E297.43840
G1 X133.158 Y126.670 E297.94807
G1 X135.263 Y122.731 E298.46791
G1 X136.558 Y118.462 E298.98713
G1 X136.995 Y114.023 E299.50633
G1 X136.558 Y109.583 E300.02555
G1 X135.263 Y105.314 E300.54476
G1 X133.160 Y101.380 E301.06397
G1 X130.443 Y98.070 E301.56243
G1 X130.271 Y88.870 E302.63334
G1 X93.630 Y88.870 E306.89793
G1 X93.630 Y71.294 E308.94364
G1 X99.981 Y55.537 E310.92089
G1 X108.943 Y55.537 E311.96397
G1 X109.050 Y59.582 E312.43486
G1 X107.093 Y62.560 E312.84961
G1 X122.082 Y62.559 E314.59411
G1 X119.807 Y59.498 E315.03806
G1 X119.709 Y55.537 E315.49913
G1 X144.161 Y55.537 E318.34508
G1 X144.269 Y59.582 E318.81598
G1 X142.312 Y62.560 E319.23073
G1 X157.300 Y62.559 E320.97522
G1 X155.025 Y59.498 E321.41917
G1 X154.928 Y55.537 E321.88025
G1 X179.857 Y55.530 E324.78174
G1 X180.885 Y65.138 E325.90633
G1 X177.470 Y65.370 E326.30463
G1 X174.229 Y63.427 E326.74444
G1 X175.683 Y78.327 E328.48685
G1 X178.465 Y76.096 E328.90196
G1 X182.012 Y75.861 E329.31565
G1 X183.395 Y82.259 E330.07753
G1 X192.678 Y84.736 E331.19573
G1 X199.874 Y98.196 E332.97215
G1 X206.309 Y112.967 E334.84736
G1 X200.217 Y120.842 E336.00622
G1 X201.565 Y126.625 E336.69734
G1 X198.166 Y127.845 E337.11769
G1 X194.813 Y126.955 E337.52143
G1 X199.536 Y141.065 E339.25330
G1 X201.635 Y138.134 E339.67291
G1 X202.323 Y138.392 F7200.000
G1 X197.951 Y144.355 F7200.000
G1 X162.919 Y121.581 F7200.000
G1 X130.883 Y144.069 F7200.000
G1 X139.092 Y148.397 F7200.000
G1 X138.864 Y148.169 E339.71205 F1080.000
G1 X135.018 Y145.377 F7200.000
G1 X138.574 Y148.933 E340.32308 F1080.000
G1 X137.773 Y149.187 E340.42512
G1 X132.906 Y144.319 E341.26148
G1 X132.905 Y145.373 E341.38951
G1 X136.973 Y149.441 E342.08839
G1 X136.172 Y149.694 E342.19043
