; generated by Slic3r 1.0.0RC2 on 2014-05-16 at 10:33:56

; layer_height = 0.3
; perimeters = 4
; top_solid_layers = 3
; bottom_solid_layers = 3
; fill_density = 0.1
; perimeter_speed = 60
; infill_speed = 60
; travel_speed = 120
; nozzle_diameter = 0.4
; filament_diameter = 1.75
; extrusion_multiplier = 0.98
; perimeters extrusion width = 0.40mm
; infill extrusion width = 0.42mm
; solid infill extrusion width = 0.42mm
; top infill extrusion width = 0.42mm
; first layer extrusion width = 0.80mm

G21 ; set units to millimeters
M107
M104 S220 ; set temperature
G28 ; home all axes
M106 S255;
G1 Z200 F1200 ; lift nozzle
M109 S220 ; wait for temperature to be reached
G90 ; use absolute coordinates
G92 E0
M82 ; use absolute distances for extrusion
G1 F1800.000 E-1.00000
G92 E0
G1 Z0.400 F7200.000
G1 X48.550 Y57.390 F7200.000
G1 E1.00000 F1800.000
G1 X49.680 Y56.560 E1.16319 F1080.000
G1 X50.960 Y55.990 E1.32627
G1 X52.330 Y55.700 E1.48926
G1 X129.140 Y47.580 E10.47898
G1 X129.980 Y47.550 E10.57681
G1 X220.610 Y49.290 E21.12717
G1 X222.090 Y49.480 E21.30084
G1 X223.490 Y50.000 E21.47466
G1 X224.740 Y50.810 E21.64802
G1 X225.790 Y51.890 E21.82334
G1 X226.560 Y53.160 E21.99620
G1 X246.580 Y96.050 E27.50521
G1 X253.190 Y111.210 E29.43011
G1 X253.610 Y112.530 E29.59133
G1 X253.750 Y113.910 E29.75277
G1 X253.670 Y147.630 E33.67745
G1 X253.520 Y149.020 E33.84017
G1 X253.090 Y150.350 E34.00286
G1 X252.390 Y151.560 E34.16556
G1 X251.450 Y152.600 E34.32872
G1 X250.320 Y153.430 E34.49191
G1 X249.040 Y153.990 E34.65452
G1 X247.670 Y154.290 E34.81775
G1 X170.850 Y162.420 E43.80875
G1 X170.010 Y162.450 E43.90658
G1 X79.380 Y160.710 E54.45694
G1 X77.900 Y160.520 E54.63061
G1 X76.500 Y160.000 E54.80443
G1 X75.250 Y159.190 E54.97780
G1 X74.200 Y158.110 E55.15311
G1 X73.430 Y156.840 E55.32598
G1 X53.330 Y113.780 E60.85685
G1 X46.800 Y98.780 E62.76096
G1 X46.390 Y97.460 E62.92183
G1 X46.250 Y96.080 E63.08327
G1 X46.330 Y62.360 E67.00795
G1 X46.480 Y60.970 E67.17067
G1 X46.910 Y59.640 E67.33336
G1 X47.610 Y58.430 E67.49606
G1 X48.478 Y57.469 E67.64676
G1 F1800.000 E66.64676
G92 E0
G1 X150.570 Y71.474 F7200.000
G1 E1.00000 F1800.000
G1 X151.662 Y65.465 E1.71080 F540.000
G1 X161.499 Y67.256 E2.87453
G1 X160.218 Y73.426 E3.60791
G1 X150.675 Y71.495 E4.74107
G1 X151.398 Y70.912 F7200.000
G1 X152.237 Y66.296 E5.28724 F540.000
G1 X160.651 Y67.828 E6.28262
G1 X159.663 Y72.585 E6.84811
G1 X151.503 Y70.934 E7.81709
G1 X150.696 Y70.780 F7200.000
G1 X144.715 Y74.927 F7200.000
G1 X157.513 Y74.940 E9.30664 F1080.000
G1 X157.487 Y84.845 E10.45951
G1 X143.327 Y84.830 E12.10759
G1 X143.367 Y74.925 E13.26046
G1 X144.608 Y74.927 E13.40494
G1 X144.715 Y75.641 F7200.000
G1 X156.797 Y75.653 E14.81123 F756.000
G1 X156.775 Y84.130 E15.79786
G1 X144.044 Y84.117 E17.27959
G1 X144.078 Y75.640 E18.26621
G1 X144.608 Y75.641 E18.32782
G1 X145.072 Y75.023 F7200.000
G1 X177.779 Y76.183 F7200.000
G1 X177.790 Y73.496 E18.64067 F1080.000
G1 X194.791 Y73.513 E20.61942
G1 X194.761 Y84.767 E21.92932
G1 X198.331 Y83.684 E22.36343
G1 X202.310 Y83.292 E22.82884
G1 X206.289 Y83.684 E23.29424
G1 X210.116 Y84.845 E23.75964
G1 X213.642 Y86.730 E24.22505
G1 X216.733 Y89.267 E24.69045
G1 X219.270 Y92.358 E25.15586
G1 X221.155 Y95.884 E25.62126
G1 X222.316 Y99.711 E26.08666
G1 X222.708 Y103.690 E26.55207
G1 X222.316 Y107.670 E27.01746
G1 X221.155 Y111.496 E27.48287
G1 X219.270 Y115.023 E27.94827
G1 X216.733 Y118.114 E28.41367
G1 X213.642 Y120.650 E28.87908
G1 X210.116 Y122.535 E29.34448
G1 X206.289 Y123.696 E29.80988
G1 X202.310 Y124.088 E30.27528
G1 X198.331 Y123.696 E30.74068
G1 X194.504 Y122.535 E31.20608
G1 X190.978 Y120.650 E31.67148
G1 X187.887 Y118.114 E32.13689
G1 X185.350 Y115.023 E32.60229
G1 X183.465 Y111.496 E33.06769
G1 X182.304 Y107.670 E33.53309
G1 X181.912 Y103.690 E33.99849
G1 X182.304 Y99.711 E34.46389
G1 X183.465 Y95.884 E34.92930
G1 X185.350 Y92.358 E35.39470
G1 X187.887 Y89.267 E35.86010
G1 X191.537 Y86.271 E36.40968
G1 X177.739 Y86.257 E38.01562
G1 X177.779 Y76.291 E39.17565
G1 X178.493 Y76.186 F7200.000
G1 X178.501 Y74.210 E39.40563 F1080.000
G1 X194.075 Y74.226 E41.21825
G1 X194.045 Y85.560 E42.53737
G1 X178.456 Y85.544 E44.35181
G1 X178.493 Y76.293 E45.42847
G1 X179.208 Y76.189 F7200.000
G1 X179.213 Y74.925 E45.57557 F1080.000
G1 X193.359 Y74.940 E47.22207
G1 X193.333 Y84.845 E48.37494
G1 X179.173 Y84.830 E50.02302
G1 X179.207 Y76.296 E51.01632
G1 X179.922 Y76.192 F7200.000
G1 X179.924 Y75.640 E51.08055 F756.000
G1 X192.643 Y75.653 E52.56092
G1 X192.621 Y84.130 E53.54755
G1 X179.890 Y84.117 E55.02927
G1 X179.921 Y76.299 E55.93920
G1 X179.445 Y75.914 F7200.000
G1 F1800.000 E54.93920
G92 E0
G1 X188.587 Y89.616 F7200.000
G1 E1.00000 F1800.000
G1 X191.376 Y87.327 E1.41996 F1080.000
G1 X194.779 Y85.508 E1.86898
G1 X198.471 Y84.388 E2.31801
G1 X202.310 Y84.010 E2.76704
G1 X206.149 Y84.388 E3.21607
G1 X209.841 Y85.508 E3.66510
G1 X213.244 Y87.327 E4.11413
G1 X216.226 Y89.774 E4.56316
G1 X218.673 Y92.757 E5.01219
G1 X220.492 Y96.159 E5.46122
G1 X221.612 Y99.851 E5.91024
G1 X221.990 Y103.690 E6.35928
G1 X221.612 Y107.530 E6.80830
G1 X220.492 Y111.221 E7.25734
G1 X218.673 Y114.624 E7.70636
G1 X216.226 Y117.606 E8.15539
G1 X213.244 Y120.054 E8.60442
G1 X209.841 Y121.872 E9.05345
G1 X206.149 Y122.992 E9.50248
G1 X202.310 Y123.370 E9.95150
G1 X198.471 Y122.992 E10.40053
G1 X194.779 Y121.872 E10.84956
G1 X191.376 Y120.054 E11.29859
G1 X188.394 Y117.606 E11.74762
G1 X185.947 Y114.624 E12.19665
G1 X184.128 Y111.221 E12.64568
G1 X183.008 Y107.530 E13.09470
G1 X182.630 Y103.690 E13.54373
G1 X183.008 Y99.851 E13.99276
G1 X184.128 Y96.159 E14.44179
G1 X185.947 Y92.757 E14.89082
G1 X188.394 Y89.774 E15.33985
G1 X188.504 Y89.684 E15.35646
G1 X188.902 Y90.282 F7200.000
G1 X191.775 Y87.923 E15.78912 F1080.000
G1 X195.053 Y86.171 E16.22177
G1 X198.611 Y85.092 E16.65442
G1 X202.310 Y84.728 E17.08708
G1 X206.009 Y85.092 E17.51974
G1 X209.567 Y86.171 E17.95239
G1 X212.845 Y87.923 E18.38505
G1 X215.719 Y90.282 E18.81771
G1 X218.077 Y93.155 E19.25036
G1 X219.829 Y96.434 E19.68302
G1 X220.908 Y99.991 E20.11567
G1 X221.273 Y103.690 E20.54833
G1 X220.908 Y107.390 E20.98098
G1 X219.829 Y110.947 E21.41364
G1 X218.077 Y114.225 E21.84629
G1 X215.719 Y117.099 E22.27895
G1 X212.845 Y119.457 E22.71161
G1 X209.567 Y121.209 E23.14426
G1 X206.009 Y122.288 E23.57692
G1 X202.310 Y122.653 E24.00957
G1 X198.611 Y122.288 E24.44223
G1 X195.053 Y121.209 E24.87488
G1 X191.775 Y119.457 E25.30753
G1 X188.902 Y117.099 E25.74019
G1 X186.543 Y114.225 E26.17285
G1 X184.791 Y110.947 E26.60550
G1 X183.712 Y107.390 E27.03816
G1 X183.348 Y103.690 E27.47081
G1 X183.712 Y99.991 E27.90347
G1 X184.791 Y96.434 E28.33612
G1 X186.543 Y93.155 E28.76878
G1 X188.834 Y90.364 E29.18897
G1 X189.409 Y90.789 F7200.000
G1 X192.174 Y88.520 E29.60525 F756.000
G1 X195.328 Y86.834 E30.02153
G1 X198.751 Y85.796 E30.43781
G1 X202.310 Y85.445 E30.85410
G1 X205.869 Y85.796 E31.27038
G1 X209.292 Y86.834 E31.68666
G1 X212.446 Y88.520 E32.10295
G1 X215.211 Y90.789 E32.51923
G1 X217.480 Y93.554 E32.93551
G1 X219.166 Y96.708 E33.35179
G1 X220.204 Y100.131 E33.76807
G1 X220.555 Y103.690 E34.18436
G1 X220.204 Y107.250 E34.60064
G1 X219.166 Y110.672 E35.01692
G1 X217.480 Y113.826 E35.43320
G1 X215.211 Y116.591 E35.84948
G1 X212.446 Y118.860 E36.26577
G1 X209.292 Y120.546 E36.68205
G1 X205.869 Y121.584 E37.09833
G1 X202.310 Y121.935 E37.51461
G1 X198.751 Y121.584 E37.93090
G1 X195.328 Y120.546 E38.34717
G1 X192.174 Y118.860 E38.76345
G1 X189.409 Y116.591 E39.17974
G1 X187.140 Y113.826 E39.59602
G1 X185.454 Y110.672 E40.01230
G1 X184.416 Y107.250 E40.42858
G1 X184.065 Y103.690 E40.84487
G1 X184.416 Y100.131 E41.26115
G1 X185.454 Y96.708 E41.67743
G1 X187.140 Y93.554 E42.09371
G1 X189.341 Y90.872 E42.49753
G1 X189.247 Y90.094 F7200.000
G1 X172.693 Y90.271 F7200.000
G1 X172.643 Y87.598 E42.80867 F1080.000
G1 X136.042 Y87.598 E47.06862
G1 X136.042 Y72.579 E48.81660
G1 X141.697 Y58.550 E50.57715
G1 X147.126 Y58.550 E51.20904
G1 X147.161 Y59.837 E51.35890
G1 X143.392 Y65.573 E52.15766
G1 X150.191 Y65.572 E52.94893
G1 X148.915 Y72.596 E53.77977
G1 X150.857 Y72.989 E54.01038
G1 X150.805 Y73.505 E54.07071
G1 X141.944 Y73.496 E55.10195
G1 X141.893 Y86.257 E56.58730
G1 X158.912 Y86.275 E58.56810
G1 X158.943 Y74.625 E59.92401
G1 X161.327 Y75.107 E60.20719
G1 X163.307 Y65.572 E61.34069
G1 X166.613 Y65.572 E61.72541
G1 X162.202 Y59.636 E62.58616
G1 X162.175 Y58.550 E62.71255
G1 X182.345 Y58.550 E65.06008
G1 X182.379 Y59.837 E65.20993
G1 X178.611 Y65.573 E66.00870
G1 X201.831 Y65.572 E68.71131
G1 X197.421 Y59.636 E69.57206
G1 X197.394 Y58.550 E69.69845
G1 X218.202 Y58.545 E72.12027
G1 X218.787 Y64.021 E72.76127
G1 X218.265 Y64.057 E72.82216
G1 X211.954 Y60.274 E73.67857
G1 X214.205 Y83.345 E76.37649
G1 X219.550 Y79.059 E77.17383
G1 X220.579 Y78.991 E77.29387
G1 X221.848 Y84.862 E77.99296
G1 X231.497 Y87.437 E79.15532
G1 X238.214 Y100.001 E80.81349
G1 X244.108 Y113.529 E82.53105
G1 X238.169 Y121.207 E83.66079
G1 X239.315 Y126.123 E84.24833
G1 X238.341 Y126.473 E84.36886
G1 X231.789 Y124.734 E85.15777
G1 X238.120 Y143.648 E87.47919
G1 X220.256 Y140.837 E89.58386
G1 X213.734 Y139.373 E90.36191
G1 X194.449 Y145.409 E92.71392
G1 X194.031 Y144.191 E92.86378
G1 X195.910 Y137.591 E93.66254
G1 X173.754 Y144.540 E96.36515
G1 X179.739 Y148.885 E97.22590
G1 X180.089 Y149.913 E97.35229
G1 X172.692 Y152.257 E98.25548
G1 X172.701 Y131.649 E100.65409
G1 X175.204 Y128.762 E101.09875
G1 X177.522 Y124.425 E101.67112
G1 X178.939 Y119.752 E102.23945
G1 X179.418 Y114.893 E102.80778
G1 X178.939 Y110.033 E103.37611
G1 X177.522 Y105.361 E103.94445
G1 X175.220 Y101.054 E104.51278
G1 X172.841 Y98.156 E104.94921
G1 X172.695 Y90.378 E105.85464
G1 X171.979 Y90.284 F7200.000
G1 X171.942 Y88.312 E106.08420 F1080.000
G1 X135.328 Y88.312 E110.34570
G1 X135.328 Y72.441 E112.19293
G1 X141.215 Y57.836 E114.02571
G1 X147.822 Y57.836 E114.79466
G1 X147.880 Y60.042 E115.05153
G1 X144.716 Y64.858 E115.72229
G1 X151.046 Y64.858 E116.45907
G1 X149.742 Y72.035 E117.30801
G1 X158.023 Y73.710 E118.29132
G1 X157.971 Y74.226 E118.35165
G1 X142.656 Y74.210 E120.13420
G1 X142.610 Y85.544 E121.45331
G1 X158.200 Y85.560 E123.26775
G1 X158.231 Y73.752 E124.64202
G1 X160.772 Y74.267 E124.94385
G1 X162.347 Y66.685 E125.84513
G1 X155.243 Y65.391 E126.68555
G1 X155.291 Y64.858 E126.74784
G1 X165.192 Y64.858 E127.90026
G1 X161.494 Y59.880 E128.62207
G1 X161.443 Y57.836 E128.86002
G1 X183.040 Y57.836 E131.37369
G1 X183.099 Y60.042 E131.63056
G1 X179.934 Y64.858 E132.30132
G1 X200.411 Y64.858 E134.68456
G1 X196.712 Y59.880 E135.40638
G1 X196.662 Y57.836 E135.64433
G1 X218.843 Y57.830 E138.22604
G1 X219.576 Y64.683 E139.02824
G1 X218.090 Y64.784 E139.20160
G1 X212.802 Y61.615 E139.91914
G1 X214.788 Y81.962 E142.29855
G1 X219.278 Y78.362 E142.96849
G1 X221.146 Y78.238 E143.18641
G1 X222.454 Y84.285 E143.90643
G1 X231.981 Y86.827 E145.05407
G1 X238.858 Y99.689 E146.75166
G1 X244.931 Y113.632 E148.52176
G1 X238.941 Y121.375 E149.66122
G1 X240.155 Y126.580 E150.28328
G1 X238.372 Y127.220 E150.50375
G1 X232.887 Y125.764 E151.16427
G1 X239.170 Y144.536 E153.46824
G1 X220.122 Y141.539 E155.71244
G1 X213.764 Y140.111 E156.47089
G1 X193.999 Y146.299 E158.88149
G1 X193.283 Y144.211 E159.13836
G1 X194.861 Y138.668 E159.80912
G1 X175.323 Y144.797 E162.19236
G1 X180.342 Y148.440 E162.91417
G1 X181.002 Y150.375 E163.15213
G1 X176.795 Y151.694 E163.66525
G1 X171.977 Y153.236 E164.25396
G1 X171.987 Y131.382 E166.79747
G1 X174.612 Y128.355 E167.26380
G1 X176.859 Y124.150 E167.81866
G1 X178.236 Y119.612 E168.37062
G1 X178.700 Y114.893 E168.92258
G1 X178.236 Y110.173 E169.47454
G1 X176.859 Y105.635 E170.02650
G1 X174.623 Y101.453 E170.57845
G1 X172.132 Y98.417 E171.03556
G1 X171.981 Y90.391 E171.96986
G1 X183.506 Y104.130 F7200.000
G1 X177.688 Y116.724 F7200.000
G1 X238.221 Y145.225 F7200.000
G1 X243.368 Y140.642 F7200.000
G1 X243.947 Y144.565 E172.43134 F540.000
G1 X240.901 Y144.085 E172.79024
G1 X243.305 Y140.729 E173.27072
G1 X242.867 Y140.114 F7200.000
G1 X243.955 Y139.729 E173.40494 F540.000
G1 X244.796 Y145.421 E174.07463
G1 X239.646 Y144.611 E174.68135
G1 X242.805 Y140.201 E175.31269
G1 X242.418 Y139.516 F7200.000
G1 X244.534 Y138.766 E175.57402 F1080.000
G1 X245.644 Y146.277 E176.45775
G1 X219.989 Y142.241 E179.48056
G1 X213.795 Y140.850 E180.21941
G1 X193.549 Y147.188 E182.68860
G1 X192.534 Y144.231 E183.05249
G1 X193.811 Y139.746 E183.59524
G1 X176.892 Y145.053 E185.65911
G1 X180.945 Y147.995 E186.24199
G1 X181.914 Y150.837 E186.59151
G1 X177.011 Y152.375 E187.18959
G1 X171.263 Y154.214 E187.89197
G1 X171.273 Y131.116 E190.58039
G1 X174.020 Y127.948 E191.06839
G1 X176.196 Y123.876 E191.60574
G1 X177.532 Y119.472 E192.14133
G1 X177.983 Y114.893 E192.67691
G1 X177.532 Y110.313 E193.21250
G1 X176.196 Y105.910 E193.74809
G1 X174.027 Y101.852 E194.28367
G1 X171.423 Y98.678 E194.76145
G1 X171.241 Y89.026 E195.88507
G1 X134.614 Y89.026 E200.14812
G1 X134.614 Y72.302 E202.09459
G1 X140.733 Y57.122 E203.99960
G1 X148.517 Y57.122 E204.90562
G1 X148.600 Y60.247 E205.26950
G1 X146.040 Y64.144 E205.81226
G1 X163.772 Y64.144 E207.87612
G1 X160.785 Y60.124 E208.45900
G1 X160.711 Y57.122 E208.80852
G1 X183.736 Y57.122 E211.48833
G1 X183.819 Y60.247 E211.85221
G1 X181.258 Y64.144 E212.39497
G1 X198.990 Y64.144 E214.45883
G1 X196.004 Y60.124 E215.04172
G1 X195.930 Y57.122 E215.39123
G1 X219.485 Y57.115 E218.13283
G1 X220.366 Y65.346 E219.09623
G1 X217.915 Y65.512 E219.38205
G1 X213.651 Y62.956 E219.96073
G1 X215.370 Y80.580 E222.02164
G1 X219.007 Y77.664 E222.56417
G1 X221.714 Y77.485 E222.87997
G1 X223.060 Y83.707 E223.62092
G1 X232.464 Y86.217 E224.75384
G1 X239.501 Y99.378 E226.49085
G1 X245.755 Y113.734 E228.31350
G1 X239.714 Y121.544 E229.46266
G1 X240.995 Y127.038 E230.11925
G1 X238.404 Y127.968 E230.43966
G1 X233.985 Y126.794 E230.97179
G1 X239.572 Y143.488 E233.02066
G1 X242.355 Y139.603 E233.57687
G1 X241.968 Y138.917 F7200.000
G1 X245.114 Y137.803 E233.96532 F756.000
G1 X246.493 Y147.134 E235.06310
G1 X219.855 Y142.943 E238.20166
G1 X213.825 Y141.589 E238.92091
G1 X193.099 Y148.078 E241.44869
G1 X191.786 Y144.251 E241.91959
G1 X192.762 Y140.823 E242.33434
G1 X178.461 Y145.310 E244.07883
G1 X181.548 Y147.550 E244.52279
G1 X182.826 Y151.300 E244.98386
G1 X177.226 Y153.056 E245.66690
G1 X170.548 Y155.192 E246.48296
G1 X170.559 Y130.849 E249.31629
G1 X173.428 Y127.540 E249.82596
G1 X175.533 Y123.601 E250.34580
G1 X176.828 Y119.332 E250.86502
G1 X177.265 Y114.893 E251.38423
G1 X176.828 Y110.453 E251.90344
G1 X175.533 Y106.184 E252.42265
G1 X173.430 Y102.250 E252.94186
G1 X170.713 Y98.940 E253.44032
G1 X170.541 Y89.740 E254.51123
G1 X133.900 Y89.740 E258.77582
G1 X133.900 Y72.164 E260.82153
G1 X140.251 Y56.407 E262.79879
G1 X149.213 Y56.407 E263.84186
G1 X149.320 Y60.452 E264.31276
G1 X147.363 Y63.430 E264.72751
G1 X162.352 Y63.430 E266.47200
G1 X160.077 Y60.368 E266.91595
G1 X159.979 Y56.407 E267.37703
G1 X184.431 Y56.407 E270.22298
G1 X184.539 Y60.452 E270.69387
G1 X182.582 Y63.430 E271.10862
G1 X197.570 Y63.430 E272.85312
G1 X195.295 Y60.368 E273.29707
G1 X195.198 Y56.407 E273.75814
G1 X220.127 Y56.400 E276.65963
G1 X221.155 Y66.008 E277.78422
G1 X217.740 Y66.240 E278.18252
G1 X214.499 Y64.297 E278.62233
G1 X215.953 Y79.197 E280.36474
G1 X218.735 Y76.966 E280.77985
G1 X222.282 Y76.732 E281.19355
G1 X223.665 Y83.130 E281.95542
G1 X232.948 Y85.606 E283.07363
G1 X240.144 Y99.066 E284.85004
G1 X246.579 Y113.837 E286.72525
G1 X240.487 Y121.712 E287.88412
G1 X241.835 Y127.495 E288.57524
G1 X238.436 Y128.715 E288.99558
G1 X235.083 Y127.825 E289.39932
G1 X239.806 Y141.935 E291.13119
G1 X241.905 Y139.004 E291.55080
G1 X242.593 Y139.262 F7200.000
G1 X238.221 Y145.225 F7200.000
G1 X203.189 Y122.451 F7200.000
G1 X171.153 Y144.939 F7200.000
G1 X179.362 Y149.267 F7200.000
G1 X179.134 Y149.039 E291.58994 F1080.000
G1 X175.288 Y146.247 F7200.000
G1 X178.844 Y149.803 E292.20098 F1080.000
G1 X178.043 Y150.057 E292.30301
G1 X173.176 Y145.190 E293.13937
G1 X173.175 Y146.243 E293.26740
G1 X177.243 Y150.311 E293.96629
