; generated by Slic3r 1.0.0RC2 on 2014-05-15 at 11:02:31

; layer_height = 0.3
; perimeters = 4
; top_solid_layers = 3
; bottom_solid_layers = 3
; fill_density = 0.1
; perimeter_speed = 60
; infill_speed = 60
; travel_speed = 120
; nozzle_diameter = 0.4
; filament_diameter = 1.75
; extrusion_multiplier = 0.98
; perimeters extrusion width = 0.40mm
; infill extrusion width = 0.42mm
; solid infill extrusion width = 0.42mm
; top infill extrusion width = 0.42mm
; first layer extrusion width = 0.80mm

G21 ; set units to millimeters
M107
M104 S220 ; set temperature
G28 ; home all axes
M106 S255;
G1 Z200 F1200 ; lift nozzle
M109 S220 ; wait for temperature to be reached
G90 ; use absolute coordinates
G92 E0
M82 ; use absolute distances for extrusion
G1 F1800.000 E-1.00000
G92 E0
G1 Z0.400 F7200.000
G1 X90.886 Y65.141 F7200.000
G1 E1.00000 F1800.000
G1 X91.716 Y64.121 E1.15306 F1080.000
G1 X92.736 Y63.281 E1.30685
G1 X93.896 Y62.661 E1.45994
G1 X95.166 Y62.281 E1.61423
G1 X96.476 Y62.151 E1.76745
G1 X194.846 Y62.151 E13.21672
G1 X196.236 Y62.291 E13.37932
G1 X197.566 Y62.721 E13.54201
G1 X198.786 Y63.421 E13.70571
G1 X199.826 Y64.361 E13.86888
G1 X200.656 Y65.491 E14.03206
G1 X209.326 Y80.421 E16.04151
G1 X209.996 Y82.041 E16.24555
G1 X210.226 Y83.791 E16.45099
G1 X210.226 Y109.321 E19.42242
G1 X210.026 Y110.981 E19.61702
G1 X209.406 Y112.541 E19.81241
G1 X208.426 Y113.901 E20.00751
G1 X201.836 Y120.971 E21.13242
G1 X200.656 Y121.971 E21.31245
G1 X199.276 Y122.681 E21.49308
G1 X136.706 Y146.111 E29.26943
G1 X135.876 Y146.361 E29.37032
G1 X135.006 Y146.501 E29.47288
G1 X121.626 Y147.811 E31.03762
G1 X120.186 Y147.801 E31.20523
G1 X118.786 Y147.481 E31.37238
G1 X117.476 Y146.861 E31.54106
G1 X108.406 Y141.331 E32.77746
G1 X107.146 Y140.341 E32.96396
G1 X106.156 Y139.071 E33.15138
G1 X105.496 Y137.601 E33.33893
G1 X90.136 Y88.491 E39.32789
G1 X89.906 Y87.521 E39.44392
G1 X89.836 Y86.521 E39.56059
G1 X89.766 Y68.891 E41.61256
G1 X89.886 Y67.571 E41.76683
G1 X90.266 Y66.311 E41.92000
G1 X90.836 Y65.236 E42.06165
G1 F1800.000 E41.06165
G92 E0
G1 X176.886 Y79.859 F7200.000
G1 E1.00000 F1800.000
G1 X186.722 Y78.068 E2.16373 F540.000
G1 X187.814 Y84.076 E2.87453
G1 X178.166 Y86.029 E4.02015
G1 X176.907 Y79.964 E4.74106
G1 X177.734 Y80.431 F7200.000
G1 X186.147 Y78.898 E5.73645 F540.000
G1 X186.986 Y83.515 E6.28261
G1 X178.721 Y85.188 E7.26405
G1 X177.755 Y80.535 E7.81707
G1 X177.600 Y79.729 F7200.000
G1 F1800.000 E6.81707
G92 E0
G1 X180.871 Y87.543 F7200.000
G1 E1.00000 F1800.000
G1 X195.017 Y87.528 E2.64650 F1080.000
G1 X195.057 Y97.433 E3.79936
G1 X180.897 Y97.448 E5.44744
G1 X180.871 Y87.650 E6.58784
G1 X181.587 Y88.256 F7200.000
G1 X194.306 Y88.243 E8.06821 F756.000
G1 X194.340 Y96.720 E9.05483
G1 X181.609 Y96.733 E10.53655
G1 X181.587 Y88.363 E11.51071
G1 X181.586 Y87.542 F7200.000
G1 X124.826 Y88.846 F7200.000
G1 X124.829 Y98.802 E12.66953 F1080.000
G1 X108.380 Y98.802 E14.58407
G1 X108.471 Y86.153 E16.05627
G1 X124.825 Y86.153 E17.95969
G1 X124.826 Y88.738 E18.26056
G1 X124.111 Y88.846 F7200.000
G1 X124.115 Y98.088 E19.33623 F1080.000
G1 X109.099 Y98.088 E21.08391
G1 X109.180 Y86.868 E22.38986
G1 X124.111 Y86.868 E24.12766
G1 X124.111 Y88.739 E24.34544
G1 X123.397 Y88.846 F7200.000
G1 X123.401 Y97.374 E25.33796 F1080.000
G1 X109.819 Y97.374 E26.91876
G1 X109.889 Y87.582 E28.05846
G1 X123.397 Y87.582 E29.63065
G1 X123.397 Y88.739 E29.76534
G1 X122.683 Y88.846 F7200.000
G1 X122.686 Y96.659 E30.67471 F756.000
G1 X110.538 Y96.659 E32.08864
G1 X110.598 Y88.296 E33.06209
G1 X122.683 Y88.296 E34.46866
G1 X122.683 Y88.739 E34.52026
G1 X123.302 Y89.203 F7200.000
G1 X143.593 Y86.116 F7200.000
G1 X160.594 Y86.098 E36.49902 F1080.000
G1 X160.645 Y98.860 E37.98437
G1 X143.627 Y98.877 E39.96516
G1 X143.593 Y86.223 E41.43804
G1 X144.309 Y86.829 F7200.000
G1 X159.883 Y86.813 E43.25066 F1080.000
G1 X159.928 Y98.147 E44.56977
G1 X144.339 Y98.163 E46.38420
G1 X144.309 Y86.936 E47.69084
G1 X145.025 Y87.543 F7200.000
G1 X159.172 Y87.528 E49.33734 F1080.000
G1 X159.211 Y97.433 E50.49021
G1 X145.051 Y97.448 E52.13828
G1 X145.025 Y87.650 E53.27868
G1 X145.741 Y88.256 F7200.000
G1 X158.460 Y88.243 E54.75905 F756.000
G1 X158.494 Y96.720 E55.74567
G1 X145.764 Y96.733 E57.22739
G1 X145.741 Y88.363 E58.20155
G1 X145.740 Y87.542 F7200.000
G1 X129.787 Y103.016 F7200.000
G1 X132.461 Y111.660 E59.25476 F1080.000
G1 X120.132 Y115.474 E60.75680
G1 X117.464 Y106.851 E61.80737
G1 X129.684 Y103.047 E63.29697
G1 X129.316 Y103.910 F7200.000
G1 X131.567 Y111.189 E64.18379 F540.000
G1 X120.603 Y114.581 E65.51959
G1 X118.357 Y107.321 E66.40406
G1 X129.214 Y103.942 E67.72741
G1 X128.845 Y104.805 F7200.000
G1 X130.674 Y110.718 E68.44785 F540.000
G1 X121.074 Y113.687 E69.61741
G1 X119.250 Y107.791 E70.33579
G1 X128.743 Y104.836 E71.49289
G1 X128.374 Y105.699 F7200.000
G1 X129.781 Y110.247 E72.04694 F540.000
G1 X121.545 Y112.794 E73.05026
G1 X120.143 Y108.261 E73.60254
G1 X128.272 Y105.731 E74.59340
G1 X129.056 Y105.488 F7200.000
G1 X139.016 Y121.178 F7200.000
G1 X136.685 Y129.941 E75.64870 F1080.000
G1 X129.554 Y131.485 E76.49794
G1 X129.976 Y137.702 E77.22315
G1 X125.128 Y138.177 E77.79014
G1 X124.676 Y131.705 E78.54528
G1 X113.718 Y132.856 E79.82769
G1 X99.096 Y86.100 E85.52948
G1 X99.030 Y71.403 E87.24006
G1 X105.594 Y71.403 E88.00404
G1 X105.572 Y72.237 E88.10108
G1 X101.160 Y78.175 E88.96207
G1 X124.381 Y78.176 E91.66466
G1 X120.613 Y72.442 E92.46320
G1 X120.642 Y71.403 E92.58408
G1 X140.987 Y71.403 E94.95194
G1 X140.965 Y72.237 E95.04897
G1 X136.553 Y78.175 E95.90995
G1 X159.773 Y78.176 E98.61253
G1 X156.006 Y72.442 E99.41106
G1 X156.035 Y71.403 E99.53195
G1 X176.205 Y71.403 E101.87951
G1 X176.183 Y72.237 E101.97654
G1 X171.772 Y78.175 E102.83753
G1 X175.077 Y78.175 E103.22224
G1 X177.057 Y87.710 E104.35573
G1 X179.442 Y87.228 E104.63891
G1 X179.472 Y98.877 E105.99482
G1 X196.491 Y98.860 E107.97561
G1 X196.440 Y86.098 E109.46096
G1 X187.579 Y86.107 E110.49221
G1 X187.528 Y85.592 E110.55254
G1 X189.470 Y85.199 E110.78314
G1 X188.194 Y78.175 E111.61397
G1 X194.992 Y78.176 E112.40521
G1 X191.224 Y72.442 E113.20375
G1 X191.254 Y71.403 E113.32463
G1 X193.390 Y71.403 E113.57325
G1 X200.981 Y84.481 E115.33328
G1 X200.981 Y107.134 E117.96984
G1 X189.607 Y108.824 E119.30824
G1 X191.985 Y115.365 E120.11827
G1 X187.388 Y116.900 E120.68237
G1 X185.317 Y111.129 E121.39608
G1 X178.337 Y112.379 E122.22146
G1 X170.181 Y106.103 E123.41919
G1 X153.520 Y113.396 E125.53607
G1 X139.110 Y121.128 E127.43935
G1 X139.626 Y121.661 F7200.000
G1 X137.263 Y130.546 E128.50943 F1080.000
G1 X130.308 Y132.053 E129.33766
G1 X130.735 Y138.345 E130.07170
G1 X124.466 Y138.960 E130.80485
G1 X124.015 Y132.493 E131.55940
G1 X113.211 Y133.627 E132.82380
G1 X98.383 Y86.211 E138.60616
G1 X98.312 Y70.689 E140.41274
G1 X106.327 Y70.689 E141.34554
G1 X106.280 Y72.481 E141.55420
G1 X102.581 Y77.461 E142.27619
G1 X123.057 Y77.461 E144.65941
G1 X119.893 Y72.646 E145.33002
G1 X119.948 Y70.689 E145.55786
G1 X141.720 Y70.689 E148.09185
G1 X141.673 Y72.481 E148.30050
G1 X137.974 Y77.461 E149.02249
G1 X158.450 Y77.461 E151.40570
G1 X155.286 Y72.646 E152.07630
G1 X155.341 Y70.689 E152.30414
G1 X176.938 Y70.689 E154.81784
G1 X176.891 Y72.481 E155.02649
G1 X173.192 Y77.461 E155.74849
G1 X183.093 Y77.461 E156.90086
G1 X183.141 Y77.994 E156.96314
G1 X176.037 Y79.288 E157.80351
G1 X177.612 Y86.869 E158.70479
G1 X180.153 Y86.355 E159.00662
G1 X180.185 Y98.163 E160.38089
G1 X195.774 Y98.147 E162.19533
G1 X195.728 Y86.813 E163.51443
G1 X180.413 Y86.829 E165.29699
G1 X180.361 Y86.313 E165.35731
G1 X188.642 Y84.638 E166.34062
G1 X187.338 Y77.461 E167.18955
G1 X193.668 Y77.461 E167.92630
G1 X190.504 Y72.646 E168.59691
G1 X190.559 Y70.689 E168.82475
G1 X193.801 Y70.689 E169.20205
G1 X201.696 Y84.289 E171.03232
G1 X201.696 Y107.750 E173.76293
G1 X190.577 Y109.402 E175.07123
G1 X192.907 Y115.810 E175.86480
G1 X186.952 Y117.799 E176.59554
G1 X184.849 Y111.938 E177.32030
G1 X178.152 Y113.138 E178.11219
G1 X170.081 Y106.927 E179.29752
G1 X153.832 Y114.039 E181.36191
G1 X139.721 Y121.611 E183.22583
G1 X140.237 Y122.144 F7200.000
G1 X137.841 Y131.152 E184.31067 F1080.000
G1 X131.062 Y132.620 E185.11789
G1 X131.425 Y137.959 E185.74069
G1 X132.200 Y138.919 E185.88431
G1 X123.073 Y139.814 E186.95167
G1 X123.733 Y138.716 E187.10082
G1 X123.354 Y133.280 E187.73500
G1 X112.704 Y134.399 E188.98139
G1 X97.669 Y86.322 E194.84433
G1 X97.595 Y69.975 E196.74691
G1 X107.060 Y69.975 E197.84853
G1 X106.988 Y72.726 E198.16880
G1 X104.001 Y76.747 E198.75179
G1 X121.733 Y76.747 E200.81564
G1 X119.173 Y72.850 E201.35831
G1 X119.254 Y69.975 E201.69311
G1 X142.453 Y69.975 E204.39325
G1 X142.381 Y72.726 E204.71352
G1 X139.394 Y76.747 E205.29651
G1 X157.126 Y76.747 E207.36035
G1 X154.566 Y72.850 E207.90302
G1 X154.646 Y69.975 E208.23782
G1 X177.671 Y69.975 E210.91766
G1 X177.599 Y72.726 E211.23793
G1 X174.612 Y76.747 E211.82093
G1 X192.344 Y76.747 E213.88477
G1 X189.784 Y72.851 E214.42744
G1 X189.865 Y69.975 E214.76224
G1 X194.212 Y69.975 E215.26822
G1 X202.410 Y84.097 E217.16873
G1 X202.410 Y108.366 E219.99341
G1 X191.547 Y109.980 E221.27160
G1 X193.480 Y115.296 E221.93000
G1 X194.506 Y116.028 E222.07671
G1 X185.909 Y118.901 E223.13171
G1 X186.197 Y117.810 E223.26306
G1 X184.380 Y112.747 E223.88901
G1 X177.966 Y113.896 E224.64742
G1 X169.980 Y107.750 E225.82035
G1 X154.145 Y114.682 E227.83224
G1 X140.331 Y122.094 E229.65679
G1 X140.848 Y122.627 F7200.000
G1 X138.418 Y131.757 E230.75642 F756.000
G1 X131.817 Y133.187 E231.54262
G1 X132.122 Y137.685 E232.06737
G1 X133.587 Y139.500 E232.33884
G1 X121.730 Y140.663 E233.72556
G1 X123.005 Y138.541 E234.01381
G1 X122.693 Y134.068 E234.53570
G1 X112.197 Y135.170 E235.76408
G1 X96.955 Y86.432 E241.70758
G1 X96.878 Y69.261 E243.70616
G1 X107.793 Y69.261 E244.97660
G1 X107.696 Y72.970 E245.40849
G1 X105.421 Y76.033 E245.85249
G1 X120.409 Y76.033 E247.59697
G1 X118.453 Y73.055 E248.01170
G1 X118.559 Y69.261 E248.45346
G1 X143.186 Y69.261 E251.31974
G1 X143.089 Y72.970 E251.75163
G1 X140.814 Y76.033 E252.19562
G1 X155.802 Y76.033 E253.94010
G1 X153.846 Y73.055 E254.35483
G1 X153.952 Y69.261 E254.79659
G1 X178.404 Y69.261 E257.64257
G1 X178.307 Y72.970 E258.07446
G1 X176.032 Y76.033 E258.51846
G1 X191.021 Y76.033 E260.26294
G1 X189.064 Y73.055 E260.67767
G1 X189.170 Y69.261 E261.11943
G1 X194.623 Y69.261 E261.75409
G1 X203.124 Y83.905 E263.72483
G1 X203.124 Y108.982 E266.64357
G1 X192.517 Y110.557 E267.89167
G1 X194.075 Y114.843 E268.42246
G1 X196.062 Y116.261 E268.70653
G1 X184.880 Y119.997 E270.07866
G1 X185.450 Y117.842 E270.33812
G1 X183.912 Y113.557 E270.86797
G1 X177.781 Y114.655 E271.59289
G1 X169.879 Y108.574 E272.75343
G1 X154.457 Y115.324 E274.71281
G1 X140.942 Y122.576 E276.49800
G1 X140.133 Y122.620 F7200.000
G1 X125.201 Y132.298 F7200.000
G1 X129.412 Y136.510 E277.19139 F1080.000
G1 X129.187 Y137.295 E277.28650
G1 X125.276 Y133.384 E277.93036
G1 X125.352 Y134.471 E278.05712
G1 X128.267 Y137.385 E278.53701
G1 X127.347 Y137.475 E278.64465
G1 X125.428 Y135.557 E278.96056
G1 X125.504 Y136.643 E279.08732
G1 X126.427 Y137.566 E279.23927
G1 X131.234 Y133.457 F7200.000
G1 X114.118 Y132.329 F7200.000
G1 X114.031 Y132.242 E279.25359 F1080.000
G1 X115.032 Y132.233 E279.37016
G1 X113.571 Y130.772 E279.61071
G1 X113.112 Y129.302 E279.79004
G1 X115.947 Y132.137 E280.25682
G1 X116.861 Y132.041 E280.36385
G1 X112.652 Y127.832 E281.05686
G1 X112.192 Y126.362 E281.23619
G1 X117.775 Y131.945 E282.15543
G1 X118.689 Y131.849 E282.26246
G1 X111.733 Y124.892 E283.40794
G1 X111.273 Y123.422 E283.58726
G1 X119.604 Y131.753 E284.95897
G1 X120.518 Y131.657 E285.06600
G1 X110.813 Y121.952 E286.66394
G1 X110.353 Y120.482 E286.84326
G1 X121.432 Y131.561 E288.66743
G1 X122.347 Y131.465 E288.77446
G1 X109.894 Y119.012 E290.82486
G1 X109.434 Y117.542 E291.00419
G1 X123.261 Y131.369 E293.28082
G1 X124.175 Y131.273 E293.38785
G1 X108.974 Y116.072 E295.89071
G1 X108.515 Y114.602 E296.07004
G1 X129.338 Y135.426 E299.49870
G1 X129.264 Y134.342 E299.62519
G1 X108.055 Y113.132 E303.11742
G1 X107.595 Y111.662 E303.29674
G1 X129.191 Y133.258 E306.85254
G1 X129.117 Y132.174 E306.97903
G1 X107.136 Y110.192 E310.59841
G1 X106.676 Y108.722 E310.77773
G1 X129.054 Y131.100 E314.46239
G1 X129.884 Y130.920 E314.56132
G1 X106.216 Y107.252 E318.45841
G1 X105.756 Y105.782 E318.63773
G1 X130.715 Y130.741 E322.74724
G1 X131.545 Y130.561 E322.84617
G1 X105.297 Y104.312 E327.16810
G1 X104.837 Y102.842 E327.34743
G1 X132.376 Y130.381 E331.88179
G1 X133.206 Y130.201 E331.98071
G1 X104.377 Y101.372 E336.72750
G1 X103.918 Y99.902 E336.90682
G1 X134.037 Y130.021 E341.86603
G1 X134.867 Y129.841 E341.96495
G1 X120.798 Y115.772 E344.28142
G1 X121.570 Y115.534 E344.37545
G1 X135.697 Y129.661 E346.70160
G1 X136.354 Y129.308 E346.78845
G1 X122.341 Y115.295 E349.09570
G1 X123.113 Y115.056 E349.18974
G1 X136.567 Y128.510 E351.40490
G1 X136.779 Y127.712 E351.50104
G1 X123.885 Y114.818 E353.62412
G1 X124.656 Y114.579 E353.71815
G1 X136.991 Y126.914 E355.74913
G1 X137.204 Y126.116 E355.84527
G1 X125.428 Y114.340 E357.78416
G1 X126.200 Y114.102 E357.87820
G1 X137.416 Y125.318 E359.72499
G1 X137.628 Y124.520 E359.82113
G1 X126.971 Y113.863 E361.57584
G1 X127.743 Y113.624 E361.66987
G1 X137.840 Y123.722 E363.33249
G1 X138.053 Y122.924 E363.42863
G1 X128.514 Y113.386 E364.99914
G1 X129.286 Y113.147 E365.09318
G1 X138.265 Y122.126 E366.57161
G1 X138.477 Y121.328 E366.66775
G1 X130.058 Y112.908 E368.05408
G1 X130.829 Y112.670 E368.14812
G1 X138.870 Y120.710 E369.47199
G1 X139.527 Y120.357 E369.55886
G1 X131.601 Y112.431 E370.86395
G1 X132.373 Y112.192 E370.95798
G1 X140.185 Y120.004 E372.24427
G1 X140.842 Y119.651 E372.33115
G1 X133.016 Y111.826 E373.61968
G1 X132.564 Y110.363 E373.79795
G1 X141.500 Y119.299 E375.26925
G1 X142.157 Y118.946 E375.35612
G1 X132.111 Y108.900 E377.01018
G1 X131.659 Y107.437 E377.18845
G1 X142.815 Y118.593 E379.02526
G1 X143.472 Y118.240 E379.11214
G1 X131.207 Y105.975 E381.13171
G1 X130.754 Y104.512 E381.30998
G1 X144.130 Y117.887 E383.51231
G1 X144.787 Y117.535 E383.59918
G1 X125.311 Y98.059 E386.80596
G1 X125.311 Y97.048 E386.92363
G1 X145.445 Y117.182 E390.23874
G1 X146.102 Y116.829 E390.32561
G1 X125.310 Y96.037 E393.74904
G1 X125.310 Y95.027 E393.86671
G1 X146.760 Y116.476 E397.39846
G1 X147.417 Y116.123 E397.48534
G1 X125.310 Y94.016 E401.12541
G1 X125.309 Y93.005 E401.24308
G1 X148.075 Y115.771 E404.99148
G1 X148.732 Y115.418 E405.07836
G1 X125.309 Y91.995 E408.93508
G1 X125.309 Y90.984 E409.05275
G1 X149.390 Y115.065 E413.01779
G1 X150.047 Y114.712 E413.10467
G1 X125.308 Y89.973 E417.17804
G1 X125.308 Y88.963 E417.29571
G1 X150.705 Y114.359 E421.47740
G1 X151.362 Y114.007 E421.56428
G1 X125.307 Y87.952 E425.85429
G1 X125.307 Y86.941 E425.97196
G1 X152.020 Y113.654 E430.37030
G1 X152.677 Y113.301 E430.45718
G1 X118.034 Y78.657 E436.16137
G1 X119.044 Y78.657 E436.27900
G1 X153.336 Y112.950 E441.92539
G1 X154.039 Y112.642 E442.01470
G1 X120.054 Y78.658 E447.61044
G1 X121.065 Y78.658 E447.72807
G1 X154.742 Y112.335 E453.27316
G1 X155.445 Y112.027 E453.36247
G1 X122.075 Y78.658 E458.85691
G1 X123.085 Y78.658 E458.97454
G1 X156.147 Y111.720 E464.41832
G1 X156.850 Y111.412 E464.50763
G1 X144.796 Y99.358 E466.49233
G1 X145.805 Y99.357 E466.60983
G1 X157.553 Y111.104 E468.54405
G1 X158.255 Y110.797 E468.63336
G1 X146.815 Y99.356 E470.51710
G1 X147.824 Y99.355 E470.63461
G1 X158.958 Y110.489 E472.46787
G1 X159.661 Y110.182 E472.55718
G1 X148.833 Y99.354 E474.33997
G1 X149.843 Y99.353 E474.45748
G1 X160.364 Y109.874 E476.18978
G1 X161.066 Y109.567 E476.27909
G1 X150.852 Y99.352 E477.96093
G1 X151.861 Y99.351 E478.07844
G1 X161.769 Y109.259 E479.70979
G1 X162.472 Y108.951 E479.79910
G1 X152.870 Y99.350 E481.37998
G1 X153.880 Y99.349 E481.49749
G1 X163.174 Y108.644 E483.02789
G1 X163.877 Y108.336 E483.11720
G1 X154.889 Y99.348 E484.59713
G1 X155.898 Y99.347 E484.71463
G1 X164.580 Y108.029 E486.14408
G1 X165.283 Y107.721 E486.23339
G1 X156.908 Y99.346 E487.61236
G1 X157.917 Y99.345 E487.72987
G1 X165.985 Y107.413 E489.05837
