; generated by Slic3r 1.0.0RC2 on 2014-05-15 at 11:12:55

; layer_height = 0.3
; perimeters = 4
; top_solid_layers = 3
; bottom_solid_layers = 3
; fill_density = 0.1
; perimeter_speed = 60
; infill_speed = 60
; travel_speed = 120
; nozzle_diameter = 0.4
; filament_diameter = 1.75
; extrusion_multiplier = 0.98
; perimeters extrusion width = 0.40mm
; infill extrusion width = 0.42mm
; solid infill extrusion width = 0.42mm
; top infill extrusion width = 0.42mm
; first layer extrusion width = 0.80mm

G21 ; set units to millimeters
M107
M104 S220 ; set temperature
G28 ; home all axes
M106 S255;
G1 Z200 F1200 ; lift nozzle
M109 S220 ; wait for temperature to be reached
G90 ; use absolute coordinates
G92 E0
M82 ; use absolute distances for extrusion
G1 F1800.000 E-1.00000
G92 E0
G1 Z0.400 F7200.000
G1 X110.272 Y63.406 F7200.000
G1 E1.00000 F1800.000
G1 X111.262 Y62.146 E1.18650 F1080.000
G1 X112.532 Y61.156 E1.37392
G1 X114.002 Y60.496 E1.56147
G1 X163.112 Y45.136 E7.55043
G1 X164.082 Y44.906 E7.66646
G1 X165.082 Y44.836 E7.78313
G1 X182.712 Y44.766 E9.83510
G1 X184.002 Y44.886 E9.98589
G1 X185.252 Y45.246 E10.13729
G1 X186.402 Y45.846 E10.28826
G1 X187.412 Y46.656 E10.43895
G1 X188.252 Y47.636 E10.58918
G1 X195.032 Y57.376 E11.97043
G1 X195.692 Y58.566 E12.12881
G1 X196.102 Y59.866 E12.28746
G1 X196.232 Y61.216 E12.44532
G1 X196.232 Y74.666 E14.01076
G1 X196.162 Y75.686 E14.12976
G1 X195.922 Y76.686 E14.24945
G1 X169.412 Y160.536 E24.48488
G1 X168.852 Y161.836 E24.64963
G1 X168.022 Y162.986 E24.81470
G1 X166.982 Y163.936 E24.97864
G1 X165.762 Y164.646 E25.14293
G1 X164.412 Y165.086 E25.30820
G1 X163.012 Y165.226 E25.47195
G1 X142.282 Y165.226 E27.88472
G1 X140.622 Y165.026 E28.07932
G1 X139.062 Y164.406 E28.27470
G1 X137.702 Y163.426 E28.46981
G1 X130.632 Y156.836 E29.59472
G1 X129.632 Y155.656 E29.77475
G1 X128.922 Y154.276 E29.95538
G1 X105.492 Y91.706 E37.73173
G1 X105.242 Y90.876 E37.83262
G1 X105.102 Y90.006 E37.93518
G1 X103.792 Y76.626 E39.49992
G1 X103.802 Y75.186 E39.66753
G1 X104.122 Y73.786 E39.83467
G1 X104.742 Y72.476 E40.00336
G1 X110.216 Y63.497 E41.22729
G1 F1800.000 E40.22729
G92 E0
G1 X152.900 Y63.380 F7200.000
G1 E1.00000 F1800.000
G1 X165.562 Y63.471 E2.47378 F1080.000
G1 X165.562 Y79.825 E4.37721
G1 X152.900 Y79.830 E5.85095
G1 X152.900 Y63.487 E7.75302
G1 X153.614 Y64.099 F7200.000
G1 X164.848 Y64.180 E9.06055 F1080.000
G1 X164.848 Y79.111 E10.79836
G1 X153.614 Y79.115 E12.10586
G1 X153.614 Y64.207 E13.84107
G1 X154.328 Y64.819 F7200.000
G1 X164.134 Y64.889 E14.98235 F1080.000
G1 X164.134 Y78.397 E16.55454
G1 X154.328 Y78.401 E17.69580
G1 X154.328 Y64.926 E19.26413
G1 X155.042 Y65.538 F7200.000
G1 X163.420 Y65.598 E20.23917 F756.000
G1 X163.420 Y77.683 E21.64574
G1 X155.042 Y77.686 E22.62076
G1 X155.042 Y65.645 E24.02222
G1 X155.046 Y64.824 F7200.000
G1 X144.760 Y72.464 F7200.000
G1 X148.595 Y84.787 E25.52427 F1080.000
G1 X139.950 Y87.461 E26.57748
G1 X136.137 Y75.132 E28.07953
G1 X144.658 Y72.496 E29.11763
G1 X144.290 Y73.357 F7200.000
G1 X147.701 Y84.316 E30.45344 F540.000
G1 X140.422 Y86.567 E31.34026
G1 X137.030 Y75.603 E32.67607
G1 X144.187 Y73.389 E33.54807
G1 X143.820 Y74.250 F7200.000
G1 X146.806 Y83.845 E34.71764 F540.000
G1 X140.893 Y85.674 E35.43808
G1 X137.923 Y76.074 E36.60764
G1 X143.717 Y74.282 E37.31355
G1 X143.350 Y75.143 F7200.000
G1 X145.912 Y83.374 E38.31688 F540.000
G1 X141.364 Y84.781 E38.87092
G1 X138.817 Y76.545 E39.87424
G1 X143.247 Y75.175 E40.41406
G1 X144.032 Y74.931 F7200.000
G1 F1800.000 E39.41406
G92 E0
G1 X149.908 Y134.093 F7200.000
G1 E1.00000 F1800.000
G1 X152.895 Y143.688 E2.16957 F540.000
G1 X146.981 Y145.517 E2.89000
G1 X144.012 Y135.917 E4.05956
G1 X149.806 Y134.125 E4.76547
G1 X149.438 Y134.986 F7200.000
G1 X152.000 Y143.217 E5.76880 F540.000
G1 X147.453 Y144.624 E6.32284
G1 X144.905 Y136.388 E7.32617
G1 X149.336 Y135.018 E7.86598
G1 X150.120 Y134.774 F7200.000
G1 X150.849 Y132.307 F7200.000
G1 X142.225 Y134.975 E8.91655 F1080.000
G1 X146.039 Y147.304 E10.41859
G1 X152.900 Y145.181 E11.25446
G1 X152.900 Y151.437 E11.98256
G1 X160.477 Y151.437 E12.86446
G1 X160.477 Y155.978 E13.39292
G1 X144.477 Y155.982 E15.25522
G1 X142.787 Y144.607 E16.59362
G1 X136.246 Y146.985 E17.40365
G1 X134.710 Y142.388 E17.96775
G1 X140.482 Y140.317 E18.68146
G1 X139.232 Y133.337 E19.50683
G1 X145.508 Y125.181 E20.70457
G1 X138.215 Y108.520 E22.82145
G1 X130.432 Y94.016 E24.73720
G1 X121.670 Y91.685 E25.79250
G1 X120.125 Y84.554 E26.64175
G1 X113.909 Y84.976 E27.36696
G1 X113.433 Y80.128 E27.93395
G1 X119.906 Y79.676 E28.68909
G1 X118.755 Y68.718 E29.97150
G1 X165.510 Y54.096 E35.67329
G1 X180.207 Y54.030 E37.38387
G1 X180.207 Y65.813 E38.75534
G1 X186.986 Y65.636 E39.54454
G1 X186.985 Y70.504 E40.11114
G1 X180.207 Y70.700 E40.90038
G1 X180.207 Y91.355 E43.30434
G1 X160.477 Y91.380 E45.60075
G1 X160.477 Y98.607 E46.44187
G1 X152.900 Y98.627 E47.32378
G1 X152.900 Y115.645 E49.30457
G1 X160.477 Y115.615 E50.18649
G1 X160.477 Y134.342 E52.36611
G1 X152.900 Y134.342 E53.24802
G1 X152.900 Y137.470 E53.61212
G1 X152.475 Y137.534 E53.66208
G1 X150.880 Y132.410 E54.28678
G1 X150.379 Y133.200 F7200.000
G1 X143.119 Y135.446 E55.17125 F1080.000
G1 X146.510 Y146.410 E56.50705
G1 X153.614 Y144.213 E57.37251
G1 X153.614 Y150.723 E58.13021
G1 X161.191 Y150.723 E59.01211
G1 X161.191 Y156.691 E59.70675
G1 X143.861 Y156.696 E61.72385
G1 X142.209 Y145.577 E63.03215
G1 X135.801 Y147.907 E63.82572
G1 X133.812 Y141.952 E64.55646
G1 X139.673 Y139.849 E65.28122
G1 X138.473 Y133.152 E66.07311
G1 X144.684 Y125.081 E67.25844
G1 X137.572 Y108.832 E69.32282
G1 X129.949 Y94.626 E71.19921
G1 X121.065 Y92.263 E72.26929
G1 X119.558 Y85.308 E73.09752
G1 X113.266 Y85.735 E73.83157
G1 X112.651 Y79.466 E74.56472
G1 X119.118 Y79.015 E75.31927
G1 X117.983 Y68.211 E76.58367
G1 X165.400 Y53.383 E82.36603
G1 X180.921 Y53.312 E84.17261
G1 X180.921 Y65.080 E85.54226
G1 X187.700 Y64.903 E86.33146
G1 X187.700 Y71.198 E87.06413
G1 X180.921 Y71.394 E87.85337
G1 X180.921 Y92.068 E90.25959
G1 X161.191 Y92.093 E92.55600
G1 X161.191 Y99.319 E93.39701
G1 X153.614 Y99.339 E94.27891
G1 X153.614 Y114.928 E96.09335
G1 X161.191 Y114.898 E96.97526
G1 X161.191 Y135.056 E99.32147
G1 X153.614 Y135.056 E100.20337
G1 X153.614 Y142.167 E101.03110
G1 X153.190 Y142.232 E101.08106
G1 X150.410 Y133.303 E102.16953
G1 X154.328 Y135.770 F7200.000
G1 X154.328 Y150.009 E103.82680 F1080.000
G1 X161.905 Y150.009 E104.70870
G1 X161.905 Y157.405 E105.56952
G1 X143.245 Y157.410 E107.74143
G1 X141.631 Y146.547 E109.01962
G1 X136.315 Y148.480 E109.67802
G1 X135.583 Y149.506 E109.82473
G1 X132.710 Y140.909 E110.87973
G1 X133.801 Y141.197 E111.01108
G1 X138.863 Y139.380 E111.63703
G1 X137.715 Y132.966 E112.39544
G1 X143.861 Y124.980 E113.56837
G1 X136.929 Y109.145 E115.58026
G1 X129.467 Y95.237 E117.41728
G1 X120.459 Y92.841 E118.50213
G1 X118.991 Y86.062 E119.30935
G1 X113.652 Y86.425 E119.93215
G1 X112.692 Y87.200 E120.07578
G1 X111.797 Y78.073 E121.14313
G1 X112.895 Y78.733 E121.29228
G1 X118.331 Y78.354 E121.92647
G1 X117.212 Y67.704 E123.17285
G1 X165.289 Y52.669 E129.03579
G1 X181.636 Y52.595 E130.93837
G1 X181.636 Y64.347 E132.30620
G1 X187.382 Y64.197 E132.97524
G1 X188.414 Y63.431 E133.12484
G1 X188.414 Y72.658 E134.19869
G1 X187.243 Y71.926 E134.35934
G1 X181.636 Y72.088 E135.01229
G1 X181.636 Y92.781 E137.42077
G1 X161.905 Y92.806 E139.71718
G1 X161.905 Y100.031 E140.55807
G1 X154.328 Y100.051 E141.43998
G1 X154.328 Y114.211 E143.08806
G1 X161.905 Y114.181 E143.96997
G1 X161.905 Y135.770 E146.48276
G1 X154.435 Y135.770 E147.35219
G1 X155.042 Y136.484 F7200.000
G1 X155.042 Y149.295 E148.84322 F756.000
G1 X162.620 Y149.295 E149.72512
G1 X162.620 Y158.118 E150.75211
G1 X142.629 Y158.124 E153.07883
G1 X141.053 Y147.517 E154.32692
G1 X136.767 Y149.075 E154.85771
G1 X135.350 Y151.062 E155.14179
G1 X131.614 Y139.880 E156.51391
G1 X133.769 Y140.450 E156.77337
G1 X138.054 Y138.912 E157.30323
G1 X136.956 Y132.781 E158.02814
G1 X143.037 Y124.879 E159.18868
G1 X136.286 Y109.457 E161.14806
G1 X128.984 Y95.848 E162.94572
G1 X119.854 Y93.418 E164.04534
G1 X118.423 Y86.817 E164.83155
G1 X113.925 Y87.122 E165.35630
G1 X112.110 Y88.587 E165.62777
G1 X110.947 Y76.730 E167.01449
G1 X113.070 Y78.005 E167.30274
G1 X117.543 Y77.693 E167.82463
G1 X116.441 Y67.197 E169.05301
G1 X165.179 Y51.955 E174.99652
G1 X182.350 Y51.878 E176.99510
G1 X182.350 Y63.614 E178.36111
G1 X187.138 Y63.489 E178.91856
G1 X189.128 Y62.012 E179.20709
G1 X189.128 Y73.946 E180.59615
G1 X187.048 Y72.646 E180.88162
G1 X182.350 Y72.782 E181.42868
G1 X182.350 Y93.494 E183.83942
G1 X162.619 Y93.520 E186.13583
G1 X162.620 Y100.743 E186.97660
G1 X155.042 Y100.764 E187.85851
G1 X155.042 Y113.494 E189.34023
G1 X162.620 Y113.463 E190.22214
G1 X162.620 Y136.484 E192.90151
G1 X155.149 Y136.484 E193.77095
G1 X154.328 Y136.484 F7200.000
G1 X152.326 Y133.503 F7200.000
G1 X151.454 Y132.631 E193.91477 F1080.000
G1 X146.037 Y125.189 F7200.000
G1 X154.351 Y133.503 E195.28661 F1080.000
G1 X153.338 Y133.503 E195.40476
G1 X145.638 Y125.802 E196.67543
G1 X145.198 Y126.375 E196.75968
G1 X150.678 Y131.855 E197.66413
G1 X149.905 Y132.095 E197.75858
G1 X144.757 Y126.947 E198.60807
G1 X144.317 Y127.519 E198.69232
G1 X149.132 Y132.334 E199.48687
G1 X148.359 Y132.573 E199.58132
G1 X143.877 Y128.091 E200.32092
G1 X143.436 Y128.663 E200.40516
G1 X147.585 Y132.812 E201.08981
G1 X146.812 Y133.052 E201.18426
G1 X142.996 Y129.236 E201.81396
G1 X142.556 Y129.808 E201.89821
G1 X146.039 Y133.291 E202.47295
G1 X145.265 Y133.530 E202.56741
G1 X142.115 Y130.380 E203.08720
G1 X141.675 Y130.952 E203.17145
G1 X144.492 Y133.769 E203.63630
G1 X143.719 Y134.008 E203.73075
G1 X141.235 Y131.524 E204.14065
G1 X140.794 Y132.097 E204.22490
G1 X142.945 Y134.248 E204.57985
G1 X142.172 Y134.487 E204.67430
G1 X140.354 Y132.669 E204.97430
G1 X139.914 Y133.241 E205.05855
G1 X141.754 Y135.081 E205.36222
G1 X142.207 Y136.547 E205.54128
G1 X139.880 Y134.220 E205.92540
G1 X140.101 Y135.453 E206.07162
G1 X142.661 Y138.013 E206.49412
G1 X143.114 Y139.479 E206.67318
G1 X140.321 Y136.687 E207.13405
G1 X140.542 Y137.920 E207.28027
G1 X143.568 Y140.945 E207.77953
G1 X144.021 Y142.411 E207.95859
G1 X140.763 Y139.153 E208.49622
G1 X140.984 Y140.387 E208.64244
G1 X144.475 Y143.877 E209.21845
G1 X144.928 Y145.343 E209.39751
G1 X140.432 Y140.847 E210.13949
G1 X139.687 Y141.115 E210.23187
G1 X145.382 Y146.809 E211.17164
G1 X141.956 Y144.396 F7200.000
G1 X138.942 Y141.382 E211.66908 F1080.000
G1 X138.196 Y141.649 E211.76146
G1 X141.213 Y144.666 E212.25932
G1 X140.471 Y144.936 E212.35152
G1 X137.451 Y141.917 E212.84981
G1 X136.706 Y142.184 E212.94219
G1 X139.728 Y145.206 E213.44091
G1 X138.986 Y145.476 E213.53311
G1 X135.961 Y142.451 E214.03226
G1 X135.386 Y142.889 E214.11657
G1 X138.243 Y145.746 E214.58810
G1 X137.501 Y146.016 E214.68029
G1 X135.894 Y144.409 E214.94543
G1 X136.402 Y145.930 F7200.000
G1 X136.758 Y146.286 E215.00419 F1080.000
G1 X145.353 Y139.867 F7200.000
G1 X144.959 Y155.499 F7200.000
G1 X144.881 Y155.421 E215.01711 F1080.000
G1 X145.971 Y155.499 E215.14470
G1 X144.704 Y154.232 E215.35381
G1 X144.527 Y153.043 E215.49409
G1 X146.983 Y155.499 E215.89940
G1 X147.996 Y155.499 E216.01752
G1 X144.351 Y151.854 E216.61903
G1 X144.174 Y150.664 E216.75931
G1 X149.008 Y155.498 E217.55700
G1 X150.020 Y155.498 E217.67512
G1 X143.997 Y149.475 E218.66902
G1 X143.821 Y148.286 E218.80930
G1 X151.033 Y155.498 E219.99939
G1 X152.045 Y155.498 E220.11751
G1 X143.644 Y147.097 E221.50379
G1 X143.467 Y145.908 E221.64407
G1 X153.057 Y155.497 E223.22655
G1 X154.069 Y155.497 E223.34467
G1 X146.300 Y147.728 E224.62681
G1 X147.073 Y147.488 E224.72126
G1 X155.082 Y155.497 E226.04284
G1 X156.094 Y155.497 E226.16096
G1 X147.846 Y147.249 E227.52197
G1 X148.620 Y147.010 E227.61642
G1 X152.418 Y150.808 E228.24320
G1 X152.418 Y149.796 E228.36135
G1 X149.393 Y146.771 E228.86051
G1 X150.166 Y146.531 E228.95496
G1 X152.418 Y148.783 E229.32651
G1 X152.418 Y147.770 E229.44466
G1 X150.940 Y146.292 E229.68859
G1 X151.713 Y146.053 E229.78305
G1 X152.418 Y146.758 E229.89937
G1 X153.529 Y151.919 F7200.000
G1 X157.106 Y155.496 E230.48969 F1080.000
G1 X158.119 Y155.496 E230.60781
G1 X154.542 Y151.919 E231.19810
G1 X155.554 Y151.919 E231.31625
G1 X159.131 Y155.496 E231.90649
G1 X159.995 Y155.348 E232.00880
G1 X156.567 Y151.919 E232.57457
G1 X157.579 Y151.919 E232.69271
G1 X159.995 Y154.335 E233.09139
G1 X159.995 Y153.323 E233.20954
G1 X158.592 Y151.919 E233.44112
G1 X159.604 Y151.919 E233.55927
G1 X159.995 Y152.310 E233.62377
G1 X152.860 Y157.521 F7200.000
G1 X154.442 Y144.255 F7200.000
G1 X145.249 Y123.389 F7200.000
G1 X155.363 Y133.503 E235.29277 F1080.000
G1 X156.376 Y133.503 E235.41092
G1 X144.461 Y121.588 E237.37708
G1 X143.673 Y119.787 F7200.000
G1 X157.388 Y133.503 E239.64039 F1080.000
G1 X158.401 Y133.503 E239.75854
G1 X142.885 Y117.986 E242.31902
G1 X142.096 Y116.186 F7200.000
G1 X159.413 Y133.503 E245.17665 F1080.000
G1 X159.638 Y132.715 E245.27225
G1 X141.308 Y114.385 E248.29702
G1 X140.520 Y112.584 F7200.000
G1 X159.638 Y131.702 E251.45186 F1080.000
G1 X159.638 Y130.690 E251.57001
G1 X139.732 Y110.783 E254.85492
G1 X138.943 Y108.982 F7200.000
G1 X159.638 Y129.677 E258.26990 F1080.000
G1 X159.638 Y128.665 E258.38805
G1 X137.915 Y106.941 E261.97278
G1 X136.742 Y104.756 F7200.000
G1 X159.638 Y127.652 E265.75098 F1080.000
G1 X159.638 Y126.639 E265.86913
G1 X135.570 Y102.571 E269.84080
G1 X134.398 Y100.386 F7200.000
G1 X159.638 Y125.627 E274.00594 F1080.000
G1 X159.638 Y124.614 E274.12409
G1 X133.225 Y98.201 E278.48270
G1 X132.053 Y96.017 F7200.000
G1 X159.638 Y123.602 E283.03478 F1080.000
G1 X159.638 Y122.589 E283.15293
G1 X153.175 Y116.126 E284.21944
G1 X154.183 Y116.122 E284.33711
G1 X159.638 Y121.577 E285.23721
G1 X159.638 Y120.564 E285.35536
G1 X155.192 Y116.118 E286.08905
G1 X156.200 Y116.114 E286.20673
G1 X159.638 Y119.552 E286.77400
G1 X159.638 Y118.539 E286.89215
G1 X157.209 Y116.110 E287.29302
G1 X158.217 Y116.106 E287.41069
G1 X159.638 Y117.527 E287.64514
G1 X159.638 Y116.514 E287.76329
G1 X159.226 Y116.102 E287.83133
G1 X152.418 Y115.369 F7200.000
G1 X117.384 Y80.335 E293.61261 F1080.000
G1 X118.330 Y80.269 E293.72332
G1 X152.418 Y114.357 E299.34841
G1 X152.418 Y113.344 E299.46656
G1 X119.277 Y80.203 E304.93546
G1 X120.223 Y80.137 E305.04617
G1 X152.418 Y112.332 E310.35888
G1 X152.418 Y111.319 E310.47703
G1 X120.345 Y79.246 E315.76963
G1 X120.226 Y78.115 E315.90237
G1 X152.418 Y110.307 E321.21457
G1 X152.418 Y109.294 E321.33272
G1 X120.107 Y76.984 E326.66454
G1 X119.989 Y75.852 E326.79728
G1 X152.418 Y108.281 E332.14871
G1 X152.418 Y107.269 E332.26686
G1 X119.870 Y74.721 E337.63789
G1 X119.751 Y73.589 E337.77064
G1 X152.418 Y106.256 E343.16128
G1 X152.418 Y105.244 E343.27943
G1 X119.632 Y72.458 E348.68969
G1 X119.513 Y71.327 E348.82243
G1 X152.418 Y104.231 E354.25230
G1 X152.418 Y103.219 E354.37045
G1 X119.394 Y70.195 E359.81993
G1 X119.306 Y69.094 E359.94886
G1 X152.418 Y102.206 E365.41299
G1 X152.418 Y101.194 E365.53114
G1 X120.044 Y68.820 E370.87342
G1 X120.815 Y68.579 E370.96772
G1 X139.333 Y87.096 E374.02348
G1 X140.143 Y87.906 F7200.000
G1 X152.418 Y100.181 E376.04915 F1080.000
G1 X152.418 Y99.169 E376.16729
G1 X140.916 Y87.667 E378.06534
G1 X141.689 Y87.427 E378.15980
G1 X152.418 Y98.156 E379.93023
G1 X153.418 Y98.143 E380.04693
G1 X142.463 Y87.188 E381.85477
G1 X143.236 Y86.949 E381.94922
G1 X154.428 Y98.141 E383.79609
G1 X155.438 Y98.138 E383.91392
G1 X144.009 Y86.710 E385.79982
G1 X144.783 Y86.470 E385.89427
G1 X156.447 Y98.135 E387.81920
G1 X157.457 Y98.133 E387.93703
G1 X145.556 Y86.231 E389.90098
G1 X146.329 Y85.992 E389.99544
G1 X158.467 Y98.130 E391.99842
G1 X159.477 Y98.127 E392.11625
G1 X147.103 Y85.753 E394.15826
G1 X147.876 Y85.514 E394.25271
G1 X159.995 Y97.633 E396.25261
G1 X159.995 Y96.620 E396.37075
G1 X148.649 Y85.274 E398.24303
G1 X149.066 Y84.679 E398.32786
G1 X159.995 Y95.608 E400.13127
G1 X159.995 Y94.595 E400.24942
G1 X148.609 Y83.209 E402.12835
G1 X148.151 Y81.739 E402.30801
G1 X159.995 Y93.583 E404.26245
G1 X159.995 Y92.570 E404.38060
