; generated by Slic3r 1.0.0RC2 on 2014-05-15 at 11:38:20

; layer_height = 0.3
; perimeters = 4
; top_solid_layers = 3
; bottom_solid_layers = 3
; fill_density = 0.1
; perimeter_speed = 60
; infill_speed = 60
; travel_speed = 120
; nozzle_diameter = 0.4
; filament_diameter = 1.75
; extrusion_multiplier = 0.98
; perimeters extrusion width = 0.40mm
; infill extrusion width = 0.42mm
; solid infill extrusion width = 0.42mm
; top infill extrusion width = 0.42mm
; first layer extrusion width = 0.80mm

G21 ; set units to millimeters
M107
M104 S220 ; set temperature
G28 ; home all axes
M106 S255;
G1 Z200 F1200 ; lift nozzle
M109 S220 ; wait for temperature to be reached
G90 ; use absolute coordinates
G92 E0
M82 ; use absolute distances for extrusion
G1 F1800.000 E-1.00000
G92 E0
G1 Z0.400 F7200.000
G1 X113.661 Y63.406 F7200.000
G1 E1.00000 F1800.000
G1 X114.651 Y62.146 E1.18650 F1080.000
G1 X115.921 Y61.156 E1.37392
G1 X117.391 Y60.496 E1.56147
G1 X166.501 Y45.136 E7.55043
G1 X167.471 Y44.906 E7.66646
G1 X168.471 Y44.836 E7.78313
G1 X186.101 Y44.766 E9.83510
G1 X187.421 Y44.886 E9.98937
G1 X188.681 Y45.266 E10.14255
G1 X189.851 Y45.886 E10.29666
G1 X190.871 Y46.716 E10.44972
G1 X191.711 Y47.736 E10.60351
G1 X192.331 Y48.896 E10.75660
G1 X192.711 Y50.166 E10.91089
G1 X192.841 Y51.476 E11.06411
G1 X192.841 Y121.366 E19.19859
G1 X192.701 Y122.746 E19.36004
G1 X192.281 Y124.066 E19.52126
G1 X191.591 Y125.266 E19.68237
G1 X171.761 Y153.006 E23.65114
G1 X164.281 Y162.636 E25.07037
G1 X163.221 Y163.726 E25.24733
G1 X161.931 Y164.546 E25.42524
G1 X160.491 Y165.056 E25.60304
G1 X158.981 Y165.226 E25.77990
G1 X145.671 Y165.226 E27.32905
G1 X144.011 Y165.026 E27.52365
G1 X142.451 Y164.406 E27.71904
G1 X141.091 Y163.426 E27.91414
G1 X134.021 Y156.836 E29.03905
G1 X133.021 Y155.656 E29.21908
G1 X132.311 Y154.276 E29.39971
G1 X108.881 Y91.706 E37.17606
G1 X108.631 Y90.876 E37.27695
G1 X108.491 Y90.006 E37.37951
G1 X107.181 Y76.626 E38.94425
G1 X107.191 Y75.186 E39.11186
G1 X107.511 Y73.786 E39.27901
G1 X108.131 Y72.476 E39.44769
G1 X113.605 Y63.497 E40.67162
G1 F1800.000 E39.67162
G92 E0
G1 X156.198 Y63.380 F7200.000
G1 E1.00000 F1800.000
G1 X168.847 Y63.471 E2.47220 F1080.000
G1 X168.847 Y79.825 E4.37562
G1 X156.198 Y79.829 E5.84778
G1 X156.198 Y63.487 E7.74986
G1 X156.912 Y64.099 F7200.000
G1 X168.132 Y64.180 E9.05581 F1080.000
G1 X168.132 Y79.111 E10.79361
G1 X156.912 Y79.115 E12.09953
G1 X156.912 Y64.206 E13.83474
G1 X157.626 Y64.819 F7200.000
G1 X167.418 Y64.889 E14.97444 F1080.000
G1 X167.418 Y78.397 E16.54663
G1 X157.626 Y78.401 E17.68630
G1 X157.626 Y64.926 E19.25464
G1 X158.341 Y65.538 F7200.000
G1 X166.704 Y65.598 E20.22809 F756.000
G1 X166.704 Y77.683 E21.63466
G1 X158.341 Y77.686 E22.60810
G1 X158.341 Y65.645 E24.00956
G1 X158.344 Y64.824 F7200.000
G1 X148.149 Y72.464 F7200.000
G1 X151.984 Y84.787 E25.51162 F1080.000
G1 X143.340 Y87.461 E26.56482
G1 X139.526 Y75.132 E28.06687
G1 X148.047 Y72.496 E29.10497
G1 X147.679 Y73.357 F7200.000
G1 X151.090 Y84.316 E30.44078 F540.000
G1 X143.811 Y86.567 E31.32760
G1 X140.419 Y75.603 E32.66340
G1 X147.577 Y73.389 E33.53541
G1 X147.209 Y74.250 F7200.000
G1 X150.195 Y83.845 E34.70498 F540.000
G1 X144.282 Y85.674 E35.42541
G1 X141.313 Y76.074 E36.59497
G1 X147.107 Y74.282 E37.30088
G1 X146.739 Y75.143 F7200.000
G1 X149.301 Y83.374 E38.30421 F540.000
G1 X144.753 Y84.781 E38.85826
G1 X142.206 Y76.545 E39.86158
G1 X146.637 Y75.175 E40.40139
G1 X147.421 Y74.931 F7200.000
G1 X156.123 Y98.627 F7200.000
G1 X168.884 Y98.593 E41.88674 F1080.000
G1 X168.902 Y115.594 E43.86550
G1 X156.140 Y115.645 E45.35085
G1 X156.123 Y98.734 E47.31917
G1 X156.837 Y99.339 F7200.000
G1 X168.171 Y99.309 E48.63828 F1080.000
G1 X168.187 Y114.883 E50.45090
G1 X156.853 Y114.928 E51.77001
G1 X156.838 Y99.446 E53.57198
G1 X157.552 Y100.051 F7200.000
G1 X167.457 Y100.025 E54.72484 F1080.000
G1 X167.472 Y114.172 E56.37134
G1 X157.567 Y114.211 E57.52420
G1 X157.552 Y100.158 E59.15981
G1 X158.267 Y100.764 F7200.000
G1 X166.744 Y100.741 E60.14644 F756.000
G1 X166.757 Y113.460 E61.62681
G1 X158.280 Y113.494 E62.61343
G1 X158.267 Y100.871 E64.08268
G1 X158.266 Y100.049 F7200.000
G1 X154.238 Y132.307 F7200.000
G1 X158.073 Y144.630 E65.58474 F1080.000
G1 X149.428 Y147.304 E66.63795
G1 X145.615 Y134.975 E68.13999
G1 X154.135 Y132.339 E69.17810
G1 X153.768 Y133.200 F7200.000
G1 X157.179 Y144.159 E70.51391 F540.000
G1 X149.900 Y146.410 E71.40073
G1 X146.508 Y135.446 E72.73653
G1 X153.665 Y133.232 E73.60854
G1 X153.298 Y134.093 F7200.000
G1 X156.284 Y143.688 E74.77811 F540.000
G1 X150.371 Y145.517 E75.49854
G1 X147.401 Y135.917 E76.66811
G1 X153.195 Y134.125 E77.37402
G1 X152.828 Y134.986 F7200.000
G1 X155.390 Y143.217 E78.37734 F540.000
G1 X150.842 Y144.624 E78.93139
G1 X148.295 Y136.388 E79.93471
G1 X152.725 Y135.018 E80.47452
G1 X153.510 Y134.774 F7200.000
G1 X148.897 Y125.181 F7200.000
G1 X141.604 Y108.520 E82.59141 F1080.000
G1 X133.822 Y94.016 E84.50716
G1 X125.059 Y91.685 E85.56246
G1 X123.515 Y84.554 E86.41171
G1 X117.298 Y84.976 E87.13691
G1 X116.823 Y80.128 E87.70390
G1 X123.295 Y79.676 E88.45905
G1 X122.144 Y68.718 E89.74145
G1 X168.900 Y54.096 E95.44325
G1 X183.597 Y54.030 E97.15383
G1 X183.597 Y60.594 E97.91781
G1 X182.763 Y60.572 E98.01484
G1 X176.825 Y56.160 E98.87583
G1 X176.824 Y79.381 E101.57843
G1 X182.558 Y75.613 E102.37697
G1 X183.597 Y75.642 E102.49786
G1 X183.597 Y95.987 E104.86571
G1 X182.763 Y95.965 E104.96274
G1 X176.825 Y91.553 E105.82373
G1 X176.824 Y114.773 E108.52630
G1 X182.558 Y111.006 E109.32484
G1 X183.597 Y111.035 E109.44573
G1 X183.597 Y118.826 E110.35249
G1 X163.921 Y118.826 E112.64255
G1 X163.921 Y146.352 E115.84634
G1 X156.442 Y146.352 E116.71684
G1 X156.442 Y155.981 E117.83759
G1 X147.866 Y155.981 E118.83572
G1 X146.176 Y144.607 E120.17412
G1 X139.635 Y146.985 E120.98416
G1 X138.100 Y142.388 E121.54825
G1 X143.871 Y140.317 E122.26196
G1 X142.621 Y133.337 E123.08734
G1 X148.832 Y125.266 E124.27261
G1 X148.073 Y125.081 F7200.000
G1 X140.961 Y108.832 E126.33699 F1080.000
G1 X133.339 Y94.626 E128.21338
G1 X124.454 Y92.263 E129.28345
G1 X122.947 Y85.308 E130.11169
G1 X116.655 Y85.735 E130.84573
G1 X116.040 Y79.466 E131.57888
G1 X122.507 Y79.015 E132.33343
G1 X121.373 Y68.211 E133.59783
G1 X168.789 Y53.383 E139.38020
G1 X184.311 Y53.312 E141.18678
G1 X184.311 Y61.327 E142.11958
G1 X182.519 Y61.280 E142.32823
G1 X177.539 Y57.581 E143.05022
G1 X177.539 Y78.057 E145.43344
G1 X182.354 Y74.893 E146.10405
G1 X184.311 Y74.948 E146.33189
G1 X184.311 Y96.720 E148.86589
G1 X182.519 Y96.673 E149.07454
G1 X177.539 Y92.974 E149.79653
G1 X177.539 Y113.450 E152.17974
G1 X182.354 Y110.286 E152.85034
G1 X184.311 Y110.341 E153.07818
G1 X184.311 Y119.540 E154.14888
G1 X164.635 Y119.540 E156.43895
G1 X164.635 Y147.066 E159.64274
G1 X157.156 Y147.066 E160.51324
G1 X157.156 Y156.696 E161.63399
G1 X147.250 Y156.696 E162.78693
G1 X145.598 Y145.577 E164.09523
G1 X139.190 Y147.907 E164.88880
G1 X137.201 Y141.952 E165.61954
G1 X143.062 Y139.849 E166.34429
G1 X141.862 Y133.152 E167.13618
G1 X148.008 Y125.165 E168.30905
G1 X147.250 Y124.980 F7200.000
G1 X140.318 Y109.145 E170.32093 F1080.000
G1 X132.856 Y95.237 E172.15796
G1 X123.848 Y92.841 E173.24281
G1 X122.380 Y86.062 E174.05003
G1 X117.041 Y86.425 E174.67283
G1 X116.081 Y87.200 E174.81645
G1 X115.186 Y78.073 E175.88380
G1 X116.284 Y78.733 E176.03296
G1 X121.720 Y78.354 E176.66714
G1 X120.601 Y67.704 E177.91353
G1 X168.678 Y52.669 E183.77647
G1 X185.025 Y52.595 E185.67904
G1 X185.025 Y62.060 E186.78066
G1 X182.274 Y61.988 E187.10093
G1 X178.253 Y59.001 E187.68393
G1 X178.253 Y76.733 E189.74778
G1 X182.149 Y74.173 E190.29045
G1 X185.025 Y74.254 E190.62526
G1 X185.025 Y97.453 E193.32539
G1 X182.274 Y97.381 E193.64566
G1 X178.253 Y94.394 E194.22865
G1 X178.253 Y112.126 E196.29249
G1 X182.149 Y109.566 E196.83516
G1 X185.025 Y109.646 E197.16996
G1 X185.025 Y120.254 E198.40461
G1 X165.349 Y120.254 E200.69467
G1 X165.349 Y147.781 E203.89846
G1 X157.870 Y147.781 E204.76896
G1 X157.870 Y157.410 E205.88971
G1 X146.634 Y157.410 E207.19746
G1 X145.020 Y146.547 E208.47565
G1 X139.704 Y148.480 E209.13405
G1 X138.972 Y149.506 E209.28076
G1 X136.099 Y140.909 E210.33576
G1 X137.190 Y141.197 E210.46711
G1 X142.253 Y139.380 E211.09307
G1 X141.104 Y132.966 E211.85147
G1 X147.184 Y125.065 E213.01194
G1 X146.426 Y124.879 F7200.000
G1 X139.676 Y109.457 E214.97132 F756.000
G1 X132.373 Y95.848 E216.76898
G1 X123.243 Y93.418 E217.86860
G1 X121.813 Y86.817 E218.65481
G1 X117.315 Y87.122 E219.17956
G1 X115.500 Y88.587 E219.45103
G1 X114.337 Y76.730 E220.83775
G1 X116.459 Y78.005 E221.12600
G1 X120.932 Y77.693 E221.64789
G1 X119.830 Y67.197 E222.87627
G1 X168.568 Y51.955 E228.81978
G1 X185.739 Y51.878 E230.81835
G1 X185.739 Y62.793 E232.08879
G1 X182.030 Y62.696 E232.52068
G1 X178.967 Y60.421 E232.96468
G1 X178.967 Y75.409 E234.70916
G1 X181.945 Y73.453 E235.12389
G1 X185.739 Y73.559 E235.56566
G1 X185.739 Y98.186 E238.43193
G1 X182.030 Y98.089 E238.86382
G1 X178.967 Y95.814 E239.30781
G1 X178.967 Y110.802 E241.05229
G1 X181.945 Y108.846 E241.46702
G1 X185.739 Y108.952 E241.90878
G1 X185.739 Y120.968 E243.30737
G1 X166.063 Y120.968 E245.59743
G1 X166.063 Y148.495 E248.80122
G1 X158.584 Y148.495 E249.67172
G1 X158.584 Y158.124 E250.79247
G1 X146.018 Y158.124 E252.25503
G1 X144.443 Y147.517 E253.50312
G1 X140.157 Y149.075 E254.03391
G1 X138.739 Y151.062 E254.31799
G1 X135.003 Y139.880 E255.69011
G1 X137.158 Y140.450 E255.94957
G1 X141.443 Y138.912 E256.47943
G1 X140.345 Y132.781 E257.20435
G1 X146.361 Y124.964 E258.35241
G1 X147.023 Y124.488 F7200.000
G1 X148.056 Y122.057 F7200.000
G1 X163.082 Y137.083 E260.83842 F1080.000
G1 X163.082 Y138.098 E260.95718
G1 X148.846 Y123.862 E263.31245
G1 X149.350 Y125.382 E263.49979
G1 X163.082 Y139.114 E265.77157
G1 X163.082 Y140.129 E265.89033
G1 X148.909 Y125.956 E268.23515
G1 X148.468 Y126.530 E268.31984
G1 X153.858 Y131.920 E269.21171
G1 X154.967 Y133.029 F7200.000
G1 X163.082 Y141.144 E270.55423 F1080.000
G1 X163.082 Y142.159 E270.67299
G1 X155.426 Y134.503 E271.93962
G1 X155.885 Y135.977 E272.12021
G1 X163.082 Y143.174 E273.31094
G1 X163.082 Y144.189 E273.42970
G1 X156.343 Y137.451 E274.54453
G1 X156.802 Y138.925 E274.72511
G1 X163.082 Y145.205 E275.76405
G1 X162.375 Y145.513 E275.85424
G1 X157.261 Y140.399 E276.70040
G1 X157.720 Y141.873 E276.88099
G1 X161.360 Y145.513 E277.48330
G1 X159.180 Y145.364 F7200.000
G1 X159.330 Y145.513 E277.50807 F1080.000
G1 X160.345 Y145.513 E277.62683
G1 X158.178 Y143.347 E277.98529
G1 X154.867 Y146.126 F7200.000
G1 X155.603 Y146.862 E278.10704 F1080.000
G1 X155.603 Y147.877 E278.22580
G1 X154.091 Y146.366 E278.47583
G1 X153.316 Y146.605 E278.57077
G1 X155.603 Y148.892 E278.94907
G1 X155.603 Y149.907 E279.06783
G1 X152.541 Y146.845 E279.57440
G1 X151.765 Y147.085 E279.66935
G1 X155.603 Y150.922 E280.30420
G1 X155.603 Y151.938 E280.42296
G1 X150.990 Y147.325 E281.18608
G1 X150.215 Y147.565 E281.28102
G1 X155.603 Y152.953 E282.17242
G1 X155.603 Y153.968 E282.29118
G1 X146.737 Y145.102 E283.75795
G1 X148.008 Y144.343 E283.93116
G1 X144.330 Y140.665 E284.53972
G1 X147.553 Y142.873 F7200.000
G1 X144.222 Y139.542 E285.09090 F1080.000
G1 X144.000 Y138.305 E285.23787
G1 X147.099 Y141.403 E285.75047
G1 X146.644 Y139.934 E285.93046
G1 X143.779 Y137.068 E286.40448
G1 X143.558 Y135.832 E286.55145
G1 X146.190 Y138.464 E286.98690
G1 X145.735 Y136.994 E287.16689
G1 X143.336 Y134.595 E287.56376
G1 X143.170 Y133.414 E287.70332
G1 X145.280 Y135.524 E288.05247
G1 X145.330 Y134.559 E288.16558
G1 X143.611 Y132.840 E288.44988
G1 X144.053 Y132.266 E288.53457
G1 X146.105 Y134.319 E288.87410
G1 X146.880 Y134.079 E288.96904
G1 X144.494 Y131.693 E289.36381
G1 X144.936 Y131.119 E289.44850
G1 X147.656 Y133.839 E289.89850
G1 X148.431 Y133.599 E289.99344
G1 X145.377 Y130.545 E290.49868
G1 X145.819 Y129.972 E290.58336
G1 X149.206 Y133.359 E291.14383
G1 X149.982 Y133.120 E291.23877
G1 X146.260 Y129.398 E291.85447
G1 X146.702 Y128.824 E291.93916
G1 X150.757 Y132.880 E292.61009
G1 X151.532 Y132.640 E292.70503
G1 X147.143 Y128.251 E293.43120
G1 X147.585 Y127.677 E293.51589
G1 X152.308 Y132.400 E294.29729
G1 X153.083 Y132.160 E294.39223
G1 X148.026 Y127.103 E295.22886
G1 X147.265 Y120.252 F7200.000
G1 X163.082 Y136.068 E297.84562 F1080.000
G1 X163.082 Y135.053 E297.96438
G1 X146.475 Y118.446 E300.71188
G1 X145.685 Y116.641 F7200.000
G1 X163.082 Y134.038 E303.59012 F1080.000
G1 X163.082 Y133.023 E303.70888
G1 X144.895 Y114.835 E306.71787
G1 X144.104 Y113.030 F7200.000
G1 X163.082 Y132.008 E309.85760 F1080.000
G1 X163.082 Y130.992 E309.97636
G1 X143.314 Y111.225 E313.24683
G1 X142.524 Y109.419 F7200.000
G1 X163.082 Y129.977 E316.64805 F1080.000
G1 X163.082 Y128.962 E316.76681
G1 X141.585 Y107.465 E320.32330
G1 X140.410 Y105.275 F7200.000
G1 X163.082 Y127.947 E324.07426 F1080.000
G1 X163.082 Y126.932 E324.19302
G1 X139.234 Y103.084 E328.13845
G1 X138.059 Y100.894 F7200.000
G1 X163.082 Y125.917 E332.27835 F1080.000
G1 X163.082 Y124.901 E332.39711
G1 X136.883 Y98.703 E336.73148
G1 X135.708 Y96.513 F7200.000
G1 X163.082 Y123.886 E341.26031 F1080.000
G1 X163.082 Y122.871 E341.37907
G1 X156.337 Y116.126 E342.49497
G1 X155.658 Y115.447 F7200.000
G1 X120.560 Y80.350 E348.30161 F1080.000
G1 X121.509 Y80.284 E348.41290
G1 X155.657 Y114.431 E354.06238
G1 X155.656 Y113.415 E354.18126
G1 X122.458 Y80.217 E359.67357
G1 X123.407 Y80.151 E359.78485
G1 X155.655 Y112.399 E365.11999
G1 X155.654 Y111.382 E365.23887
G1 X123.760 Y79.489 E370.51553
G1 X123.641 Y78.354 E370.64895
G1 X155.653 Y110.366 E375.94515
G1 X155.652 Y109.350 E376.06403
G1 X123.522 Y77.220 E381.37976
G1 X123.402 Y76.086 E381.51319
G1 X155.651 Y108.334 E386.84846
G1 X155.650 Y107.318 E386.96734
G1 X123.283 Y74.951 E392.32216
G1 X123.164 Y73.817 E392.45558
G1 X155.648 Y106.301 E397.82994
G1 X155.647 Y105.285 E397.94882
G1 X123.045 Y72.683 E403.34272
G1 X122.926 Y71.548 E403.47615
G1 X155.646 Y104.269 E408.88958
G1 X155.645 Y103.253 E409.00846
G1 X122.807 Y70.414 E414.44144
G1 X122.688 Y69.280 E414.57487
G1 X155.644 Y102.237 E420.02739
G1 X155.643 Y101.220 E420.14627
G1 X123.288 Y68.865 E425.49927
G1 X124.061 Y68.623 E425.59406
G1 X155.642 Y100.204 E430.81896
G1 X155.641 Y99.188 E430.93784
G1 X144.163 Y87.710 E432.83678
G1 X144.939 Y87.470 E432.93173
G1 X155.640 Y98.172 E434.70223
G1 X156.627 Y98.144 E434.81771
G1 X145.714 Y87.231 E436.62319
G1 X146.489 Y86.991 E436.71813
G1 X157.639 Y98.141 E438.56285
G1 X158.652 Y98.138 E438.68130
G1 X147.265 Y86.751 E440.56525
G1 X148.040 Y86.511 E440.66019
G1 X159.664 Y98.136 E442.58338
G1 X160.677 Y98.133 E442.70183
G1 X148.815 Y86.271 E444.66425
G1 X149.591 Y86.031 E444.75920
G1 X161.689 Y98.130 E446.76086
G1 X162.702 Y98.128 E446.87930
G1 X150.366 Y85.792 E448.92020
G1 X151.141 Y85.552 E449.01514
G1 X163.714 Y98.125 E451.09527
G1 X164.727 Y98.122 E451.21372
G1 X151.917 Y85.312 E453.33309
G1 X152.527 Y84.907 E453.41875
G1 X165.739 Y98.120 E455.60474
G1 X166.752 Y98.117 E455.72318
G1 X152.068 Y83.433 E458.15258
G1 X151.609 Y81.959 E458.33317
G1 X167.764 Y98.114 E461.00597
G1 X168.777 Y98.111 E461.12442
G1 X151.150 Y80.485 E464.04064
G1 X150.691 Y79.011 E464.22122
G1 X176.343 Y104.662 E468.46510
G1 X176.343 Y103.647 E468.58385
G1 X150.233 Y77.537 E472.90363
G1 X149.774 Y76.063 E473.08421
G1 X176.343 Y102.632 E477.47989
G1 X176.343 Y101.617 E477.59865
G1 X149.315 Y74.589 E482.07023
G1 X148.856 Y73.115 E482.25082
G1 X176.343 Y100.602 E486.79831
G1 X176.343 Y99.587 E486.91706
G1 X157.067 Y80.311 E490.10614
G1 X158.082 Y80.311 E490.22485
G1 X176.343 Y98.572 E493.24604
G1 X176.343 Y97.557 E493.36479
G1 X159.097 Y80.310 E496.21810
G1 X160.111 Y80.310 E496.33682
G1 X176.343 Y96.541 E499.02224
G1 X176.343 Y95.526 E499.14100
G1 X161.126 Y80.309 E501.65855
G1 X162.141 Y80.309 E501.77726
G1 X176.343 Y94.511 E504.12692
G1 X176.343 Y93.496 E504.24568
G1 X163.156 Y80.309 E506.42746
G1 X164.171 Y80.308 E506.54618
G1 X176.343 Y92.481 E508.56008
G1 X176.343 Y91.466 E508.67883
G1 X165.185 Y80.308 E510.52486
G1 X166.200 Y80.307 E510.64357
G1 X176.905 Y91.012 E512.41462
