; generated by Slic3r 1.0.0RC2 on 2014-05-15 at 11:30:36

; layer_height = 0.3
; perimeters = 4
; top_solid_layers = 3
; bottom_solid_layers = 3
; fill_density = 0.1
; perimeter_speed = 60
; infill_speed = 60
; travel_speed = 120
; nozzle_diameter = 0.4
; filament_diameter = 1.75
; extrusion_multiplier = 0.98
; perimeters extrusion width = 0.40mm
; infill extrusion width = 0.42mm
; solid infill extrusion width = 0.42mm
; top infill extrusion width = 0.42mm
; first layer extrusion width = 0.80mm

G21 ; set units to millimeters
M107
M104 S220 ; set temperature
G28 ; home all axes
M106 S255;
G1 Z200 F1200 ; lift nozzle
M109 S220 ; wait for temperature to be reached
G90 ; use absolute coordinates
G92 E0
M82 ; use absolute distances for extrusion
G1 F1800.000 E-1.00000
G92 E0
G1 Z0.400 F7200.000
G1 X104.337 Y58.566 F7200.000
G1 E1.00000 F1800.000
G1 X104.997 Y57.386 E1.15736 F1080.000
G1 X111.767 Y47.646 E2.53795
G1 X112.607 Y46.656 E2.68906
G1 X113.617 Y45.846 E2.83975
G1 X114.767 Y45.246 E2.99072
G1 X116.017 Y44.886 E3.14212
G1 X117.307 Y44.766 E3.29291
G1 X134.877 Y44.836 E5.33790
G1 X135.877 Y44.906 E5.45457
G1 X136.847 Y45.136 E5.57060
G1 X185.947 Y60.496 E11.55845
G1 X187.417 Y61.156 E11.74600
G1 X188.677 Y62.146 E11.93250
G1 X189.677 Y63.406 E12.11972
G1 X195.217 Y72.476 E13.35673
G1 X195.837 Y73.786 E13.52541
G1 X196.157 Y75.186 E13.69256
G1 X196.167 Y76.626 E13.86017
G1 X194.857 Y90.006 E15.42491
G1 X194.717 Y90.876 E15.52747
G1 X194.467 Y91.716 E15.62948
G1 X171.027 Y154.286 E23.40623
G1 X170.317 Y155.656 E23.58583
G1 X169.317 Y156.836 E23.76585
G1 X162.257 Y163.426 E24.88992
G1 X160.897 Y164.406 E25.08502
G1 X159.337 Y165.016 E25.27998
G1 X157.677 Y165.226 E25.47472
G1 X132.147 Y165.226 E28.44616
G1 X130.397 Y164.996 E28.65159
G1 X128.767 Y164.316 E28.85715
G1 X113.897 Y155.646 E30.86057
G1 X113.517 Y155.406 E30.91288
G1 X106.747 Y150.836 E31.86356
G1 X105.737 Y150.006 E32.01572
G1 X104.917 Y148.986 E32.16804
G1 X104.297 Y147.836 E32.32010
G1 X103.917 Y146.576 E32.47328
G1 X103.797 Y145.276 E32.62523
G1 X103.797 Y61.216 E42.40896
G1 X103.927 Y59.866 E42.56681
G1 X104.305 Y58.668 E42.71300
G1 F1800.000 E41.71300
G92 E0
G1 X134.507 Y63.471 F7200.000
G1 E1.00000 F1800.000
G1 X147.156 Y63.380 E2.47219 F1080.000
G1 X147.156 Y79.829 E4.38672
G1 X134.507 Y79.824 E5.85887
G1 X134.507 Y63.578 E7.74981
G1 X135.222 Y64.180 F7200.000
G1 X146.442 Y64.099 E9.05576 F1080.000
G1 X146.442 Y79.115 E10.80341
G1 X135.222 Y79.111 E12.10933
G1 X135.222 Y64.287 E13.83465
G1 X135.936 Y64.889 F7200.000
G1 X145.728 Y64.819 E14.97435 F1080.000
G1 X145.728 Y78.400 E16.55513
G1 X135.936 Y78.397 E17.69480
G1 X135.936 Y64.996 E19.25451
G1 X136.650 Y65.598 F7200.000
G1 X145.013 Y65.538 E20.22796 F756.000
G1 X145.013 Y77.686 E21.64186
G1 X136.650 Y77.683 E22.61530
G1 X136.650 Y65.705 E24.00938
G1 X136.646 Y64.884 F7200.000
G1 F1800.000 E23.00938
G92 E0
G1 X155.205 Y72.464 F7200.000
G1 E1.00000 F1800.000
G1 X163.828 Y75.132 E2.05057 F1080.000
G1 X160.014 Y87.461 E3.55262
G1 X151.370 Y84.787 E4.60583
G1 X155.173 Y72.567 E6.09541
G1 X155.675 Y73.357 F7200.000
G1 X162.935 Y75.603 E6.97989 F540.000
G1 X159.543 Y86.567 E8.31569
G1 X152.264 Y84.316 E9.20252
G1 X155.643 Y73.460 E10.52586
G1 X156.145 Y74.250 F7200.000
G1 X162.041 Y76.074 E11.24424 F540.000
G1 X159.072 Y85.674 E12.41380
G1 X153.159 Y83.845 E13.13424
G1 X156.113 Y74.353 E14.29134
G1 X156.615 Y75.143 F7200.000
G1 X161.148 Y76.545 E14.84362 F540.000
G1 X158.601 Y84.781 E15.84695
G1 X154.053 Y83.374 E16.40099
G1 X156.583 Y75.245 E17.39185
G1 X156.826 Y74.461 F7200.000
G1 X147.232 Y98.627 F7200.000
G1 X147.214 Y115.645 E19.37265 F1080.000
G1 X134.452 Y115.594 E20.85800
G1 X134.470 Y98.593 E22.83675
G1 X147.124 Y98.626 E24.30964
G1 X146.517 Y99.339 F7200.000
G1 X146.501 Y114.928 E26.12408 F1080.000
G1 X135.167 Y114.883 E27.44318
G1 X135.183 Y99.309 E29.25581
G1 X146.410 Y99.339 E30.56245
G1 X145.802 Y100.051 F7200.000
G1 X145.787 Y114.211 E32.21053 F1080.000
G1 X135.882 Y114.172 E33.36340
G1 X135.897 Y100.025 E35.00990
G1 X145.695 Y100.051 E36.15030
G1 X145.087 Y100.764 F7200.000
G1 X145.074 Y113.494 E37.63202 F756.000
G1 X136.597 Y113.460 E38.61865
G1 X136.610 Y100.741 E40.09902
G1 X144.980 Y100.763 E41.07317
G1 X145.801 Y100.765 F7200.000
G1 X160.155 Y116.009 F7200.000
G1 X136.064 Y132.057 F7200.000
G1 X135.582 Y134.442 E41.35636 F1080.000
G1 X147.232 Y134.472 E42.71227
G1 X147.214 Y151.491 E44.69307
G1 X134.452 Y151.440 E46.17842
G1 X134.461 Y142.579 E47.20966
G1 X133.946 Y142.528 E47.26999
G1 X133.553 Y144.470 E47.50060
G1 X124.761 Y142.872 E48.54066
G1 X127.070 Y130.189 E50.04109
G1 X135.960 Y132.035 E51.09778
G1 X135.224 Y132.612 F7200.000
G1 X134.709 Y135.153 E51.39962 F1080.000
G1 X146.517 Y135.185 E52.77390
G1 X146.501 Y150.774 E54.58834
G1 X135.167 Y150.728 E55.90744
G1 X135.183 Y135.413 E57.69000
G1 X134.667 Y135.361 E57.75032
G1 X132.992 Y143.642 E58.73363
G1 X125.591 Y142.297 E59.60906
G1 X127.642 Y131.037 E60.94114
G1 X135.119 Y132.590 E61.82994
G1 X134.383 Y133.166 F7200.000
G1 X132.431 Y142.814 E62.97557 F540.000
G1 X126.422 Y141.722 E63.68637
G1 X128.213 Y131.886 E64.85010
G1 X134.278 Y133.145 E65.57101
G1 X133.542 Y133.721 F7200.000
G1 X131.869 Y141.986 E66.55246 F540.000
G1 X127.252 Y141.147 E67.09862
G1 X128.785 Y132.734 E68.09401
G1 X133.437 Y133.699 E68.64703
G1 X134.241 Y133.864 F7200.000
G1 X135.897 Y135.871 F7200.000
G1 X145.802 Y135.897 E69.79990 F1080.000
G1 X145.787 Y150.057 E71.44798
G1 X135.882 Y150.017 E72.60084
G1 X135.896 Y135.978 E74.23487
G1 X136.610 Y136.587 F7200.000
G1 X145.087 Y136.609 E75.22150 F756.000
G1 X145.074 Y149.340 E76.70322
G1 X136.597 Y149.306 E77.68985
G1 X136.610 Y136.694 E79.15775
G1 X136.611 Y135.873 F7200.000
G1 X136.011 Y135.985 F7200.000
G1 X136.000 Y145.985 F7200.000
G1 X126.784 Y141.672 F7200.000
G1 X115.745 Y142.738 F7200.000
G1 X119.821 Y136.424 F7200.000
G1 X119.821 Y106.091 E82.68826 F1080.000
G1 X113.049 Y105.901 E83.47675
G1 X113.050 Y101.029 E84.04377
G1 X119.821 Y101.206 E84.83221
G1 X119.821 Y70.698 E88.38301
G1 X113.050 Y70.508 E89.17151
G1 X113.050 Y65.636 E89.73852
G1 X119.821 Y65.813 E90.52696
G1 X119.821 Y54.030 E91.89843
G1 X134.454 Y54.096 E93.60156
G1 X181.210 Y68.718 E99.30335
G1 X180.059 Y79.676 E100.58576
G1 X186.531 Y80.128 E101.34089
G1 X186.056 Y84.976 E101.90791
G1 X179.839 Y84.554 E102.63310
G1 X178.295 Y91.685 E103.48230
G1 X169.532 Y94.016 E104.53761
G1 X161.750 Y108.520 E106.45336
G1 X154.457 Y125.181 E108.57024
G1 X160.733 Y133.337 E109.76797
G1 X159.483 Y140.317 E110.59335
G1 X165.254 Y142.388 E111.30706
G1 X163.719 Y146.985 E111.87118
G1 X157.178 Y144.607 E112.68121
G1 X155.488 Y155.982 E114.01961
G1 X132.838 Y155.982 E116.65586
G1 X119.821 Y148.393 E118.40954
G1 X119.821 Y141.309 E119.23398
G1 X113.049 Y141.119 E120.02248
G1 X113.050 Y136.248 E120.58949
G1 X119.714 Y136.422 E121.36546
G1 X119.107 Y135.691 F7200.000
G1 X119.107 Y106.785 E124.72983 F1080.000
G1 X112.335 Y106.595 E125.51833
G1 X112.336 Y100.296 E126.25148
G1 X119.107 Y100.473 E127.03992
G1 X119.107 Y71.393 E130.42458
G1 X112.335 Y71.203 E131.21308
G1 X112.336 Y64.903 E131.94623
G1 X119.107 Y65.080 E132.73466
G1 X119.107 Y53.312 E134.10432
G1 X134.565 Y53.383 E135.90344
G1 X181.981 Y68.211 E141.68581
G1 X180.847 Y79.015 E142.95021
G1 X187.314 Y79.466 E143.70475
G1 X186.699 Y85.736 E144.43792
G1 X180.407 Y85.308 E145.17195
G1 X178.900 Y92.263 E146.00014
G1 X170.015 Y94.626 E147.07022
G1 X162.393 Y108.832 E148.94661
G1 X155.281 Y125.081 E151.01099
G1 X161.492 Y133.152 E152.19632
G1 X160.292 Y139.849 E152.98821
G1 X166.153 Y141.952 E153.71297
G1 X164.164 Y147.907 E154.44373
G1 X157.756 Y145.577 E155.23731
G1 X156.104 Y156.696 E156.54560
G1 X132.645 Y156.696 E159.27600
G1 X119.107 Y148.803 E161.09989
G1 X119.107 Y142.004 E161.89127
G1 X112.335 Y141.814 E162.67977
G1 X112.336 Y135.515 E163.41292
G1 X119.000 Y135.689 E164.18889
G1 X118.393 Y134.958 F7200.000
G1 X118.393 Y107.480 E167.38712 F1080.000
G1 X112.651 Y107.319 E168.05566
G1 X111.621 Y107.996 E168.19914
G1 X111.621 Y98.825 E169.26650
G1 X112.651 Y99.590 E169.41580
G1 X118.393 Y99.740 E170.08434
G1 X118.393 Y72.087 E173.30286
G1 X112.651 Y71.926 E173.97140
G1 X111.621 Y72.603 E174.11488
G1 X111.621 Y63.432 E175.18224
G1 X112.651 Y64.197 E175.33154
G1 X118.393 Y64.347 E176.00008
G1 X118.393 Y52.595 E177.36791
G1 X134.676 Y52.669 E179.26303
G1 X182.753 Y67.704 E185.12597
G1 X181.634 Y78.354 E186.37236
G1 X187.070 Y78.733 E187.00654
G1 X188.168 Y78.073 E187.15568
G1 X187.273 Y87.200 E188.22304
G1 X186.313 Y86.425 E188.36664
G1 X180.974 Y86.063 E188.98944
G1 X179.506 Y92.840 E189.79663
G1 X170.498 Y95.237 E190.88148
G1 X163.036 Y109.145 E192.71850
G1 X156.104 Y124.980 E194.73038
G1 X162.250 Y132.966 E195.90331
G1 X161.102 Y139.380 E196.66172
G1 X166.164 Y141.197 E197.28767
G1 X167.255 Y140.909 E197.41902
G1 X164.382 Y149.506 E198.47404
G1 X163.650 Y148.480 E198.62075
G1 X158.334 Y146.547 E199.27915
G1 X156.720 Y157.410 E200.55734
G1 X132.452 Y157.410 E203.38189
G1 X118.393 Y149.213 E205.27600
G1 X118.393 Y142.698 E206.03431
G1 X112.651 Y142.537 E206.70285
G1 X111.621 Y143.214 E206.84634
G1 X111.621 Y134.043 E207.91369
G1 X112.651 Y134.808 E208.06299
G1 X118.286 Y134.956 E208.71906
G1 X117.679 Y134.225 F7200.000
G1 X117.679 Y108.174 E211.75115 F756.000
G1 X112.856 Y108.039 E212.31273
G1 X110.907 Y109.319 E212.58415
G1 X110.907 Y97.405 E213.97087
G1 X112.896 Y98.882 E214.25917
G1 X117.679 Y99.007 E214.81609
G1 X117.679 Y72.781 E217.86847
G1 X112.856 Y72.646 E218.43005
G1 X110.907 Y73.926 E218.70147
G1 X110.907 Y62.012 E220.08819
G1 X112.896 Y63.489 E220.37649
G1 X117.679 Y63.614 E220.93341
G1 X117.679 Y51.878 E222.29942
G1 X134.786 Y51.955 E224.29055
G1 X183.524 Y67.197 E230.23406
G1 X182.422 Y77.693 E231.46243
G1 X186.895 Y78.005 E231.98433
G1 X189.017 Y76.730 E232.27256
G1 X187.854 Y88.587 E233.65929
G1 X186.040 Y87.122 E233.93074
G1 X181.541 Y86.817 E234.45549
G1 X180.111 Y93.418 E235.24166
G1 X170.981 Y95.848 E236.34128
G1 X163.678 Y109.457 E238.13894
G1 X156.928 Y124.879 E240.09833
G1 X163.009 Y132.781 E241.25886
G1 X161.911 Y138.912 E241.98378
G1 X166.196 Y140.450 E242.51363
G1 X168.351 Y139.880 E242.77309
G1 X164.615 Y151.062 E244.14523
G1 X163.197 Y149.075 E244.42930
G1 X158.911 Y147.517 E244.96010
G1 X157.336 Y158.124 E246.20819
G1 X132.259 Y158.124 E249.12688
G1 X117.679 Y149.624 E251.09121
G1 X117.679 Y143.393 E251.81646
G1 X112.856 Y143.257 E252.37803
G1 X110.907 Y144.538 E252.64946
G1 X110.907 Y132.623 E254.03618
G1 X112.896 Y134.100 E254.32447
G1 X117.572 Y134.222 E254.86893
G1 X118.393 Y134.232 F7200.000
G1 X119.306 Y136.893 F7200.000
G1 X124.427 Y142.014 E255.71766 F1080.000
G1 X124.584 Y141.154 E255.82014
G1 X120.303 Y136.873 E256.52960
G1 X120.303 Y135.856 E256.64878
G1 X124.741 Y140.293 E257.38420
G1 X124.897 Y139.433 E257.48668
G1 X120.303 Y134.839 E258.24806
G1 X120.303 Y133.822 E258.36724
G1 X125.054 Y138.573 E259.15459
G1 X125.210 Y137.713 E259.25707
G1 X120.303 Y132.805 E260.07038
G1 X120.303 Y131.788 E260.18956
G1 X125.367 Y136.852 E261.02883
G1 X125.524 Y135.992 E261.13131
G1 X120.303 Y130.771 E261.99655
G1 X120.303 Y129.754 E262.11573
G1 X125.680 Y135.132 E263.00694
G1 X125.837 Y134.271 E263.10941
G1 X120.303 Y128.737 E264.02658
G1 X120.303 Y127.721 E264.14576
G1 X125.994 Y133.411 E265.08889
G1 X126.150 Y132.551 E265.19137
G1 X120.303 Y126.704 E266.16047
G1 X120.303 Y125.687 E266.27965
G1 X126.307 Y131.691 E267.27471
G1 X126.464 Y130.830 E267.37718
G1 X120.303 Y124.670 E268.39821
G1 X120.303 Y123.653 E268.51739
G1 X126.620 Y129.970 E269.56437
G1 X127.442 Y129.775 E269.66334
G1 X120.303 Y122.636 E270.84648
G1 X120.303 Y121.619 E270.96566
G1 X128.725 Y130.041 E272.36152
G1 X130.009 Y130.307 E272.51513
G1 X120.303 Y120.602 E274.12369
G1 X120.303 Y119.585 E274.24287
G1 X131.292 Y130.574 E276.06414
G1 X132.576 Y130.840 E276.21775
G1 X120.303 Y118.568 E278.25173
G1 X120.303 Y117.551 E278.37091
G1 X133.859 Y131.107 E280.61760
G1 X135.142 Y131.373 E280.77121
G1 X120.303 Y116.534 E283.23060
G1 X120.303 Y115.517 E283.34978
G1 X138.754 Y133.968 E286.40778
G1 X136.262 Y133.510 F7200.000
G1 X136.715 Y133.963 E286.48285 F1080.000
G1 X137.735 Y133.966 E286.60235
G1 X136.433 Y132.664 E286.81805
G1 X145.892 Y133.987 F7200.000
G1 X120.303 Y108.399 E291.05897 F1080.000
G1 X120.303 Y109.416 E291.17815
G1 X144.872 Y133.984 E295.25008
G1 X143.852 Y133.982 E295.36958
G1 X120.303 Y110.432 E299.27252
G1 X120.303 Y111.449 E299.39170
G1 X142.833 Y133.979 E303.12566
G1 X141.813 Y133.976 E303.24515
G1 X120.303 Y112.466 E306.81011
G1 X120.303 Y113.483 E306.92929
G1 X140.793 Y133.974 E310.32527
G1 X139.774 Y133.971 E310.44476
G1 X120.303 Y114.500 E313.67175
G1 X136.000 Y110.140 F7200.000
G1 X113.531 Y104.678 F7200.000
G1 X114.308 Y105.454 E313.80047 F1080.000
G1 X115.354 Y105.484 E313.92314
G1 X113.531 Y103.661 E314.22527
G1 X113.531 Y102.644 E314.34444
G1 X116.401 Y105.513 E314.81998
G1 X117.447 Y105.542 E314.94265
G1 X113.531 Y101.627 E315.59159
G1 X114.470 Y101.548 E315.70195
G1 X118.493 Y105.572 E316.36878
G1 X119.540 Y105.601 E316.49145
G1 X115.514 Y101.575 E317.15864
G1 X116.558 Y101.603 E317.28105
G1 X160.120 Y145.164 E324.50075
G1 X158.522 Y144.583 F7200.000
G1 X120.303 Y106.365 E330.83494 F1080.000
G1 X120.303 Y107.382 E330.95412
G1 X146.911 Y133.990 E335.36403
G1 X147.713 Y134.791 F7200.000
G1 X156.924 Y144.002 E336.89062 F1080.000
G1 X156.667 Y144.763 E336.98468
G1 X147.712 Y135.807 E338.46893
G1 X147.711 Y136.823 E338.58799
G1 X156.536 Y145.648 E340.05062
G1 X156.404 Y146.534 E340.15552
G1 X147.710 Y137.839 E341.59652
G1 X147.709 Y138.855 E341.71558
G1 X156.273 Y147.419 E343.13496
G1 X156.141 Y148.305 E343.23986
G1 X147.708 Y139.871 E344.63761
G1 X147.707 Y140.887 E344.75667
G1 X156.010 Y149.190 E346.13280
G1 X155.878 Y150.075 E346.23770
G1 X147.706 Y141.903 E347.59220
G1 X147.705 Y142.919 E347.71126
G1 X155.747 Y150.961 E349.04413
G1 X155.615 Y151.846 E349.14904
G1 X147.704 Y143.935 E350.46029
G1 X147.703 Y144.951 E350.57934
G1 X155.484 Y152.732 E351.86897
G1 X155.352 Y153.617 E351.97387
G1 X147.702 Y145.966 E353.24187
G1 X147.701 Y146.982 E353.36093
G1 X155.221 Y154.503 E354.60730
G1 X155.089 Y155.388 E354.71220
G1 X147.700 Y147.998 E355.93695
G1 X147.699 Y149.014 E356.05601
G1 X154.184 Y155.500 E357.13093
G1 X153.167 Y155.500 E357.25011
G1 X147.697 Y150.030 E358.15666
G1 X147.696 Y151.046 E358.27572
G1 X152.150 Y155.500 E359.01389
G1 X151.133 Y155.500 E359.13307
G1 X147.608 Y151.974 E359.71740
G1 X146.587 Y151.970 E359.83706
G1 X150.116 Y155.500 E360.42206
G1 X149.100 Y155.500 E360.54124
G1 X145.566 Y151.966 E361.12692
G1 X144.545 Y151.962 E361.24658
G1 X148.083 Y155.500 E361.83295
G1 X147.066 Y155.500 E361.95212
G1 X143.524 Y151.958 E362.53916
G1 X142.503 Y151.954 E362.65882
G1 X146.049 Y155.500 E363.24654
G1 X145.032 Y155.500 E363.36572
G1 X141.482 Y151.950 E363.95412
G1 X140.461 Y151.946 E364.07378
G1 X144.015 Y155.500 E364.66285
G1 X142.998 Y155.500 E364.78203
G1 X139.439 Y151.942 E365.37178
G1 X138.418 Y151.937 E365.49144
G1 X141.981 Y155.500 E366.08188
G1 X140.964 Y155.500 E366.20106
G1 X137.397 Y151.933 E366.79217
G1 X136.376 Y151.929 E366.91183
G1 X139.947 Y155.500 E367.50361
G1 X138.930 Y155.500 E367.62279
G1 X135.355 Y151.925 E368.21526
G1 X130.194 Y153.883 F7200.000
G1 X120.303 Y143.992 E369.85456 F1080.000
G1 X120.303 Y142.975 E369.97374
G1 X132.633 Y155.305 E372.01724
G1 X133.845 Y155.500 E372.16115
G1 X120.303 Y141.958 E374.40558
G1 X120.303 Y140.941 E374.52476
G1 X134.862 Y155.500 E376.93773
G1 X135.879 Y155.500 E377.05691
G1 X117.218 Y136.838 E380.14980
G1 X118.262 Y136.866 E380.27222
G1 X136.896 Y155.500 E383.36059
G1 X137.913 Y155.500 E383.47977
G1 X126.000 Y143.587 E385.45416
G1 X127.243 Y143.813 E385.60218
G1 X133.972 Y150.541 E386.71734
G1 X133.973 Y149.526 E386.83640
G1 X128.486 Y144.039 E387.74577
G1 X129.728 Y144.264 E387.89379
G1 X133.974 Y148.510 E388.59737
G1 X133.975 Y147.494 E388.71643
G1 X130.971 Y144.490 E389.21421
G1 X132.214 Y144.716 E389.36224
G1 X133.976 Y146.478 E389.65423
G1 X133.977 Y145.462 E389.77329
