; generated by Slic3r 1.0.0RC2 on 2014-05-15 at 12:03:47

; layer_height = 0.3
; perimeters = 4
; top_solid_layers = 3
; bottom_solid_layers = 3
; fill_density = 0.1
; perimeter_speed = 60
; infill_speed = 60
; travel_speed = 120
; nozzle_diameter = 0.4
; filament_diameter = 1.75
; extrusion_multiplier = 0.98
; perimeters extrusion width = 0.40mm
; infill extrusion width = 0.42mm
; solid infill extrusion width = 0.42mm
; top infill extrusion width = 0.42mm
; first layer extrusion width = 0.80mm

G21 ; set units to millimeters
M107
M104 S220 ; set temperature
G28 ; home all axes
M106 S255;
G1 Z200 F1200 ; lift nozzle
M109 S220 ; wait for temperature to be reached
G90 ; use absolute coordinates
G92 E0
M82 ; use absolute distances for extrusion
G1 F1800.000 E-1.00000
G92 E0
G1 Z0.400 F7200.000
G1 X115.438 Y53.091 F7200.000
G1 E1.00000 F1800.000
G1 X116.058 Y51.921 E1.15411 F1080.000
G1 X116.888 Y50.901 E1.30717
G1 X117.898 Y50.061 E1.46007
G1 X119.058 Y49.431 E1.61371
G1 X120.308 Y49.041 E1.76611
G1 X121.618 Y48.911 E1.91933
G1 X143.318 Y48.791 E4.44503
G1 X155.998 Y48.791 E5.92085
G1 X178.398 Y48.911 E8.52802
G1 X179.708 Y49.041 E8.68124
G1 X180.968 Y49.441 E8.83511
G1 X182.138 Y50.071 E8.98977
G1 X183.148 Y50.921 E9.14341
G1 X183.978 Y51.951 E9.29737
G1 X184.588 Y53.121 E9.45095
G1 X193.578 Y75.521 E12.26021
G1 X193.938 Y76.751 E12.40938
G1 X194.058 Y78.021 E12.55785
G1 X194.068 Y138.551 E19.60293
G1 X193.858 Y140.251 E19.80230
G1 X193.218 Y141.831 E20.00071
G1 X184.278 Y157.771 E22.12783
G1 X183.448 Y158.931 E22.29385
G1 X182.408 Y159.891 E22.45858
G1 X181.178 Y160.611 E22.62446
G1 X179.828 Y161.051 E22.78972
G1 X178.418 Y161.201 E22.95476
G1 X121.648 Y161.151 E29.56221
G1 X120.348 Y161.021 E29.71427
G1 X119.088 Y160.641 E29.86745
G1 X117.928 Y160.031 E30.01999
G1 X108.828 Y153.961 E31.29314
G1 X107.818 Y153.121 E31.44604
G1 X106.978 Y152.101 E31.59983
G1 X106.358 Y150.941 E31.75292
G1 X105.978 Y149.681 E31.90610
G1 X105.848 Y148.371 E32.05932
G1 X105.848 Y77.941 E40.25665
G1 X105.968 Y76.651 E40.40744
G1 X106.338 Y75.411 E40.55806
G1 X115.398 Y53.190 E43.35102
G1 F1800.000 E42.35102
G92 E0
G1 X131.232 Y75.945 F7200.000
G1 E1.00000 F1800.000
G1 X155.954 Y75.945 E3.87740 F1080.000
G1 X155.954 Y130.154 E10.18680
G1 X131.232 Y130.154 E13.06420
G1 X131.232 Y76.052 E19.36113
G1 X131.946 Y76.659 F7200.000
G1 X155.240 Y76.659 E22.07229 F1080.000
G1 X155.240 Y129.440 E28.21544
G1 X131.946 Y129.440 E30.92660
G1 X131.946 Y76.766 E37.05729
G1 X132.660 Y77.373 F7200.000
G1 X154.526 Y77.373 E39.60221 F1080.000
G1 X154.526 Y128.726 E45.57912
G1 X132.660 Y128.726 E48.12404
G1 X132.660 Y77.481 E54.08848
G1 X133.375 Y78.088 F7200.000
G1 X153.812 Y78.088 E56.46716 F756.000
G1 X153.812 Y128.012 E62.27783
G1 X133.375 Y128.012 E64.65651
G1 X133.375 Y78.195 E70.45471
G1 X133.375 Y77.373 F7200.000
G1 X124.206 Y80.351 F7200.000
G1 X124.206 Y58.151 E73.03856 F1080.000
G1 X140.820 Y58.058 E74.97229
G1 X140.820 Y59.365 E75.12441
G1 X136.500 Y66.857 E76.13109
G1 X163.657 Y66.857 E79.29198
G1 X158.506 Y59.264 E80.35994
G1 X158.506 Y58.057 E80.50041
G1 X175.816 Y58.151 E82.51518
G1 X175.816 Y84.484 E85.58003
G1 X161.151 Y84.484 E87.28692
G1 X161.151 Y130.154 E92.60247
G1 X175.884 Y130.154 E94.31724
G1 X175.884 Y148.011 E96.39561
G1 X175.314 Y148.052 E96.46213
G1 X173.276 Y133.713 E98.14774
G1 X126.306 Y133.659 E103.61451
G1 X124.769 Y143.879 E104.81745
G1 X124.206 Y143.837 E104.88308
G1 X124.206 Y80.458 E112.25975
G1 X123.492 Y80.975 F7200.000
G1 X114.389 Y80.975 E113.31927 F1080.000
G1 X114.389 Y79.637 E113.47502
G1 X123.492 Y79.637 E114.53455
G1 X123.492 Y57.441 E117.11793
G1 X141.535 Y57.340 E119.21791
G1 X141.535 Y59.556 E119.47587
G1 X137.736 Y66.143 E120.36091
G1 X162.310 Y66.143 E123.22108
G1 X157.792 Y59.484 E124.15774
G1 X157.792 Y57.339 E124.40732
G1 X176.530 Y57.441 E126.58833
G1 X176.530 Y79.721 E129.18143
G1 X185.529 Y79.721 E130.22883
G1 X185.529 Y81.107 E130.39023
G1 X176.530 Y81.107 E131.43763
G1 X176.530 Y85.198 E131.91376
G1 X161.865 Y85.198 E133.62065
G1 X161.865 Y129.440 E138.76996
G1 X176.598 Y129.440 E140.48473
G1 X176.598 Y135.207 E141.15593
G1 X185.530 Y135.207 E142.19551
G1 X185.530 Y136.866 E142.38862
G1 X176.598 Y136.866 E143.42821
G1 X176.598 Y152.671 E145.26769
G1 X175.249 Y152.671 E145.42470
G1 X172.656 Y134.427 E147.56945
G1 X126.921 Y134.374 E152.89252
G1 X124.176 Y152.621 E155.04025
G1 X123.492 Y152.621 E155.11981
G1 X123.492 Y146.678 E155.81151
G1 X114.389 Y146.678 E156.87103
G1 X114.389 Y145.340 E157.02678
G1 X123.492 Y145.340 E158.08631
G1 X123.492 Y136.661 E159.09644
G1 X114.389 Y136.661 E160.15597
G1 X114.389 Y135.323 E160.31172
G1 X123.492 Y135.323 E161.37124
G1 X123.492 Y81.082 E167.68432
G1 X122.778 Y81.689 F7200.000
G1 X113.675 Y81.689 E168.74385 F1080.000
G1 X113.675 Y78.923 E169.06584
G1 X122.778 Y78.923 E170.12537
G1 X122.778 Y56.731 E172.70829
G1 X142.249 Y56.622 E174.97451
G1 X142.249 Y59.747 E175.33830
G1 X138.972 Y65.429 E176.10171
G1 X160.962 Y65.429 E178.66116
G1 X157.078 Y59.703 E179.46652
G1 X157.078 Y56.621 E179.82520
G1 X177.244 Y56.731 E182.17246
G1 X177.244 Y79.006 E184.76511
G1 X186.243 Y79.006 E185.81251
G1 X186.243 Y81.822 E186.14015
G1 X177.244 Y81.822 E187.18755
G1 X177.244 Y85.912 E187.66368
G1 X162.579 Y85.912 E189.37057
G1 X162.579 Y128.726 E194.35363
G1 X177.312 Y128.726 E196.06840
G1 X177.312 Y134.493 E196.73960
G1 X186.244 Y134.493 E197.77919
G1 X186.244 Y137.580 E198.13854
G1 X177.312 Y137.580 E199.17813
G1 X177.312 Y153.385 E201.01760
G1 X174.629 Y153.385 E201.32988
G1 X172.036 Y135.140 E203.47472
G1 X127.535 Y135.088 E208.65409
G1 X124.791 Y153.335 E210.80174
G1 X122.778 Y153.335 E211.03597
G1 X122.778 Y147.392 E211.72767
G1 X113.675 Y147.392 E212.78720
G1 X113.675 Y144.626 E213.10919
G1 X122.778 Y144.626 E214.16871
G1 X122.778 Y137.375 E215.01261
G1 X113.675 Y137.375 E216.07213
G1 X113.675 Y134.609 E216.39412
G1 X122.778 Y134.609 E217.45365
G1 X122.778 Y81.796 E223.60048
G1 X122.064 Y82.403 F7200.000
G1 X112.961 Y82.403 E224.66001 F756.000
G1 X112.961 Y78.208 E225.14824
G1 X122.064 Y78.208 E226.20777
G1 X122.064 Y56.020 E228.79023
G1 X142.963 Y55.903 E231.22270
G1 X142.963 Y59.938 E231.69232
G1 X140.208 Y64.715 E232.33410
G1 X159.615 Y64.715 E234.59282
G1 X156.363 Y59.923 E235.26688
G1 X156.363 Y55.903 E235.73467
G1 X177.959 Y56.021 E238.24817
G1 X177.959 Y78.292 E240.84037
G1 X186.958 Y78.292 E241.88777
G1 X186.958 Y82.536 E242.38166
G1 X177.959 Y82.536 E243.42905
G1 X177.959 Y86.627 E243.90519
G1 X163.293 Y86.627 E245.61208
G1 X163.293 Y128.012 E250.42890
G1 X178.026 Y128.012 E252.14367
G1 X178.026 Y133.779 E252.81487
G1 X186.958 Y133.779 E253.85445
G1 X186.958 Y138.294 E254.38005
G1 X178.026 Y138.294 E255.41963
G1 X178.026 Y154.099 E257.25911
G1 X174.009 Y154.099 E257.72665
G1 X171.416 Y135.854 E259.87157
G1 X128.150 Y135.803 E264.90725
G1 X125.405 Y154.049 E267.05481
G1 X122.064 Y154.049 E267.44372
G1 X122.064 Y148.106 E268.13542
G1 X112.961 Y148.106 E269.19494
G1 X112.961 Y143.912 E269.68318
G1 X122.064 Y143.912 E270.74270
G1 X122.064 Y138.089 E271.42035
G1 X112.961 Y138.089 E272.47988
G1 X112.961 Y133.895 E272.96811
G1 X122.064 Y133.895 E274.02764
G1 X122.064 Y82.510 E280.00823
G1 X122.064 Y81.689 F7200.000
G1 X136.235 Y66.352 F7200.000
G1 X128.491 Y58.609 E281.29081 F1080.000
G1 X129.502 Y58.603 E281.40918
G1 X136.606 Y65.708 E282.58593
G1 X136.978 Y65.063 E282.67307
G1 X130.512 Y58.597 E283.74400
G1 X131.523 Y58.592 E283.86237
G1 X137.350 Y64.419 E284.82747
G1 X137.721 Y63.774 E284.91462
G1 X132.534 Y58.586 E285.77389
G1 X133.544 Y58.580 E285.89226
G1 X138.093 Y63.129 E286.64571
G1 X138.465 Y62.485 E286.73286
G1 X134.555 Y58.575 E287.38048
G1 X135.566 Y58.569 E287.49885
G1 X138.837 Y61.840 E288.04065
G1 X139.208 Y61.196 E288.12780
G1 X136.576 Y58.564 E288.56377
G1 X137.587 Y58.558 E288.68214
G1 X139.580 Y60.551 E289.01229
G1 X139.952 Y59.907 E289.09944
G1 X138.597 Y58.552 E289.32376
G1 X139.608 Y58.547 E289.44213
G1 X140.324 Y59.262 E289.56063
G1 F1800.000 E288.56063
G92 E0
G1 X160.077 Y60.722 F7200.000
G1 E1.00000 F1800.000
G1 X175.334 Y75.979 E3.52703 F1080.000
G1 X175.334 Y74.963 E3.64606
G1 X158.988 Y58.616 E6.35356
G1 X159.935 Y58.547 E6.46476
G1 X175.334 Y73.947 E9.01543
G1 X175.334 Y72.930 E9.13446
G1 X160.956 Y58.553 E11.51589
G1 X161.978 Y58.558 E11.63557
G1 X175.334 Y71.914 E13.84774
G1 X175.334 Y70.898 E13.96677
G1 X163.000 Y58.564 E16.00970
G1 X164.022 Y58.569 E16.12937
G1 X175.334 Y69.882 E18.00305
G1 X175.334 Y68.865 E18.12208
G1 X165.044 Y58.575 E19.82650
G1 X166.066 Y58.580 E19.94618
G1 X175.334 Y67.849 E21.48136
G1 X175.334 Y66.833 E21.60039
G1 X167.087 Y58.586 E22.96631
G1 X168.109 Y58.591 E23.08599
G1 X175.334 Y65.816 E24.28267
G1 X175.334 Y64.800 E24.40170
G1 X169.131 Y58.597 E25.42913
G1 X170.153 Y58.603 E25.54880
G1 X175.334 Y63.784 E26.40698
G1 X175.334 Y62.767 E26.52601
G1 X171.175 Y58.608 E27.21494
G1 X172.197 Y58.614 E27.33462
G1 X175.334 Y61.751 E27.85429
G1 X175.334 Y60.735 E27.97332
G1 X173.219 Y58.619 E28.32375
G1 X174.240 Y58.625 E28.44343
G1 X175.334 Y59.719 E28.62461
G1 X175.334 Y58.702 E28.74363
G1 X175.262 Y58.630 E28.75556
G1 X162.221 Y63.883 F7200.000
G1 X175.334 Y76.996 E30.92745 F1080.000
G1 X175.334 Y78.012 E31.04648
G1 X164.366 Y67.043 E32.86322
G1 X163.645 Y67.339 E32.95443
G1 X175.334 Y79.028 E34.89048
G1 X175.334 Y80.045 E35.00951
G1 X162.629 Y67.339 E37.11390
G1 X161.613 Y67.339 E37.23293
G1 X175.334 Y81.061 E39.50564
G1 X175.334 Y82.077 E39.62467
G1 X160.596 Y67.339 E42.06572
G1 X159.580 Y67.339 E42.18475
G1 X175.334 Y83.093 E44.79412
G1 X175.227 Y84.002 E44.90130
G1 X158.564 Y67.339 E47.66121
G1 X157.548 Y67.339 E47.78024
G1 X174.210 Y84.002 E50.54014
G1 X173.194 Y84.002 E50.65917
G1 X156.531 Y67.339 E53.41907
G1 X155.515 Y67.339 E53.53810
G1 X172.178 Y84.002 E56.29801
G1 X171.162 Y84.002 E56.41704
G1 X154.499 Y67.339 E59.17694
G1 X153.482 Y67.339 E59.29597
G1 X170.145 Y84.002 E62.05587
G1 X169.129 Y84.002 E62.17490
G1 X152.466 Y67.339 E64.93481
G1 X151.450 Y67.339 E65.05383
G1 X168.113 Y84.002 E67.81374
G1 X167.096 Y84.002 E67.93277
G1 X150.433 Y67.339 E70.69267
G1 X149.417 Y67.339 E70.81170
G1 X166.080 Y84.002 E73.57160
G1 X165.064 Y84.002 E73.69063
G1 X148.401 Y67.339 E76.45054
G1 X147.385 Y67.339 E76.56957
G1 X155.509 Y75.463 E77.91515
G1 X154.492 Y75.463 E78.03418
G1 X146.368 Y67.339 E79.37977
G1 X145.352 Y67.339 E79.49880
G1 X153.476 Y75.463 E80.84439
G1 X152.460 Y75.463 E80.96342
G1 X144.336 Y67.339 E82.30900
G1 X143.319 Y67.339 E82.42803
G1 X151.443 Y75.463 E83.77362
G1 X150.427 Y75.463 E83.89265
G1 X142.303 Y67.339 E85.23824
G1 X141.287 Y67.339 E85.35727
G1 X149.411 Y75.463 E86.70286
G1 X148.394 Y75.463 E86.82188
G1 X140.270 Y67.339 E88.16747
G1 X139.254 Y67.339 E88.28650
G1 X147.378 Y75.463 E89.63209
G1 X146.362 Y75.463 E89.75112
G1 X138.238 Y67.339 E91.09671
G1 X137.222 Y67.339 E91.21573
G1 X145.346 Y75.463 E92.56132
G1 X144.329 Y75.463 E92.68035
G1 X127.480 Y58.614 E95.47104
G1 X126.470 Y58.620 E95.58941
G1 X143.313 Y75.463 E98.37916
G1 X142.297 Y75.463 E98.49819
G1 X125.459 Y58.626 E101.28700
G1 X124.688 Y58.871 E101.38176
G1 X141.280 Y75.463 E104.12994
G1 X140.264 Y75.463 E104.24897
G1 X124.688 Y59.887 E106.82882
G1 X124.688 Y60.904 E106.94785
G1 X139.248 Y75.463 E109.35937
G1 X138.231 Y75.463 E109.47840
G1 X124.688 Y61.920 E111.72159
G1 X124.688 Y62.936 E111.84062
G1 X137.215 Y75.463 E113.91548
G1 X136.199 Y75.463 E114.03451
G1 X124.688 Y63.953 E115.94104
G1 X124.688 Y64.969 E116.06006
G1 X135.183 Y75.463 E117.79826
G1 X134.166 Y75.463 E117.91729
G1 X124.688 Y65.985 E119.48716
G1 X124.688 Y67.002 E119.60618
G1 X133.150 Y75.463 E121.00772
G1 X132.134 Y75.463 E121.12675
G1 X124.688 Y68.018 E122.35996
G1 X124.688 Y69.034 E122.47898
G1 X131.117 Y75.463 E123.54386
G1 X130.750 Y76.113 E123.63121
G1 X124.688 Y70.050 E124.63529
G1 X124.688 Y71.067 E124.75431
G1 X130.750 Y77.129 E125.75839
G1 X130.750 Y78.145 E125.87742
G1 X124.688 Y72.083 E126.88150
G1 X124.688 Y73.099 E127.00053
G1 X130.750 Y79.161 E128.00460
G1 X130.750 Y80.178 E128.12363
G1 X124.688 Y74.116 E129.12771
G1 X124.688 Y75.132 E129.24674
G1 X130.750 Y81.194 E130.25081
G1 X130.750 Y82.210 E130.36984
G1 X124.688 Y76.148 E131.37392
G1 X124.688 Y77.165 E131.49295
G1 X130.750 Y83.227 E132.49703
G1 X130.750 Y84.243 E132.61605
G1 X124.688 Y78.181 E133.62013
G1 X124.688 Y79.197 E133.73916
G1 X130.750 Y85.259 E134.74324
G1 X130.750 Y86.276 E134.86226
G1 X124.688 Y80.213 E135.86634
G1 X124.688 Y81.230 E135.98537
G1 X130.750 Y87.292 E136.98945
G1 X130.750 Y88.308 E137.10847
G1 X124.688 Y82.246 E138.11255
G1 X124.688 Y83.262 E138.23158
G1 X130.750 Y89.324 E139.23566
G1 X130.750 Y90.341 E139.35468
G1 X124.688 Y84.279 E140.35876
G1 X124.688 Y85.295 E140.47779
G1 X130.750 Y91.357 E141.48187
G1 X130.750 Y92.373 E141.60089
G1 X124.688 Y86.311 E142.60497
G1 X124.688 Y87.328 E142.72400
G1 X130.750 Y93.390 E143.72808
G1 X130.750 Y94.406 E143.84710
G1 X124.688 Y88.344 E144.85118
G1 X124.688 Y89.360 E144.97021
G1 X130.750 Y95.422 E145.97428
G1 X130.750 Y96.439 E146.09331
G1 X124.688 Y90.376 E147.09739
G1 X124.688 Y91.393 E147.21642
G1 X130.750 Y97.455 E148.22049
G1 X130.750 Y98.471 E148.33952
G1 X124.688 Y92.409 E149.34360
G1 X124.688 Y93.425 E149.46263
G1 X130.750 Y99.487 E150.46670
G1 X130.750 Y100.504 E150.58573
G1 X124.688 Y94.442 E151.58981
G1 X124.688 Y95.458 E151.70883
G1 X130.750 Y101.520 E152.71291
G1 X130.750 Y102.536 E152.83194
G1 X124.688 Y96.474 E153.83601
G1 X124.688 Y97.490 E153.95504
G1 X130.750 Y103.553 E154.95912
G1 X130.750 Y104.569 E155.07815
G1 X124.688 Y98.507 E156.08222
G1 X124.688 Y99.523 E156.20125
G1 X130.750 Y105.585 E157.20533
G1 X130.750 Y106.602 E157.32435
G1 X124.688 Y100.539 E158.32843
G1 X124.688 Y101.556 E158.44746
G1 X130.750 Y107.618 E159.45153
G1 X130.750 Y108.634 E159.57056
G1 X124.688 Y102.572 E160.57464
G1 X124.688 Y103.588 E160.69366
G1 X130.750 Y109.650 E161.69774
G1 X130.750 Y110.667 E161.81677
G1 X124.688 Y104.605 E162.82084
G1 X124.688 Y105.621 E162.93987
G1 X130.750 Y111.683 E163.94395
G1 X130.750 Y112.699 E164.06297
G1 X124.688 Y106.637 E165.06705
G1 X124.688 Y107.653 E165.18608
G1 X130.750 Y113.716 E166.19015
G1 X130.750 Y114.732 E166.30918
G1 X124.688 Y108.670 E167.31325
G1 X124.688 Y109.686 E167.43228
G1 X130.750 Y115.748 E168.43636
G1 X130.750 Y116.765 E168.55539
G1 X124.688 Y110.702 E169.55946
G1 X124.688 Y111.719 E169.67849
G1 X130.750 Y117.781 E170.68256
G1 X130.750 Y118.797 E170.80159
G1 X124.688 Y112.735 E171.80567
G1 X124.688 Y113.751 E171.92469
G1 X130.750 Y119.813 E172.92877
G1 X130.750 Y120.830 E173.04780
G1 X124.688 Y114.768 E174.05187
G1 X124.688 Y115.784 E174.17090
G1 X130.750 Y121.846 E175.17497
G1 X130.750 Y122.862 E175.29400
G1 X124.688 Y116.800 E176.29808
G1 X124.688 Y117.816 E176.41710
G1 X130.750 Y123.879 E177.42118
G1 X130.750 Y124.895 E177.54021
G1 X124.688 Y118.833 E178.54428
G1 X124.688 Y119.849 E178.66331
G1 X130.750 Y125.911 E179.66738
G1 X130.750 Y126.928 E179.78641
G1 X124.688 Y120.865 E180.79048
G1 X124.688 Y121.882 E180.90951
G1 X130.750 Y127.944 E181.91359
G1 X130.750 Y128.960 E182.03261
G1 X124.688 Y122.898 E183.03669
G1 X124.688 Y123.914 E183.15572
G1 X130.750 Y129.976 E184.15979
G1 X131.410 Y130.636 F7200.000
G1 X133.960 Y133.186 E184.58209 F1080.000
G1 X132.942 Y133.185 E184.70126
G1 X124.688 Y124.931 E186.06837
G1 X124.688 Y125.947 E186.18740
G1 X131.925 Y133.183 E187.38598
G1 X130.907 Y133.182 E187.50515
G1 X124.688 Y126.963 E188.53520
G1 X124.688 Y127.979 E188.65423
G1 X129.890 Y133.181 E189.51576
G1 X128.872 Y133.180 E189.63493
G1 X124.688 Y128.996 E190.32793
G1 X124.688 Y130.012 E190.44696
G1 X127.855 Y133.179 E190.97144
G1 X126.837 Y133.177 E191.09060
G1 X124.688 Y131.028 E191.44655
G1 X124.688 Y132.045 E191.56558
G1 X125.882 Y133.239 E191.76333
G1 X125.749 Y134.122 E191.86796
G1 X124.688 Y133.061 E192.04371
G1 X124.688 Y134.077 E192.16273
G1 X124.763 Y134.152 E192.17514
G1 X132.426 Y130.636 F7200.000
G1 X134.977 Y133.187 E192.59763 F1080.000
G1 X135.995 Y133.188 E192.71680
G1 X133.443 Y130.636 E193.13949
G1 X134.459 Y130.636 E193.25852
