; generated by Slic3r 1.0.0RC2 on 2014-05-16 at 10:46:29

; layer_height = 0.3
; perimeters = 4
; top_solid_layers = 3
; bottom_solid_layers = 3
; fill_density = 0.1
; perimeter_speed = 60
; infill_speed = 60
; travel_speed = 120
; nozzle_diameter = 0.4
; filament_diameter = 1.75
; extrusion_multiplier = 0.98
; perimeters extrusion width = 0.40mm
; infill extrusion width = 0.42mm
; solid infill extrusion width = 0.42mm
; top infill extrusion width = 0.42mm
; first layer extrusion width = 0.80mm

G21 ; set units to millimeters
M107
M104 S220 ; set temperature
G28 ; home all axes
M106 S255;
G1 Z200 F1200 ; lift nozzle
M109 S220 ; wait for temperature to be reached
G90 ; use absolute coordinates
G92 E0
M82 ; use absolute distances for extrusion
G1 F1800.000 E-1.00000
G92 E0
G1 Z0.400 F7200.000
G1 X96.947 Y45.675 F7200.000
G1 E1.00000 F1800.000
G1 X97.567 Y44.515 E1.15309 F1080.000
G1 X98.397 Y43.505 E1.30524
G1 X99.417 Y42.675 E1.45830
G1 X100.577 Y42.055 E1.61138
G1 X101.837 Y41.675 E1.76456
G1 X103.137 Y41.555 E1.91651
G1 X180.977 Y41.575 E10.97630
G1 X199.397 Y41.675 E13.12023
G1 X200.777 Y41.825 E13.28179
G1 X202.097 Y42.255 E13.44338
G1 X203.307 Y42.955 E13.60608
G1 X204.337 Y43.885 E13.76759
G1 X205.157 Y45.015 E13.93009
G1 X205.737 Y46.285 E14.09259
G1 X206.027 Y47.645 E14.25444
G1 X214.027 Y119.325 E22.64907
G1 X214.067 Y120.065 E22.73532
G1 X214.067 Y138.915 E24.92927
G1 X213.927 Y140.315 E25.09303
G1 X213.487 Y141.655 E25.25718
G1 X212.777 Y142.885 E25.42248
G1 X211.827 Y143.924 E25.58643
G1 X210.677 Y144.744 E25.75082
G1 X209.387 Y145.315 E25.91496
G1 X182.827 Y153.744 E29.15825
G1 X159.117 Y160.774 E32.03660
G1 X157.997 Y161.005 E32.16968
G1 X95.387 Y168.405 E39.50757
G1 X94.597 Y168.445 E39.59964
G1 X92.637 Y168.445 E39.82776
G1 X91.327 Y168.325 E39.98087
G1 X90.067 Y167.934 E40.13438
G1 X88.907 Y167.315 E40.28747
G1 X87.887 Y166.485 E40.44053
G1 X87.057 Y165.464 E40.59358
G1 X86.437 Y164.304 E40.74667
G1 X86.047 Y163.045 E40.90019
G1 X85.927 Y161.735 E41.05330
G1 X85.927 Y147.244 E42.73978
G1 X86.387 Y102.875 E47.90428
G1 X86.477 Y101.845 E48.02462
G1 X91.187 Y73.415 E51.37869
G1 X96.557 Y46.925 E54.52457
G1 X96.915 Y45.777 E54.66450
G1 F1800.000 E53.66450
G92 E0
G1 X106.088 Y58.332 F7200.000
G1 E1.00000 F1800.000
G1 X119.781 Y58.332 E2.59377 F1080.000
G1 X119.781 Y68.758 E3.80727
G1 X106.088 Y68.758 E5.40104
G1 X106.088 Y58.439 E6.60207
G1 X106.802 Y59.046 F7200.000
G1 X119.067 Y59.046 E8.02960 F1080.000
G1 X119.067 Y68.044 E9.07686
G1 X106.802 Y68.044 E10.50438
G1 X106.802 Y59.153 E11.53917
G1 X107.516 Y59.760 F7200.000
G1 X118.353 Y59.760 E12.80046 F540.000
G1 X118.353 Y67.330 E13.68147
G1 X107.516 Y67.330 E14.94276
G1 X107.516 Y59.867 E15.81131
G1 X108.230 Y60.474 F7200.000
G1 X117.638 Y60.474 E16.90635 F540.000
G1 X117.638 Y66.615 E17.62113
G1 X108.230 Y66.615 E18.71617
G1 X108.230 Y60.581 E19.41848
G1 X108.230 Y59.760 F7200.000
G1 F1800.000 E18.41848
G92 E0
G1 X127.975 Y71.578 F7200.000
G1 E1.00000 F1800.000
G1 X128.867 Y70.242 E1.18694 F540.000
G1 X130.202 Y69.350 E1.37388
G1 X131.778 Y69.037 E1.56082
G1 X133.353 Y69.350 E1.74773
G1 X134.688 Y70.242 E1.93466
G1 X135.580 Y71.578 E2.12159
G1 X135.894 Y73.153 E2.30852
G1 X135.581 Y74.728 E2.49546
G1 X134.688 Y76.064 E2.68241
G1 X133.353 Y76.956 E2.86933
G1 X131.778 Y77.269 E3.05628
G1 X130.202 Y76.956 E3.24320
G1 X128.867 Y76.064 E3.43014
G1 X127.975 Y74.728 E3.61708
G1 X127.661 Y73.153 E3.80403
G1 X127.954 Y71.683 E3.97848
G1 X128.647 Y71.857 F7200.000
G1 X129.382 Y70.757 E4.13236 F540.000
G1 X130.481 Y70.023 E4.28623
G1 X131.778 Y69.765 E4.44010
G1 X133.074 Y70.023 E4.59395
G1 X134.173 Y70.757 E4.74781
G1 X134.908 Y71.856 E4.90167
G1 X135.166 Y73.153 E5.05554
G1 X134.908 Y74.450 E5.20941
G1 X134.173 Y75.549 E5.36328
G1 X133.074 Y76.283 E5.51714
G1 X131.778 Y76.541 E5.67102
G1 X130.481 Y76.283 E5.82488
G1 X129.382 Y75.549 E5.97875
G1 X128.647 Y74.450 E6.13262
G1 X128.389 Y73.153 E6.28649
G1 X128.626 Y71.962 E6.42789
G1 X129.320 Y72.135 F7200.000
G1 X129.897 Y71.272 E6.54869 F540.000
G1 X130.760 Y70.696 E6.66949
G1 X131.778 Y70.493 E6.79029
G1 X132.795 Y70.696 E6.91108
G1 X133.658 Y71.272 E7.03188
G1 X134.235 Y72.135 E7.15268
G1 X134.438 Y73.153 E7.27348
G1 X134.235 Y74.171 E7.39428
G1 X133.658 Y75.034 E7.51508
G1 X132.796 Y75.611 E7.63588
G1 X131.778 Y75.813 E7.75668
G1 X130.760 Y75.611 E7.87748
G1 X129.897 Y75.034 E7.99828
G1 X129.320 Y74.171 E8.11908
G1 X129.118 Y73.153 E8.23988
G1 X129.299 Y72.240 E8.34821
G1 X129.993 Y72.414 F7200.000
G1 X130.411 Y71.787 E8.43594 F540.000
G1 X131.038 Y71.368 E8.52368
G1 X131.778 Y71.221 E8.61141
G1 X132.517 Y71.368 E8.69914
G1 X133.144 Y71.787 E8.78687
G1 X133.562 Y72.414 E8.87460
G1 X133.709 Y73.153 E8.96233
G1 X133.562 Y73.892 E9.05006
G1 X133.144 Y74.519 E9.13780
G1 X132.517 Y74.938 E9.22553
G1 X131.778 Y75.085 E9.31326
G1 X131.038 Y74.938 E9.40099
G1 X130.411 Y74.519 E9.48872
G1 X129.993 Y73.892 E9.57645
G1 X129.846 Y73.153 E9.66419
G1 X129.972 Y72.519 E9.73945
G1 X129.596 Y71.820 F7200.000
G1 X143.681 Y67.940 F7200.000
G1 X157.375 Y67.940 E11.33322 F1080.000
G1 X157.375 Y77.865 E12.48834
G1 X161.048 Y77.865 E12.91584
G1 X161.048 Y67.940 E14.07096
G1 X174.741 Y67.940 E15.66473
G1 X174.741 Y78.366 E16.87823
G1 X166.639 Y78.366 E17.82121
G1 X166.639 Y122.394 E22.94562
G1 X116.257 Y122.394 E28.80955
G1 X116.257 Y77.865 E33.99234
G1 X143.681 Y77.865 E37.18421
G1 X143.681 Y68.047 E38.32686
G1 X161.762 Y68.654 F7200.000
G1 X174.027 Y68.654 E39.75439 F1080.000
G1 X174.027 Y77.652 E40.80164
G1 X161.762 Y77.652 E42.22917
G1 X161.762 Y68.761 E43.26396
G1 X162.476 Y69.368 F7200.000
G1 X173.313 Y69.368 E44.52525 F540.000
G1 X173.313 Y76.938 E45.40627
G1 X162.476 Y76.938 E46.66755
G1 X162.476 Y69.476 E47.53610
G1 X163.190 Y70.083 F7200.000
G1 X172.599 Y70.083 E48.63114 F540.000
G1 X172.599 Y76.224 E49.34592
G1 X163.190 Y76.224 E50.44096
G1 X163.190 Y70.190 E51.14327
G1 X163.190 Y69.368 F7200.000
G1 X156.661 Y68.654 F7200.000
G1 X156.661 Y77.652 E52.19053 F1080.000
G1 X144.396 Y77.652 E53.61806
G1 X144.396 Y68.654 E54.66531
G1 X156.554 Y68.654 E56.08037
G1 X155.946 Y69.368 F7200.000
G1 X155.946 Y76.938 E56.96139 F540.000
G1 X145.110 Y76.938 E58.22268
G1 X145.110 Y69.368 E59.10369
G1 X155.839 Y69.368 E60.35251
G1 X155.232 Y70.083 F7200.000
G1 X155.232 Y76.224 E61.06728 F540.000
G1 X145.824 Y76.224 E62.16233
G1 X145.824 Y70.083 E62.87710
G1 X155.125 Y70.083 E63.95968
G1 X155.946 Y70.083 F7200.000
G1 X165.925 Y78.579 F7200.000
G1 X165.925 Y121.680 E68.97623 F1080.000
G1 X116.972 Y121.680 E74.67392
G1 X116.972 Y78.579 E79.69047
G1 X165.818 Y78.579 E85.37569
G1 X165.211 Y79.293 F7200.000
G1 X165.211 Y120.966 E90.22600 F1080.000
G1 X117.686 Y120.966 E95.75744
G1 X117.686 Y79.293 E100.60775
G1 X165.104 Y79.293 E106.12673
G1 X164.497 Y80.007 F7200.000
G1 X164.497 Y120.252 E110.81080 F756.000
G1 X118.400 Y120.252 E116.17600
G1 X118.400 Y80.007 E120.86007
G1 X164.390 Y80.007 E126.21281
G1 X165.211 Y80.007 F7200.000
G1 X168.491 Y125.164 F7200.000
G1 X161.763 Y124.336 F7200.000
G1 X174.028 Y124.336 E127.64033 F1080.000
G1 X174.028 Y133.334 E128.68759
G1 X161.763 Y133.334 E130.11512
G1 X161.763 Y124.443 E131.14991
G1 X162.478 Y125.050 F7200.000
G1 X173.314 Y125.050 E132.41120 F540.000
G1 X173.314 Y132.620 E133.29222
G1 X162.478 Y132.620 E134.55350
G1 X162.478 Y125.157 E135.42206
G1 X163.192 Y125.764 F7200.000
G1 X172.600 Y125.764 E136.51710 F540.000
G1 X172.600 Y131.906 E137.23188
G1 X163.192 Y131.906 E138.32692
G1 X163.192 Y125.871 E139.02923
G1 X163.192 Y125.050 F7200.000
G1 X156.661 Y124.336 F7200.000
G1 X156.661 Y133.334 E140.07649 F1080.000
G1 X144.396 Y133.334 E141.50402
G1 X144.396 Y124.336 E142.55128
G1 X156.554 Y124.336 E143.96634
G1 X155.946 Y125.050 F7200.000
G1 X155.946 Y132.620 E144.84736 F540.000
G1 X145.110 Y132.620 E146.10864
G1 X145.110 Y125.050 E146.98966
G1 X155.839 Y125.050 E148.23848
G1 X155.232 Y125.764 F7200.000
G1 X155.232 Y131.906 E148.95326 F540.000
G1 X145.824 Y131.906 E150.04830
G1 X145.824 Y125.764 E150.76308
G1 X155.125 Y125.764 E151.84565
G1 X155.946 Y125.764 F7200.000
G1 X156.355 Y120.852 F7200.000
G1 X145.224 Y125.164 F7200.000
G1 X132.009 Y135.510 F7200.000
G1 X132.322 Y137.085 E152.03258 F540.000
G1 X132.009 Y138.661 E152.21952
G1 X131.117 Y139.996 E152.40645
G1 X129.781 Y140.888 E152.59338
G1 X128.206 Y141.202 E152.78032
G1 X126.631 Y140.888 E152.96725
G1 X125.295 Y139.996 E153.15419
G1 X124.403 Y138.661 E153.34114
G1 X124.090 Y137.085 E153.52807
G1 X124.403 Y135.510 E153.71501
G1 X125.295 Y134.175 E153.90194
G1 X126.631 Y133.282 E154.08888
G1 X128.206 Y132.969 E154.27579
G1 X129.781 Y133.283 E154.46276
G1 X131.117 Y134.175 E154.64968
G1 X131.949 Y135.421 E154.82414
G1 X131.336 Y135.789 F7200.000
G1 X131.594 Y137.085 E154.97800 F540.000
G1 X131.336 Y138.382 E155.13187
G1 X130.602 Y139.481 E155.28574
G1 X129.503 Y140.216 E155.43959
G1 X128.206 Y140.474 E155.59347
G1 X126.909 Y140.216 E155.74733
G1 X125.810 Y139.481 E155.90120
G1 X125.076 Y138.382 E156.05508
G1 X124.818 Y137.085 E156.20894
G1 X125.076 Y135.789 E156.36282
G1 X125.810 Y134.690 E156.51668
G1 X126.909 Y133.955 E156.67055
G1 X128.206 Y133.697 E156.82440
G1 X129.503 Y133.955 E156.97829
G1 X130.602 Y134.690 E157.13215
G1 X131.277 Y135.700 E157.27354
G1 X130.663 Y136.067 F7200.000
G1 X130.866 Y137.085 E157.39434 F540.000
G1 X130.663 Y138.103 E157.51514
G1 X130.087 Y138.966 E157.63594
G1 X129.224 Y139.543 E157.75673
G1 X128.206 Y139.745 E157.87754
G1 X127.188 Y139.543 E157.99833
G1 X126.325 Y138.966 E158.11914
G1 X125.748 Y138.103 E158.23994
G1 X125.546 Y137.085 E158.36074
G1 X125.748 Y136.067 E158.48154
G1 X126.325 Y135.204 E158.60234
G1 X127.188 Y134.628 E158.72314
G1 X128.206 Y134.425 E158.84393
G1 X129.224 Y134.628 E158.96474
G1 X130.087 Y135.205 E159.08554
G1 X130.604 Y135.978 E159.19386
G1 X129.991 Y136.346 F7200.000
G1 X130.138 Y137.085 E159.28159 F540.000
G1 X129.991 Y137.825 E159.36933
G1 X129.572 Y138.451 E159.45706
G1 X128.945 Y138.870 E159.54479
G1 X128.206 Y139.017 E159.63252
G1 X127.467 Y138.870 E159.72025
G1 X126.840 Y138.451 E159.80799
G1 X126.421 Y137.825 E159.89572
G1 X126.274 Y137.085 E159.98345
G1 X126.421 Y136.346 E160.07119
G1 X126.840 Y135.719 E160.15892
G1 X127.467 Y135.301 E160.24665
G1 X128.206 Y135.154 E160.33438
G1 X128.945 Y135.301 E160.42211
G1 X129.572 Y135.719 E160.50984
G1 X129.931 Y136.257 E160.58511
G1 X130.691 Y136.485 F7200.000
G1 X168.269 Y134.359 F7200.000
G1 X180.534 Y134.359 E162.01263 F1080.000
G1 X180.534 Y143.357 E163.05989
G1 X168.269 Y143.357 E164.48742
G1 X168.269 Y134.466 E165.52221
G1 X168.983 Y135.073 F7200.000
G1 X179.820 Y135.073 E166.78350 F540.000
G1 X179.820 Y142.642 E167.66452
G1 X168.983 Y142.642 E168.92580
G1 X168.983 Y135.180 E169.79435
G1 X169.697 Y135.787 F7200.000
G1 X179.106 Y135.787 E170.88940 F540.000
G1 X179.106 Y141.928 E171.60417
G1 X169.697 Y141.928 E172.69921
G1 X169.697 Y135.894 E173.40152
G1 X169.697 Y135.073 F7200.000
G1 X156.661 Y134.359 F7200.000
G1 X156.661 Y143.357 E174.44878 F1080.000
G1 X144.396 Y143.357 E175.87631
G1 X144.396 Y134.359 E176.92357
G1 X156.554 Y134.359 E178.33863
G1 X155.946 Y135.073 F7200.000
G1 X155.946 Y142.642 E179.21964 F540.000
G1 X145.110 Y142.642 E180.48093
G1 X145.110 Y135.073 E181.36195
G1 X155.839 Y135.073 E182.61076
G1 X155.232 Y135.787 F7200.000
G1 X155.232 Y141.928 E183.32554 F540.000
G1 X145.824 Y141.928 E184.42058
G1 X145.824 Y135.787 E185.13536
G1 X155.125 Y135.787 E186.21794
G1 X155.946 Y135.787 F7200.000
G1 X109.819 Y134.359 F7200.000
G1 X109.819 Y143.357 E187.26519 F1080.000
G1 X97.554 Y143.357 E188.69272
G1 X97.554 Y134.359 E189.73998
G1 X109.712 Y134.359 E191.15504
G1 X109.105 Y135.073 F7200.000
G1 X109.105 Y142.642 E192.03606 F540.000
G1 X98.268 Y142.642 E193.29734
G1 X98.268 Y135.073 E194.17836
G1 X108.998 Y135.073 E195.42718
G1 X108.391 Y135.787 F7200.000
G1 X108.391 Y141.928 E196.14195 F540.000
G1 X98.983 Y141.928 E197.23700
G1 X98.983 Y135.787 E197.95177
G1 X108.284 Y135.787 E199.03435
G1 X109.105 Y135.787 F7200.000
G1 X110.533 Y133.645 F7200.000
G1 X96.840 Y133.645 E200.62812 F1080.000
G1 X96.840 Y144.071 E201.84162
G1 X98.984 Y144.071 E202.09117
G1 X95.537 Y152.620 E203.16404
G1 X95.179 Y152.550 E203.20648
G1 X95.179 Y147.328 E203.81427
G1 X95.645 Y103.176 E208.95344
G1 X100.276 Y75.204 E212.25343
G1 X105.220 Y50.808 E215.15057
G1 X143.103 Y50.832 E219.55977
G1 X143.138 Y52.121 E219.70980
G1 X139.369 Y57.856 E220.50857
G1 X162.589 Y57.855 E223.21118
G1 X158.179 Y51.919 E224.07193
G1 X158.152 Y50.834 E224.19832
G1 X168.494 Y50.834 E225.40203
G1 X168.528 Y52.121 E225.55189
G1 X164.760 Y57.856 E226.35066
G1 X187.980 Y57.855 E229.05328
G1 X183.570 Y51.919 E229.91402
G1 X183.544 Y50.848 E230.03874
G1 X196.815 Y50.921 E231.58336
G1 X196.815 Y55.768 E232.14746
G1 X195.860 Y55.768 E232.25855
G1 X189.366 Y52.120 E233.12553
G1 X189.366 Y74.200 E235.69547
G1 X195.851 Y70.616 E236.55786
G1 X196.815 Y70.616 E236.67005
G1 X196.815 Y102.876 E240.42474
G1 X195.855 Y102.880 E240.53641
G1 X189.366 Y99.235 E241.40273
G1 X189.366 Y121.315 E243.97268
G1 X195.851 Y117.731 E244.83507
G1 X196.815 Y117.731 E244.94726
G1 X196.815 Y122.535 E245.50645
G1 X204.821 Y122.591 E246.43830
G1 X204.821 Y137.054 E248.12164
G1 X181.248 Y144.537 E251.00017
G1 X181.248 Y133.645 E252.26792
G1 X174.743 Y133.645 E253.02507
G1 X174.743 Y123.622 E254.19162
G1 X161.049 Y123.622 E255.78539
G1 X161.049 Y134.048 E256.99889
G1 X167.555 Y134.048 E257.75605
G1 X167.555 Y144.773 E259.00428
G1 X157.375 Y144.773 E260.18910
G1 X157.375 Y123.622 E262.65083
G1 X143.681 Y123.622 E264.24460
G1 X143.681 Y144.773 E266.70633
G1 X117.400 Y144.773 E269.76522
G1 X117.573 Y151.795 E270.58279
G1 X112.701 Y151.795 E271.14984
G1 X112.515 Y144.773 E271.96746
G1 X110.533 Y144.773 E272.19808
G1 X110.533 Y133.752 E273.48080
G1 X147.715 Y144.071 F7200.000
G1 X152.601 Y144.071 E274.04954 F540.000
G1 X152.792 Y151.795 E274.94882
G1 X147.920 Y151.795 E275.51587
G1 X147.717 Y144.178 E276.40274
G1 X147.038 Y145.487 F7200.000
G1 X118.132 Y145.487 E279.76708 F1080.000
G1 X118.305 Y152.509 E280.58464
G1 X112.006 Y152.509 E281.31784
G1 X111.819 Y145.487 E282.13547
G1 X99.183 Y145.487 E283.60618
G1 X94.823 Y156.301 E284.96330
G1 X94.465 Y156.231 E285.00574
G1 X94.465 Y147.325 E286.04240
G1 X94.931 Y103.114 E291.18841
G1 X99.574 Y75.075 E294.49626
G1 X104.637 Y50.094 E297.46294
G1 X143.799 Y50.118 E302.02094
G1 X143.857 Y52.326 E302.27794
G1 X140.693 Y57.142 E302.94870
G1 X161.169 Y57.141 E305.33194
G1 X157.471 Y52.163 E306.05376
G1 X157.420 Y50.119 E306.29171
G1 X169.190 Y50.119 E307.66156
G1 X169.248 Y52.326 E307.91843
G1 X166.084 Y57.142 E308.58919
G1 X186.560 Y57.141 E310.97243
G1 X182.862 Y52.163 E311.69425
G1 X182.812 Y50.130 E311.93100
G1 X197.529 Y50.211 E313.64395
G1 X197.529 Y56.482 E314.37383
G1 X195.673 Y56.482 E314.58980
G1 X190.080 Y53.340 E315.33649
G1 X190.080 Y72.989 E317.62349
G1 X195.666 Y69.902 E318.36641
G1 X197.529 Y69.902 E318.58316
G1 X197.529 Y103.586 E322.50371
G1 X195.670 Y103.595 E322.72006
G1 X190.080 Y100.455 E323.46631
G1 X190.080 Y120.104 E325.75331
G1 X195.666 Y117.017 E326.49623
G1 X197.529 Y117.017 E326.71298
G1 X197.529 Y121.826 E327.27275
G1 X205.535 Y121.882 E328.20460
G1 X205.535 Y137.577 E330.03132
G1 X180.639 Y145.480 E333.07146
G1 X153.350 Y145.487 E336.24753
G1 X153.524 Y152.509 E337.06509
G1 X147.224 Y152.509 E337.79828
G1 X147.041 Y145.594 E338.60344
G1 X146.342 Y146.201 F7200.000
G1 X118.864 Y146.201 E341.80164 F1080.000
G1 X119.012 Y152.193 E342.49924
G1 X119.777 Y153.223 E342.64863
G1 X110.607 Y153.223 E343.71599
G1 X111.283 Y152.194 E343.85935
G1 X111.124 Y146.201 E344.55713
G1 X99.665 Y146.201 E345.89079
G1 X94.109 Y159.982 E347.62024
G1 X93.751 Y159.913 E347.66268
G1 X93.751 Y147.321 E349.12821
G1 X94.217 Y103.051 E354.28105
G1 X98.871 Y74.946 E357.59676
G1 X104.054 Y49.379 E360.63299
G1 X144.494 Y49.405 E365.33980
G1 X144.577 Y52.531 E365.70376
G1 X142.017 Y56.428 E366.24651
G1 X159.749 Y56.427 E368.31038
G1 X156.762 Y52.407 E368.89326
G1 X156.688 Y49.405 E369.24278
G1 X169.885 Y49.405 E370.77877
G1 X169.968 Y52.531 E371.14265
