; generated by Slic3r 1.0.0RC2 on 2014-05-15 at 12:34:20

; layer_height = 0.3
; perimeters = 4
; top_solid_layers = 3
; bottom_solid_layers = 3
; fill_density = 0.1
; perimeter_speed = 60
; infill_speed = 60
; travel_speed = 120
; nozzle_diameter = 0.4
; filament_diameter = 1.75
; extrusion_multiplier = 0.98
; perimeters extrusion width = 0.40mm
; infill extrusion width = 0.42mm
; solid infill extrusion width = 0.42mm
; top infill extrusion width = 0.42mm
; first layer extrusion width = 0.80mm

G21 ; set units to millimeters
M107
M104 S220 ; set temperature
G28 ; home all axes
M106 S255;
G1 Z200 F1200 ; lift nozzle
M109 S220 ; wait for temperature to be reached
G90 ; use absolute coordinates
G92 E0
M82 ; use absolute distances for extrusion
G1 F1800.000 E-1.00000
G92 E0
G1 Z0.400 F7200.000
G1 X109.980 Y48.873 F7200.000
G1 E1.00000 F1800.000
G1 X110.790 Y47.653 E1.17044 F1080.000
G1 X111.850 Y46.643 E1.34085
G1 X113.100 Y45.883 E1.51112
G1 X114.490 Y45.413 E1.68190
G1 X115.940 Y45.253 E1.85169
G1 X177.030 Y45.273 E8.96195
G1 X195.450 Y45.373 E11.10588
G1 X196.830 Y45.523 E11.26744
G1 X198.150 Y45.953 E11.42903
G1 X199.360 Y46.653 E11.59173
G1 X200.390 Y47.583 E11.75324
G1 X201.210 Y48.703 E11.91480
G1 X201.790 Y49.973 E12.07730
G1 X202.080 Y51.333 E12.23915
G1 X210.090 Y123.013 E20.63391
G1 X210.130 Y123.763 E20.72132
G1 X210.130 Y142.613 E22.91527
G1 X209.990 Y144.013 E23.07903
G1 X209.550 Y145.353 E23.24319
G1 X208.840 Y146.583 E23.40848
G1 X207.890 Y147.623 E23.57243
G1 X206.740 Y148.443 E23.73682
G1 X205.450 Y149.013 E23.90097
G1 X178.890 Y157.443 E27.14425
G1 X155.170 Y164.473 E30.02372
G1 X154.220 Y164.673 E30.13671
G1 X153.260 Y164.743 E30.24874
G1 X104.590 Y164.743 E35.91344
G1 X102.990 Y164.553 E36.10097
G1 X101.490 Y163.993 E36.28733
G1 X100.160 Y163.083 E36.47489
G1 X92.150 Y156.063 E37.71454
G1 X91.230 Y155.073 E37.87184
G1 X90.520 Y153.913 E38.03013
G1 X90.070 Y152.633 E38.18805
G1 X89.870 Y151.293 E38.34574
G1 X89.950 Y149.943 E38.50314
G1 X97.120 Y105.573 E43.73435
G1 X102.990 Y77.083 E47.11995
G1 X106.830 Y60.113 E49.14502
G1 X109.450 Y50.243 E50.33358
G1 X109.941 Y48.973 E50.49208
G1 F1800.000 E49.49208
G92 E0
G1 X112.490 Y49.663 F7200.000
G1 E1.00000 F1800.000
G1 X114.610 Y48.034 E1.31118 F1080.000
G1 X143.236 Y48.064 E4.64300
G1 X145.521 Y50.291 E5.01437
G1 X145.637 Y54.679 E5.52531
G1 X146.053 Y55.084 E5.59289
G1 X147.320 Y55.084 E5.74032
G1 X147.740 Y54.654 E5.81038
G1 X147.636 Y50.432 E6.30189
G1 X149.948 Y48.062 E6.68724
G1 X168.624 Y48.062 E8.86091
G1 X170.912 Y50.290 E9.23256
G1 X171.028 Y54.679 E9.74364
G1 X171.444 Y55.084 E9.81122
G1 X172.711 Y55.084 E9.95865
G1 X173.131 Y54.654 E10.02871
G1 X173.027 Y50.425 E10.52097
G1 X175.355 Y48.053 E10.90779
G1 X197.057 Y48.173 E13.43373
G1 X199.342 Y50.471 E13.81098
G1 X199.342 Y63.636 E15.34327
G1 X197.041 Y65.937 E15.72200
G1 X192.312 Y65.937 E16.27248
G1 X191.893 Y66.355 E16.34134
G1 X191.893 Y67.426 E16.46597
G1 X192.312 Y67.844 E16.53483
G1 X197.041 Y67.844 E17.08530
G1 X199.342 Y70.145 E17.46403
G1 X199.342 Y85.564 E19.25861
G1 X197.041 Y87.865 E19.63734
G1 X125.970 Y87.865 E27.90933
G1 X125.552 Y88.283 E27.97819
G1 X125.552 Y119.419 E31.60208
G1 X125.970 Y119.837 E31.67094
G1 X205.047 Y119.837 E40.87476
G1 X207.348 Y122.138 E41.25348
G1 X207.348 Y143.897 E43.78600
G1 X205.832 Y145.969 E44.08480
G1 X177.881 Y154.842 E47.49806
G1 X177.283 Y154.934 E47.56839
G1 X156.842 Y154.940 E49.94761
G1 X156.446 Y155.727 E50.05008
G1 X157.866 Y157.637 E50.32708
G1 X155.690 Y161.964 E50.89073
G1 X137.473 Y161.964 E53.01099
G1 X135.247 Y157.839 E53.55663
G1 X136.658 Y155.692 E53.85558
G1 X136.253 Y154.942 E53.95479
G1 X121.625 Y154.942 E55.65739
G1 X121.229 Y155.728 E55.75987
G1 X122.647 Y157.637 E56.03663
G1 X120.472 Y161.964 E56.60028
G1 X102.255 Y161.964 E58.72053
G1 X100.029 Y157.839 E59.26617
G1 X101.439 Y155.692 E59.56513
G1 X101.035 Y154.942 E59.66433
G1 X94.765 Y154.942 E60.39407
G1 X92.412 Y152.178 E60.81649
G1 X99.885 Y105.983 E66.26298
G1 X105.743 Y77.596 E69.63662
G1 X109.559 Y60.699 E71.65280
G1 X112.462 Y49.766 E72.96931
G1 X113.117 Y50.081 F7200.000
G1 X114.852 Y48.749 E73.22391 F1080.000
G1 X142.945 Y48.778 E76.49368
G1 X144.815 Y50.600 E76.79752
G1 X144.942 Y55.394 E77.35566
G1 X145.358 Y55.799 E77.42323
G1 X148.052 Y55.799 E77.73680
G1 X148.472 Y55.368 E77.80686
G1 X148.358 Y50.715 E78.34854
G1 X150.249 Y48.776 E78.66382
G1 X168.334 Y48.776 E80.76868
G1 X170.206 Y50.599 E81.07275
G1 X170.333 Y55.394 E81.63100
G1 X170.749 Y55.799 E81.69857
G1 X173.443 Y55.799 E82.01214
G1 X173.863 Y55.368 E82.08220
G1 X173.748 Y50.710 E82.62448
G1 X175.653 Y48.769 E82.94098
G1 X196.758 Y48.885 E85.39746
G1 X198.628 Y50.766 E85.70612
G1 X198.628 Y63.340 E87.16968
G1 X196.745 Y65.223 E87.47955
G1 X191.598 Y65.223 E88.07872
G1 X191.179 Y65.641 E88.14758
G1 X191.179 Y68.140 E88.43845
G1 X191.598 Y68.559 E88.50731
G1 X196.745 Y68.559 E89.10648
G1 X198.628 Y70.441 E89.41634
G1 X198.628 Y85.268 E91.14206
G1 X196.745 Y87.151 E91.45193
G1 X125.256 Y87.151 E99.77261
G1 X124.837 Y87.569 E99.84147
G1 X124.837 Y120.133 E103.63160
G1 X125.256 Y120.552 E103.70046
G1 X204.752 Y120.552 E112.95297
G1 X206.634 Y122.434 E113.26284
G1 X206.634 Y143.664 E115.73377
G1 X205.394 Y145.359 E115.97824
G1 X177.717 Y154.144 E119.35794
G1 X177.228 Y154.220 E119.41549
G1 X155.422 Y154.226 E121.95356
G1 X155.026 Y155.013 E122.05603
G1 X157.030 Y157.710 E122.44704
G1 X155.250 Y161.250 E122.90821
G1 X137.899 Y161.250 E124.92762
G1 X136.078 Y157.875 E125.37405
G1 X137.981 Y154.978 E125.77747
G1 X137.577 Y154.228 E125.87667
G1 X120.204 Y154.228 E127.89865
G1 X119.809 Y155.014 E128.00113
G1 X121.811 Y157.710 E128.39196
G1 X120.031 Y161.250 E128.85312
G1 X102.681 Y161.250 E130.87253
G1 X100.860 Y157.875 E131.31896
G1 X102.763 Y154.978 E131.72238
G1 X102.358 Y154.228 E131.82159
G1 X95.095 Y154.228 E132.66699
G1 X93.170 Y151.966 E133.01262
G1 X100.589 Y106.105 E138.41980
G1 X106.440 Y77.750 E141.78959
G1 X110.254 Y60.863 E143.80461
G1 X113.090 Y50.185 E145.09048
G1 X113.745 Y50.499 F7200.000
G1 X115.094 Y49.463 E145.28851 F1080.000
G1 X142.654 Y49.491 E148.49623
G1 X144.108 Y50.909 E148.73255
G1 X144.246 Y56.108 E149.33787
G1 X144.662 Y56.513 E149.40545
G1 X148.784 Y56.513 E149.88516
G1 X149.204 Y56.082 E149.95522
G1 X149.079 Y50.998 E150.54705
G1 X150.550 Y49.490 E150.79227
G1 X168.044 Y49.490 E152.82831
G1 X169.499 Y50.908 E153.06481
G1 X169.637 Y56.108 E153.67022
G1 X170.053 Y56.513 E153.73780
G1 X174.175 Y56.513 E154.21751
G1 X174.595 Y56.082 E154.28757
G1 X174.470 Y50.994 E154.87987
G1 X175.951 Y49.485 E155.12604
G1 X196.459 Y49.598 E157.51305
G1 X197.914 Y51.060 E157.75312
G1 X197.914 Y63.044 E159.14796
G1 X196.450 Y64.509 E159.38897
G1 X190.883 Y64.509 E160.03683
G1 X190.465 Y64.927 E160.10569
G1 X190.465 Y68.854 E160.56280
G1 X190.883 Y69.273 E160.63166
G1 X196.450 Y69.273 E161.27952
G1 X197.914 Y70.737 E161.52053
G1 X197.914 Y84.972 E163.17739
G1 X196.450 Y86.437 E163.41839
G1 X124.542 Y86.437 E171.78777
G1 X124.123 Y86.855 E171.85663
G1 X124.123 Y120.847 E175.81300
G1 X124.542 Y121.266 E175.88186
G1 X204.456 Y121.266 E185.18306
G1 X205.920 Y122.730 E185.42407
G1 X205.920 Y143.430 E187.83340
G1 X204.955 Y144.749 E188.02355
G1 X177.553 Y153.447 E191.36969
G1 X177.173 Y153.506 E191.41445
G1 X154.274 Y153.513 E194.07963
G1 X153.854 Y153.943 E194.14968
G1 X153.869 Y154.541 E194.21921
G1 X153.941 Y154.750 E194.24495
G1 X156.194 Y157.782 E194.68465
G1 X154.810 Y160.536 E195.04333
G1 X138.326 Y160.536 E196.96190
G1 X136.909 Y157.911 E197.30913
G1 X138.853 Y154.952 E197.72121
G1 X138.913 Y154.741 E197.74667
G1 X138.891 Y153.919 E197.84245
G1 X138.475 Y153.514 E197.91002
G1 X119.056 Y153.514 E200.17021
G1 X118.636 Y153.944 E200.24028
G1 X118.651 Y154.541 E200.30971
G1 X118.723 Y154.750 E200.33544
G1 X120.976 Y157.782 E200.77514
G1 X119.591 Y160.536 E201.13382
G1 X103.107 Y160.536 E203.05239
G1 X101.691 Y157.911 E203.39961
G1 X103.635 Y154.952 E203.81170
G1 X103.695 Y154.741 E203.83716
G1 X103.673 Y153.919 E203.93294
G1 X103.257 Y153.514 E204.00051
G1 X95.425 Y153.514 E204.91210
G1 X93.928 Y151.755 E205.18092
G1 X101.293 Y106.227 E210.54880
G1 X107.138 Y77.904 E213.91474
G1 X110.949 Y61.026 E215.92860
G1 X113.718 Y50.603 E217.18384
G1 X114.373 Y50.918 F7200.000
G1 X115.337 Y50.177 E217.32529 F1080.000
G1 X142.364 Y50.205 E220.47095
G1 X143.402 Y51.218 E220.63976
G1 X143.551 Y56.822 E221.29227
G1 X143.967 Y57.227 E221.35984
G1 X149.516 Y57.227 E222.00569
G1 X149.936 Y56.796 E222.07575
G1 X149.800 Y51.282 E222.71775
G1 X150.851 Y50.205 E222.89290
G1 X167.753 Y50.205 E224.86013
G1 X168.793 Y51.217 E225.02906
G1 X168.942 Y56.822 E225.68163
G1 X169.358 Y57.227 E225.74920
G1 X174.907 Y57.227 E226.39505
G1 X175.327 Y56.796 E226.46511
G1 X175.191 Y51.279 E227.10744
G1 X176.249 Y50.200 E227.28328
G1 X196.161 Y50.310 E229.60083
G1 X197.200 Y51.355 E229.77230
G1 X197.200 Y62.749 E231.09842
G1 X196.154 Y63.795 E231.27057
G1 X191.022 Y63.795 E231.86781
G1 X190.306 Y63.607 E231.95396
G1 X189.751 Y64.036 E232.03564
G1 X189.751 Y69.744 E232.70001
G1 X190.304 Y70.173 E232.78151
G1 X191.026 Y69.987 E232.86819
G1 X196.154 Y69.987 E233.46507
G1 X197.200 Y71.033 E233.63722
G1 X197.200 Y84.677 E235.22522
G1 X196.154 Y85.722 E235.39737
G1 X123.827 Y85.722 E243.81543
G1 X123.409 Y86.141 E243.88429
G1 X123.409 Y121.562 E248.00691
G1 X123.827 Y121.980 E248.07577
G1 X204.160 Y121.980 E257.42566
G1 X205.206 Y123.026 E257.59781
G1 X205.206 Y143.197 E259.94555
G1 X204.517 Y144.139 E260.08137
G1 X177.389 Y152.750 E263.39395
G1 X177.118 Y152.792 E263.42592
G1 X153.542 Y152.799 E266.16988
G1 X153.122 Y153.230 E266.23993
G1 X153.161 Y154.785 E266.42100
G1 X153.233 Y154.994 E266.44673
G1 X155.358 Y157.855 E266.86156
G1 X154.369 Y159.821 E267.11776
G1 X138.752 Y159.822 E268.93549
G1 X137.740 Y157.947 E269.18351
G1 X139.573 Y155.157 E269.57206
G1 X139.633 Y154.946 E269.59751
G1 X139.587 Y153.204 E269.80031
G1 X139.171 Y152.799 E269.86788
G1 X118.324 Y152.799 E272.29421
G1 X117.904 Y153.230 E272.36428
G1 X117.942 Y154.785 E272.54527
G1 X118.014 Y154.994 E272.57101
G1 X120.140 Y157.855 E272.98583
G1 X119.151 Y159.821 E273.24203
G1 X103.533 Y159.822 E275.05975
G1 X102.522 Y157.947 E275.30777
G1 X104.355 Y155.157 E275.69632
G1 X104.415 Y154.946 E275.72178
G1 X104.368 Y153.204 E275.92457
G1 X103.952 Y152.799 E275.99215
G1 X95.755 Y152.799 E276.94628
G1 X94.685 Y151.543 E277.13829
G1 X101.996 Y106.348 E282.46687
G1 X107.835 Y78.058 E285.82897
G1 X111.645 Y61.190 E287.84166
G1 X114.345 Y51.021 E289.06627
G1 X115.001 Y51.336 F7200.000
G1 X115.579 Y50.892 E289.15114 F1080.000
G1 X142.073 Y50.919 E292.23476
G1 X142.696 Y51.527 E292.33604
G1 X142.833 Y56.685 E292.93661
G1 X142.637 Y57.374 E293.01996
G1 X143.065 Y57.941 E293.10275
G1 X150.449 Y57.941 E293.96212
G1 X150.876 Y57.342 E294.04775
G1 X150.648 Y56.679 E294.12935
G1 X150.522 Y51.565 E294.72475
G1 X151.152 Y50.919 E294.82985
G1 X167.463 Y50.919 E296.72826
G1 X168.087 Y51.526 E296.82962
G1 X168.224 Y56.685 E297.43022
G1 X168.028 Y57.374 E297.51357
G1 X168.456 Y57.941 E297.59636
G1 X175.840 Y57.941 E298.45574
G1 X176.267 Y57.342 E298.54136
G1 X176.039 Y56.679 E298.62296
G1 X175.913 Y51.563 E299.21857
G1 X176.547 Y50.916 E299.32407
G1 X195.862 Y51.023 E301.57216
G1 X196.486 Y51.650 E301.67505
G1 X196.486 Y62.453 E302.93244
G1 X195.858 Y63.080 E303.03573
G1 X191.114 Y63.080 E303.58785
G1 X190.848 Y63.011 E303.61993
G1 X189.744 Y62.390 E303.76732
G1 X189.037 Y62.804 E303.86264
G1 X189.037 Y70.970 E304.81308
G1 X189.739 Y71.384 E304.90802
G1 X190.853 Y70.769 E305.05611
G1 X191.116 Y70.701 E305.08776
G1 X195.858 Y70.701 E305.63966
G1 X196.486 Y71.329 E305.74295
G1 X196.486 Y84.381 E307.26209
G1 X195.858 Y85.008 E307.36538
G1 X123.113 Y85.008 E315.83213
G1 X122.695 Y85.427 E315.90099
G1 X122.695 Y122.276 E320.18985
G1 X123.113 Y122.694 E320.25871
G1 X203.864 Y122.694 E329.65729
G1 X204.492 Y123.322 E329.76058
G1 X204.492 Y142.964 E332.04673
G1 X204.078 Y143.529 E332.12822
G1 X177.226 Y152.052 E335.40725
G1 X177.063 Y152.078 E335.42643
G1 X152.810 Y152.085 E338.24916
G1 X152.390 Y152.516 E338.31921
G1 X152.452 Y155.029 E338.61182
G1 X152.524 Y155.238 E338.63755
G1 X154.522 Y157.927 E339.02750
G1 X153.929 Y159.107 E339.18123
G1 X139.178 Y159.108 E340.89811
G1 X138.571 Y157.983 E341.04692
G1 X140.293 Y155.362 E341.41193
G1 X140.353 Y155.151 E341.43739
G1 X140.282 Y152.490 E341.74720
G1 X139.866 Y152.085 E341.81478
G1 X117.592 Y152.085 E344.40724
G1 X117.172 Y152.516 E344.47731
G1 X117.234 Y155.029 E344.76986
G1 X117.306 Y155.238 E344.79560
G1 X119.304 Y157.927 E345.18555
G1 X118.711 Y159.107 E345.33927
G1 X103.959 Y159.108 E347.05615
G1 X103.352 Y157.983 E347.20496
G1 X105.074 Y155.361 E347.56997
G1 X105.134 Y155.151 E347.59543
G1 X105.064 Y152.490 E347.90524
G1 X104.648 Y152.085 E347.97281
G1 X96.085 Y152.085 E348.96949
G1 X95.443 Y151.331 E349.08470
G1 X102.704 Y106.447 E354.37667
G1 X108.532 Y78.212 E357.73223
G1 X112.340 Y61.354 E359.74375
G1 X114.973 Y51.440 E360.93774
G1 X115.629 Y51.754 F7200.000
G1 X115.821 Y51.606 E360.96602 F1080.000
G1 X141.782 Y51.633 E363.98759
G1 X141.990 Y51.836 E364.02135
G1 X142.116 Y56.594 E364.57543
G1 X142.086 Y56.700 E364.58816
G1 X141.294 Y57.905 E364.75607
G1 X141.699 Y58.655 E364.85528
G1 X151.900 Y58.655 E366.04267
G1 X152.296 Y57.868 E366.14515
G1 X151.395 Y56.656 E366.32101
G1 X151.359 Y56.551 E366.33388
G1 X151.243 Y51.848 E366.88139
G1 X151.453 Y51.633 E366.91642
G1 X167.173 Y51.633 E368.74601
G1 X167.381 Y51.835 E368.77980
G1 X167.507 Y56.594 E369.33389
G1 X167.477 Y56.700 E369.34662
G1 X166.685 Y57.905 E369.51453
G1 X167.090 Y58.655 E369.61374
G1 X177.291 Y58.655 E370.80113
G1 X177.687 Y57.868 E370.90361
G1 X176.786 Y56.656 E371.07947
G1 X176.750 Y56.551 E371.09234
G1 X176.634 Y51.848 E371.63992
G1 X176.846 Y51.632 E371.67508
G1 X195.564 Y51.735 E373.85371
G1 X195.771 Y51.944 E373.88800
G1 X195.771 Y62.157 E375.07667
G1 X195.562 Y62.366 E375.11110
G1 X191.206 Y62.366 E375.61809
G1 X191.117 Y62.343 E375.62879
G1 X189.029 Y61.170 E375.90751
G1 X188.323 Y61.584 E376.00284
G1 X188.323 Y72.181 E377.23621
G1 X189.025 Y72.595 E377.33116
G1 X191.119 Y71.438 E377.60961
G1 X191.207 Y71.415 E377.62016
G1 X195.562 Y71.415 E378.12708
G1 X195.771 Y71.624 E378.16151
G1 X195.771 Y84.085 E379.61179
G1 X195.562 Y84.294 E379.64622
G1 X122.399 Y84.294 E388.16167
G1 X121.981 Y84.712 E388.23053
G1 X121.981 Y122.990 E392.68562
G1 X122.399 Y123.408 E392.75448
G1 X203.568 Y123.408 E402.20176
G1 X203.777 Y123.617 E402.23619
G1 X203.777 Y142.730 E404.46074
G1 X203.640 Y142.919 E404.48791
G1 X177.062 Y151.355 E407.73338
G1 X152.079 Y151.371 E410.64121
G1 X151.658 Y151.802 E410.71126
G1 X151.744 Y155.273 E411.11540
G1 X151.816 Y155.482 E411.14114
G1 X153.687 Y158.000 E411.50621
G1 X153.489 Y158.393 E411.55745
G1 X139.604 Y158.394 E413.17349
G1 X139.402 Y158.019 E413.22309
G1 X141.013 Y155.566 E413.56458
G1 X141.073 Y155.356 E413.59003
G1 X140.978 Y151.776 E414.00686
G1 X140.562 Y151.371 E414.07443
G1 X116.860 Y151.371 E416.83304
G1 X116.440 Y151.802 E416.90310
G1 X116.525 Y155.273 E417.30722
G1 X116.597 Y155.482 E417.33296
G1 X118.468 Y158.000 E417.69803
G1 X118.270 Y158.393 E417.74927
G1 X104.386 Y158.394 E419.36531
G1 X104.183 Y158.019 E419.41491
G1 X105.794 Y155.566 E419.75639
G1 X105.854 Y155.356 E419.78185
G1 X105.759 Y151.776 E420.19867
G1 X105.343 Y151.371 E420.26625
G1 X96.415 Y151.371 E421.30546
G1 X96.201 Y151.120 E421.34387
G1 X103.405 Y106.584 E426.59475
G1 X109.230 Y78.366 E429.94825
G1 X113.035 Y61.518 E431.95861
G1 X115.601 Y51.858 E433.12196
G1 X116.250 Y52.364 F7200.000
G1 X141.247 Y52.390 E436.03137 F756.000
G1 X141.354 Y56.434 E436.50232
G1 X139.398 Y59.413 E436.91707
G1 X154.386 Y59.412 E438.66156
G1 X152.111 Y56.350 E439.10550
G1 X152.014 Y52.390 E439.56658
G1 X166.638 Y52.390 E441.26871
G1 X166.745 Y56.434 E441.73961
G1 X164.789 Y59.413 E442.15436
G1 X179.777 Y59.412 E443.89885
G1 X177.502 Y56.350 E444.34280
G1 X177.405 Y52.392 E444.80361
G1 X195.014 Y52.489 E446.85323
G1 X195.014 Y61.609 E447.91467
G1 X191.357 Y61.609 E448.34037
