; generated by Slic3r 1.0.0RC2 on 2014-05-16 at 11:15:16

; layer_height = 0.3
; perimeters = 4
; top_solid_layers = 3
; bottom_solid_layers = 3
; fill_density = 0.1
; perimeter_speed = 60
; infill_speed = 60
; travel_speed = 120
; nozzle_diameter = 0.4
; filament_diameter = 1.75
; extrusion_multiplier = 0.98
; perimeters extrusion width = 0.40mm
; infill extrusion width = 0.42mm
; solid infill extrusion width = 0.42mm
; top infill extrusion width = 0.42mm
; first layer extrusion width = 0.80mm

G21 ; set units to millimeters
M107
M104 S220 ; set temperature
G28 ; home all axes
M106 S255;
G1 Z200 F1200 ; lift nozzle
M109 S220 ; wait for temperature to be reached
G90 ; use absolute coordinates
G92 E0
M82 ; use absolute distances for extrusion
G1 F1800.000 E-1.00000
G92 E0
G1 Z0.400 F7200.000
G1 X35.514 Y49.833 F7200.000
G1 E1.00000 F1800.000
G1 X36.785 Y49.253 E1.16250 F1080.000
G1 X38.145 Y48.963 E1.32435
G1 X109.825 Y40.973 E9.71884
G1 X110.565 Y40.933 E9.80510
G1 X238.414 Y40.933 E24.68554
G1 X239.814 Y41.073 E24.84930
G1 X241.154 Y41.513 E25.01346
G1 X242.374 Y42.223 E25.17775
G1 X243.424 Y43.173 E25.34255
G1 X244.244 Y44.323 E25.50694
G1 X244.814 Y45.613 E25.67109
G1 X253.244 Y72.163 E28.91327
G1 X260.274 Y95.873 E31.79162
G1 X260.505 Y96.993 E31.92470
G1 X267.904 Y159.603 E39.26259
G1 X267.944 Y160.393 E39.35465
G1 X267.944 Y162.363 E39.58394
G1 X267.825 Y163.673 E39.73705
G1 X267.434 Y164.933 E39.89057
G1 X266.814 Y166.093 E40.04365
G1 X265.985 Y167.113 E40.19671
G1 X264.964 Y167.943 E40.34976
G1 X263.804 Y168.563 E40.50285
G1 X262.544 Y168.953 E40.65637
G1 X261.235 Y169.073 E40.80948
G1 X137.744 Y169.073 E55.18246
G1 X93.374 Y168.603 E60.34697
G1 X92.344 Y168.513 E60.46731
G1 X63.914 Y163.803 E63.82137
G1 X37.424 Y158.433 E66.96725
G1 X36.174 Y158.043 E67.11966
G1 X35.014 Y157.423 E67.27274
G1 X34.005 Y156.593 E67.42490
G1 X33.174 Y155.573 E67.57796
G1 X32.554 Y154.413 E67.73104
G1 X32.174 Y153.153 E67.88422
G1 X32.054 Y151.853 E68.03617
G1 X32.075 Y74.013 E77.09596
G1 X32.174 Y55.593 E79.23989
G1 X32.325 Y54.213 E79.40145
G1 X32.755 Y52.893 E79.56303
G1 X33.454 Y51.683 E79.72573
G1 X34.384 Y50.653 E79.88725
G1 X35.428 Y49.896 E80.03728
G1 F1800.000 E79.03728
G92 E0
G1 X233.859 Y74.466 F7200.000
G1 E1.00000 F1800.000
G1 X242.857 Y74.466 E2.04726 F1080.000
G1 X242.857 Y86.731 E3.47479
G1 X233.859 Y86.731 E4.52204
G1 X233.859 Y74.573 E5.93710
G1 X234.573 Y75.180 F7200.000
G1 X242.142 Y75.180 E6.81812 F540.000
G1 X242.142 Y86.017 E8.07941
G1 X234.573 Y86.017 E8.96042
G1 X234.573 Y75.287 E10.20924
G1 X235.287 Y75.894 F7200.000
G1 X241.428 Y75.894 E10.92402 F540.000
G1 X241.428 Y85.303 E12.01906
G1 X235.287 Y85.303 E12.73383
G1 X235.287 Y76.002 E13.81641
G1 X235.287 Y75.180 F7200.000
G1 X232.834 Y80.972 F7200.000
G1 X232.834 Y93.237 E15.24394 F1080.000
G1 X223.836 Y93.237 E16.29120
G1 X223.836 Y80.972 E17.71873
G1 X232.727 Y80.972 E18.75352
G1 X232.120 Y81.686 F7200.000
G1 X232.120 Y92.522 E20.01481 F540.000
G1 X224.550 Y92.522 E20.89582
G1 X224.550 Y81.686 E22.15711
G1 X232.013 Y81.686 E23.02566
G1 X231.406 Y82.400 F7200.000
G1 X231.406 Y91.808 E24.12071 F540.000
G1 X225.264 Y91.808 E24.83548
G1 X225.264 Y82.400 E25.93053
G1 X231.298 Y82.400 E26.63283
G1 X232.120 Y82.400 F7200.000
G1 X233.859 Y98.339 F7200.000
G1 X242.857 Y98.339 E27.68009 F1080.000
G1 X242.857 Y110.604 E29.10762
G1 X233.859 Y110.604 E30.15488
G1 X233.859 Y98.446 E31.56994
G1 X234.573 Y99.054 F7200.000
G1 X242.142 Y99.054 E32.45096 F540.000
G1 X242.142 Y109.890 E33.71224
G1 X234.573 Y109.890 E34.59326
G1 X234.573 Y99.161 E35.84208
G1 X235.287 Y99.768 F7200.000
G1 X241.428 Y99.768 E36.55685 F540.000
G1 X241.428 Y109.176 E37.65190
G1 X235.287 Y109.176 E38.36667
G1 X235.287 Y99.875 E39.44925
G1 X235.287 Y99.054 F7200.000
G1 X232.834 Y98.339 F7200.000
G1 X232.834 Y110.604 E40.87678 F1080.000
G1 X223.836 Y110.604 E41.92404
G1 X223.836 Y98.339 E43.35157
G1 X232.727 Y98.339 E44.38636
G1 X232.120 Y99.054 F7200.000
G1 X232.120 Y109.890 E45.64765 F540.000
G1 X224.550 Y109.890 E46.52866
G1 X224.550 Y99.054 E47.78995
G1 X232.013 Y99.054 E48.65850
G1 X231.406 Y99.768 F7200.000
G1 X231.406 Y109.176 E49.75355 F540.000
G1 X225.264 Y109.176 E50.46832
G1 X225.264 Y99.768 E51.56337
G1 X231.298 Y99.768 E52.26567
G1 X232.120 Y99.768 F7200.000
G1 F1800.000 E51.26567
G92 E0
G1 X176.456 Y121.647 F7200.000
G1 E1.00000 F1800.000
G1 X176.769 Y123.222 E1.18694 F540.000
G1 X176.456 Y124.798 E1.37387
G1 X175.564 Y126.133 E1.56081
G1 X174.228 Y127.025 E1.74774
G1 X172.653 Y127.339 E1.93469
G1 X171.078 Y127.025 E2.12162
G1 X169.742 Y126.133 E2.30856
G1 X168.850 Y124.798 E2.49549
G1 X168.537 Y123.222 E2.68242
G1 X168.850 Y121.647 E2.86936
G1 X169.743 Y120.312 E3.05630
G1 X171.078 Y119.419 E3.24323
G1 X172.653 Y119.106 E3.43015
G1 X174.229 Y119.420 E3.61711
G1 X175.564 Y120.312 E3.80403
G1 X176.397 Y121.558 E3.97848
G1 X175.783 Y121.926 F7200.000
G1 X176.041 Y123.222 E4.13235 F540.000
G1 X175.783 Y124.519 E4.28621
G1 X175.049 Y125.618 E4.44009
G1 X173.950 Y126.353 E4.59395
G1 X172.653 Y126.611 E4.74783
G1 X171.357 Y126.353 E4.90169
G1 X170.257 Y125.618 E5.05556
G1 X169.523 Y124.519 E5.20943
G1 X169.265 Y123.222 E5.36329
G1 X169.523 Y121.926 E5.51716
G1 X170.257 Y120.827 E5.67103
G1 X171.357 Y120.092 E5.82490
G1 X172.653 Y119.834 E5.97875
G1 X173.950 Y120.092 E6.13264
G1 X175.049 Y120.827 E6.28650
G1 X175.724 Y121.837 E6.42788
G1 X175.111 Y122.205 F7200.000
G1 X175.313 Y123.222 E6.54868 F540.000
G1 X175.111 Y124.240 E6.66948
G1 X174.534 Y125.103 E6.79028
G1 X173.671 Y125.680 E6.91108
G1 X172.653 Y125.882 E7.03189
G1 X171.635 Y125.680 E7.15268
G1 X170.772 Y125.103 E7.27349
G1 X170.196 Y124.240 E7.39429
G1 X169.993 Y123.222 E7.51508
G1 X170.196 Y122.205 E7.63588
G1 X170.772 Y121.342 E7.75668
G1 X171.635 Y120.765 E7.87748
G1 X172.653 Y120.562 E7.99828
G1 X173.671 Y120.765 E8.11909
G1 X174.534 Y121.342 E8.23988
G1 X175.051 Y122.115 E8.34820
G1 X174.438 Y122.483 F7200.000
G1 X174.585 Y123.222 E8.43594 F540.000
G1 X174.438 Y123.962 E8.52367
G1 X174.019 Y124.589 E8.61140
G1 X173.392 Y125.007 E8.69913
G1 X172.653 Y125.154 E8.78687
G1 X171.914 Y125.007 E8.87460
G1 X171.287 Y124.589 E8.96233
G1 X170.868 Y123.962 E9.05006
G1 X170.721 Y123.222 E9.13779
G1 X170.868 Y122.483 E9.22552
G1 X171.287 Y121.856 E9.31326
G1 X171.914 Y121.438 E9.40099
G1 X172.653 Y121.291 E9.48872
G1 X173.392 Y121.438 E9.57645
G1 X174.019 Y121.856 E9.66418
G1 X174.378 Y122.394 E9.73944
G1 X175.138 Y122.623 F7200.000
G1 X178.907 Y129.903 F7200.000
G1 X176.731 Y156.623 F7200.000
G1 X186.597 Y158.257 F7200.000
G1 X196.462 Y159.890 F7200.000
G1 X232.469 Y126.794 F7200.000
G1 X232.782 Y125.219 E9.92639 F540.000
G1 X233.675 Y123.883 E10.11332
G1 X235.010 Y122.991 E10.30026
G1 X236.585 Y122.678 E10.48718
G1 X238.161 Y122.991 E10.67413
G1 X239.496 Y123.883 E10.86105
G1 X240.388 Y125.219 E11.04799
G1 X240.702 Y126.794 E11.23490
G1 X240.388 Y128.369 E11.42186
G1 X239.496 Y129.705 E11.60877
G1 X238.161 Y130.597 E11.79571
G1 X236.585 Y130.910 E11.98265
G1 X235.010 Y130.597 E12.16958
G1 X233.675 Y129.705 E12.35653
G1 X232.782 Y128.369 E12.54346
G1 X232.490 Y126.899 E12.71793
G1 X233.197 Y126.794 F7200.000
G1 X233.455 Y125.497 E12.87180 F540.000
G1 X234.190 Y124.398 E13.02567
G1 X235.289 Y123.664 E13.17953
G1 X236.585 Y123.406 E13.33340
G1 X237.882 Y123.664 E13.48727
G1 X238.981 Y124.398 E13.64113
G1 X239.716 Y125.498 E13.79500
G1 X239.974 Y126.794 E13.94885
G1 X239.716 Y128.091 E14.10273
G1 X238.981 Y129.190 E14.25658
G1 X237.882 Y129.924 E14.41045
G1 X236.585 Y130.182 E14.56432
G1 X235.289 Y129.924 E14.71819
G1 X234.190 Y129.190 E14.87206
G1 X233.455 Y128.091 E15.02593
G1 X233.218 Y126.899 E15.16733
G1 X233.925 Y126.794 F7200.000
G1 X234.128 Y125.776 E15.28813 F540.000
G1 X234.705 Y124.913 E15.40893
G1 X235.567 Y124.337 E15.52973
G1 X236.585 Y124.134 E15.65053
G1 X237.603 Y124.337 E15.77133
G1 X238.466 Y124.913 E15.89213
G1 X239.043 Y125.776 E16.01292
G1 X239.245 Y126.794 E16.13371
G1 X239.043 Y127.812 E16.25452
G1 X238.466 Y128.675 E16.37531
G1 X237.603 Y129.252 E16.49611
G1 X236.585 Y129.454 E16.61692
G1 X235.567 Y129.252 E16.73772
G1 X234.704 Y128.675 E16.85852
G1 X234.128 Y127.812 E16.97932
G1 X233.946 Y126.899 E17.08765
G1 X234.654 Y126.794 F7200.000
G1 X234.801 Y126.055 E17.17538 F540.000
G1 X235.219 Y125.428 E17.26312
G1 X235.846 Y125.009 E17.35085
G1 X236.585 Y124.862 E17.43858
G1 X237.325 Y125.009 E17.52631
G1 X237.951 Y125.428 E17.61404
G1 X238.370 Y126.055 E17.70177
G1 X238.517 Y126.794 E17.78950
G1 X238.370 Y127.533 E17.87724
G1 X237.951 Y128.160 E17.96496
G1 X237.325 Y128.579 E18.05270
G1 X236.585 Y128.726 E18.14043
G1 X235.846 Y128.579 E18.22816
G1 X235.219 Y128.160 E18.31590
G1 X234.801 Y127.533 E18.40363
G1 X234.674 Y126.899 E18.47889
G1 X234.060 Y126.397 F7200.000
G1 X221.894 Y138.743 F7200.000
G1 X177.365 Y138.743 E23.66168 F1080.000
G1 X177.365 Y111.319 E26.85355
G1 X167.440 Y111.319 E28.00867
G1 X167.440 Y97.625 E29.60244
G1 X177.365 Y97.625 E30.75755
G1 X177.365 Y93.952 E31.18506
G1 X167.440 Y93.952 E32.34017
G1 X167.440 Y80.259 E33.93394
G1 X177.866 Y80.259 E35.14744
G1 X177.866 Y88.361 E36.09043
G1 X221.894 Y88.361 E41.21484
G1 X221.894 Y138.635 E47.06630
G1 X166.715 Y145.320 F7200.000
G1 X178.907 Y119.903 F7200.000
G1 X177.152 Y110.604 F7200.000
G1 X168.154 Y110.604 E48.11356 F1080.000
G1 X168.154 Y98.339 E49.54109
G1 X177.152 Y98.339 E50.58834
G1 X177.152 Y110.497 E52.00340
G1 X176.438 Y109.890 F7200.000
G1 X168.868 Y109.890 E52.88442 F540.000
G1 X168.868 Y99.054 E54.14571
G1 X176.438 Y99.054 E55.02672
G1 X176.438 Y109.783 E56.27554
G1 X175.724 Y109.176 F7200.000
G1 X169.583 Y109.176 E56.99031 F540.000
G1 X169.583 Y99.768 E58.08536
G1 X175.724 Y99.768 E58.80013
G1 X175.724 Y109.069 E59.88271
G1 X175.724 Y109.890 F7200.000
G1 X177.152 Y93.238 F7200.000
G1 X168.154 Y93.238 E60.92997 F1080.000
G1 X168.154 Y80.973 E62.35750
G1 X177.152 Y80.973 E63.40475
G1 X177.152 Y93.131 E64.81981
G1 X176.438 Y92.524 F7200.000
G1 X168.868 Y92.524 E65.70083 F540.000
G1 X168.868 Y81.687 E66.96211
G1 X176.438 Y81.687 E67.84313
G1 X176.438 Y92.417 E69.09195
G1 X175.724 Y91.810 F7200.000
G1 X169.583 Y91.810 E69.80672 F540.000
G1 X169.583 Y82.401 E70.90177
G1 X175.724 Y82.401 E71.61654
G1 X175.724 Y91.703 E72.69912
G1 X175.724 Y92.524 F7200.000
G1 X178.079 Y89.075 F7200.000
G1 X221.180 Y89.075 E77.71567 F1080.000
G1 X221.180 Y138.028 E83.41336
G1 X178.079 Y138.028 E88.42991
G1 X178.079 Y89.182 E94.11513
G1 X178.793 Y89.789 F7200.000
G1 X220.466 Y89.789 E98.96544 F1080.000
G1 X220.466 Y137.314 E104.49689
G1 X178.793 Y137.314 E109.34719
G1 X178.793 Y89.896 E114.86617
G1 X179.507 Y90.503 F7200.000
G1 X219.752 Y90.503 E119.55024 F756.000
G1 X219.752 Y136.600 E124.91545
G1 X179.507 Y136.600 E129.59951
G1 X179.507 Y90.610 E134.95225
G1 X179.507 Y89.789 F7200.000
G1 X178.907 Y89.903 F7200.000
G1 X178.907 Y119.903 F7200.000
G1 X168.258 Y135.219 F7200.000
G1 X168.258 Y148.912 E136.54602 F1080.000
G1 X157.832 Y148.912 E137.75952
G1 X157.832 Y135.219 E139.35329
G1 X168.151 Y135.219 E140.55432
G1 X167.544 Y135.933 F7200.000
G1 X167.544 Y148.198 E141.98185 F1080.000
G1 X158.546 Y148.198 E143.02911
G1 X158.546 Y135.933 E144.45663
G1 X167.437 Y135.933 E145.49142
G1 X166.830 Y136.647 F7200.000
G1 X166.830 Y147.484 E146.75271 F540.000
G1 X159.260 Y147.484 E147.63372
G1 X159.260 Y136.647 E148.89501
G1 X166.722 Y136.647 E149.76356
G1 X166.115 Y137.362 F7200.000
G1 X166.115 Y146.770 E150.85860 F540.000
G1 X159.974 Y146.770 E151.57338
G1 X159.974 Y137.362 E152.66842
G1 X166.008 Y137.362 E153.37073
G1 X166.830 Y137.362 F7200.000
G1 X233.859 Y145.181 F7200.000
G1 X242.857 Y145.181 E154.41798 F1080.000
G1 X242.857 Y157.446 E155.84551
G1 X233.859 Y157.446 E156.89277
G1 X233.859 Y145.288 E158.30783
G1 X234.573 Y145.895 F7200.000
G1 X242.142 Y145.895 E159.18885 F540.000
G1 X242.142 Y156.732 E160.45013
G1 X234.573 Y156.732 E161.33115
G1 X234.573 Y146.002 E162.57997
G1 X235.287 Y146.609 F7200.000
G1 X241.428 Y146.609 E163.29474 F540.000
G1 X241.428 Y156.017 E164.38979
G1 X235.287 Y156.017 E165.10456
G1 X235.287 Y146.716 E166.18714
G1 X235.287 Y145.895 F7200.000
G1 X233.145 Y144.467 F7200.000
G1 X233.145 Y158.160 E167.78091 F1080.000
G1 X243.571 Y158.160 E168.99441
G1 X243.571 Y156.016 E169.24397
G1 X252.120 Y159.463 E170.31684
G1 X252.050 Y159.821 E170.35928
G1 X246.828 Y159.821 E170.96706
G1 X202.676 Y159.355 E176.10624
G1 X174.704 Y154.724 E179.40623
G1 X150.308 Y149.780 E182.30337
G1 X150.332 Y111.897 E186.71256
G1 X151.621 Y111.862 E186.86260
G1 X157.356 Y115.631 E187.66137
G1 X157.355 Y92.411 E190.36398
G1 X151.419 Y96.821 E191.22473
G1 X150.334 Y96.848 E191.35112
G1 X150.334 Y86.506 E192.55483
G1 X151.621 Y86.471 E192.70469
G1 X157.356 Y90.240 E193.50346
G1 X157.355 Y67.020 E196.20607
G1 X151.419 Y71.430 E197.06682
G1 X150.348 Y71.456 E197.19153
G1 X150.421 Y58.185 E198.73616
G1 X155.268 Y58.185 E199.30025
G1 X155.268 Y59.140 E199.41135
G1 X151.620 Y65.634 E200.27832
G1 X173.700 Y65.634 E202.84827
G1 X170.116 Y59.149 E203.71066
G1 X170.116 Y58.185 E203.82284
G1 X202.376 Y58.185 E207.57754
G1 X202.380 Y59.145 E207.68921
G1 X198.735 Y65.634 E208.55553
G1 X220.815 Y65.634 E211.12547
G1 X217.231 Y59.149 E211.98787
G1 X217.231 Y58.185 E212.10005
G1 X222.035 Y58.185 E212.65925
G1 X222.091 Y50.179 E213.59109
G1 X236.554 Y50.179 E215.27444
G1 X244.037 Y73.752 E218.15296
G1 X233.145 Y73.752 E219.42072
G1 X233.145 Y80.257 E220.17787
G1 X223.122 Y80.257 E221.34442
G1 X223.122 Y93.951 E222.93819
G1 X233.548 Y93.951 E224.15169
G1 X233.548 Y87.445 E224.90884
G1 X244.273 Y87.445 E226.15707
G1 X244.273 Y97.625 E227.34190
G1 X223.122 Y97.625 E229.80363
G1 X223.122 Y111.319 E231.39740
G1 X244.273 Y111.319 E233.85913
G1 X244.273 Y137.600 E236.91803
G1 X251.295 Y137.427 E237.73559
G1 X251.295 Y142.299 E238.30265
G1 X244.273 Y142.485 E239.12027
G1 X244.273 Y144.467 E239.35089
G1 X233.252 Y144.467 E240.63361
G1 X243.571 Y107.285 F7200.000
G1 X243.571 Y102.399 E241.20235 F540.000
G1 X251.295 Y102.208 E242.10162
G1 X251.295 Y107.080 E242.66868
G1 X243.678 Y107.283 E243.55555
G1 X244.987 Y107.962 F7200.000
G1 X244.987 Y136.868 E246.91990 F1080.000
G1 X252.009 Y136.695 E247.73746
G1 X252.009 Y142.994 E248.47065
G1 X244.987 Y143.181 E249.28828
G1 X244.987 Y155.817 E250.75900
G1 X255.801 Y160.177 E252.11612
G1 X255.731 Y160.535 E252.15855
G1 X246.825 Y160.535 E253.19521
G1 X202.614 Y160.069 E258.34122
G1 X174.575 Y155.426 E261.64907
G1 X149.594 Y150.363 E264.61576
G1 X149.618 Y111.201 E269.17376
G1 X151.826 Y111.143 E269.43075
G1 X156.642 Y114.307 E270.10152
G1 X156.641 Y93.831 E272.48476
G1 X151.663 Y97.529 E273.20657
G1 X149.619 Y97.580 E273.44453
G1 X149.619 Y85.810 E274.81437
G1 X151.826 Y85.752 E275.07124
G1 X156.642 Y88.916 E275.74201
G1 X156.641 Y68.440 E278.12525
G1 X151.663 Y72.138 E278.84706
G1 X149.630 Y72.188 E279.08381
G1 X149.711 Y57.471 E280.79677
G1 X155.982 Y57.471 E281.52665
G1 X155.982 Y59.327 E281.74261
G1 X152.840 Y64.920 E282.48930
G1 X172.489 Y64.920 E284.77630
G1 X169.402 Y59.334 E285.51923
G1 X169.402 Y57.471 E285.73597
G1 X203.086 Y57.471 E289.65652
G1 X203.095 Y59.330 E289.87287
G1 X199.955 Y64.920 E290.61912
G1 X219.604 Y64.920 E292.90612
G1 X216.517 Y59.334 E293.64905
G1 X216.517 Y57.471 E293.86580
G1 X221.326 Y57.471 E294.42557
G1 X221.382 Y49.465 E295.35741
G1 X237.077 Y49.465 E297.18413
G1 X244.980 Y74.361 E300.22428
G1 X244.987 Y101.650 E303.40034
G1 X252.009 Y101.476 E304.21790
G1 X252.009 Y107.776 E304.95110
G1 X245.094 Y107.959 E305.75626
G1 X245.701 Y108.658 F7200.000
G1 X245.701 Y136.136 E308.95446 F1080.000
G1 X251.693 Y135.988 E309.65207
G1 X252.723 Y135.223 E309.80145
G1 X252.723 Y144.393 E310.86882
G1 X251.694 Y143.717 E311.01217
G1 X245.701 Y143.876 E311.70995
G1 X245.701 Y155.335 E313.04361
G1 X259.482 Y160.891 E314.77306
G1 X259.413 Y161.249 E314.81550
G1 X246.821 Y161.249 E316.28103
G1 X202.551 Y160.783 E321.43387
G1 X174.446 Y156.129 E324.74958
G1 X148.879 Y150.946 E327.78581
G1 X148.905 Y110.506 E332.49262
G1 X152.031 Y110.423 E332.85658
G1 X155.928 Y112.983 E333.39934
G1 X155.927 Y95.251 E335.46320
