; generated by Slic3r 1.0.0RC2 on 2014-05-15 at 11:17:20

; layer_height = 0.3
; perimeters = 4
; top_solid_layers = 3
; bottom_solid_layers = 3
; fill_density = 0.1
; perimeter_speed = 60
; infill_speed = 60
; travel_speed = 120
; nozzle_diameter = 0.4
; filament_diameter = 1.75
; extrusion_multiplier = 0.98
; perimeters extrusion width = 0.40mm
; infill extrusion width = 0.42mm
; solid infill extrusion width = 0.42mm
; top infill extrusion width = 0.42mm
; first layer extrusion width = 0.80mm

G21 ; set units to millimeters
M107
M104 S220 ; set temperature
G28 ; home all axes
M106 S255;
G1 Z200 F1200 ; lift nozzle
M109 S220 ; wait for temperature to be reached
G90 ; use absolute coordinates
G92 E0
M82 ; use absolute distances for extrusion
G1 F1800.000 E-1.00000
G92 E0
G1 Z0.400 F7200.000
G1 X100.593 Y86.042 F7200.000
G1 E1.00000 F1800.000
G1 X101.523 Y85.002 E1.16238 F1080.000
G1 X102.643 Y84.172 E1.32463
G1 X109.083 Y80.412 E2.19259
G1 X110.723 Y79.732 E2.39922
G1 X112.473 Y79.502 E2.60466
G1 X187.503 Y79.502 E11.33739
G1 X189.253 Y79.732 E11.54282
G1 X190.883 Y80.412 E11.74839
G1 X197.343 Y84.172 E12.61835
G1 X198.473 Y84.992 E12.78085
G1 X199.403 Y86.032 E12.94323
G1 X200.103 Y87.252 E13.10694
G1 X200.533 Y88.582 E13.26963
G1 X200.673 Y89.972 E13.43223
G1 X200.673 Y120.752 E17.01471
G1 X200.533 Y122.142 E17.17731
G1 X200.103 Y123.462 E17.33889
G1 X199.413 Y124.672 E17.50101
G1 X198.483 Y125.712 E17.66340
G1 X197.363 Y126.542 E17.82565
G1 X190.903 Y130.332 E18.69737
G1 X189.263 Y131.022 E18.90446
G1 X187.503 Y131.252 E19.11105
G1 X112.473 Y131.252 E27.84378
G1 X110.713 Y131.022 E28.05037
G1 X109.063 Y130.332 E28.25853
G1 X102.623 Y126.542 E29.12824
G1 X101.503 Y125.712 E29.29049
G1 X100.583 Y124.672 E29.45210
G1 X99.893 Y123.462 E29.61422
G1 X99.463 Y122.142 E29.77581
G1 X99.323 Y120.752 E29.93841
G1 X99.323 Y89.972 E33.52089
G1 X99.463 Y88.582 E33.68349
G1 X99.893 Y87.252 E33.84617
G1 X100.539 Y86.135 E33.99641
G1 F1800.000 E32.99641
G92 E0
G1 X109.387 Y93.608 F7200.000
G1 E1.00000 F1800.000
G1 X109.895 Y93.206 E1.07545 F1080.000
G1 X110.472 Y92.909 E1.15091
G1 X111.094 Y92.727 E1.22638
G1 X111.740 Y92.665 E1.30185
G1 X112.385 Y92.727 E1.37733
G1 X113.007 Y92.909 E1.45279
G1 X113.584 Y93.206 E1.52826
G1 X114.092 Y93.608 E1.60370
G1 X114.512 Y94.102 E1.67916
G1 X114.826 Y94.669 E1.75464
G1 X115.106 Y95.559 E1.86318
G1 X115.528 Y95.494 E1.91287
G1 X115.528 Y88.904 E2.67990
G1 X184.422 Y88.866 E10.69850
G1 X184.422 Y95.735 E11.49805
G1 X184.844 Y95.800 E11.54774
G1 X185.203 Y94.659 E11.68694
G1 X185.521 Y94.086 E11.76323
G1 X185.945 Y93.587 E11.83953
G1 X186.459 Y93.180 E11.91581
G1 X187.042 Y92.879 E11.99212
G1 X187.671 Y92.695 E12.06842
G1 X188.324 Y92.633 E12.14475
G1 X188.977 Y92.695 E12.22107
G1 X189.606 Y92.879 E12.29738
G1 X190.189 Y93.180 E12.37368
G1 X190.703 Y93.587 E12.44997
G1 X191.127 Y94.086 E12.52627
G1 X191.445 Y94.659 E12.60256
G1 X191.642 Y95.285 E12.67884
G1 X191.708 Y95.937 E12.75514
G1 X191.642 Y96.589 E12.83146
G1 X191.445 Y97.214 E12.90775
G1 X191.127 Y97.788 E12.98403
G1 X190.703 Y98.287 E13.06031
G1 X190.189 Y98.694 E13.13661
G1 X189.606 Y98.994 E13.21292
G1 X188.977 Y99.178 E13.28924
G1 X188.324 Y99.240 E13.36555
G1 X187.671 Y99.178 E13.44187
G1 X187.042 Y98.994 E13.51819
G1 X186.459 Y98.694 E13.59448
G1 X185.945 Y98.287 E13.67078
G1 X185.521 Y97.788 E13.74706
G1 X185.203 Y97.214 E13.82335
G1 X184.844 Y96.073 E13.96256
G1 X184.422 Y96.138 E14.01225
G1 X184.422 Y115.248 E16.23644
G1 X184.844 Y115.313 E16.28611
G1 X185.174 Y114.263 E16.41413
G1 X185.488 Y113.696 E16.48959
G1 X185.908 Y113.203 E16.56505
G1 X186.416 Y112.800 E16.64050
G1 X186.993 Y112.503 E16.71597
G1 X187.615 Y112.321 E16.79144
G1 X188.261 Y112.260 E16.86692
G1 X188.906 Y112.321 E16.94238
G1 X189.528 Y112.503 E17.01785
G1 X190.105 Y112.800 E17.09331
G1 X190.613 Y113.203 E17.16877
G1 X191.033 Y113.696 E17.24422
G1 X191.347 Y114.263 E17.31968
G1 X191.542 Y114.882 E17.39516
G1 X191.608 Y115.527 E17.47063
G1 X191.542 Y116.172 E17.54610
G1 X191.347 Y116.791 E17.62158
G1 X191.033 Y117.358 E17.69705
G1 X190.613 Y117.852 E17.77251
G1 X190.105 Y118.254 E17.84797
G1 X189.528 Y118.551 E17.92343
G1 X188.906 Y118.734 E17.99889
G1 X188.261 Y118.795 E18.07436
G1 X187.615 Y118.734 E18.14984
G1 X186.993 Y118.551 E18.22531
G1 X186.416 Y118.254 E18.30078
G1 X185.908 Y117.852 E18.37621
G1 X185.488 Y117.358 E18.45168
G1 X185.174 Y116.791 E18.52716
G1 X184.844 Y115.742 E18.65517
G1 X184.422 Y115.806 E18.70486
G1 X184.422 Y121.873 E19.41101
G1 X115.528 Y121.873 E27.42960
G1 X115.528 Y115.885 E28.12656
G1 X115.106 Y115.820 E28.17626
G1 X114.797 Y116.801 E28.29598
G1 X114.479 Y117.374 E28.37228
G1 X114.055 Y117.874 E28.44857
G1 X113.541 Y118.281 E28.52486
G1 X112.958 Y118.581 E28.60116
G1 X112.329 Y118.765 E28.67748
G1 X111.676 Y118.827 E28.75379
G1 X111.023 Y118.765 E28.83011
G1 X110.394 Y118.581 E28.90642
G1 X109.811 Y118.280 E28.98272
G1 X109.297 Y117.874 E29.05901
G1 X108.873 Y117.374 E29.13531
G1 X108.555 Y116.801 E29.21161
G1 X108.358 Y116.176 E29.28790
G1 X108.292 Y115.524 E29.36419
G1 X108.358 Y114.871 E29.44050
G1 X108.555 Y114.246 E29.51679
G1 X108.873 Y113.673 E29.59308
G1 X109.297 Y113.173 E29.66936
G1 X109.811 Y112.767 E29.74566
G1 X110.394 Y112.466 E29.82196
G1 X111.023 Y112.282 E29.89828
G1 X111.676 Y112.220 E29.97460
G1 X112.329 Y112.282 E30.05092
G1 X112.958 Y112.466 E30.12724
G1 X113.541 Y112.767 E30.20352
G1 X114.055 Y113.174 E30.27982
G1 X114.479 Y113.673 E30.35611
G1 X114.797 Y114.246 E30.43239
G1 X115.106 Y115.227 E30.55213
G1 X115.528 Y115.163 E30.60180
G1 X115.528 Y96.372 E32.78884
G1 X115.106 Y96.307 E32.83854
G1 X114.826 Y97.197 E32.94708
G1 X114.512 Y97.764 E33.02255
G1 X114.092 Y98.258 E33.09800
G1 X113.584 Y98.660 E33.17346
G1 X113.007 Y98.957 E33.24891
G1 X112.385 Y99.139 E33.32438
G1 X111.740 Y99.201 E33.39985
G1 X111.094 Y99.139 E33.47533
G1 X110.472 Y98.957 E33.55080
G1 X109.895 Y98.660 E33.62626
G1 X109.387 Y98.258 E33.70171
G1 X108.967 Y97.764 E33.77717
G1 X108.653 Y97.197 E33.85264
G1 X108.458 Y96.578 E33.92810
G1 X108.392 Y95.933 E34.00359
G1 X108.458 Y95.288 E34.07905
G1 X108.653 Y94.669 E34.15454
G1 X108.967 Y94.102 E34.23000
G1 X109.318 Y93.690 E34.29300
G1 X109.853 Y94.163 F7200.000
G1 X110.284 Y93.809 E34.35802 F540.000
G1 X110.738 Y93.575 E34.41743
G1 X111.229 Y93.431 E34.47700
G1 X111.740 Y93.383 E34.53666
G1 X112.250 Y93.431 E34.59632
G1 X112.741 Y93.575 E34.65588
G1 X113.195 Y93.809 E34.71529
G1 X113.593 Y94.125 E34.77449
G1 X113.922 Y94.511 E34.83347
G1 X114.167 Y94.952 E34.89225
G1 X114.318 Y95.433 E34.95087
G1 X114.369 Y95.933 E35.00940
G1 X114.318 Y96.433 E35.06793
G1 X114.167 Y96.914 E35.12654
G1 X113.922 Y97.356 E35.18532
G1 X113.593 Y97.742 E35.24430
G1 X113.195 Y98.057 E35.30351
G1 X112.741 Y98.291 E35.36291
G1 X112.250 Y98.435 E35.42248
G1 X111.739 Y98.483 E35.48214
G1 X111.229 Y98.435 E35.54179
G1 X110.738 Y98.291 E35.60136
G1 X110.284 Y98.057 E35.66078
G1 X109.886 Y97.741 E35.71998
G1 X109.557 Y97.356 E35.77896
G1 X109.312 Y96.914 E35.83774
G1 X109.161 Y96.433 E35.89635
G1 X109.110 Y95.933 E35.95488
G1 X109.161 Y95.433 E36.01341
G1 X109.312 Y94.952 E36.07203
G1 X109.557 Y94.511 E36.13080
G1 X109.783 Y94.245 E36.17140
G1 X109.729 Y93.619 F7200.000
G1 F1800.000 E35.17140
G92 E0
G1 X111.626 Y112.942 F7200.000
G1 E1.00000 F1800.000
G1 X112.194 Y112.987 E1.06622 F540.000
G1 X112.692 Y113.132 E1.12663
G1 X113.152 Y113.370 E1.18688
G1 X113.556 Y113.690 E1.24692
G1 X113.889 Y114.081 E1.30673
G1 X114.137 Y114.529 E1.36633
G1 X114.291 Y115.016 E1.42577
G1 X114.342 Y115.524 E1.48512
G1 X114.291 Y116.031 E1.54447
G1 X114.138 Y116.518 E1.60391
G1 X113.889 Y116.966 E1.66351
G1 X113.556 Y117.357 E1.72332
G1 X113.152 Y117.678 E1.78336
G1 X112.692 Y117.915 E1.84361
G1 X112.194 Y118.061 E1.90403
G1 X111.676 Y118.110 E1.96454
G1 X111.159 Y118.061 E2.02504
G1 X110.660 Y117.915 E2.08545
G1 X110.200 Y117.678 E2.14570
G1 X109.796 Y117.357 E2.20574
G1 X109.463 Y116.966 E2.26556
G1 X109.215 Y116.518 E2.32516
G1 X109.061 Y116.031 E2.38460
G1 X109.010 Y115.524 E2.44395
G1 X109.062 Y115.016 E2.50330
G1 X109.215 Y114.529 E2.56274
G1 X109.463 Y114.081 E2.62233
G1 X109.796 Y113.690 E2.68214
G1 X110.200 Y113.370 E2.74219
G1 X110.660 Y113.132 E2.80244
G1 X111.159 Y112.987 E2.86286
G1 X111.520 Y112.952 E2.90509
G1 X111.921 Y112.455 F7200.000
G1 X115.642 Y90.352 F7200.000
G1 X113.477 Y87.215 F7200.000
G1 X184.308 Y88.980 F7200.000
G1 X185.631 Y115.527 F7200.000
G1 X185.682 Y115.027 E2.96361 F540.000
G1 X185.833 Y114.546 E3.02223
G1 X186.078 Y114.105 E3.08101
G1 X186.407 Y113.719 E3.13999
G1 X186.805 Y113.403 E3.19919
G1 X187.259 Y113.169 E3.25860
G1 X187.750 Y113.025 E3.31817
G1 X188.261 Y112.977 E3.37783
G1 X188.771 Y113.025 E3.43749
G1 X189.262 Y113.169 E3.49705
G1 X189.716 Y113.403 E3.55647
G1 X190.114 Y113.719 E3.61567
G1 X190.443 Y114.105 E3.67465
G1 X190.688 Y114.547 E3.73342
G1 X190.839 Y115.027 E3.79204
G1 X190.890 Y115.527 E3.85057
G1 X190.839 Y116.028 E3.90910
G1 X190.688 Y116.508 E3.96772
G1 X190.443 Y116.950 E4.02649
G1 X190.114 Y117.336 E4.08547
G1 X189.716 Y117.651 E4.14468
G1 X189.262 Y117.885 E4.20409
G1 X188.771 Y118.029 E4.26365
G1 X188.260 Y118.078 E4.32331
G1 X187.750 Y118.029 E4.38297
G1 X187.259 Y117.885 E4.44254
G1 X186.805 Y117.651 E4.50196
G1 X186.407 Y117.336 E4.56115
G1 X186.078 Y116.950 E4.62013
G1 X185.833 Y116.508 E4.67891
G1 X185.682 Y116.028 E4.73752
G1 X185.642 Y115.634 E4.78359
G1 X185.205 Y115.261 F7200.000
G1 X187.806 Y98.474 F7200.000
G1 X187.308 Y98.328 E4.84401 F540.000
G1 X186.848 Y98.091 E4.90425
G1 X186.444 Y97.771 E4.96430
G1 X186.111 Y97.379 E5.02411
G1 X185.863 Y96.931 E5.08370
G1 X185.709 Y96.444 E5.14314
G1 X185.658 Y95.937 E5.20249
G1 X185.709 Y95.429 E5.26185
G1 X185.863 Y94.942 E5.32128
G1 X186.111 Y94.494 E5.38089
G1 X186.444 Y94.103 E5.44070
G1 X186.848 Y93.783 E5.50074
G1 X187.308 Y93.546 E5.56099
G1 X187.806 Y93.400 E5.62140
G1 X188.324 Y93.351 E5.68191
G1 X188.841 Y93.400 E5.74241
G1 X189.340 Y93.546 E5.80282
G1 X189.800 Y93.783 E5.86308
G1 X190.204 Y94.103 E5.92312
G1 X190.537 Y94.494 E5.98293
G1 X190.785 Y94.942 E6.04253
G1 X190.938 Y95.429 E6.10197
G1 X190.990 Y95.937 E6.16132
G1 X190.938 Y96.444 E6.22068
G1 X190.785 Y96.931 E6.28011
G1 X190.537 Y97.379 E6.33971
G1 X190.204 Y97.771 E6.39951
G1 X189.800 Y98.091 E6.45956
G1 X189.340 Y98.328 E6.51982
G1 X188.841 Y98.474 E6.58023
G1 X188.324 Y98.523 E6.64073
G1 X187.913 Y98.484 E6.68877
G1 X187.454 Y98.855 F7200.000
G1 X184.308 Y101.831 F7200.000
G1 X183.708 Y89.580 F7200.000
G1 X183.708 Y121.159 E10.36424 F756.000
G1 X116.242 Y121.159 E18.21659
G1 X116.242 Y89.618 E21.88760
G1 X183.601 Y89.580 E29.72749
G1 X184.422 Y89.580 F7200.000
G1 X184.308 Y88.980 F7200.000
G1 X113.477 Y87.215 F7200.000
G1 X115.642 Y90.352 F7200.000
G1 X115.642 Y120.352 F7200.000
G1 X111.548 Y118.700 F7200.000
G1 X112.582 Y119.759 F7200.000
G1 X109.259 Y118.931 F7200.000
G1 X107.861 Y118.931 E29.89018 F540.000
G1 X107.861 Y117.288 E30.08144
G1 X109.190 Y118.849 E30.32005
G1 X108.576 Y111.797 F7200.000
G1 X108.576 Y99.587 E31.74118 F540.000
G1 X109.939 Y100.290 E31.91969
G1 X110.823 Y100.549 E32.02694
G1 X111.740 Y100.636 E32.13406
G1 X112.656 Y100.549 E32.24116
G1 X113.540 Y100.290 E32.34843
G1 X114.100 Y100.001 E32.42169
G1 X114.099 Y111.448 E33.75393
G1 X113.491 Y111.134 E33.83360
G1 X112.600 Y110.873 E33.94171
G1 X111.676 Y110.785 E34.04967
G1 X110.753 Y110.873 E34.15762
G1 X109.861 Y111.134 E34.26574
G1 X108.671 Y111.748 E34.42164
G1 X109.274 Y112.281 F7200.000
G1 X108.799 Y112.657 E34.49217 F1080.000
G1 X107.861 Y113.759 E34.66060
G1 X107.862 Y97.567 E36.54528
G1 X108.889 Y98.774 E36.72977
G1 X109.506 Y99.263 E36.82147
G1 X110.205 Y99.623 E36.91299
G1 X110.959 Y99.844 E37.00435
G1 X111.740 Y99.918 E37.09565
G1 X112.520 Y99.844 E37.18694
G1 X113.274 Y99.624 E37.27830
G1 X113.972 Y99.263 E37.36980
G1 X114.814 Y98.597 E37.49468
G1 X114.814 Y112.863 E39.15511
G1 X113.930 Y112.164 E39.28630
G1 X113.225 Y111.800 E39.37864
G1 X112.464 Y111.577 E39.47085
G1 X111.676 Y111.503 E39.56299
G1 X110.888 Y111.577 E39.65513
G1 X110.128 Y111.800 E39.74735
G1 X109.423 Y112.164 E39.83968
G1 X109.358 Y112.215 E39.84924
G1 X107.862 Y94.299 F7200.000
G1 X107.862 Y91.820 E40.13786 F540.000
G1 X110.377 Y91.834 E40.43067
G1 X110.446 Y92.119 E40.46474
G1 X109.507 Y92.603 E40.58772
G1 X108.889 Y93.092 E40.67942
G1 X107.931 Y94.218 E40.85146
G1 X113.069 Y92.137 F7200.000
G1 X113.140 Y91.847 E40.88621 F540.000
G1 X114.814 Y91.852 E41.08103
G1 X114.814 Y93.269 E41.24600
G1 X113.973 Y92.603 E41.37087
G1 X113.164 Y92.186 E41.47672
G1 X115.642 Y90.352 F7200.000
G1 X113.477 Y87.215 F7200.000
G1 X184.308 Y88.980 F7200.000
G1 X185.136 Y91.809 F7200.000
G1 X186.930 Y91.809 E41.68551 F540.000
G1 X187.000 Y92.097 E41.72005
G1 X186.070 Y92.577 E41.84183
G1 X185.136 Y93.316 E41.98047
G1 X185.136 Y91.916 E42.14344
G1 X189.648 Y92.097 F7200.000
G1 X189.718 Y91.809 E42.17798 F540.000
G1 X192.139 Y91.809 E42.45975
G1 X192.139 Y94.173 E42.73484
G1 X191.201 Y93.070 E42.90326
G1 X190.578 Y92.577 E42.99580
G1 X189.743 Y92.146 E43.10510
G1 X188.581 Y92.772 F7200.000
G1 X189.714 Y90.981 F7200.000
G1 X192.967 Y97.728 F7200.000
G1 X191.424 Y99.664 F7200.000
G1 X191.424 Y111.874 E44.52621 F540.000
G1 X190.061 Y111.171 E44.70471
G1 X189.177 Y110.912 E44.81196
G1 X188.261 Y110.825 E44.91906
G1 X187.345 Y110.912 E45.02617
G1 X186.460 Y111.171 E45.13344
G1 X185.850 Y111.485 E45.21328
G1 X185.850 Y99.987 E46.55155
G1 X186.509 Y100.326 E46.63778
G1 X187.401 Y100.587 E46.74592
G1 X188.324 Y100.675 E46.85387
G1 X189.247 Y100.587 E46.96181
G1 X190.139 Y100.327 E47.06990
G1 X191.329 Y99.713 E47.22582
G1 X190.726 Y99.179 F7200.000
G1 X191.201 Y98.803 E47.29635 F1080.000
G1 X192.139 Y97.701 E47.46476
G1 X192.138 Y113.894 E49.34942
G1 X191.111 Y112.686 E49.53391
G1 X190.494 Y112.197 E49.62562
G1 X189.795 Y111.837 E49.71713
G1 X189.041 Y111.616 E49.80849
G1 X188.261 Y111.542 E49.89977
G1 X187.480 Y111.616 E49.99107
G1 X186.726 Y111.837 E50.08244
G1 X186.027 Y112.197 E50.17395
G1 X185.136 Y112.903 E50.30628
G1 X185.136 Y98.557 E51.97596
G1 X186.070 Y99.297 E52.11461
G1 X186.775 Y99.660 E52.20694
G1 X187.536 Y99.883 E52.29917
G1 X188.324 Y99.958 E52.39131
G1 X189.112 Y99.883 E52.48343
G1 X189.872 Y99.660 E52.57563
G1 X190.578 Y99.297 E52.66801
G1 X190.642 Y99.246 E52.67756
G1 X192.138 Y117.161 F7200.000
G1 X192.138 Y118.931 E52.88359 F540.000
G1 X190.633 Y118.931 E53.05885
G1 X192.069 Y117.242 E53.31686
G1 X192.852 Y119.645 F7200.000
G1 X186.396 Y119.645 E54.06839 F1080.000
G1 X186.395 Y123.437 E54.50974
G1 X113.591 Y123.436 E62.98344
G1 X113.591 Y119.644 E63.42481
G1 X107.147 Y119.645 E64.17481
G1 X107.148 Y91.102 E67.49702
G1 X113.593 Y91.134 E68.24720
G1 X113.591 Y87.329 E68.69008
G1 X186.396 Y87.332 E77.16380
G1 X186.396 Y91.095 E77.60175
G1 X192.853 Y91.095 E78.35328
G1 X192.852 Y119.538 E81.66378
G1 X193.567 Y120.359 F7200.000
G1 X187.110 Y120.359 E82.41530 F756.000
G1 X187.110 Y124.151 E82.85665
G1 X112.877 Y124.151 E91.49659
G1 X112.877 Y120.358 E91.93795
G1 X106.433 Y120.360 E92.68795
G1 X106.433 Y90.383 E96.17689
G1 X112.878 Y90.418 E96.92696
G1 X112.877 Y86.615 E97.36961
G1 X187.110 Y86.618 E106.00957
G1 X187.110 Y90.381 E106.44752
G1 X193.567 Y90.381 E107.19905
G1 X193.567 Y120.252 E110.67579
G1 X192.948 Y120.002 F7200.000
G1 X192.967 Y107.728 F7200.000
G1 X186.398 Y110.688 F7200.000
G1 X186.331 Y110.621 E110.68724 F1080.000
G1 X187.209 Y110.451 E110.79539
G1 X186.331 Y109.572 E110.94553
G1 X186.331 Y108.523 E111.07230
G1 X188.159 Y110.352 E111.38480
G1 X189.305 Y110.449 E111.52379
G1 X186.331 Y107.475 E112.03214
G1 X186.331 Y106.426 E112.15891
G1 X190.918 Y111.013 E112.94296
G1 X190.944 Y109.989 E113.06667
G1 X186.331 Y105.377 E113.85511
G1 X186.331 Y104.328 E113.98187
G1 X190.944 Y108.941 E114.77031
G1 X190.944 Y107.892 E114.89708
G1 X186.331 Y103.279 E115.68552
G1 X186.331 Y102.230 E115.81228
G1 X190.944 Y106.843 E116.60072
G1 X190.944 Y105.794 E116.72749
G1 X186.331 Y101.182 E117.51593
G1 X187.239 Y101.041 E117.62701
G1 X190.944 Y104.745 E118.26020
