; generated by Slic3r 1.0.0RC2 on 2014-05-17 at 12:05:53

; layer_height = 0.3
; perimeters = 4
; top_solid_layers = 3
; bottom_solid_layers = 3
; fill_density = 0.1
; perimeter_speed = 60
; infill_speed = 60
; travel_speed = 120
; nozzle_diameter = 0.4
; filament_diameter = 1.75
; extrusion_multiplier = 0.98
; perimeters extrusion width = 0.40mm
; infill extrusion width = 0.42mm
; solid infill extrusion width = 0.42mm
; top infill extrusion width = 0.42mm
; first layer extrusion width = 0.80mm

G21 ; set units to millimeters
M107
M104 S220 ; set temperature
G28 ; home all axes
M106 S255;
G1 Z200 F1200 ; lift nozzle
M109 S220 ; wait for temperature to be reached
G90 ; use absolute coordinates
G92 E0
M82 ; use absolute distances for extrusion
G1 F1800.000 E-1.00000
G92 E0
G1 Z0.400 F7200.000
G1 X56.660 Y34.827 F7200.000
G1 E1.00000 F1800.000
G1 X57.610 Y33.727 E1.16917 F1080.000
G1 X58.780 Y32.867 E1.33817
G1 X60.100 Y32.267 E1.50693
G1 X61.530 Y31.977 E1.67676
G1 X175.490 Y20.997 E15.00197
G1 X177.130 Y21.037 E15.19291
G1 X178.720 Y21.487 E15.38524
G1 X196.830 Y29.067 E17.67024
G1 X197.980 Y29.677 E17.82175
G1 X198.990 Y30.507 E17.97391
G1 X241.770 Y73.277 E25.01468
G1 X242.600 Y74.287 E25.16683
G1 X243.210 Y75.437 E25.31835
G1 X250.790 Y93.537 E27.60228
G1 X251.170 Y94.767 E27.75211
G1 X251.310 Y96.047 E27.90198
G1 X251.200 Y97.337 E28.05267
G1 X250.850 Y98.577 E28.20263
G1 X250.270 Y99.727 E28.35254
G1 X231.860 Y128.677 E32.34563
G1 X231.430 Y129.277 E32.43154
G1 X230.940 Y129.827 E32.51728
G1 X221.440 Y139.317 E34.08016
G1 X220.700 Y139.957 E34.19403
G1 X219.870 Y140.477 E34.30803
G1 X144.280 Y181.157 E44.29907
G1 X143.270 Y181.597 E44.42730
G1 X142.200 Y181.867 E44.55574
G1 X108.570 Y187.457 E48.52363
G1 X96.470 Y188.977 E49.94302
G1 X94.940 Y188.997 E50.12111
G1 X93.450 Y188.667 E50.29873
G1 X92.080 Y188.017 E50.47522
G1 X90.880 Y187.067 E50.65336
G1 X81.470 Y177.657 E52.20225
G1 X80.880 Y176.977 E52.30703
G1 X50.060 Y136.527 E58.22586
G1 X49.310 Y135.277 E58.39552
G1 X48.840 Y133.907 E58.56410
G1 X48.690 Y132.457 E58.73377
G1 X48.690 Y48.397 E68.51750
G1 X48.820 Y47.047 E68.67535
G1 X49.230 Y45.747 E68.83401
G1 X49.890 Y44.567 E68.99137
G1 X56.599 Y34.915 E70.35949
G1 F1800.000 E69.35949
G92 E0
G1 X176.419 Y55.477 F7200.000
G1 E1.00000 F1800.000
G1 X186.418 Y45.479 E2.64577 F1080.000
G1 X193.463 Y52.487 E3.80239
G1 X183.446 Y62.504 E5.45119
G1 X176.495 Y55.553 E6.59534
G1 X177.429 Y55.477 F7200.000
G1 X186.419 Y46.487 E8.07508 F756.000
G1 X192.452 Y52.488 E9.06546
G1 X183.446 Y61.494 E10.54780
G1 X177.505 Y55.553 E11.52570
G1 X176.924 Y54.972 F7200.000
G1 F1800.000 E10.52570
G92 E0
G1 X155.679 Y77.250 F7200.000
G1 E1.00000 F1800.000
G1 X161.706 Y83.277 E1.99196 F540.000
G1 X158.268 Y86.695 E2.55627
G1 X152.263 Y80.666 E3.54655
G1 X155.604 Y77.326 E4.09638
G1 X156.184 Y76.745 F7200.000
G1 X155.950 Y67.044 F7200.000
G1 X144.858 Y58.749 F7200.000
G1 X158.417 Y51.288 F7200.000
G1 X162.213 Y43.011 F7200.000
G1 X209.725 Y88.755 F7200.000
G1 X219.711 Y78.769 E5.74006 F1080.000
G1 X226.748 Y85.804 E6.89827
G1 X216.723 Y95.809 E8.54670
G1 X209.800 Y88.831 E9.69079
G1 X210.733 Y88.757 F7200.000
G1 X219.711 Y79.779 E11.16857 F756.000
G1 X225.738 Y85.804 E12.16046
G1 X216.726 Y94.798 E13.64230
G1 X210.808 Y88.833 E14.62023
G1 X210.229 Y88.251 F7200.000
G1 X202.145 Y84.270 F7200.000
G1 X229.262 Y110.061 F7200.000
G1 X220.985 Y113.857 F7200.000
G1 X213.524 Y127.415 F7200.000
G1 X188.959 Y110.530 F7200.000
G1 X194.986 Y116.556 E15.61219 F540.000
G1 X191.548 Y119.975 E16.17650
G1 X185.543 Y113.946 E17.16679
G1 X188.884 Y110.606 E17.71661
G1 X189.464 Y110.025 F7200.000
G1 X195.649 Y114.190 F7200.000
G1 X195.861 Y113.880 E17.76021 F1080.000
G1 X213.719 Y121.750 E20.03155
G1 X216.316 Y121.410 E20.33647
G1 X221.291 Y126.385 E21.15534
G1 X217.983 Y129.693 E21.69984
G1 X212.716 Y124.425 E22.56681
G1 X204.266 Y132.876 E23.95772
G1 X192.971 Y121.581 E25.81688
G1 X198.021 Y116.561 E26.64563
G1 X195.725 Y114.265 E27.02351
G1 X197.009 Y116.559 F7200.000
G1 X192.448 Y111.998 E27.77431 F1080.000
G1 X192.659 Y111.689 E27.81790
G1 X213.824 Y121.016 E30.50983
G1 X217.354 Y120.554 E30.92416
G1 X217.434 Y120.717 E30.94539
G1 X217.034 Y121.117 E31.01128
G1 X221.608 Y125.692 E31.76420
G1 X222.690 Y125.995 E31.89501
G1 X217.598 Y131.088 E32.73330
G1 X217.285 Y130.005 E32.86451
G1 X212.716 Y125.435 E33.61664
G1 X204.266 Y133.886 E35.00756
G1 X191.959 Y121.579 E37.03320
G1 X196.933 Y116.635 E37.84948
G1 X205.230 Y116.323 F7200.000
G1 X213.524 Y127.415 F7200.000
G1 X220.985 Y113.857 F7200.000
G1 X229.262 Y110.061 F7200.000
G1 X162.213 Y43.011 F7200.000
G1 X158.417 Y51.288 F7200.000
G1 X144.858 Y58.749 F7200.000
G1 X155.950 Y67.044 F7200.000
G1 X158.394 Y76.414 F7200.000
G1 X158.085 Y76.626 E37.89307 F1080.000
G1 X155.679 Y74.221 E38.28900
G1 X150.645 Y79.255 E39.11765
G1 X139.398 Y68.008 E40.96893
G1 X147.848 Y59.558 E42.35983
G1 X142.581 Y54.290 E43.22681
G1 X145.889 Y50.982 E43.77130
G1 X150.864 Y55.957 E44.59019
G1 X150.524 Y58.555 E44.89507
G1 X158.351 Y76.316 E47.15415
G1 X157.081 Y76.632 F7200.000
G1 X155.679 Y75.230 E47.38484 F1080.000
G1 X150.645 Y80.265 E48.21349
G1 X138.388 Y68.008 E50.23101
G1 X146.838 Y59.558 E51.62191
G1 X142.269 Y54.988 E52.37405
G1 X141.185 Y54.676 E52.50526
G1 X146.278 Y49.583 E53.34355
G1 X146.582 Y50.665 E53.47437
G1 X151.156 Y55.240 E54.22728
G1 X151.556 Y54.839 E54.29319
G1 X151.720 Y54.920 E54.31442
G1 X151.258 Y58.449 E54.72874
G1 X160.585 Y79.615 E57.42074
G1 X160.276 Y79.826 E57.46433
G1 X157.157 Y76.708 E57.97767
G1 X155.950 Y67.044 F7200.000
G1 X144.858 Y58.749 F7200.000
G1 X158.651 Y49.388 F7200.000
G1 X158.378 Y49.028 E58.03033 F1080.000
G1 X176.136 Y31.269 E60.95339
G1 X190.262 Y45.395 E63.27849
G1 X195.529 Y40.128 E64.14546
G1 X198.837 Y43.436 E64.68996
G1 X193.570 Y48.703 E65.55693
G1 X223.554 Y78.686 E70.49221
G1 X228.821 Y73.419 E71.35918
G1 X232.129 Y76.727 E71.90368
G1 X226.862 Y81.994 E72.77065
G1 X241.004 Y96.137 E75.09856
G1 X223.246 Y113.896 E78.02164
G1 X222.885 Y113.622 E78.07430
G1 X226.765 Y106.709 E78.99702
G1 X217.304 Y97.248 E80.55437
G1 X228.769 Y85.805 E82.43968
G1 X219.711 Y76.749 E83.93054
G1 X208.258 Y88.202 E85.81568
G1 X184.013 Y63.957 E89.80637
G1 X195.486 Y52.484 E91.69475
G1 X186.415 Y43.461 E93.18386
G1 X174.966 Y54.910 E95.06834
G1 X165.565 Y45.508 E96.61588
G1 X158.745 Y49.336 E97.52613
G1 X154.483 Y52.546 F7200.000
G1 X154.210 Y52.186 E97.57879 F1080.000
G1 X176.136 Y30.259 E101.18793
G1 X190.262 Y44.385 E103.51303
G1 X194.832 Y39.815 E104.26516
G1 X195.144 Y38.732 E104.39638
G1 X200.237 Y43.825 E105.23466
G1 X199.154 Y44.129 E105.36548
G1 X194.580 Y48.703 E106.11840
G1 X223.554 Y77.676 E110.88743
G1 X228.123 Y73.107 E111.63957
G1 X228.435 Y72.023 E111.77078
G1 X233.528 Y77.116 E112.60906
G1 X232.446 Y77.420 E112.73988
G1 X227.872 Y81.994 E113.49280
G1 X242.014 Y96.137 E115.82071
G1 X220.088 Y118.064 E119.42986
G1 X219.727 Y117.791 E119.48252
G1 X225.878 Y106.831 E120.94522
G1 X216.293 Y97.247 E122.52279
G1 X227.759 Y85.805 E124.40809
G1 X219.711 Y77.759 E125.73263
G1 X208.258 Y89.212 E127.61778
G1 X183.003 Y63.957 E131.77471
G1 X194.475 Y52.486 E133.66287
G1 X186.417 Y44.470 E134.98574
G1 X174.967 Y55.920 E136.87044
G1 X165.442 Y46.396 E138.43812
G1 X154.576 Y52.494 E139.88835
G1 X153.216 Y54.076 F7200.000
G1 X152.498 Y54.479 E139.98416 F1080.000
G1 X151.992 Y58.344 E140.43782
G1 X162.775 Y82.815 E143.55026
G1 X162.466 Y83.027 E143.59385
G1 X155.679 Y76.240 E144.71092
G1 X151.254 Y80.665 E145.43928
G1 X158.265 Y87.704 E146.59555
G1 X162.900 Y83.097 E147.35612
G1 X163.624 Y84.742 E147.56526
G1 X158.868 Y89.498 E148.34813
G1 X137.378 Y68.008 E151.88540
G1 X145.828 Y59.558 E153.27630
G1 X141.894 Y55.623 E153.92387
G1 X139.824 Y55.027 E154.17456
G1 X146.636 Y48.215 E155.29578
G1 X147.219 Y50.292 E155.54688
G1 X151.156 Y54.230 E156.19493
G1 X176.136 Y29.249 E160.30671
G1 X190.262 Y43.375 E162.63181
G1 X194.196 Y39.441 E163.27938
G1 X194.793 Y37.371 E163.53007
G1 X201.604 Y44.183 E164.65129
G1 X199.527 Y44.766 E164.90239
G1 X195.590 Y48.703 E165.55044
G1 X223.554 Y76.666 E170.15323
G1 X227.488 Y72.732 E170.80080
G1 X228.084 Y70.662 E171.05148
G1 X234.896 Y77.474 E172.17271
G1 X232.819 Y78.057 E172.42381
G1 X228.882 Y81.994 E173.07186
G1 X243.024 Y96.137 E175.39977
G1 X218.044 Y121.117 E179.51156
G1 X221.981 Y125.055 E180.15961
G1 X224.058 Y125.637 E180.41070
G1 X217.246 Y132.449 E181.53193
G1 X216.650 Y130.380 E181.78262
G1 X212.716 Y126.445 E182.43019
G1 X204.266 Y134.896 E183.82110
G1 X182.776 Y113.406 E187.35837
G1 X187.532 Y108.649 E188.14125
G1 X189.127 Y109.352 E188.34417
G1 X184.534 Y113.945 E189.10017
G1 X191.545 Y120.984 E190.25646
G1 X195.998 Y116.558 E190.98718
G1 X189.246 Y109.807 E192.09841
G1 X189.458 Y109.498 E192.14201
G1 X213.929 Y120.282 E195.25451
G1 X217.794 Y119.776 E195.70817
G1 X224.990 Y106.954 E197.41948
G1 X165.320 Y47.283 E207.24119
G1 X153.309 Y54.024 E208.84421
G1 X153.565 Y54.699 F7200.000
G1 X153.160 Y54.927 E208.89837 F756.000
G1 X152.726 Y58.239 E209.28712
G1 X164.475 Y84.901 E212.67825
G1 X158.868 Y90.508 E213.60114
G1 X136.368 Y68.008 E217.30465
G1 X144.818 Y59.558 E218.69555
G1 X141.519 Y56.259 E219.23856
G1 X138.463 Y55.378 E219.60871
G1 X146.994 Y46.847 E221.01288
G1 X147.856 Y49.920 E221.38426
G1 X151.156 Y53.220 E221.92744
G1 X176.136 Y28.239 E226.03923
G1 X190.262 Y42.365 E228.36433
G1 X193.561 Y39.066 E228.90733
G1 X194.442 Y36.010 E229.27749
G1 X202.972 Y44.541 E230.68165
G1 X199.900 Y45.403 E231.05303
G1 X196.600 Y48.703 E231.59621
G1 X223.554 Y75.656 E236.03276
G1 X226.853 Y72.357 E236.57577
G1 X227.733 Y69.301 E236.94592
G1 X236.264 Y77.832 E238.35009
G1 X233.192 Y78.694 E238.72148
G1 X229.892 Y81.994 E239.26466
G1 X244.034 Y96.137 E241.59257
G1 X219.054 Y121.117 E245.70436
G1 X222.354 Y124.417 E246.24753
G1 X225.426 Y125.280 E246.61891
G1 X216.895 Y133.810 E248.02309
G1 X216.015 Y130.754 E248.39325
G1 X212.716 Y127.455 E248.93625
G1 X204.266 Y135.906 E250.32717
G1 X181.766 Y113.406 E254.03068
G1 X187.372 Y107.799 E254.95357
G1 X214.034 Y119.548 E258.34468
G1 X217.346 Y119.114 E258.73345
G1 X224.102 Y107.076 E260.34012
G1 X165.198 Y48.171 E270.03587
G1 X153.659 Y54.647 E271.57591
G1 X153.165 Y54.462 F7200.000
G1 X162.213 Y43.011 F7200.000
G1 X229.262 Y110.061 F7200.000
G1 X220.985 Y113.857 F7200.000
G1 X213.524 Y127.415 F7200.000
G1 X205.230 Y116.323 F7200.000
G1 X202.402 Y117.678 F7200.000
G1 X210.593 Y125.869 E272.97771 F1080.000
G1 X210.068 Y126.394 E273.06757
G1 X200.524 Y116.851 E274.70081
G1 X199.197 Y116.573 E274.86496
G1 X209.542 Y126.919 E276.63558
G1 X209.017 Y127.444 E276.72543
G1 X198.670 Y117.097 E278.49632
G1 X197.904 Y117.381 E278.59515
G1 X208.492 Y127.969 E280.40717
G1 X207.967 Y128.494 E280.49703
G1 X197.379 Y117.907 E282.30905
G1 X196.854 Y118.432 E282.39891
G1 X207.442 Y129.020 E284.21094
G1 X206.917 Y129.545 E284.30079
G1 X196.329 Y118.957 E286.11282
G1 X195.804 Y119.482 E286.20268
G1 X206.392 Y130.070 E288.01470
G1 X205.867 Y130.595 E288.10456
G1 X195.279 Y120.007 E289.91658
G1 X194.754 Y120.532 E290.00644
G1 X205.342 Y131.120 E291.81847
G1 X204.817 Y131.645 E291.90832
G1 X194.229 Y121.057 E293.72035
G1 X193.704 Y121.582 E293.81021
G1 X204.292 Y132.170 E295.62223
G1 X209.911 Y120.987 F7200.000
G1 X212.693 Y123.769 E296.09826 F1080.000
G1 X212.168 Y124.294 E296.18812
G1 X208.034 Y120.160 E296.89560
G1 X206.156 Y119.333 F7200.000
G1 X211.643 Y124.819 E297.83452 F1080.000
G1 X211.118 Y125.344 E297.92437
G1 X204.279 Y118.506 E299.09473
G1 X211.789 Y121.815 F7200.000
G1 X218.459 Y128.485 E300.23625 F1080.000
G1 X218.984 Y127.960 E300.32611
G1 X213.218 Y122.194 E301.31283
G1 X214.240 Y122.166 E301.43657
G1 X219.509 Y127.435 E302.33822
G1 X220.034 Y126.910 E302.42808
G1 X215.169 Y122.045 E303.26068
G1 X216.097 Y121.923 E303.37401
G1 X220.559 Y126.385 E304.13756
G1 X217.912 Y120.518 F7200.000
G1 X217.874 Y120.479 E304.14065 F360.000
G1 X218.114 Y120.226 E304.16054 F360.000
G1 X218.159 Y120.271 E304.16416 F360.000
G1 X218.406 Y120.024 E304.18404 F360.000
G1 X218.316 Y119.933 E304.19132 F360.000
G1 X219.106 Y118.985 F7200.000
G1 X219.080 Y118.958 E304.19564 F360.000
G1 X221.203 Y116.217 F7200.000
G1 X221.184 Y116.199 E304.19785 F360.000
G1 X221.565 Y115.856 E304.24054 F360.000
G1 X221.467 Y115.758 E304.25208 F360.000
G1 X222.264 Y114.817 F7200.000
G1 X222.238 Y114.790 E304.25640 F360.000
G1 X224.361 Y112.049 F7200.000
G1 X224.342 Y112.030 E304.25861 F360.000
G1 X224.723 Y111.687 E304.30130 F360.000
G1 X224.625 Y111.590 E304.31284 F360.000
G1 X225.422 Y110.648 F7200.000
G1 X225.396 Y110.622 E304.31715 F360.000
G1 X229.262 Y110.061 F7200.000
G1 X215.789 Y96.682 F7200.000
G1 X208.824 Y89.717 E305.46361 F360.000
G1 X219.937 Y76.244 F7200.000
G1 X223.106 Y79.413 E305.70987 F360.000
G1 X226.136 Y82.441 F7200.000
G1 X229.274 Y85.580 E305.95378 F360.000
G1 X229.262 Y110.061 F7200.000
G1 X220.985 Y113.857 F7200.000
G1 X213.524 Y127.415 F7200.000
G1 X205.230 Y116.323 F7200.000
G1 X198.528 Y115.997 F7200.000
G1 X198.324 Y115.793 E305.98736 F360.000
G1 X197.313 Y115.122 F7200.000
G1 X197.248 Y115.057 E305.99245 F360.000
G1 X195.129 Y113.609 F7200.000
G1 X195.122 Y113.602 E305.99361 F360.000
G1 X194.112 Y112.931 F7200.000
G1 X194.046 Y112.866 E305.99869 F360.000
G1 X191.928 Y111.418 F7200.000
G1 X191.921 Y111.411 E305.99985 F360.000
G1 X190.910 Y110.740 F7200.000
G1 X190.845 Y110.674 E306.00494 F360.000
G1 X187.810 Y109.599 F7200.000
G1 X187.733 Y109.523 E306.01881 F360.000
G1 X187.176 Y110.076 E306.11920 F360.000
G1 X187.255 Y110.154 E306.13341 F360.000
G1 X186.700 Y110.709 E306.23381 F360.000
G1 X186.621 Y110.631 E306.24801 F360.000
G1 X186.066 Y111.186 E306.34841 F360.000
G1 X186.145 Y111.264 E306.36262 F360.000
G1 X185.590 Y111.819 E306.46301 F360.000
G1 X185.511 Y111.741 E306.47722 F360.000
G1 X184.956 Y112.296 E306.57762 F360.000
G1 X185.035 Y112.374 E306.59182 F360.000
G1 X184.480 Y112.929 E306.69222 F360.000
G1 X184.401 Y112.851 E306.70642 F360.000
G1 X183.846 Y113.406 E306.80682 F360.000
G1 X183.925 Y113.484 E306.82103 F360.000
G1 F1800.000 E305.82103
G92 E0
G1 X185.240 Y116.032 F7200.000
G1 X183.769 Y118.803 F7200.000
G1 X156.010 Y91.043 F7200.000
G1 X156.242 Y87.033 F7200.000
G1 X154.217 Y83.478 F7200.000
G1 X158.868 Y88.427 F7200.000
G1 E1.00000 F1800.000
G1 X158.740 Y88.299 E1.02320 F360.000
G1 X159.297 Y87.742 E1.12435 F360.000
G1 X159.425 Y87.870 E1.14755 F360.000
G1 X159.982 Y87.313 E1.24870 F360.000
G1 X159.854 Y87.185 E1.27189 F360.000
G1 X160.411 Y86.628 E1.37305 F360.000
G1 X160.539 Y86.756 E1.39624 F360.000
G1 X161.096 Y86.199 E1.49740 F360.000
G1 X160.969 Y86.071 E1.52059 F360.000
G1 X161.526 Y85.514 E1.62175 F360.000
G1 X161.653 Y85.642 E1.64494 F360.000
G1 X162.210 Y85.085 E1.74610 F360.000
G1 X162.083 Y84.957 E1.76929 F360.000
G1 X162.640 Y84.400 E1.87045 F360.000
G1 X162.728 Y84.488 E1.88653 F360.000
G1 X161.599 Y81.428 F7200.000
G1 X161.534 Y81.363 E1.89160 F360.000
G1 X160.863 Y80.353 F7200.000
G1 X160.856 Y80.346 E1.89270 F360.000
G1 X159.408 Y78.228 F7200.000
G1 X159.343 Y78.163 E1.89777 F360.000
G1 X158.672 Y77.152 F7200.000
G1 X158.666 Y77.146 E1.89887 F360.000
G1 X157.218 Y75.028 F7200.000
G1 X157.153 Y74.962 E1.90394 F360.000
G1 X156.482 Y73.952 F7200.000
G1 X156.245 Y73.716 E1.94287 F360.000
G1 X151.794 Y54.399 F7200.000
G1 X151.756 Y54.361 E1.94596 F360.000
G1 X152.003 Y54.114 E1.96585 F360.000
G1 X152.048 Y54.159 E1.96948 F360.000
G1 X152.250 Y53.867 E1.98969 F360.000
G1 X152.340 Y53.957 E1.99697 F360.000
G1 X153.289 Y53.167 F7200.000
G1 X153.315 Y53.194 E2.00128 F360.000
G1 X156.056 Y51.070 F7200.000
G1 X156.418 Y50.709 E2.04392 F360.000
G1 X156.516 Y50.807 E2.05545 F360.000
G1 X156.075 Y51.089 F7200.000
G1 X156.056 Y51.070 E2.05767 F360.000
G1 X157.457 Y50.009 F7200.000
G1 X157.483 Y50.035 E2.06198 F360.000
G1 X160.224 Y47.912 F7200.000
G1 X160.586 Y47.551 E2.10462 F360.000
G1 X160.684 Y47.648 E2.11615 F360.000
G1 X160.243 Y47.931 F7200.000
G1 X160.224 Y47.912 E2.11836 F360.000
G1 X161.625 Y46.851 F7200.000
G1 X161.651 Y46.877 E2.12268 F360.000
