; generated by Slic3r 1.0.0RC2 on 2014-05-17 at 12:41:08

; layer_height = 0.3
; perimeters = 4
; top_solid_layers = 3
; bottom_solid_layers = 3
; fill_density = 0.1
; perimeter_speed = 60
; infill_speed = 60
; travel_speed = 120
; nozzle_diameter = 0.4
; filament_diameter = 1.75
; extrusion_multiplier = 0.98
; perimeters extrusion width = 0.40mm
; infill extrusion width = 0.42mm
; solid infill extrusion width = 0.42mm
; top infill extrusion width = 0.42mm
; first layer extrusion width = 0.80mm

G21 ; set units to millimeters
M107
M104 S220 ; set temperature
G28 ; home all axes
M106 S255;
G1 Z200 F1200 ; lift nozzle
M109 S220 ; wait for temperature to be reached
G90 ; use absolute coordinates
G92 E0
M82 ; use absolute distances for extrusion
G1 F1800.000 E-1.00000
G92 E0
G1 Z0.400 F7200.000
G1 X60.661 Y39.984 F7200.000
G1 E1.00000 F1800.000
G1 X61.651 Y38.724 E1.18650 F1080.000
G1 X62.921 Y37.734 E1.37392
G1 X64.391 Y37.074 E1.56147
G1 X113.501 Y21.714 E7.55043
G1 X114.471 Y21.484 E7.66646
G1 X115.471 Y21.414 E7.78313
G1 X133.101 Y21.344 E9.83510
G1 X166.891 Y21.344 E13.76792
G1 X184.521 Y21.424 E15.81989
G1 X185.521 Y21.504 E15.93665
G1 X186.491 Y21.724 E16.05242
G1 X235.601 Y37.074 E22.04103
G1 X237.071 Y37.734 E22.22858
G1 X238.341 Y38.724 E22.41600
G1 X239.331 Y39.984 E22.60250
G1 X244.861 Y49.054 E23.83890
G1 X245.481 Y50.364 E24.00758
G1 X245.801 Y51.764 E24.17473
G1 X245.811 Y53.204 E24.34233
G1 X244.501 Y66.584 E25.90708
G1 X244.361 Y67.454 E26.00964
G1 X244.111 Y68.284 E26.11053
G1 X220.681 Y130.854 E33.88688
G1 X220.211 Y131.854 E34.01548
G1 X219.581 Y132.764 E34.14430
G1 X188.041 Y171.134 E39.92529
G1 X187.761 Y171.454 E39.97478
G1 X181.171 Y178.524 E41.09970
G1 X179.891 Y179.594 E41.29387
G1 X178.391 Y180.314 E41.48753
G1 X165.771 Y184.534 E43.03631
G1 X165.191 Y184.694 E43.10634
G1 X164.601 Y184.814 E43.17642
G1 X138.321 Y188.594 E46.26662
G1 X137.631 Y188.654 E46.34723
G1 X136.951 Y188.644 E46.42639
G1 X123.521 Y187.814 E47.99248
G1 X122.091 Y187.574 E48.16125
G1 X120.761 Y187.034 E48.32832
G1 X119.571 Y186.214 E48.49652
G1 X111.501 Y179.314 E49.73231
G1 X110.831 Y178.664 E49.84096
G1 X110.261 Y177.924 E49.94968
G1 X80.001 Y132.214 E56.33000
G1 X79.621 Y131.554 E56.41864
G1 X79.311 Y130.854 E56.50774
G1 X55.881 Y68.284 E64.28409
G1 X55.631 Y67.454 E64.38498
G1 X55.491 Y66.584 E64.48755
G1 X54.181 Y53.204 E66.05229
G1 X54.191 Y51.764 E66.21989
G1 X54.511 Y50.364 E66.38704
G1 X55.131 Y49.054 E66.55573
G1 X60.605 Y40.075 E67.77966
G1 F1800.000 E66.77966
G92 E0
G1 X103.289 Y39.958 F7200.000
G1 E1.00000 F1800.000
G1 X115.951 Y40.049 E2.47378 F1080.000
G1 X115.951 Y56.403 E4.37721
G1 X103.289 Y56.408 E5.85095
G1 X103.289 Y40.065 E7.75302
G1 X104.003 Y40.677 F7200.000
G1 X115.237 Y40.758 E9.06055 F1080.000
G1 X115.237 Y55.689 E10.79836
G1 X104.003 Y55.693 E12.10586
G1 X104.003 Y40.785 E13.84107
G1 X104.718 Y41.397 F7200.000
G1 X114.523 Y41.467 E14.98235 F1080.000
G1 X114.523 Y54.975 E16.55454
G1 X104.718 Y54.979 E17.69580
G1 X104.718 Y41.504 E19.26413
G1 X105.432 Y42.116 F7200.000
G1 X113.809 Y42.176 E20.23917 F756.000
G1 X113.809 Y54.261 E21.64574
G1 X105.432 Y54.264 E22.62076
G1 X105.432 Y42.223 E24.02222
G1 X105.435 Y41.402 F7200.000
G1 X95.149 Y49.042 F7200.000
G1 X98.985 Y61.365 E25.52427 F1080.000
G1 X90.340 Y64.039 E26.57748
G1 X86.526 Y51.710 E28.07953
G1 X95.047 Y49.074 E29.11763
G1 X94.679 Y49.935 F7200.000
G1 X98.090 Y60.894 E30.45344 F540.000
G1 X90.811 Y63.145 E31.34026
G1 X87.419 Y52.181 E32.67607
G1 X94.577 Y49.967 E33.54807
G1 X94.209 Y50.828 F7200.000
G1 X97.196 Y60.423 E34.71764 F540.000
G1 X91.282 Y62.252 E35.43808
G1 X88.313 Y52.652 E36.60764
G1 X94.107 Y50.860 E37.31355
G1 X93.739 Y51.721 F7200.000
G1 X96.301 Y59.952 E38.31688 F540.000
G1 X91.753 Y61.359 E38.87092
G1 X89.206 Y53.123 E39.87424
G1 X93.637 Y51.753 E40.41406
G1 X94.421 Y51.509 F7200.000
G1 F1800.000 E39.41406
G92 E0
G1 X100.298 Y110.671 F7200.000
G1 E1.00000 F1800.000
G1 X103.284 Y120.266 E2.16957 F540.000
G1 X97.371 Y122.095 E2.89000
G1 X94.401 Y112.495 E4.05956
G1 X100.196 Y110.703 E4.76547
G1 X99.828 Y111.564 F7200.000
G1 X102.390 Y119.795 E5.76880 F540.000
G1 X97.842 Y121.202 E6.32284
G1 X95.295 Y112.966 E7.32617
G1 X99.726 Y111.596 E7.86598
G1 X100.510 Y111.352 F7200.000
G1 X101.238 Y108.885 F7200.000
G1 X92.615 Y111.553 E8.91655 F1080.000
G1 X96.428 Y123.882 E10.41859
G1 X103.289 Y121.759 E11.25446
G1 X103.289 Y128.015 E11.98256
G1 X110.866 Y128.015 E12.86446
G1 X110.866 Y132.556 E13.39292
G1 X94.866 Y132.560 E15.25522
G1 X93.176 Y121.185 E16.59362
G1 X86.636 Y123.563 E17.40365
G1 X85.100 Y118.966 E17.96775
G1 X90.871 Y116.895 E18.68146
G1 X89.621 Y109.915 E19.50683
G1 X95.897 Y101.759 E20.70457
G1 X88.604 Y85.098 E22.82145
G1 X80.822 Y70.594 E24.73720
G1 X72.060 Y68.263 E25.79250
G1 X70.515 Y61.132 E26.64175
G1 X64.298 Y61.554 E27.36696
G1 X63.823 Y56.706 E27.93395
G1 X70.295 Y56.254 E28.68909
G1 X69.144 Y45.296 E29.97150
G1 X115.900 Y30.674 E35.67329
G1 X130.597 Y30.608 E37.38387
G1 X130.597 Y42.391 E38.75534
G1 X137.375 Y42.214 E39.54454
G1 X137.375 Y47.082 E40.11114
G1 X130.597 Y47.278 E40.90038
G1 X130.597 Y67.933 E43.30434
G1 X110.866 Y67.958 E45.60075
G1 X110.866 Y75.185 E46.44187
G1 X103.289 Y75.205 E47.32378
G1 X103.289 Y92.223 E49.30457
G1 X110.866 Y92.193 E50.18649
G1 X110.866 Y110.920 E52.36611
G1 X103.289 Y110.920 E53.24802
G1 X103.289 Y114.048 E53.61212
G1 X102.865 Y114.112 E53.66208
G1 X101.270 Y108.988 E54.28678
G1 X100.768 Y109.778 F7200.000
G1 X93.508 Y112.024 E55.17125 F1080.000
G1 X96.900 Y122.988 E56.50705
G1 X104.003 Y120.791 E57.37251
G1 X104.003 Y127.301 E58.13021
G1 X111.581 Y127.301 E59.01211
G1 X111.581 Y133.269 E59.70675
G1 X94.250 Y133.274 E61.72385
G1 X92.598 Y122.155 E63.03215
G1 X86.191 Y124.485 E63.82572
G1 X84.201 Y118.530 E64.55646
G1 X90.062 Y116.427 E65.28122
G1 X88.863 Y109.730 E66.07311
G1 X95.074 Y101.659 E67.25844
G1 X87.961 Y85.410 E69.32282
G1 X80.339 Y71.204 E71.19921
G1 X71.454 Y68.841 E72.26929
G1 X69.947 Y61.886 E73.09752
G1 X63.655 Y62.313 E73.83157
G1 X63.040 Y56.044 E74.56472
G1 X69.508 Y55.593 E75.31927
G1 X68.373 Y44.789 E76.58367
G1 X115.789 Y29.961 E82.36603
G1 X131.311 Y29.890 E84.17261
G1 X131.311 Y41.658 E85.54226
G1 X138.089 Y41.481 E86.33146
G1 X138.089 Y47.776 E87.06413
G1 X131.311 Y47.972 E87.85337
G1 X131.311 Y68.646 E90.25959
G1 X111.581 Y68.671 E92.55600
G1 X111.581 Y75.897 E93.39701
G1 X104.003 Y75.917 E94.27891
G1 X104.003 Y91.506 E96.09335
G1 X111.581 Y91.476 E96.97526
G1 X111.581 Y111.634 E99.32147
G1 X104.003 Y111.634 E100.20337
G1 X104.003 Y118.745 E101.03110
G1 X103.579 Y118.810 E101.08106
G1 X100.800 Y109.881 E102.16953
G1 X104.718 Y112.348 F7200.000
G1 X104.718 Y126.587 E103.82680 F1080.000
G1 X112.295 Y126.587 E104.70870
G1 X112.295 Y133.983 E105.56952
G1 X93.634 Y133.988 E107.74143
G1 X92.021 Y123.125 E109.01962
G1 X86.704 Y125.058 E109.67802
G1 X85.972 Y126.084 E109.82473
G1 X83.099 Y117.487 E110.87973
G1 X84.191 Y117.775 E111.01108
G1 X89.253 Y115.958 E111.63703
G1 X88.104 Y109.544 E112.39544
G1 X94.250 Y101.558 E113.56837
G1 X87.319 Y85.723 E115.58026
G1 X79.856 Y71.815 E117.41728
G1 X70.848 Y69.419 E118.50213
G1 X69.380 Y62.640 E119.30935
G1 X64.041 Y63.003 E119.93215
G1 X63.081 Y63.778 E120.07578
G1 X62.186 Y54.651 E121.14313
G1 X63.285 Y55.311 E121.29228
G1 X68.720 Y54.932 E121.92647
G1 X67.601 Y44.282 E123.17285
G1 X115.679 Y29.247 E129.03579
G1 X132.025 Y29.173 E130.93837
G1 X132.025 Y40.925 E132.30620
G1 X137.771 Y40.775 E132.97524
G1 X138.803 Y40.009 E133.12484
G1 X138.803 Y49.236 E134.19869
G1 X137.633 Y48.504 E134.35934
G1 X132.025 Y48.666 E135.01229
G1 X132.025 Y69.359 E137.42077
G1 X112.295 Y69.384 E139.71718
G1 X112.295 Y76.609 E140.55807
G1 X104.718 Y76.629 E141.43998
G1 X104.718 Y90.789 E143.08806
G1 X112.295 Y90.759 E143.96997
G1 X112.295 Y112.348 E146.48276
G1 X104.825 Y112.348 E147.35219
G1 X105.432 Y113.062 F7200.000
G1 X105.432 Y125.873 E148.84322 F756.000
G1 X113.009 Y125.873 E149.72512
G1 X113.009 Y134.696 E150.75211
G1 X93.018 Y134.702 E153.07883
G1 X91.443 Y124.095 E154.32692
G1 X87.157 Y125.653 E154.85771
G1 X85.739 Y127.640 E155.14179
G1 X82.003 Y116.458 E156.51391
G1 X84.158 Y117.028 E156.77337
G1 X88.443 Y115.490 E157.30323
G1 X87.345 Y109.359 E158.02814
G1 X93.426 Y101.457 E159.18868
G1 X86.676 Y86.035 E161.14806
G1 X79.373 Y72.426 E162.94572
G1 X70.243 Y69.996 E164.04534
G1 X68.813 Y63.395 E164.83155
G1 X64.315 Y63.700 E165.35630
G1 X62.500 Y65.165 E165.62777
G1 X61.337 Y53.308 E167.01449
G1 X63.459 Y54.583 E167.30274
G1 X67.933 Y54.271 E167.82463
G1 X66.830 Y43.775 E169.05301
G1 X115.568 Y28.533 E174.99652
G1 X132.739 Y28.456 E176.99510
G1 X132.739 Y40.192 E178.36111
G1 X137.527 Y40.067 E178.91856
G1 X139.518 Y38.590 E179.20709
G1 X139.517 Y50.524 E180.59615
G1 X137.437 Y49.224 E180.88162
G1 X132.739 Y49.360 E181.42868
G1 X132.739 Y70.072 E183.83942
G1 X113.009 Y70.098 E186.13583
G1 X113.009 Y77.321 E186.97660
G1 X105.432 Y77.342 E187.85851
G1 X105.432 Y90.072 E189.34023
G1 X113.009 Y90.041 E190.22214
G1 X113.009 Y113.062 E192.90151
G1 X105.539 Y113.062 E193.77095
G1 X104.718 Y113.062 F7200.000
G1 X102.715 Y110.081 F7200.000
G1 X101.843 Y109.209 E193.91477 F1080.000
G1 X96.427 Y101.767 F7200.000
G1 X104.740 Y110.081 E195.28661 F1080.000
G1 X103.728 Y110.081 E195.40476
G1 X96.027 Y102.380 E196.67543
G1 X95.587 Y102.953 E196.75968
G1 X101.068 Y108.433 E197.66413
G1 X100.295 Y108.673 E197.75858
G1 X95.147 Y103.525 E198.60807
G1 X94.706 Y104.097 E198.69232
G1 X99.521 Y108.912 E199.48687
G1 X98.748 Y109.151 E199.58132
G1 X94.266 Y104.669 E200.32092
G1 X93.826 Y105.241 E200.40516
G1 X97.975 Y109.390 E201.08981
G1 X97.201 Y109.630 E201.18426
G1 X93.385 Y105.814 E201.81396
G1 X92.945 Y106.386 E201.89821
G1 X96.428 Y109.869 E202.47295
G1 X95.655 Y110.108 E202.56741
G1 X92.505 Y106.958 E203.08720
G1 X92.064 Y107.530 E203.17145
G1 X94.881 Y110.347 E203.63630
G1 X94.108 Y110.586 E203.73075
G1 X91.624 Y108.102 E204.14065
G1 X91.184 Y108.675 E204.22490
G1 X93.335 Y110.826 E204.57985
G1 X92.561 Y111.065 E204.67430
G1 X90.743 Y109.247 E204.97430
G1 X90.303 Y109.819 E205.05855
G1 X92.143 Y111.659 E205.36222
G1 X92.597 Y113.125 E205.54128
G1 X90.269 Y110.798 E205.92540
G1 X90.490 Y112.031 E206.07162
G1 X93.050 Y114.591 E206.49412
G1 X93.504 Y116.057 E206.67318
G1 X90.711 Y113.265 E207.13405
G1 X90.932 Y114.498 E207.28027
G1 X93.957 Y117.523 E207.77953
G1 X94.411 Y118.989 E207.95859
G1 X91.153 Y115.731 E208.49622
G1 X91.374 Y116.965 E208.64244
G1 X94.864 Y120.455 E209.21845
G1 X95.318 Y121.921 E209.39751
G1 X90.821 Y117.425 E210.13949
G1 X90.076 Y117.693 E210.23187
G1 X95.771 Y123.387 E211.17164
G1 X92.345 Y120.974 F7200.000
G1 X89.331 Y117.960 E211.66908 F1080.000
G1 X88.586 Y118.227 E211.76146
G1 X91.603 Y121.244 E212.25932
G1 X90.860 Y121.514 E212.35152
G1 X87.841 Y118.495 E212.84981
G1 X87.095 Y118.762 E212.94219
G1 X90.118 Y121.784 E213.44091
G1 X89.375 Y122.054 E213.53311
G1 X86.350 Y119.029 E214.03226
G1 X85.775 Y119.467 E214.11657
G1 X88.632 Y122.324 E214.58810
G1 X87.890 Y122.594 E214.68029
G1 X86.283 Y120.987 E214.94543
G1 X86.791 Y122.508 F7200.000
G1 X87.147 Y122.864 E215.00419 F1080.000
G1 X95.743 Y116.445 F7200.000
G1 X95.348 Y132.077 F7200.000
G1 X95.270 Y131.999 E215.01711 F1080.000
G1 X96.360 Y132.077 E215.14470
G1 X95.093 Y130.810 E215.35381
G1 X94.917 Y129.621 E215.49409
G1 X97.373 Y132.077 E215.89940
G1 X98.385 Y132.077 E216.01752
G1 X94.740 Y128.432 E216.61903
G1 X94.563 Y127.242 E216.75931
G1 X99.397 Y132.076 E217.55700
G1 X100.410 Y132.076 E217.67512
G1 X94.387 Y126.053 E218.66902
G1 X94.210 Y124.864 E218.80930
G1 X101.422 Y132.076 E219.99939
G1 X102.434 Y132.076 E220.11751
G1 X94.033 Y123.675 E221.50379
G1 X93.857 Y122.486 E221.64407
G1 X103.447 Y132.075 E223.22655
G1 X104.459 Y132.075 E223.34467
G1 X96.689 Y124.306 E224.62681
G1 X97.462 Y124.066 E224.72126
G1 X105.471 Y132.075 E226.04284
G1 X106.483 Y132.075 E226.16096
G1 X98.236 Y123.827 E227.52197
G1 X99.009 Y123.588 E227.61642
G1 X102.807 Y127.386 E228.24320
G1 X102.807 Y126.374 E228.36135
G1 X99.782 Y123.349 E228.86051
G1 X100.556 Y123.109 E228.95496
G1 X102.807 Y125.361 E229.32651
G1 X102.807 Y124.348 E229.44466
G1 X101.329 Y122.870 E229.68859
G1 X102.102 Y122.631 E229.78305
G1 X102.807 Y123.336 E229.89937
G1 X103.918 Y128.497 F7200.000
G1 X107.496 Y132.074 E230.48969 F1080.000
G1 X108.508 Y132.074 E230.60781
G1 X104.931 Y128.497 E231.19810
G1 X105.943 Y128.497 E231.31625
G1 X109.520 Y132.074 E231.90649
G1 X110.384 Y131.926 E232.00880
G1 X106.956 Y128.497 E232.57457
G1 X107.969 Y128.497 E232.69271
G1 X110.384 Y130.913 E233.09139
G1 X110.384 Y129.901 E233.20954
G1 X108.981 Y128.497 E233.44112
G1 X109.994 Y128.497 E233.55927
G1 X110.384 Y128.888 E233.62377
G1 X103.249 Y134.099 F7200.000
G1 X104.832 Y120.833 F7200.000
G1 X95.639 Y99.967 F7200.000
G1 X105.753 Y110.081 E235.29277 F1080.000
G1 X106.765 Y110.081 E235.41092
G1 X94.850 Y98.166 E237.37708
G1 X94.062 Y96.365 F7200.000
G1 X107.778 Y110.081 E239.64039 F1080.000
G1 X108.790 Y110.081 E239.75854
G1 X93.274 Y94.564 E242.31902
G1 X92.486 Y92.764 F7200.000
G1 X109.803 Y110.081 E245.17665 F1080.000
G1 X110.027 Y109.293 E245.27225
G1 X91.697 Y90.963 E248.29702
G1 X90.909 Y89.162 F7200.000
G1 X110.027 Y108.280 E251.45186 F1080.000
G1 X110.027 Y107.268 E251.57001
G1 X90.121 Y87.361 E254.85492
G1 X89.333 Y85.561 F7200.000
G1 X110.027 Y106.255 E258.26990 F1080.000
G1 X110.027 Y105.243 E258.38805
G1 X88.304 Y83.519 E261.97278
G1 X87.132 Y81.334 F7200.000
G1 X110.027 Y104.230 E265.75098 F1080.000
G1 X110.027 Y103.217 E265.86913
G1 X85.959 Y79.149 E269.84080
G1 X84.787 Y76.964 F7200.000
G1 X110.027 Y102.205 E274.00594 F1080.000
G1 X110.027 Y101.192 E274.12409
G1 X83.615 Y74.779 E278.48270
G1 X82.442 Y72.595 F7200.000
G1 X110.027 Y100.180 E283.03478 F1080.000
G1 X110.027 Y99.167 E283.15293
G1 X103.564 Y92.704 E284.21944
G1 X104.573 Y92.700 E284.33711
G1 X110.027 Y98.155 E285.23721
G1 X110.027 Y97.142 E285.35536
G1 X105.581 Y92.696 E286.08905
G1 X106.590 Y92.692 E286.20673
G1 X110.027 Y96.130 E286.77400
G1 X110.027 Y95.117 E286.89215
G1 X107.598 Y92.688 E287.29302
G1 X108.607 Y92.684 E287.41069
G1 X110.027 Y94.105 E287.64514
G1 X110.027 Y93.092 E287.76329
G1 X109.615 Y92.680 E287.83133
G1 X102.807 Y91.947 F7200.000
G1 X67.773 Y56.913 E293.61261 F1080.000
G1 X68.720 Y56.847 E293.72332
G1 X102.807 Y90.935 E299.34841
G1 X102.807 Y89.922 E299.46656
G1 X69.666 Y56.781 E304.93546
G1 X70.613 Y56.715 E305.04617
G1 X102.807 Y88.910 E310.35888
G1 X102.807 Y87.897 E310.47703
G1 X70.735 Y55.824 E315.76963
G1 X70.616 Y54.693 E315.90237
G1 X102.807 Y86.885 E321.21457
G1 X102.807 Y85.872 E321.33272
G1 X70.497 Y53.562 E326.66454
G1 X70.378 Y52.430 E326.79728
G1 X102.807 Y84.859 E332.14871
G1 X102.807 Y83.847 E332.26686
G1 X70.259 Y51.299 E337.63789
G1 X70.140 Y50.167 E337.77064
G1 X102.807 Y82.834 E343.16128
G1 X102.807 Y81.822 E343.27943
G1 X70.022 Y49.036 E348.68969
G1 X69.903 Y47.905 E348.82243
G1 X102.807 Y80.809 E354.25230
G1 X102.807 Y79.797 E354.37045
G1 X69.784 Y46.773 E359.81993
G1 X69.695 Y45.672 E359.94886
G1 X102.807 Y78.784 E365.41299
G1 X102.807 Y77.772 E365.53114
G1 X70.433 Y45.398 E370.87342
G1 X71.205 Y45.157 E370.96772
G1 X89.723 Y63.674 E374.02348
G1 X90.532 Y64.484 F7200.000
G1 X102.807 Y76.759 E376.04915 F1080.000
G1 X102.807 Y75.747 E376.16729
G1 X91.305 Y64.245 E378.06534
G1 X92.079 Y64.005 E378.15980
G1 X102.807 Y74.734 E379.93023
G1 X103.807 Y74.721 E380.04693
G1 X92.852 Y63.766 E381.85477
G1 X93.625 Y63.527 E381.94922
G1 X104.817 Y74.719 E383.79609
G1 X105.827 Y74.716 E383.91392
G1 X94.399 Y63.288 E385.79982
G1 X95.172 Y63.048 E385.89427
G1 X106.837 Y74.713 E387.81920
G1 X107.847 Y74.711 E387.93703
G1 X95.945 Y62.809 E389.90098
G1 X96.719 Y62.570 E389.99544
G1 X108.857 Y74.708 E391.99842
G1 X109.866 Y74.705 E392.11625
G1 X97.492 Y62.331 E394.15826
G1 X98.265 Y62.092 E394.25271
G1 X110.384 Y74.211 E396.25261
G1 X110.384 Y73.198 E396.37075
G1 X99.039 Y61.852 E398.24303
G1 X99.456 Y61.257 E398.32786
G1 X110.384 Y72.186 E400.13127
G1 X110.384 Y71.173 E400.24942
