; generated by Slic3r 1.0.0RC2 on 2014-05-17 at 13:05:00

; layer_height = 0.3
; perimeters = 4
; top_solid_layers = 3
; bottom_solid_layers = 3
; fill_density = 0.1
; perimeter_speed = 60
; infill_speed = 60
; travel_speed = 120
; nozzle_diameter = 0.4
; filament_diameter = 1.75
; extrusion_multiplier = 0.98
; perimeters extrusion width = 0.40mm
; infill extrusion width = 0.42mm
; solid infill extrusion width = 0.42mm
; top infill extrusion width = 0.42mm
; first layer extrusion width = 0.80mm

G21 ; set units to millimeters
M107
M104 S220 ; set temperature
G28 ; home all axes
M106 S255;
G1 Z200 F1200 ; lift nozzle
M109 S220 ; wait for temperature to be reached
G90 ; use absolute coordinates
G92 E0
M82 ; use absolute distances for extrusion
G1 F1800.000 E-1.00000
G92 E0
G1 Z0.400 F7200.000
G1 X23.389 Y59.313 F7200.000
G1 E1.00000 F1800.000
G1 X72.499 Y43.953 E6.98896 F1080.000
G1 X73.459 Y43.733 E7.10359
G1 X118.659 Y36.663 E12.42838
G1 X119.699 Y36.583 E12.54978
G1 X180.229 Y36.583 E19.59486
G1 X181.099 Y36.633 E19.69629
G1 X181.949 Y36.803 E19.79718
G1 X227.489 Y48.913 E25.28177
G1 X276.599 Y64.263 E31.27039
G1 X278.069 Y64.923 E31.45793
G1 X279.339 Y65.913 E31.64535
G1 X280.329 Y67.173 E31.83186
G1 X285.859 Y76.243 E33.06825
G1 X286.479 Y77.553 E33.23694
G1 X286.799 Y78.953 E33.40409
G1 X286.809 Y80.393 E33.57169
G1 X285.499 Y93.773 E35.13643
G1 X285.359 Y94.643 E35.23900
G1 X285.109 Y95.473 E35.33989
G1 X261.679 Y158.043 E43.11624
G1 X260.969 Y159.423 E43.29687
G1 X259.969 Y160.603 E43.47689
G1 X252.899 Y167.203 E44.60260
G1 X251.689 Y168.103 E44.77812
G1 X250.309 Y168.703 E44.95326
G1 X248.829 Y168.983 E45.12857
G1 X190.909 Y173.393 E51.88938
G1 X190.399 Y173.413 E51.94879
G1 X109.589 Y173.413 E61.35425
G1 X108.519 Y173.333 E61.47914
G1 X50.599 Y163.963 E68.30808
G1 X49.319 Y163.623 E68.46223
G1 X48.139 Y163.043 E68.61526
G1 X47.089 Y162.243 E68.76890
G1 X40.019 Y155.653 E69.89381
G1 X39.019 Y154.473 E70.07384
G1 X38.309 Y153.093 E70.25447
G1 X14.879 Y90.523 E78.03082
G1 X14.629 Y89.693 E78.13171
G1 X14.489 Y88.823 E78.23427
G1 X13.179 Y75.443 E79.79901
G1 X13.189 Y74.003 E79.96662
G1 X13.509 Y72.603 E80.13377
G1 X14.129 Y71.293 E80.30245
G1 X19.659 Y62.223 E81.53885
G1 X20.649 Y60.963 E81.72535
G1 X21.919 Y59.973 E81.91277
G1 X23.291 Y59.357 E82.08785
G1 F1800.000 E81.08785
G92 E0
G1 X62.198 Y62.197 F7200.000
G1 E1.00000 F1800.000
G1 X74.847 Y62.288 E2.47220 F1080.000
G1 X74.847 Y78.642 E4.37562
G1 X62.198 Y78.646 E5.84778
G1 X62.198 Y62.304 E7.74986
G1 X62.912 Y62.916 F7200.000
G1 X74.132 Y62.997 E9.05581 F1080.000
G1 X74.132 Y77.928 E10.79361
G1 X62.912 Y77.932 E12.09953
G1 X62.912 Y63.023 E13.83474
G1 X63.626 Y63.636 F7200.000
G1 X73.418 Y63.706 E14.97444 F1080.000
G1 X73.418 Y77.214 E16.54663
G1 X63.626 Y77.218 E17.68630
G1 X63.626 Y63.743 E19.25464
G1 X64.341 Y64.355 F7200.000
G1 X72.704 Y64.415 E20.22809 F756.000
G1 X72.704 Y76.500 E21.63466
G1 X64.341 Y76.503 E22.60810
G1 X64.341 Y64.462 E24.00956
G1 X64.344 Y63.641 F7200.000
G1 X54.149 Y71.281 F7200.000
G1 X57.984 Y83.604 E25.51162 F1080.000
G1 X49.340 Y86.278 E26.56482
G1 X45.526 Y73.949 E28.06686
G1 X54.047 Y71.313 E29.10496
G1 X53.679 Y72.174 F7200.000
G1 X57.090 Y83.133 E30.44078 F540.000
G1 X49.811 Y85.384 E31.32760
G1 X46.419 Y74.420 E32.66340
G1 X53.577 Y72.206 E33.53540
G1 X53.209 Y73.067 F7200.000
G1 X56.195 Y82.662 E34.70497 F540.000
G1 X50.282 Y84.491 E35.42540
G1 X47.313 Y74.891 E36.59496
G1 X53.107 Y73.099 E37.30087
G1 X52.739 Y73.960 F7200.000
G1 X55.301 Y82.191 E38.30420 F540.000
G1 X50.753 Y83.598 E38.85825
G1 X48.206 Y75.362 E39.86157
G1 X52.637 Y73.992 E40.40138
G1 X53.421 Y73.748 F7200.000
G1 X62.123 Y97.444 F7200.000
G1 X74.884 Y97.410 E41.88674 F1080.000
G1 X74.902 Y114.411 E43.86549
G1 X62.140 Y114.462 E45.35084
G1 X62.123 Y97.551 E47.31916
G1 X62.837 Y98.156 F7200.000
G1 X74.171 Y98.126 E48.63827 F1080.000
G1 X74.187 Y113.700 E50.45090
G1 X62.853 Y113.745 E51.77000
G1 X62.838 Y98.263 E53.57197
G1 X63.552 Y98.868 F7200.000
G1 X73.457 Y98.842 E54.72484 F1080.000
G1 X73.472 Y112.988 E56.37134
G1 X63.567 Y113.028 E57.52420
G1 X63.552 Y98.975 E59.15981
G1 X64.267 Y99.580 F7200.000
G1 X72.744 Y99.558 E60.14644 F756.000
G1 X72.757 Y112.277 E61.62680
G1 X64.280 Y112.311 E62.61343
G1 X64.267 Y99.688 E64.08268
G1 X64.266 Y98.866 F7200.000
G1 F1800.000 E63.08268
G92 E0
G1 X74.971 Y131.983 F7200.000
G1 E1.00000 F1800.000
G1 X81.141 Y130.702 E1.73338 F540.000
G1 X82.932 Y140.539 E2.89712
G1 X76.924 Y141.631 E3.60791
G1 X74.993 Y132.088 E4.74107
G1 X75.812 Y132.538 F7200.000
G1 X80.569 Y131.550 E5.30656 F540.000
G1 X82.102 Y139.964 E6.30195
G1 X77.485 Y140.803 E6.84811
G1 X75.834 Y132.643 E7.81708
G1 X75.668 Y131.839 F7200.000
G1 X73.457 Y134.688 F7200.000
G1 X73.472 Y148.834 E9.46358 F1080.000
G1 X63.567 Y148.874 E10.61644
G1 X63.552 Y134.714 E12.26452
G1 X73.350 Y134.688 E13.40492
G1 X72.744 Y135.404 F7200.000
G1 X72.757 Y148.123 E14.88529 F756.000
G1 X64.280 Y148.157 E15.87191
G1 X64.267 Y135.426 E17.35363
G1 X72.637 Y135.404 E18.32779
G1 X73.458 Y135.403 F7200.000
G1 X73.772 Y133.259 F7200.000
G1 X62.123 Y133.289 E19.68370 F1080.000
G1 X62.140 Y150.308 E21.66449
G1 X74.902 Y150.257 E23.14984
G1 X74.893 Y141.396 E24.18108
G1 X75.408 Y141.345 E24.24141
G1 X75.801 Y143.286 E24.47201
G1 X82.825 Y142.010 E25.30284
G1 X82.824 Y148.809 E26.09408
G1 X88.558 Y145.041 E26.89261
G1 X89.597 Y145.071 E27.01350
G1 X89.597 Y147.207 E27.26212
G1 X76.519 Y154.798 E29.02215
G1 X53.866 Y154.798 E31.65870
G1 X52.176 Y143.424 E32.99710
G1 X45.635 Y145.802 E33.80714
G1 X44.100 Y141.205 E34.37124
G1 X49.871 Y139.134 E35.08494
G1 X48.621 Y132.154 E35.91032
G1 X54.897 Y123.998 E37.10806
G1 X47.604 Y107.337 E39.22494
G1 X39.822 Y92.833 E41.14069
G1 X31.059 Y90.502 E42.19599
G1 X29.515 Y83.370 E43.04523
G1 X23.298 Y83.793 E43.77044
G1 X22.823 Y78.945 E44.33743
G1 X29.295 Y78.493 E45.09258
G1 X28.144 Y67.535 E46.37498
G1 X74.900 Y52.913 E52.07678
G1 X89.597 Y52.847 E53.78736
G1 X89.597 Y59.411 E54.55134
G1 X88.763 Y59.389 E54.64837
G1 X82.825 Y54.977 E55.50936
G1 X82.824 Y78.198 E58.21195
G1 X88.558 Y74.430 E59.01049
G1 X89.597 Y74.459 E59.13138
G1 X89.597 Y94.803 E61.49923
G1 X88.763 Y94.782 E61.59626
G1 X82.825 Y90.370 E62.45725
G1 X82.824 Y113.590 E65.15982
G1 X88.558 Y109.823 E65.95836
G1 X89.597 Y109.852 E66.07925
G1 X89.597 Y130.022 E68.42681
G1 X88.763 Y130.000 E68.52384
G1 X82.825 Y125.589 E69.38483
G1 X82.825 Y128.894 E69.76955
G1 X73.290 Y130.874 E70.90303
G1 X73.751 Y133.154 E71.17375
G1 X74.171 Y134.230 F7200.000
G1 X74.687 Y134.178 E71.23408 F1080.000
G1 X76.362 Y142.459 E72.21738
G1 X83.539 Y141.155 E73.06631
G1 X83.539 Y147.485 E73.80306
G1 X88.354 Y144.321 E74.47366
G1 X90.311 Y144.376 E74.70151
G1 X90.311 Y147.618 E75.07881
G1 X76.711 Y155.513 E76.90907
G1 X53.250 Y155.513 E79.63969
G1 X51.598 Y144.394 E80.94799
G1 X45.190 Y146.723 E81.74156
G1 X43.201 Y140.769 E82.47230
G1 X49.062 Y138.666 E83.19706
G1 X47.862 Y131.969 E83.98895
G1 X54.073 Y123.897 E85.17428
G1 X46.961 Y107.649 E87.23866
G1 X39.339 Y93.443 E89.11505
G1 X30.454 Y91.080 E90.18513
G1 X28.947 Y84.125 E91.01336
G1 X22.655 Y84.552 E91.74740
G1 X22.040 Y78.283 E92.48055
G1 X28.507 Y77.832 E93.23510
G1 X27.373 Y67.028 E94.49950
G1 X74.789 Y52.200 E100.28187
G1 X90.311 Y52.129 E102.08845
G1 X90.311 Y60.144 E103.02125
G1 X88.519 Y60.097 E103.22990
G1 X83.539 Y56.398 E103.95189
G1 X83.539 Y76.874 E106.33511
G1 X88.354 Y73.710 E107.00572
G1 X90.311 Y73.765 E107.23356
G1 X90.311 Y95.537 E109.76755
G1 X88.519 Y95.490 E109.97621
G1 X83.539 Y91.790 E110.69819
G1 X83.539 Y112.267 E113.08140
G1 X88.354 Y109.103 E113.75201
G1 X90.311 Y109.158 E113.97985
G1 X90.311 Y130.755 E116.49355
G1 X88.519 Y130.708 E116.70220
G1 X83.539 Y127.009 E117.42419
G1 X83.539 Y136.910 E118.57656
G1 X83.006 Y136.958 E118.63885
G1 X81.712 Y129.854 E119.47922
G1 X74.131 Y131.429 E120.38049
G1 X74.645 Y133.970 E120.68233
G1 X62.837 Y134.002 E122.05660
G1 X62.853 Y149.591 E123.87103
G1 X74.187 Y149.545 E125.19014
G1 X74.171 Y134.337 E126.96022
G1 X73.343 Y134.802 F7200.000
G1 X70.072 Y112.888 F7200.000
G1 X84.367 Y129.502 F7200.000
G1 X84.253 Y128.429 F7200.000
G1 X84.253 Y146.161 E129.02407 F1080.000
G1 X88.149 Y143.601 E129.56674
G1 X91.025 Y143.682 E129.90154
G1 X91.025 Y148.029 E130.40752
G1 X76.903 Y156.227 E132.30802
G1 X52.634 Y156.227 E135.13270
G1 X51.020 Y145.364 E136.41090
G1 X45.704 Y147.297 E137.06929
G1 X44.972 Y148.323 E137.21601
G1 X42.099 Y139.726 E138.27101
G1 X43.190 Y140.014 E138.40236
G1 X48.253 Y138.197 E139.02831
G1 X47.104 Y131.783 E139.78671
G1 X53.250 Y123.797 E140.95965
G1 X46.318 Y107.962 E142.97153
G1 X38.856 Y94.054 E144.80856
G1 X29.848 Y91.657 E145.89341
G1 X28.380 Y84.879 E146.70062
G1 X23.041 Y85.242 E147.32343
G1 X22.081 Y86.017 E147.46705
G1 X21.186 Y76.890 E148.53440
G1 X22.284 Y77.550 E148.68356
G1 X27.720 Y77.171 E149.31774
G1 X26.601 Y66.521 E150.56413
G1 X74.678 Y51.486 E156.42706
G1 X91.025 Y51.412 E158.32964
G1 X91.025 Y60.877 E159.43126
G1 X88.274 Y60.805 E159.75153
G1 X84.253 Y57.818 E160.33453
G1 X84.253 Y75.550 E162.39838
G1 X88.150 Y72.990 E162.94105
G1 X91.025 Y73.071 E163.27585
G1 X91.025 Y96.270 E165.97598
G1 X88.274 Y96.198 E166.29625
G1 X84.253 Y93.211 E166.87925
G1 X84.253 Y110.943 E168.94309
G1 X88.150 Y108.383 E169.48576
G1 X91.025 Y108.463 E169.82056
G1 X91.025 Y131.488 E172.50040
G1 X88.274 Y131.416 E172.82067
G1 X84.339 Y128.493 E173.39120
G1 X84.967 Y129.849 F7200.000
G1 X84.967 Y144.837 E175.13568 F756.000
G1 X87.945 Y142.881 E175.55041
G1 X91.739 Y142.987 E175.99217
G1 X91.739 Y148.440 E176.62683
G1 X77.095 Y156.941 E178.59757
G1 X52.018 Y156.941 E181.51631
G1 X50.443 Y146.334 E182.76441
G1 X46.157 Y147.892 E183.29520
G1 X44.739 Y149.879 E183.57927
G1 X41.003 Y138.697 E184.95140
G1 X43.158 Y139.267 E185.21086
G1 X47.443 Y137.729 E185.74071
G1 X46.345 Y131.598 E186.46563
G1 X52.426 Y123.696 E187.62617
G1 X45.676 Y108.274 E189.58555
G1 X38.373 Y94.664 E191.38321
G1 X29.243 Y92.235 E192.48283
G1 X27.813 Y85.634 E193.26904
G1 X23.315 Y85.939 E193.79379
G1 X21.500 Y87.404 E194.06526
G1 X20.337 Y75.546 E195.45198
G1 X22.459 Y76.822 E195.74023
G1 X26.932 Y76.510 E196.26212
G1 X25.830 Y66.014 E197.49050
G1 X74.568 Y50.772 E203.43401
G1 X91.739 Y50.695 E205.43258
G1 X91.739 Y61.610 E206.70302
G1 X88.030 Y61.513 E207.13491
G1 X84.967 Y59.238 E207.57891
G1 X84.967 Y74.226 E209.32339
G1 X87.945 Y72.270 E209.73813
G1 X91.739 Y72.376 E210.17989
G1 X91.739 Y97.003 E213.04616
G1 X88.030 Y96.906 E213.47805
G1 X84.967 Y94.631 E213.92205
G1 X84.967 Y109.619 E215.66652
G1 X87.945 Y107.662 E216.08125
G1 X91.739 Y107.769 E216.52301
G1 X91.739 Y132.221 E219.36899
G1 X88.030 Y132.124 E219.80088
G1 X85.053 Y129.913 E220.23241
G1 X84.269 Y129.698 F7200.000
G1 X85.640 Y127.079 F7200.000
G1 X73.459 Y114.899 E222.24765 F1080.000
G1 X72.448 Y114.903 E222.36594
G1 X82.343 Y124.798 E224.00305
G1 X82.343 Y125.813 E224.12181
G1 X71.437 Y114.907 E225.92620
G1 X70.426 Y114.911 E226.04448
G1 X82.343 Y126.828 E228.01615
G1 X82.343 Y127.843 E228.13490
G1 X69.415 Y114.915 E230.27384
G1 X68.404 Y114.919 E230.39213
G1 X82.048 Y128.563 E232.64949
G1 X81.207 Y128.738 E232.74993
G1 X67.393 Y114.923 E235.03550
G1 X66.381 Y114.927 E235.15378
G1 X80.367 Y128.912 E237.46756
G1 X79.526 Y129.087 E237.56800
G1 X65.370 Y114.931 E239.90997
G1 X64.359 Y114.935 E240.02826
G1 X78.685 Y129.261 E242.39845
G1 X77.845 Y129.436 E242.49888
G1 X63.348 Y114.939 E244.89727
G1 X62.337 Y114.943 F7200.000
G1 X77.004 Y129.610 E247.32387 F1080.000
G1 X76.164 Y129.785 E247.42431
G1 X41.708 Y95.329 E253.12477
G1 X42.884 Y97.520 F7200.000
G1 X75.323 Y129.959 E258.49169 F1080.000
G1 X74.482 Y130.134 E258.59213
G1 X44.059 Y99.711 E263.62551
G1 X45.234 Y101.901 F7200.000
G1 X73.642 Y130.309 E268.32534 F1080.000
G1 X72.801 Y130.483 E268.42578
G1 X46.410 Y104.092 E272.79207
G1 X47.585 Y106.282 F7200.000
G1 X72.956 Y131.653 E276.98946 F1080.000
G1 X73.066 Y132.779 F7200.000
G1 X48.524 Y108.236 E281.04987 F1080.000
G1 X49.314 Y110.042 F7200.000
G1 X72.054 Y132.781 E284.81203 F1080.000
G1 X71.041 Y132.784 E284.93047
G1 X50.104 Y111.847 E288.39438
G1 X50.895 Y113.652 F7200.000
G1 X70.029 Y132.787 E291.56003 F1080.000
G1 X69.016 Y132.789 E291.67847
G1 X51.685 Y115.458 E294.54587
G1 X52.475 Y117.263 F7200.000
G1 X68.004 Y132.792 E297.11501 F1080.000
G1 X66.991 Y132.795 E297.23346
G1 X53.265 Y119.069 E299.50435
G1 X54.056 Y120.874 F7200.000
G1 X65.979 Y132.797 E301.47698 F1080.000
G1 X64.966 Y132.800 E301.59543
G1 X54.846 Y122.679 E303.26981
G1 X55.350 Y124.199 E303.45715
G1 X63.954 Y132.803 E304.88054
G1 X62.941 Y132.805 E304.99899
G1 X54.909 Y124.773 E306.32790
G1 X54.468 Y125.347 E306.41259
G1 X61.929 Y132.808 E307.64703
G1 X61.641 Y133.535 E307.73853
G1 X54.026 Y125.920 E308.99837
G1 X53.585 Y126.494 E309.08305
G1 X61.642 Y134.551 E310.41610
G1 X61.643 Y135.567 E310.53498
G1 X53.143 Y127.068 E311.94124
G1 X52.702 Y127.641 E312.02592
G1 X61.644 Y136.584 E313.50539
G1 X61.645 Y137.600 E313.62427
G1 X52.260 Y128.215 E315.17695
G1 X51.819 Y128.789 E315.26164
G1 X61.646 Y138.616 E316.88752
G1 X61.647 Y139.632 E317.00640
G1 X51.377 Y129.362 E318.70550
G1 X50.936 Y129.936 E318.79019
G1 X61.648 Y140.648 E320.56249
G1 X61.649 Y141.665 E320.68138
G1 X50.494 Y130.510 E322.52689
G1 X50.053 Y131.083 E322.61158
G1 X61.650 Y142.681 E324.53030
G1 X61.651 Y143.697 E324.64919
G1 X49.611 Y131.657 E326.64112
G1 X49.170 Y132.231 E326.72581
G1 X61.652 Y144.713 E328.79095
G1 X61.653 Y145.729 E328.90983
G1 X49.336 Y133.412 E330.94766
G1 X49.558 Y134.649 E331.09463
G1 X61.654 Y146.746 E333.09598
G1 X61.655 Y147.762 E333.21486
G1 X49.779 Y135.885 E335.17974
G1 X50.000 Y137.122 E335.32671
G1 X61.656 Y148.778 E337.25512
G1 X61.657 Y149.794 E337.37400
G1 X50.222 Y138.359 E339.26593
G1 X50.330 Y139.482 F7200.000
G1 X64.808 Y153.959 E341.66123 F1080.000
G1 X65.823 Y153.959 E341.77999
G1 X62.651 Y150.788 E342.30475
G1 X63.662 Y150.784 E342.42304
G1 X66.838 Y153.959 E342.94847
G1 X67.853 Y153.959 E343.06723
G1 X64.673 Y150.780 E343.59334
G1 X65.684 Y150.775 E343.71162
G1 X68.868 Y153.959 E344.23840
G1 X69.883 Y153.959 E344.35716
G1 X66.695 Y150.771 E344.88460
G1 X67.707 Y150.767 E345.00289
G1 X70.899 Y153.959 E345.53100
G1 X71.914 Y153.959 E345.64976
G1 X68.718 Y150.763 E346.17855
G1 X69.729 Y150.759 E346.29683
G1 X72.929 Y153.959 E346.82629
G1 X73.944 Y153.959 E346.94505
G1 X70.740 Y150.755 E347.47518
G1 X71.751 Y150.751 E347.59346
G1 X74.959 Y153.959 E348.12426
G1 X75.974 Y153.959 E348.24302
G1 X72.762 Y150.747 E348.77449
G1 X73.773 Y150.743 E348.89278
G1 X76.734 Y153.704 E349.38257
G1 X77.376 Y153.331 E349.46945
G1 X74.784 Y150.739 E349.89823
G1 X75.384 Y150.323 E349.98357
G1 X78.018 Y152.958 E350.41946
G1 X78.660 Y152.585 E350.50634
G1 X75.382 Y149.307 E351.04867
G1 X75.381 Y148.291 E351.16755
G1 X79.303 Y152.212 E351.81632
G1 X79.945 Y151.839 E351.90320
G1 X75.380 Y147.275 E352.65840
G1 X75.379 Y146.258 E352.77728
G1 X80.587 Y151.466 E353.63892
G1 X81.230 Y151.094 E353.72580
G1 X75.378 Y145.242 E354.69387
G1 X75.377 Y144.226 E354.81275
G1 X81.867 Y150.716 E355.88651
G1 X81.985 Y149.819 E355.99238
G1 X75.921 Y143.754 E356.99572
G1 X76.780 Y143.598 E357.09786
G1 X81.985 Y148.804 E357.95907
G1 X81.985 Y147.789 E358.07783
G1 X77.639 Y143.442 E358.79692
G1 X78.498 Y143.286 E358.89906
G1 X81.985 Y146.774 E359.47603
G1 X81.986 Y145.758 E359.59478
G1 X79.357 Y143.130 E360.02962
G1 X80.216 Y142.974 E360.13177
G1 X81.986 Y144.743 E360.42449
G1 X81.986 Y143.728 E360.54324
G1 X81.075 Y142.818 E360.69383
G1 X81.934 Y142.662 E360.79598
G1 X81.986 Y142.713 E360.80444
G1 X84.367 Y139.502 F7200.000
G1 X81.289 Y132.153 F7200.000
G1 X91.139 Y120.175 F7200.000
G1 X89.115 Y127.509 F7200.000
G1 X75.383 Y113.777 E363.07632 F1080.000
G1 X75.382 Y112.761 E363.19520
G1 X89.115 Y126.494 E365.46724
G1 X89.115 Y125.479 E365.58600
G1 X75.381 Y111.745 E367.85821
G1 X75.380 Y110.728 E367.97709
G1 X89.115 Y124.463 E370.24948
G1 X89.115 Y123.448 E370.36824
G1 X75.379 Y109.712 E372.64079
G1 X75.378 Y108.696 E372.75967
G1 X89.115 Y122.433 E375.03240
G1 X89.115 Y121.418 E375.15115
