; generated by Slic3r 1.0.0RC2 on 2014-05-18 at 09:14:02

; layer_height = 0.3
; perimeters = 3
; top_solid_layers = 3
; bottom_solid_layers = 3
; fill_density = 0.1
; perimeter_speed = 60
; infill_speed = 60
; travel_speed = 120
; nozzle_diameter = 0.4
; filament_diameter = 1.75
; extrusion_multiplier = 0.98
; perimeters extrusion width = 0.40mm
; infill extrusion width = 0.42mm
; solid infill extrusion width = 0.42mm
; top infill extrusion width = 0.42mm
; first layer extrusion width = 0.80mm

G21 ; set units to millimeters
M107
M104 S220 ; set temperature
G28 ; home all axes
M106 S255;
G1 Z200 F1200 ; lift nozzle
M109 S220 ; wait for temperature to be reached
G90 ; use absolute coordinates
G92 E0
M82 ; use absolute distances for extrusion
G1 F1800.000 E-1.00000
G92 E0
G1 Z0.400 F7200.000
G1 X122.616 Y60.999 F7200.000
G1 E1.00000 F1800.000
G1 X123.576 Y59.389 E1.21817 F1080.000
G1 X124.946 Y58.109 E1.43639
G1 X131.146 Y53.729 E2.31992
G1 X132.336 Y53.049 E2.47944
G1 X133.636 Y52.639 E2.63809
G1 X134.996 Y52.499 E2.79722
G1 X149.996 Y52.469 E4.54307
G1 X164.996 Y52.499 E6.28892
G1 X166.366 Y52.639 E6.44921
G1 X167.666 Y53.059 E6.60821
G1 X168.866 Y53.729 E6.76818
G1 X175.056 Y58.109 E7.65075
G1 X176.416 Y59.389 E7.86812
G1 X177.376 Y60.999 E8.08629
G1 X183.146 Y74.819 E9.82937
G1 X183.546 Y76.169 E9.99324
G1 X183.656 Y77.579 E10.15785
G1 X181.826 Y150.989 E18.70469
G1 X181.676 Y152.269 E18.85469
G1 X181.266 Y153.499 E19.00559
G1 X180.636 Y154.639 E19.15719
G1 X179.806 Y155.629 E19.30755
G1 X178.796 Y156.439 E19.45824
G1 X177.646 Y157.039 E19.60921
G1 X176.406 Y157.409 E19.75982
G1 X175.116 Y157.529 E19.91061
G1 X124.286 Y157.529 E25.82671
G1 X122.986 Y157.409 E25.97866
G1 X121.746 Y157.029 E26.12961
G1 X120.596 Y156.429 E26.28058
G1 X119.576 Y155.609 E26.43290
G1 X118.746 Y154.609 E26.58416
G1 X118.116 Y153.469 E26.73576
G1 X117.716 Y152.229 E26.88740
G1 X117.576 Y150.929 E27.03958
G1 X116.336 Y77.519 E35.58498
G1 X116.456 Y76.149 E35.74505
G1 X116.846 Y74.819 E35.90636
G1 X122.574 Y61.098 E37.63697
G1 F1800.000 E36.63697
G92 E0
G1 X137.643 Y71.842 F7200.000
G1 E1.00000 F1800.000
G1 X143.315 Y68.052 E1.79399 F1080.000
G1 X150.006 Y66.721 E2.58798
G1 X156.697 Y68.052 E3.38198
G1 X162.369 Y71.842 E4.17597
G1 X166.159 Y77.515 E4.96996
G1 X167.490 Y84.205 E5.76396
G1 X166.159 Y90.896 E6.55795
G1 X162.547 Y96.301 E7.31460
G1 X160.381 Y101.266 E7.94507
G1 X149.812 Y101.676 E9.17617
G1 X149.812 Y101.661 E9.17792
G1 X139.631 Y101.266 E10.36378
G1 X137.465 Y96.301 E10.99425
G1 X133.853 Y90.896 E11.75090
G1 X132.522 Y84.205 E12.54490
G1 X133.853 Y77.515 E13.33889
G1 X137.583 Y71.931 E14.12042
G1 X138.158 Y72.357 F7200.000
G1 X143.594 Y68.725 E14.88134 F756.000
G1 X150.006 Y67.450 E15.64226
G1 X156.418 Y68.725 E16.40319
G1 X161.854 Y72.357 E17.16412
G1 X165.486 Y77.793 E17.92504
G1 X166.762 Y84.205 E18.68597
G1 X165.486 Y90.617 E19.44689
G1 X161.918 Y95.958 E20.19441
G1 X159.906 Y100.570 E20.78013
G1 X150.006 Y100.953 E21.93324
G1 X140.106 Y100.570 E23.08635
G1 X138.094 Y95.958 E23.67207
G1 X134.526 Y90.617 E24.41959
G1 X133.250 Y84.205 E25.18051
G1 X134.526 Y77.793 E25.94144
G1 X138.098 Y72.446 E26.68990
G1 X138.019 Y71.657 F7200.000
G1 F1800.000 E25.68990
G92 E0
G1 X143.036 Y106.612 F7200.000
G1 E1.00000 F1800.000
G1 X150.006 Y105.226 E1.82706 F1080.000
G1 X156.975 Y106.612 E2.65412
G1 X162.884 Y110.560 E3.48118
G1 X166.832 Y116.468 E4.30824
G1 X168.218 Y123.438 E5.13530
G1 X166.832 Y130.407 E5.96236
G1 X162.884 Y136.316 E6.78942
G1 X156.975 Y140.263 E7.61649
G1 X150.006 Y141.650 E8.44355
G1 X143.036 Y140.263 E9.27061
G1 X137.128 Y136.316 E10.09767
G1 X131.479 Y127.861 E11.28109
G1 X132.674 Y127.861 E11.42013
G1 X131.794 Y123.438 E11.94509
G1 X133.180 Y116.468 E12.77215
G1 X137.128 Y110.560 E13.59921
G1 X142.947 Y106.672 E14.41381
G1 X143.315 Y107.285 F7200.000
G1 X150.006 Y105.954 E15.20780 F1080.000
G1 X156.697 Y107.285 E16.00179
G1 X162.369 Y111.075 E16.79578
G1 X166.159 Y116.747 E17.58978
G1 X167.490 Y123.438 E18.38377
G1 X166.159 Y130.128 E19.17776
G1 X162.369 Y135.801 E19.97176
G1 X156.697 Y139.591 E20.76575
G1 X150.006 Y140.922 E21.55975
G1 X143.315 Y139.591 E22.35374
G1 X137.643 Y135.801 E23.14773
G1 X132.815 Y128.576 E24.15911
G1 X133.544 Y128.576 E24.24393
G1 X132.522 Y123.438 E24.85364
G1 X133.853 Y116.747 E25.64763
G1 X137.643 Y111.075 E26.44162
G1 X143.226 Y107.344 E27.22315
G1 X143.594 Y107.958 F7200.000
G1 X150.006 Y106.682 E27.98407 F756.000
G1 X156.418 Y107.958 E28.74500
G1 X161.854 Y111.590 E29.50592
G1 X165.486 Y117.026 E30.26685
G1 X166.762 Y123.438 E31.02778
G1 X165.486 Y129.850 E31.78870
G1 X161.854 Y135.286 E32.54963
G1 X156.418 Y138.918 E33.31055
G1 X150.006 Y140.193 E34.07148
G1 X143.594 Y138.918 E34.83241
G1 X138.158 Y135.286 E35.59333
G1 X134.151 Y129.290 E36.43267
G1 X134.414 Y129.290 E36.46326
G1 X133.250 Y123.438 E37.15771
G1 X134.526 Y117.026 E37.91864
G1 X138.158 Y111.590 E38.67957
G1 X143.505 Y108.017 E39.42803
G1 X143.733 Y107.257 F7200.000
G1 X140.435 Y102.012 F7200.000
G1 X149.098 Y102.348 E40.43699 F1080.000
G1 X149.098 Y102.418 E40.44518
G1 X160.857 Y101.963 E41.81484
G1 X163.176 Y96.645 E42.49006
G1 X166.832 Y91.175 E43.25584
G1 X168.218 Y84.205 E44.08290
G1 X166.832 Y77.236 E44.90996
G1 X163.825 Y72.736 E45.53986
G1 X170.492 Y66.689 E46.58748
G1 X174.258 Y75.703 E47.72459
G1 X167.959 Y75.982 E48.45847
G1 X169.044 Y84.121 E49.41417
G1 X167.498 Y91.895 E50.33666
G1 X165.915 Y106.098 E52.00000
G1 X171.541 Y114.518 E53.17857
G1 X173.351 Y123.616 E54.25827
G1 X173.295 Y148.992 E57.21183
G1 X126.157 Y148.992 E62.69819
G1 X126.657 Y123.636 E65.65002
G1 X128.471 Y114.518 E66.73206
G1 X134.096 Y106.098 E67.91064
G1 X132.514 Y91.895 E69.57397
G1 X130.967 Y84.120 E70.49665
G1 X132.038 Y75.982 E71.45195
G1 X125.742 Y75.703 E72.18543
G1 X129.509 Y66.687 E73.32268
G1 X136.185 Y72.738 E74.37140
G1 X133.180 Y77.236 E75.00100
G1 X131.794 Y84.205 E75.82806
G1 X133.180 Y91.175 E76.65512
G1 X136.836 Y96.645 E77.42090
G1 X139.155 Y101.963 E78.09612
G1 X140.328 Y102.008 E78.23274
G1 X132.547 Y99.672 F7200.000
G1 X130.685 Y79.910 F7200.000
G1 X134.143 Y77.285 F7200.000
G1 X137.151 Y71.312 F7200.000
G1 X136.852 Y64.856 E78.98498 F1080.000
G1 X136.852 Y61.038 E79.42930
G1 X150.006 Y61.008 E80.96025
G1 X163.159 Y61.038 E82.49120
G1 X163.159 Y64.844 E82.93411
G1 X162.851 Y71.306 E83.68708
G1 X156.975 Y67.380 E84.50962
G1 X150.006 Y65.993 E85.33669
G1 X143.036 Y67.380 E86.16374
G1 X137.240 Y71.253 E86.97511
G1 X136.470 Y72.032 F7200.000
G1 X136.138 Y64.872 E87.80927 F1080.000
G1 X136.138 Y60.326 E88.33844
G1 X150.006 Y60.294 E89.95251
G1 X163.874 Y60.326 E91.56658
G1 X163.874 Y64.865 E92.09490
G1 X163.531 Y72.038 E92.93068
G1 X170.761 Y65.480 E94.06668
G1 X175.311 Y76.371 E95.44049
G1 X168.770 Y76.661 E96.20259
G1 X169.768 Y84.144 E97.08128
G1 X168.204 Y92.004 E98.01401
G1 X166.654 Y105.918 E99.64345
G1 X172.214 Y114.239 E100.80822
G1 X174.065 Y123.546 E101.91273
G1 X174.008 Y149.706 E104.95751
G1 X125.429 Y149.706 E110.61158
G1 X125.944 Y123.558 E113.65554
G1 X127.798 Y114.239 E114.76148
G1 X133.358 Y105.918 E115.92625
G1 X131.807 Y92.004 E117.55569
G1 X130.244 Y84.143 E118.48854
G1 X131.228 Y76.661 E119.36692
G1 X124.689 Y76.371 E120.12876
G1 X129.240 Y65.480 E121.50266
G1 X136.390 Y71.960 E122.62584
G1 X135.677 Y70.349 F7200.000
G1 X135.424 Y64.889 E123.26207 F756.000
G1 X135.424 Y59.613 E123.87609
G1 X150.006 Y59.579 E125.57328
G1 X164.588 Y59.613 E127.27047
G1 X164.588 Y64.886 E127.88419
G1 X164.327 Y70.352 E128.52110
G1 X171.030 Y64.272 E129.57445
G1 X176.365 Y77.040 E131.18496
G1 X169.581 Y77.340 E131.97528
G1 X170.491 Y84.167 E132.77695
G1 X168.911 Y92.114 E133.71993
G1 X167.393 Y105.738 E135.31548
G1 X172.887 Y113.960 E136.46644
G1 X174.780 Y123.477 E137.59576
G1 X174.720 Y150.421 E140.73176
G1 X124.701 Y150.421 E146.55354
G1 X125.231 Y123.481 E149.68964
G1 X127.125 Y113.960 E150.81947
G1 X132.619 Y105.738 E151.97043
G1 X131.101 Y92.114 E153.56598
G1 X129.520 Y84.167 E154.50900
G1 X130.418 Y77.340 E155.31045
G1 X123.635 Y77.040 E156.10067
G1 X128.970 Y64.272 E157.71122
G1 X135.597 Y70.278 E158.75217
G1 X136.375 Y70.502 F7200.000
G1 X142.940 Y60.196 F7200.000
G1 X134.143 Y77.285 F7200.000
G1 X130.685 Y79.910 F7200.000
G1 X131.245 Y89.764 F7200.000
G1 X137.359 Y95.938 F7200.000
G1 X135.384 Y95.982 F7200.000
G1 X133.212 Y93.810 E159.11315 F1080.000
G1 X133.340 Y94.958 E159.24887
G1 X136.612 Y98.230 E159.79272
G1 X137.401 Y100.039 F7200.000
G1 X133.468 Y96.106 E160.44648 F1080.000
G1 X133.595 Y97.253 E160.58221
G1 X138.190 Y101.848 E161.34587
G1 X139.092 Y102.750 F7200.000
G1 X142.640 Y106.298 E161.93560 F1080.000
G1 X143.409 Y106.047 E162.03066
G1 X139.833 Y102.471 E162.62500
G1 X140.894 Y102.512 E162.74978
G1 X144.259 Y105.878 E163.30917
G1 X145.110 Y105.708 E163.41111
G1 X141.955 Y102.553 E163.93555
G1 X143.016 Y102.594 E164.06033
G1 X145.961 Y105.539 E164.54983
G1 X146.811 Y105.370 E164.65176
G1 X144.077 Y102.635 E165.10630
G1 X145.137 Y102.676 E165.23108
G1 X147.662 Y105.201 E165.65068
G1 X148.513 Y105.032 E165.75261
G1 X146.198 Y102.717 E166.13726
G1 X147.259 Y102.759 E166.26204
G1 X149.363 Y104.862 E166.61174
G1 X150.317 Y104.797 E166.72412
G1 X148.320 Y102.800 E167.05603
G1 X149.428 Y102.887 E167.18660
G1 X151.590 Y105.050 E167.54604
G1 X152.863 Y105.303 E167.69859
G1 X150.409 Y102.849 E168.10644
G1 X151.391 Y102.811 E168.22192
G1 X154.136 Y105.556 E168.67817
G1 X155.409 Y105.809 E168.83072
G1 X152.373 Y102.773 E169.33538
G1 X153.355 Y102.735 E169.45086
G1 X156.683 Y106.063 E170.00392
G1 X159.076 Y107.437 F7200.000
G1 X154.337 Y102.697 E170.79166 F1080.000
G1 X155.319 Y102.659 E170.90713
G1 X162.150 Y109.490 E172.04252
G1 X163.953 Y111.294 F7200.000
G1 X172.012 Y119.352 E173.38189 F1080.000
G1 X171.759 Y118.079 E173.53444
G1 X156.301 Y102.621 E176.10370
G1 X157.282 Y102.583 E176.21918
G1 X171.505 Y116.806 E178.58316
G1 X171.252 Y115.533 E178.73571
G1 X158.264 Y102.545 E180.89441
G1 X165.052 Y106.273 F7200.000
G1 X161.187 Y102.409 E181.53671 F1080.000
G1 X161.497 Y101.699 E181.62776
G1 X165.154 Y105.356 E182.23558
G1 X165.256 Y104.438 E182.34409
G1 X161.807 Y100.989 E182.91742
G1 X162.117 Y100.279 E183.00847
G1 X165.359 Y103.521 E183.54730
G1 X165.461 Y102.603 E183.65581
G1 X162.426 Y99.569 E184.16016
G1 X162.736 Y98.858 E184.25121
G1 X165.563 Y101.685 E184.72106
G1 X165.665 Y100.768 E184.82957
G1 X163.046 Y98.148 E185.26493
G1 X163.356 Y97.438 E185.35598
G1 X165.768 Y99.850 E185.75685
G1 X165.870 Y98.933 E185.86536
G1 X163.686 Y96.749 E186.22830
G1 X164.095 Y96.138 E186.31472
G1 X165.972 Y98.015 E186.62675
G1 X166.074 Y97.097 E186.73526
G1 X164.503 Y95.526 E186.99640
G1 X164.912 Y94.915 E187.08281
G1 X166.177 Y96.180 E187.29305
G1 X166.279 Y95.262 E187.40156
G1 X165.320 Y94.304 E187.56089
G1 X165.729 Y93.692 E187.64731
G1 X166.381 Y94.345 E187.75574
G1 X166.483 Y93.427 E187.86425
G1 X166.390 Y93.334 E187.87971
G1 X167.021 Y109.262 F7200.000
G1 X160.228 Y102.469 E189.00878 F1080.000
G1 X159.246 Y102.507 E189.12426
G1 X169.075 Y112.336 E190.75784
G1 X169.298 Y112.559 F7200.000
G1 X170.369 Y113.630 E190.93583 F1080.000
G1 X166.007 Y114.367 F7200.000
G1 X172.265 Y120.625 E191.97596 F1080.000
G1 X172.518 Y121.898 E192.12852
G1 X167.381 Y116.761 E192.98239
G1 X167.634 Y118.034 E193.13494
G1 X172.771 Y123.171 E193.98882
G1 X172.868 Y124.288 E194.12049
G1 X167.887 Y119.307 E194.94828
G1 X168.141 Y120.580 E195.10083
G1 X172.866 Y125.305 E195.88617
G1 X172.863 Y126.323 E196.00577
G1 X168.394 Y121.853 E196.74864
G1 X168.647 Y123.126 E196.90119
G1 X172.861 Y127.340 E197.60160
G1 X172.859 Y128.358 E197.72120
G1 X168.581 Y124.080 E198.43219
G1 X168.412 Y124.931 E198.53412
G1 X172.857 Y129.376 E199.27286
G1 X172.854 Y130.393 E199.39246
G1 X168.243 Y125.782 E200.15895
G1 X168.074 Y126.632 E200.26089
G1 X172.852 Y131.411 E201.05513
G1 X172.850 Y132.428 E201.17473
G1 X167.904 Y127.483 E201.99672
G1 X167.735 Y128.334 E202.09865
G1 X172.848 Y133.446 E202.94840
G1 X172.845 Y134.464 E203.06800
G1 X167.566 Y129.184 E203.94549
G1 X167.397 Y130.035 E204.04742
G1 X172.843 Y135.481 E204.95267
G1 X172.841 Y136.499 E205.07227
G1 X167.146 Y130.804 E206.01884
G1 X166.737 Y131.415 E206.10526
G1 X172.839 Y137.517 E207.11935
G1 X172.836 Y138.534 E207.23895
G1 X166.329 Y132.027 E208.32057
G1 X165.920 Y132.638 E208.40699
G1 X172.834 Y139.552 E209.55613
G1 X172.832 Y140.569 E209.67573
G1 X165.512 Y133.249 E210.89239
G1 X165.103 Y133.861 E210.97881
G1 X172.830 Y141.587 E212.26299
G1 X172.827 Y142.605 E212.38259
G1 X164.695 Y134.472 E213.73430
G1 X164.286 Y135.083 E213.82072
G1 X172.825 Y143.622 E215.23995
G1 X172.823 Y144.640 E215.35955
G1 X163.878 Y135.695 E216.84630
G1 X163.469 Y136.306 E216.93272
G1 X172.821 Y145.657 E218.48699
G1 X172.818 Y146.675 E218.60659
G1 X162.976 Y136.833 E220.24243
G1 X162.365 Y137.241 E220.32884
G1 X172.816 Y147.693 E222.06592
G1 X172.614 Y148.511 E222.16494
G1 X161.754 Y137.650 E223.97009
G1 X161.142 Y138.058 E224.05650
G1 X171.595 Y148.511 E225.79375
G1 X170.575 Y148.511 E225.91361
G1 X160.531 Y138.467 E227.58296
G1 X159.920 Y138.875 E227.66937
G1 X169.555 Y148.511 E229.27083
G1 X168.535 Y148.511 E229.39069
G1 X159.308 Y139.284 E230.92425
G1 X158.697 Y139.692 E231.01067
G1 X167.515 Y148.511 E232.47634
G1 X166.495 Y148.511 E232.59620
G1 X158.086 Y140.101 E233.99397
G1 X157.474 Y140.509 E234.08038
G1 X165.475 Y148.511 E235.41026
G1 X164.456 Y148.511 E235.53012
G1 X156.745 Y140.800 E236.81164
G1 X155.895 Y140.969 E236.91357
G1 X163.436 Y148.511 E238.16697
G1 X162.416 Y148.511 E238.28683
G1 X155.044 Y141.139 E239.51210
G1 X154.193 Y141.308 E239.61403
G1 X161.396 Y148.511 E240.81118
G1 X160.376 Y148.511 E240.93104
G1 X153.343 Y141.477 E242.10007
G1 X152.492 Y141.646 E242.20200
G1 X159.356 Y148.511 E243.34291
G1 X158.337 Y148.511 E243.46277
G1 X151.642 Y141.815 E244.57555
G1 X150.791 Y141.985 E244.67748
G1 X157.317 Y148.511 E245.76214
G1 X156.297 Y148.511 E245.88200
G1 X149.908 Y142.121 E246.94395
G1 X148.635 Y141.868 E247.09650
G1 X155.277 Y148.511 E248.20054
G1 X154.257 Y148.511 E248.32040
G1 X147.361 Y141.615 E249.46653
G1 X146.088 Y141.362 E249.61909
G1 X153.237 Y148.511 E250.80731
G1 X152.218 Y148.511 E250.92716
G1 X144.815 Y141.108 E252.15747
G1 X143.542 Y140.855 E252.31003
G1 X151.198 Y148.511 E253.58242
G1 X150.178 Y148.511 E253.70228
G1 X141.450 Y139.783 E255.15294
G1 X138.376 Y137.729 F7200.000
G1 X149.158 Y148.511 E256.94493 F1080.000
G1 X148.138 Y148.511 E257.06479
G1 X127.064 Y127.436 E260.56754
G1 X127.044 Y128.436 E260.68511
G1 X147.118 Y148.511 E264.02163
G1 X146.098 Y148.511 E264.14149
G1 X127.024 Y129.436 E267.31178
G1 X127.005 Y130.437 E267.42934
G1 X145.079 Y148.511 E270.43340
G1 X144.059 Y148.511 E270.55326
G1 X126.985 Y131.437 E273.39108
G1 X126.965 Y132.437 E273.50865
G1 X143.039 Y148.511 E276.18024
G1 X142.019 Y148.511 E276.30010
G1 X126.946 Y133.437 E278.80545
G1 X126.926 Y134.437 E278.92302
G1 X140.999 Y148.511 E281.26215
G1 X139.979 Y148.511 E281.38201
G1 X126.906 Y135.437 E283.55490
G1 X126.886 Y136.437 E283.67247
G1 X138.960 Y148.511 E285.67913
G1 X137.940 Y148.511 E285.79899
G1 X126.867 Y137.438 E287.63941
G1 X126.847 Y138.438 E287.75698
G1 X136.920 Y148.511 E289.43118
G1 X135.900 Y148.511 E289.55104
G1 X126.827 Y139.438 E291.05900
G1 X126.808 Y140.438 E291.17657
G1 X134.880 Y148.511 E292.51830
G1 X133.860 Y148.511 E292.63816
G1 X126.788 Y141.438 E293.81365
G1 X126.768 Y142.438 E293.93122
G1 X132.840 Y148.511 E294.94049
G1 X131.821 Y148.511 E295.06035
G1 X126.748 Y143.438 E295.90338
G1 X126.729 Y144.439 E296.02095
G1 X130.801 Y148.511 E296.69775
G1 X129.781 Y148.511 E296.81761
G1 X126.709 Y145.439 E297.32818
G1 X126.689 Y146.439 E297.44574
G1 X128.761 Y148.511 E297.79008
G1 X127.741 Y148.511 E297.90994
G1 X126.670 Y147.439 E298.08804
G1 X126.650 Y148.439 E298.20561
G1 X126.721 Y148.511 E298.21748
G1 X135.715 Y135.067 F7200.000
G1 X127.083 Y126.436 E299.65206 F1080.000
G1 X127.103 Y125.436 E299.76963
G1 X133.661 Y131.994 E300.85959
G1 X131.607 Y128.920 F7200.000
G1 X127.123 Y124.436 E301.60494 F1080.000
G1 X127.180 Y123.473 E301.71825
