; generated by Slic3r 1.0.0RC2 on 2014-05-19 at 16:42:52

; layer_height = 0.3
; perimeters = 2
; top_solid_layers = 3
; bottom_solid_layers = 3
; fill_density = 0.1
; perimeter_speed = 60
; infill_speed = 60
; travel_speed = 120
; nozzle_diameter = 0.4
; filament_diameter = 1.75
; extrusion_multiplier = 0.98
; perimeters extrusion width = 0.40mm
; infill extrusion width = 0.42mm
; solid infill extrusion width = 0.42mm
; top infill extrusion width = 0.42mm
; first layer extrusion width = 0.80mm

G21 ; set units to millimeters
M107
M104 S220 ; set temperature
G28 ; home all axes
M106 S255;
G1 Z200 F1200 ; lift nozzle
M109 S220 ; wait for temperature to be reached
G90 ; use absolute coordinates
G92 E0
M82 ; use absolute distances for extrusion
G1 F1800.000 E-1.00000
G92 E0
G1 Z0.400 F7200.000
G1 X129.947 Y87.355 F7200.000
G1 E1.00000 F1800.000
G1 X130.777 Y86.355 E1.15126 F1080.000
G1 X131.787 Y85.525 E1.30341
G1 X134.007 Y84.045 E1.61395
G1 X135.297 Y83.375 E1.78314
G1 X136.547 Y83.025 E1.93422
G1 X139.017 Y82.535 E2.22731
G1 X139.667 Y82.445 E2.30368
G1 X140.327 Y82.415 E2.38058
G1 X157.957 Y82.415 E4.43253
G1 X158.607 Y82.445 E4.50827
G1 X159.247 Y82.535 E4.58349
G1 X161.857 Y83.045 E4.89301
G1 X163.127 Y83.425 E5.04730
G1 X164.307 Y84.055 E5.20299
G1 X166.517 Y85.535 E5.51256
G1 X167.527 Y86.365 E5.66472
G1 X168.357 Y87.375 E5.81687
G1 X169.837 Y89.585 E6.12645
G1 X170.457 Y90.755 E6.28056
G1 X170.837 Y92.015 E6.43374
G1 X171.357 Y94.625 E6.74348
G1 X171.477 Y95.515 E6.84801
G1 X171.477 Y96.405 E6.95160
G1 X170.117 Y115.785 E9.21278
G1 X169.987 Y117.075 E9.36368
G1 X169.897 Y117.695 E9.43660
G1 X169.737 Y118.315 E9.51113
G1 X169.427 Y119.355 E9.63743
G1 X169.207 Y119.995 E9.71620
G1 X168.917 Y120.605 E9.79481
G1 X168.397 Y121.575 E9.92291
G1 X168.057 Y122.135 E9.99916
G1 X167.667 Y122.665 E10.07575
G1 X166.977 Y123.505 E10.20227
G1 X166.537 Y123.995 E10.27892
G1 X166.047 Y124.435 E10.35557
G1 X165.207 Y125.125 E10.48210
G1 X164.667 Y125.525 E10.56031
G1 X164.097 Y125.865 E10.63756
G1 X163.137 Y126.375 E10.76408
G1 X162.557 Y126.645 E10.83854
G1 X161.957 Y126.865 E10.91292
G1 X160.917 Y127.185 E11.03957
G1 X160.277 Y127.345 E11.11635
G1 X159.617 Y127.445 E11.19405
G1 X158.527 Y127.555 E11.32156
G1 X157.857 Y127.585 E11.39961
G1 X140.787 Y127.585 E13.38639
G1 X140.107 Y127.555 E13.46561
G1 X139.027 Y127.445 E13.59196
G1 X138.377 Y127.345 E13.66851
G1 X137.737 Y127.185 E13.74529
G1 X136.697 Y126.865 E13.87193
G1 X136.097 Y126.645 E13.94632
G1 X135.517 Y126.375 E14.02078
G1 X134.557 Y125.865 E14.14730
G1 X133.997 Y125.535 E14.22295
G1 X133.477 Y125.145 E14.29861
G1 X132.627 Y124.455 E14.42603
G1 X132.127 Y124.005 E14.50432
G1 X131.667 Y123.505 E14.58340
G1 X130.977 Y122.665 E14.70992
G1 X130.577 Y122.115 E14.78908
G1 X130.227 Y121.525 E14.86892
G1 X129.717 Y120.555 E14.99647
G1 X129.447 Y119.995 E15.06883
G1 X129.237 Y119.405 E15.14172
G1 X128.917 Y118.365 E15.26837
G1 X128.747 Y117.695 E15.34882
G1 X128.647 Y117.015 E15.42882
G1 X128.547 Y115.935 E15.55506
G1 X128.527 Y115.245 E15.63540
G1 X128.797 Y91.045 E18.45221
G1 X128.937 Y89.745 E18.60439
G1 X129.327 Y88.505 E18.75568
G1 X129.896 Y87.449 E18.89528
G1 F1800.000 E17.89528
G92 E0
G1 X131.770 Y88.901 F7200.000
G1 E1.00000 F1800.000
G1 X135.867 Y86.163 E1.57363 F1080.000
G1 X136.582 Y85.867 E1.66368
G1 X139.950 Y85.197 E2.06332
G1 X140.724 Y85.197 E2.15338
G1 X144.091 Y85.867 E2.55302
G1 X144.806 Y86.163 E2.64307
G1 X147.661 Y88.070 E3.04271
G1 X148.208 Y88.618 E3.13276
G1 X148.474 Y89.015 E3.18846
G1 X149.054 Y89.131 E3.25731
G1 X153.496 Y86.163 E3.87910
G1 X154.211 Y85.867 E3.96916
G1 X157.579 Y85.197 E4.36880
G1 X158.353 Y85.197 E4.45885
G1 X161.720 Y85.867 E4.85849
G1 X162.435 Y86.163 E4.94854
G1 X165.290 Y88.070 E5.34818
G1 X165.837 Y88.618 E5.43824
G1 X167.745 Y91.472 E5.83788
G1 X168.041 Y92.187 E5.92794
G1 X168.711 Y95.555 E6.32758
G1 X168.711 Y96.329 E6.41763
G1 X168.041 Y99.696 E6.81727
G1 X167.745 Y100.411 E6.90733
G1 X165.837 Y103.266 E7.30697
G1 X165.290 Y103.813 E7.39702
G1 X162.435 Y105.721 E7.79666
G1 X162.028 Y105.890 E7.84800
G1 X161.983 Y106.793 E7.95327
G1 X162.974 Y107.323 E8.08404
G1 X163.295 Y107.537 E8.12896
G1 X164.435 Y108.473 E8.30069
G1 X164.708 Y108.746 E8.34561
G1 X165.644 Y109.887 E8.51734
G1 X165.859 Y110.208 E8.56227
G1 X166.554 Y111.509 E8.73400
G1 X166.702 Y111.865 E8.77891
G1 X167.130 Y113.277 E8.95064
G1 X167.206 Y113.656 E8.99556
G1 X167.350 Y115.124 E9.16729
G1 X167.350 Y115.510 E9.21222
G1 X167.206 Y116.979 E9.38395
G1 X167.130 Y117.357 E9.42886
G1 X166.702 Y118.769 E9.60060
G1 X166.554 Y119.126 E9.64551
G1 X165.859 Y120.427 E9.81725
G1 X165.644 Y120.748 E9.86217
G1 X164.708 Y121.888 E10.03390
G1 X164.436 Y122.161 E10.07881
G1 X163.295 Y123.097 E10.25054
G1 X162.974 Y123.312 E10.29547
G1 X161.673 Y124.007 E10.46721
G1 X161.316 Y124.155 E10.51212
G1 X159.904 Y124.583 E10.68385
G1 X159.526 Y124.659 E10.72877
G1 X158.057 Y124.803 E10.90050
G1 X157.671 Y124.803 E10.94542
G1 X156.203 Y124.659 E11.11715
G1 X155.825 Y124.583 E11.16207
G1 X154.413 Y124.155 E11.33380
G1 X154.056 Y124.007 E11.37871
G1 X152.755 Y123.312 E11.55045
G1 X152.434 Y123.097 E11.59538
G1 X151.293 Y122.161 E11.76711
G1 X151.020 Y121.888 E11.81202
G1 X150.084 Y120.748 E11.98374
G1 X149.712 Y120.191 E12.06174
G1 X148.949 Y120.191 E12.15059
G1 X148.576 Y120.748 E12.22857
G1 X147.640 Y121.888 E12.40030
G1 X147.368 Y122.161 E12.44521
G1 X146.227 Y123.097 E12.61695
G1 X145.906 Y123.312 E12.66187
G1 X144.605 Y124.007 E12.83361
G1 X144.248 Y124.155 E12.87853
G1 X142.836 Y124.583 E13.05026
G1 X142.458 Y124.659 E13.09517
G1 X140.989 Y124.803 E13.26690
G1 X140.603 Y124.803 E13.31183
G1 X139.135 Y124.659 E13.48356
G1 X138.757 Y124.583 E13.52847
G1 X137.345 Y124.155 E13.70020
G1 X136.988 Y124.007 E13.74512
G1 X135.687 Y123.312 E13.91685
G1 X135.366 Y123.097 E13.96178
G1 X134.225 Y122.161 E14.13351
G1 X133.952 Y121.888 E14.17842
G1 X133.016 Y120.748 E14.35015
G1 X132.802 Y120.427 E14.39506
G1 X132.106 Y119.126 E14.56680
G1 X131.959 Y118.769 E14.61173
G1 X131.530 Y117.357 E14.78346
G1 X131.455 Y116.978 E14.82839
G1 X131.310 Y115.510 E15.00012
G1 X131.310 Y115.124 E15.04502
G1 X131.455 Y113.656 E15.21675
G1 X131.530 Y113.277 E15.26168
G1 X131.959 Y111.865 E15.43342
G1 X132.106 Y111.509 E15.47834
G1 X132.802 Y110.207 E15.65008
G1 X133.016 Y109.887 E15.69498
G1 X133.952 Y108.746 E15.86671
G1 X134.225 Y108.473 E15.91164
G1 X135.366 Y107.537 E16.08337
G1 X135.687 Y107.323 E16.12828
G1 X136.521 Y106.877 E16.23841
G1 X136.477 Y105.973 E16.34368
G1 X135.867 Y105.721 E16.42045
G1 X131.769 Y102.983 E16.99408
G1 X131.438 Y99.234 E17.43212
G1 X134.547 Y96.246 E17.93402
G1 X134.547 Y95.638 E18.00483
G1 X131.438 Y92.650 E18.50673
G1 X131.760 Y89.008 E18.93230
G1 X132.451 Y89.305 F7200.000
G1 X136.206 Y86.796 E19.45792 F1080.000
G1 X136.791 Y86.553 E19.53160
G1 X140.020 Y85.911 E19.91487
G1 X140.653 Y85.911 E19.98855
G1 X143.883 Y86.553 E20.37181
G1 X144.468 Y86.796 E20.44549
G1 X147.206 Y88.625 E20.82876
G1 X147.653 Y89.073 E20.90244
G1 X148.968 Y91.041 E21.17793
G1 X149.948 Y90.790 E21.29563
G1 X150.080 Y89.305 E21.46921
G1 X153.835 Y86.796 E21.99483
G1 X154.419 Y86.553 E22.06850
G1 X157.649 Y85.911 E22.45177
G1 X158.282 Y85.911 E22.52545
G1 X161.512 Y86.553 E22.90872
G1 X162.097 Y86.796 E22.98240
G1 X164.835 Y88.625 E23.36567
G1 X165.282 Y89.073 E23.43935
G1 X167.112 Y91.811 E23.82261
G1 X167.354 Y92.396 E23.89630
G1 X167.996 Y95.625 E24.27957
G1 X167.996 Y96.258 E24.35325
G1 X167.354 Y99.488 E24.73651
G1 X167.112 Y100.073 E24.81019
G1 X165.282 Y102.811 E25.19346
G1 X164.835 Y103.259 E25.26714
G1 X162.097 Y105.088 E25.65041
G1 X161.512 Y105.330 E25.72409
G1 X159.869 Y105.657 E25.91900
G1 X159.815 Y106.770 E26.04873
G1 X161.075 Y107.153 E26.20205
G1 X161.367 Y107.274 E26.23881
G1 X162.606 Y107.936 E26.40238
G1 X162.869 Y108.111 E26.43913
G1 X163.955 Y109.003 E26.60269
G1 X164.179 Y109.226 E26.63944
G1 X165.070 Y110.313 E26.80301
G1 X165.246 Y110.575 E26.83976
G1 X165.908 Y111.815 E27.00333
G1 X166.029 Y112.106 E27.04008
G1 X166.437 Y113.451 E27.20364
G1 X166.498 Y113.761 E27.24039
G1 X166.636 Y115.159 E27.40395
G1 X166.636 Y115.475 E27.44071
G1 X166.498 Y116.874 E27.60428
G1 X166.437 Y117.183 E27.64103
G1 X166.029 Y118.528 E27.80459
G1 X165.908 Y118.820 E27.84134
G1 X165.246 Y120.059 E28.00491
G1 X165.070 Y120.322 E28.04166
G1 X164.179 Y121.408 E28.20523
G1 X163.955 Y121.631 E28.24197
G1 X162.869 Y122.523 E28.40554
G1 X162.606 Y122.698 E28.44230
G1 X161.367 Y123.361 E28.60587
G1 X161.075 Y123.482 E28.64262
G1 X159.730 Y123.890 E28.80618
G1 X159.421 Y123.951 E28.84293
G1 X158.022 Y124.089 E29.00649
G1 X157.706 Y124.089 E29.04325
G1 X156.308 Y123.951 E29.20681
G1 X155.998 Y123.890 E29.24356
G1 X154.653 Y123.482 E29.40712
G1 X154.362 Y123.361 E29.44387
G1 X153.122 Y122.698 E29.60744
G1 X152.860 Y122.523 E29.64420
G1 X151.773 Y121.631 E29.80776
G1 X151.550 Y121.408 E29.84451
G1 X150.659 Y120.322 E30.00807
G1 X150.483 Y120.059 E30.04482
G1 X149.758 Y118.703 E30.22378
G1 X148.902 Y118.703 E30.32342
G1 X148.178 Y120.059 E30.50236
G1 X148.002 Y120.322 E30.53911
G1 X147.111 Y121.408 E30.70268
G1 X146.887 Y121.631 E30.73943
G1 X145.801 Y122.523 E30.90299
G1 X145.538 Y122.698 E30.93975
G1 X144.299 Y123.361 E31.10332
G1 X144.007 Y123.482 E31.14007
G1 X142.663 Y123.890 E31.30363
G1 X142.353 Y123.951 E31.34038
G1 X140.954 Y124.089 E31.50395
G1 X140.638 Y124.089 E31.54070
G1 X139.240 Y123.951 E31.70427
G1 X138.930 Y123.890 E31.74101
G1 X137.586 Y123.482 E31.90458
G1 X137.294 Y123.361 E31.94133
G1 X136.054 Y122.698 E32.10490
G1 X135.792 Y122.523 E32.14166
G1 X134.705 Y121.631 E32.30522
G1 X134.482 Y121.408 E32.34196
G1 X133.591 Y120.322 E32.50552
G1 X133.415 Y120.059 E32.54227
G1 X132.753 Y118.820 E32.70584
G1 X132.632 Y118.528 E32.74260
G1 X132.224 Y117.183 E32.90617
G1 X132.162 Y116.874 E32.94293
G1 X132.025 Y115.475 E33.10649
G1 X132.025 Y115.159 E33.14323
G1 X132.162 Y113.761 E33.30679
G1 X132.224 Y113.451 E33.34355
G1 X132.632 Y112.106 E33.50712
G1 X132.753 Y111.814 E33.54388
G1 X133.415 Y110.575 E33.70745
G1 X133.591 Y110.313 E33.74419
G1 X134.482 Y109.226 E33.90775
G1 X134.705 Y109.003 E33.94451
G1 X135.792 Y108.111 E34.10808
G1 X136.054 Y107.936 E34.14482
G1 X137.297 Y107.272 E34.30886
G1 X137.597 Y107.148 E34.34658
G1 X138.708 Y106.818 E34.48145
G1 X138.656 Y105.701 E34.61153
G1 X136.791 Y105.330 E34.83286
G1 X136.206 Y105.088 E34.90654
G1 X132.451 Y102.579 E35.43216
G1 X132.179 Y99.512 E35.79055
G1 X135.578 Y96.246 E36.33913
G1 X135.578 Y95.638 E36.40994
G1 X132.179 Y92.372 E36.95853
G1 X132.441 Y89.411 E37.30445
G1 F1800.000 E36.30445
G92 E0
G1 X139.973 Y87.158 F7200.000
G1 X150.041 Y93.982 F7200.000
G1 E1.00000 F1800.000
G1 X150.960 Y93.479 E1.12201 F1080.000
G1 X153.207 Y95.638 E1.48463
G1 X153.207 Y96.246 E1.55544
G1 X150.960 Y98.405 E1.91805
G1 X150.041 Y97.901 E2.04007
G1 X150.368 Y96.258 E2.23504
G1 X150.368 Y95.625 E2.30872
G1 X150.062 Y94.087 E2.49123
G1 X149.653 Y95.696 F7200.000
G1 X149.653 Y96.188 E2.54853 F1080.000
G1 X149.039 Y99.280 E2.91543
G1 X148.850 Y99.735 E2.97273
G1 X147.099 Y102.356 E3.33963
G1 X146.751 Y102.704 E3.39693
G1 X144.130 Y104.455 E3.76383
G1 X143.675 Y104.644 E3.82114
G1 X140.583 Y105.259 E4.18803
G1 X140.091 Y105.259 E4.24534
G1 X136.999 Y104.644 E4.61223
G1 X136.544 Y104.455 E4.66954
G1 X133.132 Y102.175 E5.14716
G1 X132.921 Y99.790 E5.42590
G1 X136.609 Y96.246 E6.02116
G1 X136.609 Y95.638 E6.09197
G1 X132.921 Y92.094 E6.68724
G1 X133.132 Y89.708 E6.96599
G1 X136.544 Y87.429 E7.44360
G1 X136.999 Y87.240 E7.50090
G1 X140.091 Y86.625 E7.86780
G1 X140.583 Y86.625 E7.92511
G1 X143.675 Y87.240 E8.29200
G1 X144.130 Y87.429 E8.34931
G1 X146.751 Y89.180 E8.71620
G1 X147.099 Y89.528 E8.77351
G1 X148.850 Y92.149 E9.14040
G1 X149.039 Y92.604 E9.19771
G1 X149.633 Y95.591 E9.55214
G1 X148.939 Y95.766 F7200.000
G1 X148.939 Y96.118 E9.59307 F1080.000
G1 X148.352 Y99.071 E9.94359
G1 X148.217 Y99.396 E9.98452
G1 X146.544 Y101.900 E10.33505
G1 X146.295 Y102.149 E10.37598
G1 X143.791 Y103.822 E10.72650
G1 X143.466 Y103.957 E10.76743
G1 X140.513 Y104.544 E11.11795
G1 X140.161 Y104.544 E11.15889
G1 X137.207 Y103.957 E11.50941
G1 X136.882 Y103.822 E11.55034
G1 X133.813 Y101.772 E11.97995
G1 X133.663 Y100.068 E12.17906
G1 X137.639 Y96.246 E12.82100
G1 X137.639 Y95.638 E12.89180
G1 X133.663 Y91.816 E13.53375
G1 X133.813 Y90.112 E13.73286
G1 X136.882 Y88.061 E14.16246
G1 X137.207 Y87.927 E14.20339
G1 X140.161 Y87.339 E14.55392
G1 X140.513 Y87.339 E14.59485
G1 X143.466 Y87.927 E14.94537
G1 X143.791 Y88.061 E14.98630
G1 X146.295 Y89.735 E15.33682
G1 X146.544 Y89.983 E15.37775
G1 X148.217 Y92.487 E15.72828
G1 X148.352 Y92.812 E15.76921
G1 X148.918 Y95.661 E16.10727
G1 F1800.000 E15.10727
G92 E0
G1 X148.315 Y92.248 F7200.000
G1 X139.973 Y87.158 F7200.000
G1 X133.326 Y91.790 F7200.000
G1 X141.959 Y95.869 F7200.000
G1 E1.00000 F1800.000
G1 X141.959 Y96.015 E1.01700 F1080.000
G1 X141.889 Y96.355 E1.05745
G1 X141.832 Y96.488 E1.07426
G1 X141.617 Y96.798 E1.11822
G1 X141.516 Y96.896 E1.13458
G1 X141.163 Y97.123 E1.18334
G1 X141.036 Y97.173 E1.19928
G1 X140.597 Y97.258 E1.25136
G1 X140.461 Y97.258 E1.26713
G1 X140.022 Y97.173 E1.31921
G1 X139.894 Y97.123 E1.33515
G1 X138.665 Y96.332 E1.50532
G1 X138.665 Y95.552 E1.59605
G1 X139.894 Y94.761 E1.76622
G1 X140.022 Y94.710 E1.78216
G1 X140.461 Y94.626 E1.83424
G1 X140.597 Y94.626 E1.85001
G1 X141.036 Y94.710 E1.90208
G1 X141.163 Y94.761 E1.91802
G1 X141.516 Y94.988 E1.96679
G1 X141.617 Y95.085 E1.98315
G1 X141.832 Y95.396 E2.02711
G1 X141.889 Y95.528 E2.04391
G1 X141.938 Y95.764 E2.07191
G1 X142.689 Y95.869 F7200.000
G1 X142.559 Y95.241 E2.14653 F1080.000
G1 X142.502 Y95.108 E2.16333
G1 X142.122 Y94.562 E2.24079
G1 X142.021 Y94.464 E2.25715
G1 X141.433 Y94.086 E2.33853
G1 X141.306 Y94.035 E2.35447
G1 X140.597 Y93.899 E2.43855
G1 X140.461 Y93.899 E2.45432
G1 X139.751 Y94.035 E2.53840
G1 X139.624 Y94.086 E2.55434
G1 X138.484 Y94.819 E2.71214
G1 X137.743 Y94.747 E2.79875
G1 X134.404 Y91.538 E3.33778
G1 X134.494 Y90.516 E3.45725
G1 X137.221 Y88.694 E3.83884
G1 X137.415 Y88.614 E3.86340
G1 X140.231 Y88.053 E4.19755
G1 X140.442 Y88.053 E4.22211
G1 X143.258 Y88.614 E4.55626
G1 X143.453 Y88.694 E4.58082
G1 X145.840 Y90.289 E4.91496
G1 X145.989 Y90.439 E4.93952
G1 X147.584 Y92.826 E5.27367
G1 X147.665 Y93.021 E5.29823
G1 X148.225 Y95.836 E5.63238
G1 X148.225 Y96.047 E5.65694
G1 X147.665 Y98.863 E5.99109
G1 X147.584 Y99.058 E6.01565
G1 X145.989 Y101.445 E6.34980
G1 X145.840 Y101.594 E6.37436
G1 X143.453 Y103.189 E6.70851
G1 X143.258 Y103.270 E6.73307
G1 X140.442 Y103.830 E7.06721
G1 X140.231 Y103.830 E7.09177
G1 X137.416 Y103.270 E7.42592
G1 X137.221 Y103.189 E7.45048
G1 X134.494 Y101.368 E7.83208
G1 X134.404 Y100.345 E7.95154
G1 X137.743 Y97.137 E8.49058
G1 X138.484 Y97.065 E8.57718
G1 X139.624 Y97.798 E8.73498
G1 X139.751 Y97.849 E8.75092
G1 X140.461 Y97.985 E8.83500
G1 X140.597 Y97.985 E8.85078
G1 X141.306 Y97.849 E8.93486
G1 X141.433 Y97.798 E8.95080
G1 X142.021 Y97.420 E9.03217
G1 X142.122 Y97.322 E9.04854
G1 X142.502 Y96.775 E9.12599
G1 X142.559 Y96.643 E9.14280
G1 X142.689 Y95.976 E9.22186
G1 X143.418 Y96.015 F7200.000
G1 X143.418 Y95.869 E9.23885 F1080.000
G1 X143.229 Y94.954 E9.34763
G1 X143.172 Y94.821 E9.36443
G1 X142.628 Y94.038 E9.47539
G1 X142.527 Y93.940 E9.49175
G1 X141.703 Y93.410 E9.60574
G1 X141.576 Y93.359 E9.62168
G1 X140.597 Y93.172 E9.73777
G1 X140.461 Y93.172 E9.75354
G1 X139.481 Y93.359 E9.86963
G1 X139.354 Y93.410 E9.88557
G1 X138.306 Y94.084 E10.03059
G1 X138.059 Y94.060 E10.05946
G1 X135.146 Y91.260 E10.52980
G1 X135.176 Y90.920 E10.56962
G1 X137.559 Y89.327 E10.90321
G1 X137.624 Y89.300 E10.91140
G1 X140.302 Y88.768 E11.22918
G1 X140.372 Y88.768 E11.23736
G1 X143.050 Y89.300 E11.55514
G1 X143.115 Y89.327 E11.56332
G1 X145.385 Y90.844 E11.88110
G1 X145.435 Y90.894 E11.88928
G1 X146.951 Y93.164 E12.20706
G1 X146.978 Y93.229 E12.21524
G1 X147.511 Y95.907 E12.53302
G1 X147.511 Y95.977 E12.54121
G1 X146.978 Y98.655 E12.85898
G1 X146.951 Y98.720 E12.86717
G1 X145.435 Y100.990 E13.18494
