; generated by Slic3r 1.0.0RC2 on 2014-05-19 at 17:37:22

; layer_height = 0.3
; perimeters = 2
; top_solid_layers = 3
; bottom_solid_layers = 3
; fill_density = 0.1
; perimeter_speed = 60
; infill_speed = 60
; travel_speed = 120
; nozzle_diameter = 0.4
; filament_diameter = 1.75
; extrusion_multiplier = 0.98
; perimeters extrusion width = 0.40mm
; infill extrusion width = 0.42mm
; solid infill extrusion width = 0.42mm
; top infill extrusion width = 0.42mm
; first layer extrusion width = 0.80mm

G21 ; set units to millimeters
M107
M104 S220 ; set temperature
G28 ; home all axes
M106 S255;
G1 Z200 F1200 ; lift nozzle
M109 S220 ; wait for temperature to be reached
G90 ; use absolute coordinates
G92 E0
M82 ; use absolute distances for extrusion
G1 F1800.000 E-1.00000
G92 E0
G1 Z0.400 F7200.000
G1 X123.208 Y84.668 F7200.000
G1 E1.00000 F1800.000
G1 X124.038 Y83.648 E1.15306 F1080.000
G1 X125.058 Y82.818 E1.30611
G1 X126.218 Y82.198 E1.45920
G1 X127.478 Y81.808 E1.61271
G1 X128.788 Y81.688 E1.76582
G1 X171.458 Y81.688 E6.73218
G1 X172.768 Y81.808 E6.88529
G1 X174.028 Y82.198 E7.03880
G1 X175.188 Y82.818 E7.19189
G1 X176.208 Y83.648 E7.34495
G1 X177.038 Y84.668 E7.49800
G1 X177.658 Y85.828 E7.65109
G1 X178.048 Y87.088 E7.80461
G1 X178.168 Y88.398 E7.95771
G1 X178.168 Y131.678 E12.99507
G1 X178.048 Y132.988 E13.14818
G1 X177.658 Y134.248 E13.30169
G1 X177.038 Y135.408 E13.45478
G1 X176.208 Y136.428 E13.60784
G1 X175.188 Y137.258 E13.76089
G1 X174.028 Y137.878 E13.91398
G1 X172.768 Y138.268 E14.06749
G1 X171.458 Y138.388 E14.22060
G1 X128.788 Y138.388 E19.18696
G1 X127.478 Y138.268 E19.34007
G1 X126.218 Y137.878 E19.49358
G1 X125.058 Y137.258 E19.64667
G1 X124.038 Y136.428 E19.79973
G1 X123.208 Y135.408 E19.95278
G1 X122.588 Y134.248 E20.10587
G1 X122.198 Y132.988 E20.25938
G1 X122.078 Y131.678 E20.41249
G1 X122.078 Y88.398 E25.44985
G1 X122.198 Y87.088 E25.60296
G1 X122.588 Y85.828 E25.75647
G1 X123.157 Y84.763 E25.89709
G1 F1800.000 E24.89709
G92 E0
G1 X129.903 Y89.514 F7200.000
G1 E1.00000 F1800.000
G1 X135.189 Y89.514 E1.61524 F1080.000
G1 X135.293 Y100.633 E2.90941
G1 X133.788 Y103.445 E3.28068
G1 X132.789 Y106.766 E3.68424
G1 X132.453 Y110.161 E4.08130
G1 X132.803 Y113.623 E4.48636
G1 X133.708 Y116.619 E4.85067
G1 X133.731 Y116.762 E4.86742
G1 X133.785 Y116.885 E4.88313
G1 X135.412 Y119.926 E5.28450
G1 X137.591 Y122.590 E5.68511
G1 X140.252 Y124.772 E6.08564
G1 X143.284 Y126.398 E6.48610
G1 X146.577 Y127.395 E6.88652
G1 X150.000 Y127.736 E7.28689
G1 X153.423 Y127.395 E7.68727
G1 X156.716 Y126.398 E8.08769
G1 X159.748 Y124.772 E8.48815
G1 X162.409 Y122.590 E8.88868
G1 X164.588 Y119.926 E9.28928
G1 X166.226 Y116.866 E9.69322
G1 X167.215 Y113.569 E10.09387
G1 X167.543 Y110.223 E10.48519
G1 X167.538 Y110.038 E10.50668
G1 X167.202 Y106.742 E10.89235
G1 X166.287 Y103.684 E11.26379
G1 X166.212 Y103.445 E11.29298
G1 X164.707 Y100.632 E11.66436
G1 X164.969 Y89.514 E12.95869
G1 X170.347 Y89.514 E13.58460
G1 X170.347 Y130.572 E18.36330
G1 X129.903 Y130.572 E23.07056
G1 X129.903 Y89.621 E27.83683
G1 X129.189 Y88.800 F7200.000
G1 X135.897 Y88.800 E28.61754 F756.000
G1 X136.007 Y100.812 E30.01564
G1 X134.451 Y103.720 E30.39959
G1 X134.422 Y103.815 E30.41111
G1 X133.493 Y106.904 E30.78652
G1 X133.170 Y110.161 E31.16749
G1 X133.501 Y113.464 E31.55382
G1 X134.417 Y116.533 E31.92664
G1 X136.008 Y119.528 E32.32132
G1 X138.099 Y122.083 E32.70556
G1 X140.651 Y124.176 E33.08971
G1 X143.559 Y125.735 E33.47379
G1 X146.717 Y126.691 E33.85781
G1 X150.000 Y127.018 E34.24180
G1 X153.283 Y126.691 E34.62579
G1 X156.441 Y125.735 E35.00981
G1 X159.349 Y124.176 E35.39389
G1 X161.901 Y122.083 E35.77805
G1 X163.992 Y119.528 E36.16228
G1 X165.554 Y116.607 E36.54776
G1 X166.506 Y113.444 E36.93224
G1 X166.827 Y110.183 E37.31362
G1 X166.503 Y106.895 E37.69819
G1 X165.591 Y103.853 E38.06785
G1 X165.549 Y103.720 E38.08405
G1 X163.992 Y100.811 E38.46808
G1 X164.272 Y88.800 E39.86641
G1 X171.061 Y88.800 E40.65662
G1 X171.061 Y131.286 E45.60156
G1 X129.189 Y131.286 E50.47506
G1 X129.189 Y88.907 E55.40757
G1 X129.807 Y89.157 F7200.000
G1 X134.717 Y90.562 F7200.000
G1 X134.151 Y89.996 E55.50152 F1080.000
G1 X133.133 Y89.996 E55.62102
G1 X134.727 Y91.590 E55.88557
G1 X134.736 Y92.618 E56.00621
G1 X132.114 Y89.996 E56.44135
G1 X131.096 Y89.996 E56.56086
G1 X134.746 Y93.646 E57.16660
G1 X134.755 Y94.674 E57.28724
G1 X130.385 Y90.303 E58.01261
G1 X130.385 Y91.321 E58.13212
G1 X134.765 Y95.702 E58.85909
G1 X134.775 Y96.729 E58.97972
G1 X130.385 Y92.340 E59.70828
G1 X130.385 Y93.358 E59.82778
G1 X134.784 Y97.757 E60.55793
G1 X134.794 Y98.785 E60.67857
G1 X130.385 Y94.376 E61.41030
G1 X130.385 Y95.395 E61.52981
G1 X134.803 Y99.813 E62.26314
G1 X134.697 Y100.725 E62.37089
G1 X130.385 Y96.413 E63.08656
G1 X130.385 Y97.431 E63.20606
G1 X134.342 Y101.389 E63.86282
G1 X133.987 Y102.052 E63.95112
G1 X130.385 Y98.450 E64.54896
G1 X130.385 Y99.468 E64.66847
G1 X133.632 Y102.715 E65.20740
G1 X133.298 Y103.400 E65.29678
G1 X130.385 Y100.486 E65.78033
G1 X130.385 Y101.505 E65.89983
G1 X133.063 Y104.183 E66.34430
G1 X132.827 Y104.966 E66.44024
G1 X130.385 Y102.523 E66.84562
G1 X130.385 Y103.541 E66.96512
G1 X132.592 Y105.748 E67.33142
G1 X132.356 Y106.531 E67.42735
G1 X130.385 Y104.560 E67.75457
G1 X130.385 Y105.578 E67.87407
G1 X132.239 Y107.432 E68.18177
G1 X132.147 Y108.359 E68.29104
G1 X130.385 Y106.596 E68.58350
G1 X130.385 Y107.615 E68.70301
G1 X132.055 Y109.285 E68.98023
G1 X131.975 Y110.223 E69.09070
G1 X130.385 Y108.633 E69.35456
G1 X130.385 Y109.651 E69.47407
G1 X132.089 Y111.356 E69.75696
G1 X132.204 Y112.489 E69.89060
G1 X130.385 Y110.670 E70.19253
G1 X130.385 Y111.688 E70.31203
G1 X132.319 Y113.622 E70.63298
G1 X132.732 Y115.053 E70.80780
G1 X130.385 Y112.707 E71.19729
G1 X130.385 Y113.725 E71.31680
G1 X133.172 Y116.512 E71.77939
G1 X134.072 Y118.430 F7200.000
G1 X130.385 Y114.743 E72.39126 F1080.000
G1 X130.385 Y115.762 E72.51077
G1 X135.869 Y121.246 E73.42091
G1 X138.953 Y124.330 F7200.000
G1 X144.714 Y130.090 E74.37695 F1080.000
G1 X143.695 Y130.090 E74.49645
G1 X130.385 Y116.780 E76.70550
G1 X130.385 Y117.798 E76.82501
G1 X142.677 Y130.090 E78.86505
G1 X141.659 Y130.090 E78.98456
G1 X130.385 Y118.817 E80.85560
G1 X130.385 Y119.835 E80.97510
G1 X140.640 Y130.090 E82.67713
G1 X139.622 Y130.090 E82.79664
G1 X130.385 Y120.853 E84.32966
G1 X130.385 Y121.872 E84.44917
G1 X138.604 Y130.090 E85.81318
G1 X137.585 Y130.090 E85.93269
G1 X130.385 Y122.890 E87.12769
G1 X130.385 Y123.908 E87.24720
G1 X136.567 Y130.090 E88.27319
G1 X135.549 Y130.090 E88.39270
G1 X130.385 Y124.927 E89.24969
G1 X130.385 Y125.945 E89.36920
G1 X134.530 Y130.090 E90.05718
G1 X133.512 Y130.090 E90.17669
G1 X130.385 Y126.963 E90.69566
G1 X130.385 Y127.982 E90.81517
G1 X132.494 Y130.090 E91.16513
G1 X131.475 Y130.090 E91.28464
G1 X130.385 Y129.000 E91.46560
G1 X130.385 Y130.018 E91.58511
G1 X130.457 Y130.090 E91.59706
G1 X141.780 Y126.138 F7200.000
G1 X145.732 Y130.090 E92.25299 F1080.000
G1 X146.750 Y130.090 E92.37249
G1 X143.682 Y127.022 E92.88170
G1 X145.142 Y127.464 E93.06075
G1 X147.769 Y130.090 E93.49660
G1 X148.787 Y130.090 E93.61611
G1 X146.576 Y127.879 E93.98311
G1 X147.707 Y127.992 E94.11649
G1 X149.805 Y130.090 E94.46480
G1 X150.824 Y130.090 E94.58431
G1 X148.837 Y128.104 E94.91393
G1 X149.968 Y128.217 E95.04731
G1 X151.842 Y130.090 E95.35824
G1 X152.860 Y130.090 E95.47775
G1 X150.900 Y128.130 E95.80303
G1 X151.826 Y128.038 E95.91225
G1 X153.879 Y130.090 E96.25284
G1 X154.897 Y130.090 E96.37235
G1 X152.753 Y127.946 E96.72824
G1 X153.654 Y127.828 E96.83487
G1 X155.915 Y130.090 E97.21023
G1 X156.934 Y130.090 E97.32974
G1 X154.435 Y127.592 E97.74437
G1 X155.217 Y127.355 E97.84022
G1 X157.952 Y130.090 E98.29411
G1 X158.970 Y130.090 E98.41362
G1 X155.999 Y127.119 E98.90678
G1 X156.781 Y126.882 E99.00263
G1 X159.989 Y130.090 E99.53506
G1 X161.007 Y130.090 E99.65456
G1 X157.462 Y126.545 E100.24294
G1 X158.125 Y126.189 E100.33121
G1 X162.025 Y130.090 E100.97859
G1 X163.044 Y130.090 E101.09810
G1 X158.787 Y125.834 E101.80448
G1 X159.450 Y125.478 E101.89275
G1 X164.062 Y130.090 E102.65814
G1 X165.080 Y130.090 E102.77765
G1 X160.098 Y125.108 E103.60452
G1 X160.658 Y124.649 E103.68943
G1 X166.099 Y130.090 E104.59245
G1 X167.117 Y130.090 E104.71196
G1 X161.217 Y124.190 E105.69113
G1 X161.777 Y123.731 E105.77604
G1 X168.135 Y130.090 E106.83136
G1 X169.154 Y130.090 E106.95086
G1 X162.336 Y123.273 E108.08233
G1 X162.870 Y122.788 E108.16693
G1 X169.865 Y129.783 E109.32795
G1 X169.865 Y128.765 E109.44746
G1 X163.328 Y122.228 E110.53243
G1 X163.786 Y121.667 E110.61736
G1 X169.865 Y127.747 E111.62628
G1 X169.865 Y126.728 E111.74579
G1 X164.244 Y121.107 E112.67866
G1 X164.703 Y120.547 E112.76359
G1 X169.865 Y125.710 E113.62041
G1 X169.865 Y124.692 E113.73991
G1 X165.122 Y119.949 E114.52703
G1 X165.477 Y119.285 E114.61533
G1 X169.865 Y123.673 E115.34353
G1 X169.865 Y122.655 E115.46304
G1 X165.832 Y118.622 E116.13233
G1 X166.187 Y117.959 E116.22063
G1 X169.865 Y121.636 E116.83100
G1 X169.865 Y120.618 E116.95051
G1 X166.542 Y117.295 E117.50197
G1 X166.822 Y116.556 E117.59470
G1 X169.865 Y119.600 E118.09982
G1 X169.865 Y118.581 E118.21932
G1 X167.057 Y115.773 E118.68545
G1 X167.292 Y114.989 E118.78143
G1 X169.865 Y117.563 E119.20857
G1 X169.865 Y116.545 E119.32807
G1 X167.526 Y114.206 E119.71621
G1 X167.717 Y113.379 E119.81587
G1 X169.865 Y115.526 E120.17233
G1 X169.865 Y114.508 E120.29184
G1 X167.808 Y112.451 E120.63320
G1 X167.899 Y111.524 E120.74256
G1 X169.865 Y113.490 E121.06884
G1 X169.865 Y112.471 E121.18835
G1 X167.990 Y110.596 E121.49953
G1 X167.974 Y109.562 E121.62097
G1 X169.865 Y111.453 E121.93486
G1 X169.865 Y110.435 E122.05436
G1 X167.858 Y108.428 E122.38741
G1 X167.743 Y107.294 E122.52116
G1 X169.865 Y109.416 E122.87336
G1 X169.865 Y108.398 E122.99287
G1 X167.490 Y106.023 E123.38703
G1 X167.055 Y104.569 E123.56511
G1 X169.865 Y107.380 E124.03151
G1 X169.865 Y106.361 E124.15102
G1 X166.539 Y103.035 E124.70302
G1 X165.367 Y100.845 F7200.000
G1 X169.865 Y105.343 E125.44956 F1080.000
G1 X169.865 Y104.325 E125.56906
G1 X165.211 Y99.671 E126.34147
G1 X165.235 Y98.676 E126.45825
G1 X169.865 Y103.306 E127.22676
G1 X169.865 Y102.288 E127.34627
G1 X165.258 Y97.681 E128.11087
G1 X165.282 Y96.686 E128.22765
G1 X169.865 Y101.270 E128.98835
G1 X169.865 Y100.251 E129.10786
G1 X165.305 Y95.691 E129.86466
G1 X165.329 Y94.696 E129.98145
G1 X169.865 Y99.233 E130.73435
G1 X169.865 Y98.215 E130.85385
G1 X165.352 Y93.702 E131.60285
G1 X165.376 Y92.707 E131.71963
G1 X169.865 Y97.196 E132.46473
G1 X169.865 Y96.178 E132.58424
G1 X165.399 Y91.712 E133.32543
G1 X165.423 Y90.717 E133.44221
G1 X169.865 Y95.160 E134.17951
G1 X169.865 Y94.141 E134.29902
G1 X165.720 Y89.996 E134.98700
G1 X166.738 Y89.996 E135.10651
G1 X169.865 Y93.123 E135.62548
G1 X169.865 Y92.104 E135.74499
G1 X167.756 Y89.996 E136.09495
G1 X168.775 Y89.996 E136.21446
G1 X169.865 Y91.086 E136.39541
G1 X169.865 Y90.068 E136.51492
G1 X169.793 Y89.996 E136.52687
M106 S227
G1 F1800.000 E135.52687
G92 E0
G1 Z0.700 F7200.000
G1 X170.862 Y89.995 F7200.000
G1 E1.00000 F1800.000
G1 X170.861 Y131.087 E3.00908 F3600
G1 X129.389 Y131.088 E5.03676
G1 X129.389 Y89.001 E7.09450
G1 X135.818 Y89.000 E7.40881
G1 X135.920 Y100.602 E7.97611
G1 X135.841 Y100.699 E7.98218
G1 X134.265 Y103.644 E8.14552
G1 X133.292 Y106.903 E8.31179
G1 X132.971 Y110.183 E8.47297
G1 X133.308 Y113.506 E8.63625
G1 X134.164 Y116.338 E8.78091
G1 X134.189 Y116.497 E8.78878
G1 X134.263 Y116.691 E8.79893
G1 X135.841 Y119.640 E8.96245
G1 X137.957 Y122.226 E9.12578
G1 X140.539 Y124.344 E9.28908
G1 X143.482 Y125.922 E9.45235
G1 X146.678 Y126.889 E9.61560
G1 X150.000 Y127.220 E9.77883
G1 X153.322 Y126.889 E9.94206
G1 X156.518 Y125.922 E10.10531
G1 X159.461 Y124.344 E10.26858
G1 X162.043 Y122.226 E10.43188
G1 X164.159 Y119.640 E10.59521
G1 X165.742 Y116.681 E10.75931
G1 X166.704 Y113.477 E10.92287
G1 X167.025 Y110.217 E11.08303
G1 X167.019 Y109.999 E11.09369
G1 X166.701 Y106.890 E11.24650
G1 X165.844 Y104.053 E11.39135
G1 X165.825 Y103.935 E11.39722
G1 X165.735 Y103.644 E11.41212
G1 X164.159 Y100.699 E11.57540
G1 X164.079 Y100.601 E11.58158
G1 X164.078 Y99.936 E11.61409
G1 X164.336 Y89.000 E12.14895
G1 X170.861 Y89.001 E12.46796
G1 X170.862 Y89.935 E12.51364
G1 X171.262 Y89.995 F7200.000
G1 X171.261 Y131.488 E14.54231 F2520
G1 X128.989 Y131.488 E16.60909
G1 X128.989 Y88.602 E18.70589
G1 X136.214 Y88.600 E19.05913
G1 X136.320 Y100.744 E19.65291
G1 X136.176 Y100.922 E19.66410
G1 X134.636 Y103.798 E19.82361
G1 X133.686 Y106.980 E19.98597
G1 X133.373 Y110.184 E20.14335
G1 X133.699 Y113.417 E20.30223
G1 X134.554 Y116.248 E20.44683
G1 X134.574 Y116.369 E20.45284
G1 X134.636 Y116.540 E20.46169
G1 X136.176 Y119.417 E20.62126
G1 X138.241 Y121.942 E20.78074
G1 X140.763 Y124.010 E20.94019
G1 X143.636 Y125.551 E21.09960
G1 X146.756 Y126.495 E21.25899
G1 X150.000 Y126.818 E21.41837
G1 X153.244 Y126.495 E21.57774
G1 X156.364 Y125.551 E21.73713
G1 X159.237 Y124.010 E21.89655
G1 X161.759 Y121.942 E22.05600
G1 X163.824 Y119.417 E22.21548
G1 X165.366 Y116.536 E22.37524
G1 X166.307 Y113.407 E22.53499
G1 X166.624 Y110.195 E22.69281
G1 X166.309 Y106.976 E22.85095
G1 X165.364 Y103.798 E23.01304
G1 X163.825 Y100.922 E23.17253
G1 X163.680 Y100.744 E23.18376
G1 X163.678 Y99.932 E23.22344
G1 X163.946 Y88.600 E23.77765
G1 X171.261 Y88.602 E24.13530
G1 X171.262 Y89.935 E24.20048
G1 X170.915 Y90.195 F7200.000
G1 X164.587 Y89.951 F7200.000
G1 X165.265 Y89.273 E24.24955 F3600
G1 X164.672 Y89.273 E24.27991
G1 X164.602 Y89.344 E24.28501
G1 X164.573 Y90.558 F7200.000
G1 X165.857 Y89.273 E24.37805 F3600
G1 X166.450 Y89.273 E24.40841
G1 X164.559 Y91.165 E24.54542
G1 X164.544 Y91.772 E24.57652
G1 X167.043 Y89.273 E24.75750
G1 X167.635 Y89.274 E24.78786
G1 X164.530 Y92.379 E25.01281
G1 X164.516 Y92.986 E25.04391
G1 X168.228 Y89.274 E25.31283
G1 X168.820 Y89.274 E25.34319
G1 X164.501 Y93.593 E25.65608
G1 X164.487 Y94.200 E25.68718
G1 X169.413 Y89.274 E26.04404
G1 X170.006 Y89.274 E26.07440
G1 X164.473 Y94.807 E26.47523
G1 X164.458 Y95.414 E26.50633
G1 X170.572 Y89.300 E26.94924
G1 X170.588 Y89.877 E26.97880
G1 X164.444 Y96.021 E27.42389
G1 X164.430 Y96.628 E27.45499
G1 X170.588 Y90.470 E27.90112
G1 X170.588 Y91.062 E27.93148
G1 X164.415 Y97.235 E28.37864
G1 X164.401 Y97.842 E28.40974
G1 X170.588 Y91.655 E28.85795
G1 X170.588 Y92.248 E28.88831
G1 X164.387 Y98.449 E29.33755
G1 X164.372 Y99.056 E29.36865
G1 X170.588 Y92.840 E29.81894
G1 X170.588 Y93.433 E29.84930
G1 X164.358 Y99.663 E30.30062
G1 X164.352 Y100.262 E30.33128
G1 X170.588 Y94.026 E30.78302
G1 X170.588 Y94.618 E30.81339
G1 X164.482 Y100.724 E31.25570
G1 X164.689 Y101.110 E31.27813
G1 X170.588 Y95.211 E31.70547
G1 X170.588 Y95.804 E31.73583
G1 X164.895 Y101.496 E32.14821
G1 X165.102 Y101.882 E32.17064
G1 X170.588 Y96.396 E32.56805
G1 X170.588 Y96.989 E32.59841
G1 X165.309 Y102.268 E32.98086
G1 X165.515 Y102.654 E33.00329
G1 X170.588 Y97.582 E33.37077
G1 X170.588 Y98.174 E33.40113
G1 X165.722 Y103.040 E33.75364
G1 X165.928 Y103.427 E33.77607
G1 X170.588 Y98.767 E34.11362
G1 X170.588 Y99.360 E34.14398
G1 X166.088 Y103.859 E34.46995
G1 X166.213 Y104.328 E34.49476
G1 X170.588 Y99.953 E34.81172
G1 X170.588 Y100.545 E34.84208
G1 X166.350 Y104.783 E35.14907
G1 X166.488 Y105.238 E35.17343
G1 X170.588 Y101.138 E35.47047
G1 X170.588 Y101.731 E35.50083
G1 X166.625 Y105.693 E35.78791
G1 X166.762 Y106.149 E35.81227
G1 X170.588 Y102.323 E36.08940
G1 X170.588 Y102.916 E36.11976
G1 X166.900 Y106.604 E36.38692
G1 X166.997 Y107.099 E36.41279
G1 X170.588 Y103.509 E36.67293
G1 X170.588 Y104.101 E36.70329
G1 X167.052 Y107.637 E36.95944
G1 X167.107 Y108.175 E36.98712
G1 X170.588 Y104.694 E37.23928
G1 X170.588 Y105.287 E37.26964
G1 X167.162 Y108.712 E37.51782
G1 X167.217 Y109.250 E37.54550
G1 X170.588 Y105.879 E37.78969
G1 X170.588 Y106.472 E37.82005
G1 X167.272 Y109.788 E38.06025
G1 X167.284 Y110.368 E38.08999
G1 X170.588 Y107.065 E38.32932
G1 X170.588 Y107.657 E38.35968
G1 X167.220 Y111.026 E38.60368
G1 X167.155 Y111.683 E38.63752
G1 X170.588 Y108.250 E38.88620
G1 X170.588 Y108.843 E38.91656
