; generated by Slic3r 1.0.0RC2 on 2014-05-18 at 09:23:51

; layer_height = 0.3
; perimeters = 4
; top_solid_layers = 3
; bottom_solid_layers = 3
; fill_density = 0.1
; perimeter_speed = 60
; infill_speed = 60
; travel_speed = 120
; nozzle_diameter = 0.4
; filament_diameter = 1.75
; extrusion_multiplier = 0.98
; perimeters extrusion width = 0.40mm
; infill extrusion width = 0.42mm
; solid infill extrusion width = 0.42mm
; top infill extrusion width = 0.42mm
; first layer extrusion width = 0.80mm

G21 ; set units to millimeters
M107
M104 S220 ; set temperature
G28 ; home all axes
M106 S255;
G1 Z200 F1200 ; lift nozzle
M109 S220 ; wait for temperature to be reached
G90 ; use absolute coordinates
G92 E0
M82 ; use absolute distances for extrusion
G1 F1800.000 E-1.00000
G92 E0
G1 Z0.400 F7200.000
G1 X125.540 Y90.950 F7200.000
G1 E1.00000 F1800.000
G1 X129.060 Y86.090 E1.69844 F1080.000
G1 X129.750 Y85.280 E1.82228
G1 X130.280 Y84.750 E1.90952
G1 X131.090 Y84.070 E2.03261
G1 X135.940 Y80.550 E2.73011
G1 X136.700 Y80.070 E2.83473
G1 X137.370 Y79.710 E2.92325
G1 X137.930 Y79.440 E2.99561
G1 X138.500 Y79.230 E3.06631
G1 X144.210 Y77.400 E3.76420
G1 X145.190 Y77.160 E3.88163
G1 X145.930 Y77.040 E3.96888
G1 X147.000 Y76.960 E4.09377
G1 X152.990 Y76.960 E4.79094
G1 X154.050 Y77.040 E4.91467
G1 X154.800 Y77.160 E5.00307
G1 X155.800 Y77.400 E5.12276
G1 X161.490 Y79.230 E5.81843
G1 X162.040 Y79.430 E5.88655
G1 X163.250 Y80.050 E6.04479
G1 X164.050 Y80.550 E6.15459
G1 X168.900 Y84.070 E6.85208
G1 X169.660 Y84.710 E6.96773
G1 X170.190 Y85.230 E7.05415
G1 X170.930 Y86.080 E7.18532
G1 X174.460 Y90.950 E7.88538
G1 X174.990 Y91.820 E8.00395
G1 X175.330 Y92.480 E8.09036
G1 X175.750 Y93.470 E8.21552
G1 X177.600 Y99.160 E8.91191
G1 X177.840 Y100.190 E9.03500
G1 X177.960 Y100.950 E9.12455
G1 X178.040 Y102.000 E9.24712
G1 X178.040 Y108.000 E9.94546
G1 X177.960 Y109.090 E10.07266
G1 X177.840 Y109.820 E10.15877
G1 X177.600 Y110.800 E10.27620
G1 X175.750 Y116.510 E10.97480
G1 X175.350 Y117.480 E11.09692
G1 X175.010 Y118.150 E11.18436
G1 X174.440 Y119.070 E11.31033
G1 X170.910 Y123.910 E12.00757
G1 X170.280 Y124.650 E12.12068
G1 X169.750 Y125.190 E12.20875
G1 X168.910 Y125.920 E12.33827
G1 X164.060 Y129.450 E13.03645
G1 X163.560 Y129.780 E13.10618
G1 X163.040 Y130.060 E13.17492
G1 X162.360 Y130.390 E13.26289
G1 X161.520 Y130.730 E13.36836
G1 X155.830 Y132.590 E14.06511
G1 X154.710 Y132.850 E14.19893
G1 X153.960 Y132.960 E14.28716
G1 X153.000 Y133.030 E14.39919
G1 X147.010 Y133.040 E15.09636
G1 X145.930 Y132.960 E15.22241
G1 X145.190 Y132.840 E15.30966
G1 X144.180 Y132.590 E15.43076
G1 X138.470 Y130.730 E16.12972
G1 X137.580 Y130.370 E16.24146
G1 X136.910 Y130.040 E16.32839
G1 X135.930 Y129.450 E16.46153
G1 X131.080 Y125.920 E17.15970
G1 X130.240 Y125.190 E17.28923
G1 X129.710 Y124.650 E17.37730
G1 X129.070 Y123.900 E17.49205
G1 X125.550 Y119.060 E18.18860
G1 X125.030 Y118.220 E18.30359
G1 X124.680 Y117.550 E18.39157
G1 X124.240 Y116.510 E18.52300
G1 X122.390 Y110.800 E19.22160
G1 X122.140 Y109.720 E19.35062
G1 X122.030 Y108.980 E19.43770
G1 X121.960 Y107.990 E19.55321
G1 X121.960 Y102.000 E20.25039
G1 X122.030 Y101.030 E20.36358
G1 X122.140 Y100.280 E20.45181
G1 X122.390 Y99.180 E20.58310
G1 X124.240 Y93.480 E21.28059
G1 X124.450 Y92.930 E21.34911
G1 X124.700 Y92.400 E21.41732
G1 X125.050 Y91.740 E21.50427
G1 X125.484 Y91.041 E21.60000
G1 F1800.000 E20.60000
G92 E0
G1 X143.014 Y101.419 F7200.000
G1 E1.00000 F1800.000
G1 X144.434 Y99.464 E1.28121 F1080.000
G1 X146.101 Y98.249 E1.52132
G1 X146.443 Y98.007 E1.57002
G1 X148.771 Y97.244 E1.85516
G1 X151.230 Y97.244 E2.14145
G1 X153.564 Y98.015 E2.42750
G1 X155.544 Y99.452 E2.71228
G1 X156.985 Y101.413 E2.99557
G1 X157.750 Y103.765 E3.28334
G1 X157.750 Y106.226 E3.56983
G1 X156.990 Y108.556 E3.85511
G1 X155.537 Y110.552 E4.14241
G1 X153.542 Y111.989 E4.42860
G1 X151.229 Y112.744 E4.71174
G1 X148.776 Y112.744 E4.99730
G1 X146.437 Y111.985 E5.28348
G1 X144.446 Y110.546 E5.56942
G1 X143.009 Y108.555 E5.85527
G1 X142.250 Y106.229 E6.13996
G1 X142.250 Y103.770 E6.42621
G1 X142.981 Y101.521 E6.70146
G1 X143.657 Y101.751 F7200.000
G1 X144.949 Y99.973 E6.95731 F1080.000
G1 X146.518 Y98.829 E7.18326
G1 X146.768 Y98.652 E7.21891
G1 X148.885 Y97.958 E7.47822
G1 X151.116 Y97.958 E7.73784
G1 X153.234 Y98.657 E7.99743
G1 X155.033 Y99.964 E8.25628
G1 X156.343 Y101.747 E8.51375
G1 X157.036 Y103.879 E8.77471
G1 X157.036 Y106.113 E9.03467
G1 X156.346 Y108.228 E9.29365
G1 X155.028 Y110.039 E9.55432
G1 X153.218 Y111.344 E9.81406
G1 X151.115 Y112.030 E10.07151
G1 X148.889 Y112.030 E10.33060
G1 X146.764 Y111.341 E10.59060
G1 X144.958 Y110.035 E10.85002
G1 X143.653 Y108.227 E11.10953
G1 X142.964 Y106.115 E11.36808
G1 X142.964 Y103.883 E11.62787
G1 X143.623 Y101.853 E11.87632
G1 X144.300 Y102.083 F7200.000
G1 X145.465 Y100.481 E12.10682 F540.000
G1 X146.935 Y99.409 E12.31861
G1 X147.093 Y99.297 E12.34121
G1 X148.999 Y98.672 E12.57469
G1 X151.001 Y98.672 E12.80764
G1 X152.903 Y99.300 E13.04078
G1 X154.523 Y100.476 E13.27369
G1 X155.700 Y102.080 E13.50534
G1 X156.322 Y103.993 E13.73949
G1 X156.322 Y105.999 E13.97292
G1 X155.702 Y107.900 E14.20561
G1 X154.519 Y109.526 E14.43964
G1 X152.894 Y110.698 E14.67294
G1 X151.001 Y111.316 E14.90469
G1 X149.002 Y111.316 E15.13732
G1 X147.091 Y110.697 E15.37113
G1 X145.470 Y109.523 E15.60402
G1 X144.297 Y107.899 E15.83719
G1 X143.678 Y106.001 E16.06962
G1 X143.678 Y103.996 E16.30295
G1 X144.266 Y102.184 E16.52461
G1 X144.942 Y102.414 F7200.000
G1 X145.980 Y100.990 E16.72975 F540.000
G1 X147.351 Y99.989 E16.92738
G1 X147.418 Y99.941 E16.93692
G1 X149.114 Y99.386 E17.14457
G1 X150.886 Y99.386 E17.35085
G1 X152.573 Y99.943 E17.55755
G1 X154.012 Y100.988 E17.76452
G1 X155.057 Y102.414 E17.97034
G1 X155.608 Y104.108 E18.17768
G1 X155.608 Y105.886 E18.38458
G1 X155.058 Y107.572 E18.59097
G1 X154.011 Y109.013 E18.79838
G1 X152.569 Y110.053 E19.00522
G1 X150.886 Y110.602 E19.21128
G1 X149.115 Y110.602 E19.41744
G1 X147.417 Y110.052 E19.62507
G1 X145.982 Y109.012 E19.83145
G1 X144.941 Y107.571 E20.03827
G1 X144.392 Y105.886 E20.24457
G1 X144.392 Y104.109 E20.45144
G1 X144.909 Y102.516 E20.64630
G1 X144.586 Y101.796 F7200.000
G1 X137.834 Y96.144 F7200.000
G1 X137.917 Y95.978 E20.66788 F1080.000
G1 X138.959 Y94.465 E20.88167
G1 X140.905 Y92.962 E21.16792
G1 X143.131 Y91.421 E21.48298
G1 X145.166 Y90.703 E21.73420
G1 X147.256 Y90.045 E21.98920
G1 X149.731 Y89.914 E22.27765
G1 X152.473 Y89.982 E22.59690
G1 X154.954 Y90.746 E22.89907
G1 X156.903 Y91.433 E23.13955
G1 X158.852 Y92.791 E23.41602
G1 X160.771 Y94.247 E23.69647
G1 X162.082 Y95.975 E23.94882
G1 X162.167 Y96.144 E23.97090
G1 X162.306 Y96.284 E23.99382
G1 X163.628 Y98.203 E24.26513
G1 X164.347 Y100.359 E24.52966
G1 X165.074 Y102.790 E24.82495
G1 X165.085 Y105.021 E25.08454
G1 X165.042 Y107.358 E25.35658
G1 X164.394 Y109.484 E25.61536
G1 X164.216 Y109.842 E25.66189
G1 X164.216 Y110.033 E25.68413
G1 X163.627 Y111.816 E25.90271
G1 X162.178 Y113.896 E26.19776
G1 X160.673 Y115.869 E26.48652
G1 X158.859 Y117.204 E26.74873
G1 X157.015 Y118.512 E27.01180
G1 X154.578 Y119.369 E27.31249
G1 X152.351 Y120.068 E27.58416
G1 X150.267 Y120.068 E27.82672
G1 X149.965 Y120.084 E27.86189
G1 X147.515 Y120.018 E28.14721
G1 X145.915 Y119.526 E28.34199
G1 X145.611 Y119.222 E28.39205
G1 X144.983 Y119.222 E28.46518
G1 X143.137 Y118.607 E28.69155
G1 X141.076 Y117.154 E28.98499
G1 X140.551 Y116.756 E29.06175
G1 X139.144 Y115.974 E29.24914
G1 X139.242 Y115.829 E29.26951
G1 X138.280 Y114.525 E29.45807
G1 X138.280 Y114.467 E29.46478
G1 X137.746 Y113.784 E29.56574
G1 X137.103 Y112.820 E29.70069
G1 X137.052 Y112.820 E29.70662
G1 X136.348 Y111.831 E29.84789
G1 X134.957 Y107.399 E30.38845
G1 X134.915 Y104.996 E30.66827
G1 X134.973 Y102.539 E30.95432
G1 X135.591 Y100.546 E31.19709
G1 X136.426 Y98.040 E31.50462
G1 X137.696 Y96.282 E31.75698
G1 X137.758 Y96.220 E31.76725
G1 X137.247 Y95.721 F7200.000
G1 X137.310 Y95.595 E31.78367 F1080.000
G1 X138.342 Y94.102 E31.99493
G1 X137.296 Y92.573 E32.21058
G1 X137.573 Y92.300 E32.25585
G1 X139.146 Y93.420 E32.48060
G1 X140.475 Y92.391 E32.67620
G1 X142.348 Y91.093 E32.94145
G1 X141.761 Y89.275 E33.16381
G1 X142.113 Y89.091 E33.21005
G1 X143.278 Y90.612 E33.43311
G1 X144.947 Y90.023 E33.63900
G1 X146.997 Y89.378 E33.88915
G1 X147.024 Y87.530 E34.10428
G1 X147.422 Y87.469 E34.15117
G1 X148.024 Y89.289 E34.37435
G1 X149.712 Y89.200 E34.57105
G1 X151.991 Y89.255 E34.83636
G1 X152.558 Y87.498 E35.05121
G1 X152.968 Y87.561 E35.09945
G1 X152.982 Y89.391 E35.31250
G1 X155.178 Y90.067 E35.57999
G1 X156.737 Y90.618 E35.77241
G1 X157.881 Y89.088 E35.99465
G1 X158.233 Y89.267 E36.04069
G1 X157.670 Y91.098 E36.26355
G1 X159.272 Y92.213 E36.49075
G1 X160.851 Y93.411 E36.72140
G1 X162.394 Y92.323 E36.94118
G1 X162.676 Y92.606 E36.98773
G1 X161.585 Y94.139 E37.20666
G1 X162.691 Y95.596 E37.41956
G1 X162.754 Y95.721 E37.43587
G1 X162.857 Y95.825 E37.45291
G1 X163.901 Y97.340 E37.66709
G1 X165.719 Y96.767 E37.88899
G1 X165.901 Y97.118 E37.93499
G1 X164.399 Y98.258 E38.15442
G1 X165.113 Y100.408 E38.41813
G1 X165.588 Y102.012 E38.61284
G1 X167.472 Y102.026 E38.83212
G1 X167.536 Y102.426 E38.87927
G1 X165.788 Y103.013 E39.09390
G1 X165.799 Y105.014 E39.32670
G1 X165.764 Y106.978 E39.55543
G1 X167.513 Y107.566 E39.77017
G1 X167.446 Y107.972 E39.81802
G1 X165.602 Y107.972 E40.03269
G1 X165.060 Y109.750 E40.24907
G1 X164.930 Y110.010 E40.28297
G1 X164.930 Y110.148 E40.29896
G1 X164.403 Y111.745 E40.49467
G1 X165.904 Y112.885 E40.71406
G1 X165.726 Y113.231 E40.75941
G1 X163.902 Y112.670 E40.98147
G1 X162.752 Y114.321 E41.21563
G1 X161.587 Y115.848 E41.43923
G1 X162.695 Y117.419 E41.66290
G1 X162.419 Y117.697 E41.70850
G1 X160.864 Y116.614 E41.92894
G1 X159.276 Y117.783 E42.15848
G1 X157.675 Y118.918 E42.38690
G1 X158.220 Y120.690 E42.60269
G1 X157.854 Y120.873 E42.65036
G1 X156.762 Y119.358 E42.86768
G1 X154.801 Y120.048 E43.10964
G1 X152.982 Y120.618 E43.33152
G1 X152.968 Y122.443 E43.54399
G1 X152.562 Y122.506 E43.59179
G1 X151.996 Y120.782 E43.80306
G1 X150.286 Y120.782 E44.00209
G1 X149.975 Y120.799 E44.03839
G1 X148.020 Y120.746 E44.26606
G1 X147.418 Y122.535 E44.48573
G1 X147.024 Y122.473 E44.53218
G1 X146.996 Y120.605 E44.74962
G1 X145.536 Y120.156 E44.92749
G1 X145.315 Y119.936 E44.96377
G1 X144.867 Y119.936 E45.01596
G1 X143.233 Y119.391 E45.21636
G1 X142.140 Y120.871 E45.43044
G1 X141.774 Y120.683 E45.47832
G1 X142.344 Y118.921 E45.69383
G1 X140.655 Y117.731 E45.93431
G1 X140.160 Y117.355 E46.00662
G1 X138.990 Y116.705 E46.16235
G1 X137.551 Y117.717 E46.36714
G1 X137.279 Y117.450 E46.41148
G1 X138.367 Y115.846 E46.63706
G1 X137.566 Y114.760 E46.79414
G1 X137.566 Y114.714 E46.79953
G1 X137.167 Y114.203 E46.87498
G1 X136.721 Y113.534 E46.96862
G1 X136.684 Y113.534 E46.97291
G1 X136.070 Y112.672 E47.09604
G1 X134.287 Y113.225 E47.31336
G1 X134.107 Y112.873 E47.35932
G1 X135.580 Y111.765 E47.57384
G1 X134.387 Y107.972 E48.03670
G1 X132.556 Y107.972 E48.24980
G1 X132.489 Y107.564 E48.29787
G1 X134.236 Y106.982 E48.51209
G1 X134.200 Y104.997 E48.74312
G1 X134.246 Y103.022 E48.97315
G1 X132.466 Y102.428 E49.19158
G1 X132.530 Y102.026 E49.23895
G1 X134.389 Y102.012 E49.45533
G1 X134.911 Y100.328 E49.66060
G1 X135.603 Y98.252 E49.91527
G1 X134.110 Y97.129 E50.13260
G1 X134.294 Y96.773 E50.17921
G1 X136.055 Y97.333 E50.39432
G1 X137.171 Y95.797 E50.61534
G1 X136.660 Y95.298 F7200.000
G1 X137.477 Y94.103 E50.78388 F1080.000
G1 X136.629 Y92.864 E50.95858
G1 X136.297 Y92.225 E51.04246
G1 X136.006 Y91.489 E51.13461
G1 X135.801 Y90.805 E51.21772
G1 X136.497 Y91.007 E51.30215
G1 X137.224 Y91.296 E51.39313
G1 X137.855 Y91.625 E51.47598
G1 X139.130 Y92.532 E51.65807
G1 X140.045 Y91.820 E51.79298
G1 X141.505 Y90.807 E51.99988
G1 X141.024 Y89.317 E52.18211
G1 X140.909 Y88.619 E52.26443
G1 X140.867 Y87.846 E52.35459
G1 X140.890 Y87.119 E52.43917
G1 X141.484 Y87.521 E52.52257
G1 X142.080 Y88.012 E52.61245
G1 X142.585 Y88.533 E52.69695
G1 X143.530 Y89.766 E52.87770
G1 X144.727 Y89.343 E53.02544
G1 X146.290 Y88.855 E53.21609
G1 X146.313 Y87.321 E53.39455
G1 X146.425 Y86.594 E53.48021
G1 X146.614 Y85.856 E53.56886
G1 X146.857 Y85.177 E53.65284
G1 X147.297 Y85.749 E53.73688
G1 X147.721 Y86.399 E53.82725
G1 X148.030 Y87.031 E53.90912
G1 X148.531 Y88.547 E54.09498
G1 X149.693 Y88.486 E54.23041
G1 X151.476 Y88.526 E54.43792
G1 X151.958 Y87.034 E54.62039
G1 X152.276 Y86.402 E54.70279
G1 X152.698 Y85.749 E54.79327
G1 X153.140 Y85.180 E54.87712
G1 X153.386 Y85.860 E54.96124
G1 X153.574 Y86.590 E55.04906
G1 X153.680 Y87.313 E55.13413
G1 X153.692 Y88.863 E55.31446
G1 X155.275 Y89.344 E55.50706
G1 X156.480 Y89.769 E55.65574
G1 X157.404 Y88.533 E55.83540
G1 X157.916 Y88.016 E55.92011
G1 X158.516 Y87.521 E56.01063
G1 X159.110 Y87.119 E56.09404
G1 X159.133 Y87.842 E56.17817
G1 X159.086 Y88.611 E56.26792
G1 X158.964 Y89.321 E56.35171
G1 X158.506 Y90.809 E56.53297
G1 X159.692 Y91.636 E56.70119
G1 X160.866 Y92.526 E56.87272
G1 X162.141 Y91.627 E57.05434
G1 X162.782 Y91.296 E57.13826
G1 X163.504 Y91.007 E57.22879
G1 X164.194 Y90.806 E57.31240
G1 X163.993 Y91.492 E57.39556
G1 X163.703 Y92.225 E57.48731
G1 X163.375 Y92.855 E57.57000
G1 X162.471 Y94.125 E57.75142
G1 X163.300 Y95.217 E57.91094
G1 X163.340 Y95.298 E57.92150
G1 X163.408 Y95.366 E57.93265
G1 X164.190 Y96.500 E58.09298
G1 X165.679 Y96.031 E58.27476
G1 X166.388 Y95.914 E58.35838
G1 X167.167 Y95.861 E58.44929
G1 X167.885 Y95.885 E58.53279
G1 X167.479 Y96.484 E58.61698
G1 X166.988 Y97.080 E58.70686
G1 X166.468 Y97.583 E58.79107
G1 X165.239 Y98.517 E58.97079
G1 X165.795 Y100.198 E59.17687
G1 X166.122 Y101.302 E59.31089
G1 X167.685 Y101.314 E59.49276
G1 X168.387 Y101.419 E59.57534
G1 X169.147 Y101.620 E59.66692
G1 X169.830 Y101.861 E59.75119
G1 X169.264 Y102.292 E59.83398
G1 X168.601 Y102.716 E59.92553
G1 X167.955 Y103.039 E60.00954
G1 X166.502 Y103.527 E60.18801
G1 X166.514 Y105.007 E60.36024
G1 X166.487 Y106.468 E60.53037
G1 X167.959 Y106.962 E60.71105
G1 X168.607 Y107.281 E60.79513
G1 X169.261 Y107.695 E60.88521
G1 X169.831 Y108.137 E60.96916
G1 X169.151 Y108.374 E61.05294
G1 X168.383 Y108.576 E61.14537
G1 X167.685 Y108.686 E61.22758
G1 X166.131 Y108.686 E61.40847
G1 X165.726 Y110.016 E61.57027
G1 X165.644 Y110.179 E61.59154
G1 X165.644 Y110.263 E61.60127
G1 X165.241 Y111.484 E61.75100
G1 X166.468 Y112.417 E61.93043
G1 X166.988 Y112.920 E62.01465
G1 X167.479 Y113.516 E62.10452
G1 X167.884 Y114.114 E62.18858
G1 X167.164 Y114.133 E62.27245
G1 X166.388 Y114.091 E62.36279
G1 X165.683 Y113.965 E62.44623
G1 X164.191 Y113.506 E62.62794
G1 X163.327 Y114.745 E62.80375
G1 X162.473 Y115.865 E62.96764
G1 X163.374 Y117.143 E63.14968
G1 X163.704 Y117.778 E63.23297
G1 X163.993 Y118.497 E63.32318
G1 X164.194 Y119.194 E63.40764
G1 X163.504 Y118.993 E63.49132
G1 X162.782 Y118.704 E63.58186
G1 X162.138 Y118.372 E63.66616
G1 X160.874 Y117.491 E63.84541
G1 X159.694 Y118.363 E64.01620
G1 X158.509 Y119.200 E64.18507
G1 X158.964 Y120.679 E64.36516
G1 X159.086 Y121.389 E64.44894
G1 X159.133 Y122.158 E64.53865
G1 X159.109 Y122.880 E64.62279
G1 X158.516 Y122.479 E64.70613
G1 X157.914 Y121.982 E64.79698
G1 X157.409 Y121.478 E64.88005
G1 X156.495 Y120.209 E65.06212
G1 X155.024 Y120.727 E65.24363
G1 X153.692 Y121.143 E65.40603
G1 X153.680 Y122.679 E65.58488
G1 X153.574 Y123.393 E65.66890
G1 X153.386 Y124.141 E65.75860
G1 X153.136 Y124.820 E65.84284
G1 X152.701 Y124.256 E65.92570
G1 X152.278 Y123.589 E66.01762
G1 X151.957 Y122.951 E66.10079
G1 X151.479 Y121.496 E66.27907
G1 X150.306 Y121.496 E66.41563
G1 X149.985 Y121.513 E66.45304
G1 X148.528 Y121.474 E66.62262
G1 X148.031 Y122.954 E66.80439
G1 X147.719 Y123.592 E66.88703
G1 X147.293 Y124.256 E66.97884
G1 X146.860 Y124.824 E67.06190
G1 X146.615 Y124.144 E67.14600
G1 X146.425 Y123.390 E67.23653
G1 X146.313 Y122.671 E67.32115
G1 X146.290 Y121.135 E67.49994
G1 X145.156 Y120.786 E67.63802
G1 X145.019 Y120.650 E67.66051
G1 X144.751 Y120.650 E67.69177
G1 X143.500 Y120.233 E67.84529
G1 X142.580 Y121.478 E68.02541
G1 X142.082 Y121.986 E68.10827
G1 X141.484 Y122.479 E68.19846
