; generated by Slic3r 1.0.0RC2 on 2014-05-19 at 15:24:59

; layer_height = 0.3
; perimeters = 2
; top_solid_layers = 3
; bottom_solid_layers = 3
; fill_density = 0.1
; perimeter_speed = 60
; infill_speed = 60
; travel_speed = 120
; nozzle_diameter = 0.4
; filament_diameter = 1.75
; extrusion_multiplier = 0.98
; perimeters extrusion width = 0.40mm
; infill extrusion width = 0.42mm
; solid infill extrusion width = 0.42mm
; top infill extrusion width = 0.42mm
; first layer extrusion width = 0.80mm

G21 ; set units to millimeters
M107
M104 S220 ; set temperature
G28 ; home all axes
M106 S255;
G1 Z200 F1200 ; lift nozzle
M109 S220 ; wait for temperature to be reached
G90 ; use absolute coordinates
G92 E0
M82 ; use absolute distances for extrusion
G1 F1800.000 E-1.00000
G92 E0
G1 Z0.400 F7200.000
G1 X117.127 Y68.866 F7200.000
G1 E1.00000 F1800.000
G1 X117.957 Y67.846 E1.15306 F1080.000
G1 X118.977 Y67.016 E1.30611
G1 X120.137 Y66.396 E1.45920
G1 X121.397 Y66.006 E1.61271
G1 X122.707 Y65.886 E1.76582
G1 X177.287 Y65.886 E8.11838
G1 X178.597 Y66.006 E8.27149
G1 X179.857 Y66.396 E8.42501
G1 X181.017 Y67.016 E8.57809
G1 X182.037 Y67.846 E8.73115
G1 X182.867 Y68.866 E8.88421
G1 X183.487 Y70.026 E9.03729
G1 X183.877 Y71.286 E9.19081
G1 X183.997 Y72.596 E9.34392
G1 X183.997 Y100.166 E12.55279
G1 X183.967 Y127.926 E15.78377
G1 X183.837 Y129.236 E15.93699
G1 X183.457 Y130.496 E16.09017
G1 X182.837 Y131.656 E16.24325
G1 X181.997 Y132.666 E16.39615
G1 X180.977 Y133.506 E16.54994
G1 X179.817 Y134.126 E16.70303
G1 X178.557 Y134.506 E16.85620
G1 X177.247 Y134.626 E17.00931
G1 X122.727 Y134.566 E23.35489
G1 X121.417 Y134.436 E23.50811
G1 X120.167 Y134.056 E23.66017
G1 X119.007 Y133.436 E23.81326
G1 X117.987 Y132.606 E23.96632
G1 X117.157 Y131.586 E24.11937
G1 X116.537 Y130.426 E24.27246
G1 X116.157 Y129.176 E24.42452
G1 X116.027 Y127.866 E24.57774
G1 X115.997 Y100.166 E27.80174
G1 X115.997 Y72.596 E31.01061
G1 X116.117 Y71.286 E31.16372
G1 X116.507 Y70.026 E31.31724
G1 X117.077 Y68.961 E31.45785
G1 F1800.000 E30.45785
G92 E0
G1 X123.822 Y73.711 F7200.000
G1 E1.00000 F1800.000
G1 X128.973 Y73.711 E1.59963 F1080.000
G1 X128.973 Y101.279 E4.80832
G1 X171.027 Y101.279 E9.70287
G1 X171.027 Y73.711 E12.91155
G1 X176.178 Y73.711 E13.51118
G1 X176.178 Y100.164 E16.59012
G1 X176.149 Y126.803 E19.69062
G1 X171.958 Y126.780 E20.17841
G1 X171.293 Y121.955 E20.74531
G1 X170.827 Y120.097 E20.96835
G1 X166.645 Y112.146 E22.01394
G1 X158.734 Y110.470 E22.95509
G1 X158.476 Y110.468 E22.98507
G1 X150.000 Y112.365 E23.99605
G1 X141.524 Y110.468 E25.00703
G1 X141.266 Y110.470 E25.03701
G1 X133.355 Y112.146 E25.97815
G1 X129.163 Y120.117 E27.02641
G1 X128.780 Y121.953 E27.24464
G1 X128.120 Y126.749 E27.80818
G1 X123.851 Y126.748 E28.30510
G1 X123.822 Y100.164 E31.39922
G1 X123.822 Y73.818 E34.46569
G1 X123.107 Y72.996 F7200.000
G1 X129.688 Y72.996 E35.23156 F756.000
G1 X129.688 Y100.565 E38.44025
G1 X170.312 Y100.565 E43.16856
G1 X170.312 Y72.996 E46.37724
G1 X176.893 Y72.996 E47.14311
G1 X176.893 Y100.165 E50.30522
G1 X176.862 Y127.521 E53.48925
G1 X171.335 Y127.491 E54.13258
G1 X170.591 Y122.092 E54.76693
G1 X170.155 Y120.354 E54.97554
G1 X166.169 Y112.775 E55.97217
G1 X158.656 Y111.184 E56.86599
G1 X158.552 Y111.183 E56.87807
G1 X150.000 Y113.097 E57.89806
G1 X141.448 Y111.183 E58.91806
G1 X141.344 Y111.184 E58.93014
G1 X133.831 Y112.775 E59.82396
G1 X129.841 Y120.361 E60.82155
G1 X129.484 Y122.075 E61.02528
G1 X128.743 Y127.464 E61.65842
G1 X123.137 Y127.462 E62.31083
G1 X123.107 Y100.165 E65.48801
G1 X123.107 Y73.103 E68.63764
G1 X123.726 Y73.353 F7200.000
G1 X128.492 Y74.656 F7200.000
G1 X128.028 Y74.192 E68.71412 F1080.000
G1 X127.015 Y74.192 E68.83230
G1 X128.492 Y75.669 E69.07592
G1 X128.492 Y76.681 E69.19410
G1 X126.003 Y74.192 E69.60486
G1 X124.990 Y74.192 E69.72304
G1 X128.492 Y77.694 E70.30094
G1 X128.492 Y78.707 E70.41912
G1 X124.304 Y74.519 E71.11033
G1 X124.304 Y75.531 E71.22852
G1 X128.492 Y79.719 E71.91973
G1 X128.492 Y80.732 E72.03791
G1 X124.304 Y76.544 E72.72912
G1 X124.304 Y77.557 E72.84731
G1 X128.492 Y81.745 E73.53851
G1 X128.492 Y82.757 E73.65670
G1 X124.304 Y78.569 E74.34791
G1 X124.304 Y79.582 E74.46609
G1 X128.492 Y83.770 E75.15730
G1 X128.492 Y84.783 E75.27549
G1 X124.304 Y80.595 E75.96670
G1 X124.304 Y81.607 E76.08488
G1 X128.492 Y85.795 E76.77609
G1 X128.492 Y86.808 E76.89428
G1 X124.304 Y82.620 E77.58549
G1 X124.304 Y83.633 E77.70367
G1 X128.492 Y87.821 E78.39488
G1 X128.492 Y88.834 E78.51307
G1 X124.304 Y84.646 E79.20428
G1 X124.304 Y85.658 E79.32246
G1 X128.492 Y89.846 E80.01367
G1 X128.492 Y90.859 E80.13186
G1 X124.304 Y86.671 E80.82307
G1 X124.304 Y87.684 E80.94125
G1 X128.492 Y91.872 E81.63246
G1 X128.492 Y92.884 E81.75065
G1 X124.304 Y88.696 E82.44185
G1 X124.304 Y89.709 E82.56004
G1 X128.492 Y93.897 E83.25125
G1 X128.492 Y94.910 E83.36943
G1 X124.304 Y90.722 E84.06064
G1 X124.304 Y91.734 E84.17883
G1 X128.492 Y95.922 E84.87004
G1 X128.492 Y96.935 E84.98822
G1 X124.304 Y92.747 E85.67943
G1 X124.304 Y93.760 E85.79762
G1 X128.492 Y97.948 E86.48883
G1 X128.492 Y98.961 E86.60701
G1 X124.304 Y94.773 E87.29822
G1 X124.304 Y95.785 E87.41641
G1 X128.492 Y99.973 E88.10761
G1 X128.492 Y100.986 E88.22580
G1 X124.304 Y96.798 E88.91701
G1 X124.304 Y97.811 E89.03519
G1 X137.309 Y110.816 E91.18164
G1 X136.473 Y110.993 E91.28132
G1 X124.304 Y98.823 E93.28985
G1 X124.304 Y99.836 E93.40803
G1 X135.637 Y111.170 E95.27863
G1 X134.802 Y111.347 E95.37832
G1 X124.304 Y100.849 E97.11088
G1 X124.305 Y101.863 E97.22919
G1 X133.966 Y111.524 E98.82364
G1 X133.130 Y111.701 E98.92333
G1 X124.306 Y102.877 E100.37968
G1 X124.308 Y103.891 E100.49799
G1 X132.725 Y112.309 E101.88730
G1 X132.376 Y112.972 E101.97480
G1 X124.309 Y104.905 E103.30631
G1 X124.310 Y105.919 E103.42463
G1 X132.027 Y113.636 E104.69834
G1 X131.678 Y114.300 E104.78585
G1 X124.311 Y106.932 E106.00177
G1 X124.312 Y107.946 E106.12009
G1 X131.329 Y114.963 E107.27821
G1 X130.980 Y115.627 E107.36572
G1 X124.313 Y108.960 E108.46605
G1 X124.314 Y109.974 E108.58437
G1 X130.631 Y116.290 E109.62690
G1 X130.282 Y116.954 E109.71441
G1 X124.315 Y110.988 E110.69915
G1 X124.317 Y112.001 E110.81747
G1 X129.933 Y117.618 E111.74441
G1 X129.584 Y118.281 E111.83192
G1 X124.318 Y113.015 E112.70107
G1 X124.319 Y114.029 E112.81939
G1 X129.235 Y118.945 E113.63074
G1 X128.886 Y119.609 E113.71825
G1 X124.320 Y115.043 E114.47181
G1 X124.321 Y116.057 E114.59013
G1 X128.621 Y120.356 E115.29975
G1 X128.446 Y121.194 E115.39965
G1 X124.322 Y117.070 E116.08024
G1 X124.323 Y118.084 E116.19856
G1 X128.281 Y122.042 E116.85180
G1 X128.159 Y122.932 E116.95667
G1 X124.324 Y119.098 E117.58952
G1 X124.325 Y120.112 E117.70783
G1 X128.036 Y123.823 E118.32028
G1 X127.914 Y124.713 E118.42515
G1 X124.327 Y121.126 E119.01721
G1 X124.328 Y122.140 E119.13553
G1 X127.791 Y125.603 E119.70719
G1 X127.443 Y126.267 E119.79471
G1 X124.329 Y123.153 E120.30863
G1 X124.330 Y124.167 E120.42695
G1 X126.430 Y126.267 E120.77351
G1 X125.417 Y126.267 E120.89172
G1 X124.331 Y125.181 E121.07091
G1 X124.332 Y126.195 E121.18923
G1 X124.404 Y126.266 E121.20105
G1 X129.267 Y101.761 F7200.000
G1 X138.144 Y110.639 E122.66630 F1080.000
G1 X138.980 Y110.462 E122.76599
G1 X130.279 Y101.761 E124.20203
G1 X131.292 Y101.761 E124.32021
G1 X139.816 Y110.285 E125.72703
G1 X140.651 Y110.108 E125.82671
G1 X132.305 Y101.761 E127.20431
G1 X133.317 Y101.761 E127.32250
G1 X141.542 Y109.986 E128.67992
G1 X142.837 Y110.268 E128.83460
G1 X134.330 Y101.761 E130.23861
G1 X135.343 Y101.761 E130.35680
G1 X144.142 Y110.560 E131.80902
G1 X145.446 Y110.852 E131.96506
G1 X136.355 Y101.761 E133.46548
G1 X137.368 Y101.761 E133.58367
G1 X146.751 Y111.144 E135.13229
G1 X148.056 Y111.436 E135.28833
G1 X138.381 Y101.761 E136.88517
G1 X139.393 Y101.761 E137.00335
G1 X149.361 Y111.728 E138.64839
G1 X150.422 Y111.777 E138.77238
G1 X140.406 Y101.761 E140.42544
G1 X141.419 Y101.761 E140.54362
G1 X151.250 Y111.592 E142.16611
G1 X152.077 Y111.406 E142.26507
G1 X142.432 Y101.761 E143.85699
G1 X143.444 Y101.761 E143.97518
G1 X152.904 Y111.221 E145.53652
G1 X153.732 Y111.036 E145.63548
G1 X144.457 Y101.761 E147.16626
G1 X145.470 Y101.761 E147.28445
G1 X154.559 Y110.851 E148.78465
G1 X155.387 Y110.665 E148.88361
G1 X146.482 Y101.761 E150.35325
G1 X147.495 Y101.761 E150.47143
G1 X156.214 Y110.480 E151.91050
G1 X157.042 Y110.295 E152.00946
G1 X148.508 Y101.761 E153.41795
G1 X149.520 Y101.761 E153.53614
G1 X157.869 Y110.110 E154.91406
G1 X158.761 Y109.988 E155.01905
G1 X150.533 Y101.761 E156.37696
G1 X151.546 Y101.761 E156.49515
G1 X160.039 Y110.254 E157.89688
G1 X161.324 Y110.526 E158.05016
G1 X152.559 Y101.761 E159.49682
G1 X153.571 Y101.761 E159.61501
G1 X162.609 Y110.798 E161.10659
G1 X163.894 Y111.071 E161.25987
G1 X154.584 Y101.761 E162.79639
G1 X155.597 Y101.761 E162.91457
G1 X165.179 Y111.343 E164.49601
G1 X166.463 Y111.615 E164.64929
G1 X156.609 Y101.761 E166.27566
G1 X157.622 Y101.761 E166.39384
G1 X175.675 Y119.814 E169.37335
G1 X175.676 Y118.802 E169.49141
G1 X158.635 Y101.761 E172.30397
G1 X159.647 Y101.761 E172.42215
G1 X175.677 Y117.791 E175.06775
G1 X175.678 Y116.779 E175.18581
G1 X160.660 Y101.761 E177.66445
G1 X161.673 Y101.761 E177.78264
G1 X175.679 Y115.767 E180.09433
G1 X175.680 Y114.756 E180.21239
G1 X162.685 Y101.761 E182.35712
G1 X163.698 Y101.761 E182.47530
G1 X175.682 Y113.744 E184.45308
G1 X175.683 Y112.733 E184.57114
G1 X164.711 Y101.761 E186.38196
G1 X165.724 Y101.761 E186.50015
G1 X175.684 Y111.721 E188.14401
G1 X175.685 Y110.709 E188.26207
G1 X166.736 Y101.761 E189.73898
G1 X167.749 Y101.761 E189.85717
G1 X175.686 Y109.698 E191.16712
G1 X175.687 Y108.686 E191.28518
G1 X168.762 Y101.761 E192.42818
G1 X169.774 Y101.761 E192.54636
G1 X175.688 Y107.675 E193.52241
G1 X175.689 Y106.663 E193.64046
G1 X170.787 Y101.761 E194.44955
G1 X171.508 Y101.470 E194.54035
G1 X175.690 Y105.652 E195.23056
G1 X175.692 Y104.640 E195.34861
G1 X171.508 Y100.457 E196.03901
G1 X171.508 Y99.444 E196.15719
G1 X175.693 Y103.628 E196.84777
G1 X175.694 Y102.617 E196.96583
G1 X171.508 Y98.432 E197.65659
G1 X171.508 Y97.419 E197.77477
G1 X175.695 Y101.605 E198.46572
G1 X175.696 Y100.594 E198.58378
G1 X171.508 Y96.406 E199.27491
G1 X171.508 Y95.393 E199.39309
G1 X175.696 Y99.581 E200.08430
G1 X175.696 Y98.569 E200.20248
G1 X171.508 Y94.381 E200.89369
G1 X171.508 Y93.368 E201.01188
G1 X175.696 Y97.556 E201.70309
G1 X175.696 Y96.543 E201.82127
G1 X171.508 Y92.355 E202.51248
G1 X171.508 Y91.343 E202.63066
G1 X175.696 Y95.531 E203.32187
G1 X175.696 Y94.518 E203.44006
G1 X171.508 Y90.330 E204.13126
G1 X171.508 Y89.317 E204.24945
G1 X175.696 Y93.505 E204.94066
G1 X175.696 Y92.493 E205.05884
G1 X171.508 Y88.305 E205.75005
G1 X171.508 Y87.292 E205.86824
G1 X175.696 Y91.480 E206.55944
G1 X175.696 Y90.467 E206.67763
G1 X171.508 Y86.279 E207.36884
G1 X171.508 Y85.266 E207.48702
G1 X175.696 Y89.454 E208.17823
G1 X175.696 Y88.442 E208.29642
G1 X171.508 Y84.254 E208.98762
G1 X171.508 Y83.241 E209.10581
G1 X175.696 Y87.429 E209.79702
G1 X175.696 Y86.416 E209.91520
G1 X171.508 Y82.228 E210.60641
G1 X171.508 Y81.216 E210.72460
G1 X175.696 Y85.404 E211.41580
G1 X175.696 Y84.391 E211.53399
G1 X171.508 Y80.203 E212.22520
G1 X171.508 Y79.190 E212.34338
G1 X175.696 Y83.378 E213.03459
G1 X175.696 Y82.366 E213.15278
G1 X171.508 Y78.178 E213.84398
G1 X171.508 Y77.165 E213.96217
G1 X175.696 Y81.353 E214.65338
G1 X175.696 Y80.340 E214.77156
G1 X171.508 Y76.152 E215.46277
G1 X171.508 Y75.139 E215.58095
G1 X175.696 Y79.328 E216.27216
G1 X175.696 Y78.315 E216.39035
G1 X171.574 Y74.192 E217.07072
G1 X172.587 Y74.192 E217.18890
G1 X175.696 Y77.302 E217.70213
G1 X175.696 Y76.289 E217.82032
G1 X173.600 Y74.192 E218.16641
G1 X174.612 Y74.192 E218.28460
G1 X175.696 Y75.277 E218.46355
G1 X175.696 Y74.264 E218.58173
G1 X175.625 Y74.192 E218.59354
G1 X167.405 Y112.557 F7200.000
G1 X175.674 Y120.825 E219.95825 F1080.000
G1 X175.673 Y121.837 E220.07631
G1 X168.529 Y114.693 E221.25536
G1 X169.652 Y116.829 F7200.000
G1 X175.672 Y122.848 E222.24877 F1080.000
G1 X175.670 Y123.860 E222.36683
G1 X170.776 Y118.966 E223.17458
G1 X171.467 Y120.670 F7200.000
G1 X175.669 Y124.872 E223.86809 F1080.000
G1 X175.668 Y125.883 E223.98615
G1 X171.786 Y122.001 E224.62685
G1 X171.948 Y123.176 E224.76522
G1 X175.088 Y126.315 E225.28340
G1 X174.069 Y126.310 E225.40223
G1 X172.110 Y124.350 E225.72566
G1 X172.272 Y125.525 E225.86403
G1 X173.051 Y126.304 E225.99270
M106 S106
G1 F1800.000 E224.99270
G92 E0
G1 Z0.700 F7200.000
G1 X171.518 Y127.383 F7200.000
G1 E1.00000 F1800.000
G1 X170.779 Y122.018 E1.26480 F3600
G1 X170.343 Y120.282 E1.35232
G1 X166.302 Y112.599 E1.77674
G1 X158.678 Y110.984 E2.15777
G1 X158.322 Y110.980 E2.17516
G1 X150.000 Y112.843 E2.59211
G1 X141.678 Y110.980 E3.00907
G1 X141.322 Y110.984 E3.02646
G1 X133.698 Y112.599 E3.40749
G1 X129.651 Y120.293 E3.83251
G1 X129.294 Y122.005 E3.91803
G1 X128.558 Y127.355 E4.18208
G1 X123.337 Y127.354 E4.43735
G1 X123.307 Y100.164 E5.76671
G1 X123.307 Y73.196 E7.08524
G1 X129.488 Y73.196 E7.38741
G1 X129.488 Y100.765 E8.73530
G1 X170.512 Y100.765 E10.74109
G1 X170.512 Y73.196 E12.08898
G1 X176.693 Y73.196 E12.39115
G1 X176.693 Y100.164 E13.70968
G1 X176.663 Y127.411 E15.04182
G1 X171.578 Y127.383 E15.29041
G1 X171.169 Y127.781 F7200.000
G1 X170.386 Y122.094 E15.57109 F2520
G1 X169.967 Y120.426 E15.65521
G1 X166.035 Y112.951 E16.06811
G1 X158.634 Y111.383 E16.43801
G1 X158.364 Y111.381 E16.45118
G1 X150.000 Y113.253 E16.87026
G1 X141.636 Y111.381 E17.28933
G1 X141.366 Y111.383 E17.30251
G1 X133.965 Y112.951 E17.67241
G1 X130.032 Y120.429 E18.08551
G1 X129.689 Y122.073 E18.16762
G1 X128.907 Y127.755 E18.44804
G1 X122.938 Y127.754 E18.73990
G1 X122.907 Y100.165 E20.08880
G1 X122.907 Y72.796 E21.42690
G1 X129.888 Y72.796 E21.76818
G1 X129.888 Y100.365 E23.11607
G1 X170.112 Y100.365 E25.08275
G1 X170.112 Y72.796 E26.43064
G1 X177.093 Y72.796 E26.77192
G1 X177.093 Y100.165 E28.11002
G1 X177.062 Y127.813 E29.46182
G1 X171.229 Y127.781 E29.74700
G1 X171.338 Y127.418 F7200.000
G1 X176.390 Y127.094 F7200.000
G1 X176.348 Y127.136 E29.75005 F3600
G1 X175.757 Y127.133 E29.78042
G1 X176.390 Y126.499 E29.82646
G1 X176.391 Y125.904 E29.85703
G1 X175.166 Y127.130 E29.94607
G1 X174.574 Y127.126 E29.97644
G1 X176.392 Y125.309 E30.10847
G1 X176.392 Y124.714 E30.13904
G1 X173.983 Y127.123 E30.31407
G1 X173.392 Y127.120 E30.34444
G1 X176.393 Y124.119 E30.56247
G1 X176.394 Y123.524 E30.59304
G1 X172.801 Y127.117 E30.85406
G1 X172.210 Y127.114 E30.88443
G1 X176.394 Y122.929 E31.18845
G1 X176.395 Y122.334 E31.21902
G1 X171.740 Y126.989 E31.55722
G1 X171.668 Y126.467 E31.58431
G1 X176.396 Y121.739 E31.92779
G1 X176.396 Y121.144 E31.95836
G1 X171.596 Y125.944 E32.30711
G1 X171.524 Y125.422 E32.33420
G1 X176.397 Y120.549 E32.68824
G1 X176.398 Y119.954 E32.71881
G1 X171.452 Y124.900 E33.07812
G1 X171.380 Y124.377 E33.10521
G1 X176.398 Y119.359 E33.46980
G1 X176.399 Y118.764 E33.50037
G1 X171.308 Y123.855 E33.87023
G1 X171.236 Y123.332 E33.89732
G1 X176.400 Y118.169 E34.27247
G1 X176.400 Y117.574 E34.30304
G1 X171.164 Y122.810 E34.68346
G1 X171.092 Y122.288 E34.71055
G1 X176.401 Y116.979 E35.09625
G1 X176.402 Y116.384 E35.12682
G1 X171.002 Y121.783 E35.51912
G1 X170.882 Y121.308 E35.54428
G1 X176.402 Y115.789 E35.94530
G1 X176.403 Y115.194 E35.97586
G1 X170.763 Y120.833 E36.38560
G1 X170.644 Y120.358 E36.41076
G1 X176.404 Y114.599 E36.82920
G1 X176.404 Y114.004 E36.85977
G1 X170.470 Y119.937 E37.29086
G1 X170.266 Y119.548 E37.31347
G1 X176.405 Y113.409 E37.75949
G1 X176.405 Y112.813 E37.79006
G1 X170.061 Y119.158 E38.25101
G1 X169.856 Y118.769 E38.27362
G1 X176.406 Y112.218 E38.74951
G1 X176.407 Y111.623 E38.78007
G1 X169.651 Y118.379 E39.27089
G1 X169.446 Y117.990 E39.29350
G1 X176.407 Y111.028 E39.79925
G1 X176.408 Y110.433 E39.82981
G1 X169.241 Y117.600 E40.35049
G1 X169.036 Y117.211 E40.37310
G1 X176.409 Y109.838 E40.90871
G1 X176.409 Y109.243 E40.93928
G1 X168.831 Y116.821 E41.48982
G1 X168.627 Y116.432 E41.51242
G1 X176.410 Y108.648 E42.07790
G1 X176.411 Y108.053 E42.10846
G1 X168.422 Y116.042 E42.68887
