; generated by Slic3r 1.0.0RC2 on 2014-05-19 at 17:50:44

; layer_height = 0.3
; perimeters = 2
; top_solid_layers = 3
; bottom_solid_layers = 3
; fill_density = 0.1
; perimeter_speed = 60
; infill_speed = 60
; travel_speed = 120
; nozzle_diameter = 0.4
; filament_diameter = 1.75
; extrusion_multiplier = 0.98
; perimeters extrusion width = 0.40mm
; infill extrusion width = 0.42mm
; solid infill extrusion width = 0.42mm
; top infill extrusion width = 0.42mm
; first layer extrusion width = 0.80mm

G21 ; set units to millimeters
M107
M104 S220 ; set temperature
G28 ; home all axes
M106 S255;
G1 Z200 F1200 ; lift nozzle
M109 S220 ; wait for temperature to be reached
G90 ; use absolute coordinates
G92 E0
M82 ; use absolute distances for extrusion
G1 F1800.000 E-1.00000
G92 E0
G1 Z0.400 F7200.000
G1 X135.218 Y95.771 F7200.000
G1 E1.00000 F1800.000
G1 X136.058 Y94.791 E1.15023 F1080.000
G1 X140.078 Y90.931 E1.79889
G1 X141.558 Y89.851 E2.01213
G1 X142.998 Y89.321 E2.19072
G1 X142.988 Y89.291 E2.19440
G1 X148.168 Y87.821 E2.82111
G1 X149.998 Y87.571 E3.03608
G1 X151.828 Y87.821 E3.25105
G1 X157.088 Y89.311 E3.88735
G1 X158.598 Y89.951 E4.07824
G1 X159.908 Y90.931 E4.26865
G1 X163.928 Y94.791 E4.91731
G1 X164.768 Y95.761 E5.06666
G1 X165.408 Y96.881 E5.21679
G1 X165.818 Y98.111 E5.36770
G1 X167.068 Y103.471 E6.00829
G1 X167.238 Y104.991 E6.18630
G1 X167.068 Y106.511 E6.36432
G1 X165.818 Y111.871 E7.00491
G1 X165.408 Y113.101 E7.15581
G1 X164.768 Y114.221 E7.30595
G1 X163.928 Y115.191 E7.45530
G1 X159.908 Y119.051 E8.10395
G1 X158.598 Y120.031 E8.29437
G1 X157.098 Y120.671 E8.48418
G1 X151.838 Y122.171 E9.12080
G1 X149.998 Y122.421 E9.33692
G1 X148.158 Y122.171 E9.55305
G1 X142.888 Y120.671 E10.19078
G1 X141.388 Y120.031 E10.38060
G1 X140.078 Y119.051 E10.57101
G1 X136.058 Y115.191 E11.21967
G1 X135.218 Y114.211 E11.36990
G1 X134.578 Y113.091 E11.52004
G1 X134.168 Y111.861 E11.67094
G1 X132.928 Y106.501 E12.31127
G1 X132.758 Y104.991 E12.48812
G1 X132.928 Y103.481 E12.66498
G1 X134.168 Y98.121 E13.30531
G1 X134.578 Y96.891 E13.45621
G1 X135.165 Y95.864 E13.59388
G1 F1800.000 E12.59388
G92 E0
G1 X145.081 Y98.544 F7200.000
G1 E1.00000 F1800.000
G1 X145.832 Y98.275 E1.09283 F756.000
G1 X150.409 Y96.889 E1.64951
G1 X150.954 Y98.411 E1.83766
G1 X151.439 Y100.006 E2.03174
G1 X151.932 Y100.159 E2.09184
G1 X152.721 Y100.558 E2.19481
G1 X153.340 Y101.019 E2.28459
G1 X156.417 Y100.087 E2.65877
G1 X156.686 Y100.839 E2.75178
G1 X158.083 Y105.437 E3.31107
G1 X156.566 Y105.980 E3.49855
G1 X154.982 Y106.460 E3.69119
G1 X154.908 Y106.747 E3.72572
G1 X154.546 Y107.553 E3.82852
G1 X153.985 Y108.388 E3.94563
G1 X154.917 Y111.456 E4.31891
G1 X154.166 Y111.725 E4.41174
G1 X149.589 Y113.111 E4.96843
G1 X149.044 Y111.590 E5.15656
G1 X148.568 Y110.025 E5.34687
G1 X147.663 Y109.659 E5.46060
G1 X146.911 Y109.193 E5.56356
G1 X146.668 Y108.978 E5.60131
G1 X143.581 Y109.913 E5.97668
G1 X143.312 Y109.161 E6.06969
G1 X141.915 Y104.563 E6.62898
G1 X143.432 Y104.020 E6.81647
G1 X145.008 Y103.543 E7.00812
G1 X145.253 Y102.842 E7.09457
G1 X145.682 Y102.070 E7.19735
G1 X146.023 Y101.646 E7.26070
G1 X145.112 Y98.646 E7.62556
G1 X144.851 Y97.868 F7200.000
G1 F1800.000 E6.62556
G92 E0
G1 X146.496 Y109.776 F7200.000
G1 E1.00000 F1800.000
G1 X147.338 Y110.298 E1.11528 F540.000
G1 X147.984 Y110.559 E1.19639
G1 X148.366 Y111.814 E1.34901
G1 X149.145 Y113.992 E1.61827
G1 X154.390 Y112.403 E2.25611
G1 X155.480 Y112.013 E2.39084
G1 X155.657 Y112.299 E2.42990
G1 X154.694 Y113.224 E2.58528
G1 X150.000 Y114.560 E3.15334
G1 X145.306 Y113.224 E3.72141
G1 X142.863 Y110.877 E4.11566
G1 X146.394 Y109.807 E4.54501
G1 X143.101 Y110.690 F7200.000
G1 X142.843 Y110.857 E4.58074 F540.000
G1 X141.727 Y109.785 E4.76080
G1 X140.562 Y104.786 E5.35822
G1 X141.185 Y104.619 E5.43335
G1 X142.633 Y109.385 E6.01312
G1 X143.064 Y110.589 E6.16197
G1 X140.797 Y104.204 F7200.000
G1 X141.727 Y100.215 E6.63869 F540.000
G1 X144.138 Y97.898 E7.02785
G1 X145.230 Y101.492 E7.46503
G1 X145.087 Y101.670 E7.49158
G1 X144.600 Y102.549 E7.60852
G1 X144.454 Y102.965 E7.65983
G1 X143.208 Y103.342 E7.81135
G1 X140.898 Y104.168 E8.09682
G1 X144.521 Y97.986 F7200.000
G1 X144.344 Y97.700 E8.13587 F540.000
G1 X145.306 Y96.776 E8.29109
G1 X150.000 Y95.440 E8.85916
G1 X154.694 Y96.776 E9.42722
G1 X157.136 Y99.123 E9.82142
G1 X153.478 Y100.231 E10.26633
G1 X153.099 Y99.949 E10.32134
G1 X152.201 Y99.495 E10.43847
G1 X152.012 Y99.436 E10.46147
G1 X151.632 Y98.186 E10.61348
G1 X150.853 Y96.008 E10.88276
G1 X145.608 Y97.597 E11.52059
G1 X144.622 Y97.950 E11.64247
G1 X150.782 Y96.149 F7200.000
G1 X156.896 Y99.307 F7200.000
G1 X157.154 Y99.140 E11.67820 F540.000
G1 X158.273 Y100.215 E11.85883
G1 X159.445 Y105.246 E12.46009
G1 X158.822 Y105.413 E12.53521
G1 X157.364 Y100.615 E13.11887
G1 X156.932 Y99.407 E13.26817
G1 X159.203 Y105.795 F7200.000
G1 X158.273 Y109.785 E13.74496 F540.000
G1 X155.860 Y112.103 E14.13441
G1 X154.767 Y108.505 E14.57217
G1 X155.173 Y107.901 E14.65687
G1 X155.564 Y107.030 E14.76800
G1 X156.790 Y106.658 E14.91712
G1 X159.102 Y105.831 E15.20287
G1 X160.121 Y105.000 F7200.000
G1 X158.920 Y110.153 E15.81873 F756.000
G1 X155.061 Y113.862 E16.44171
G1 X150.000 Y115.303 E17.05414
G1 X144.939 Y113.862 E17.66657
G1 X141.080 Y110.153 E18.28955
G1 X139.879 Y105.000 E18.90540
G1 X141.080 Y99.847 E19.52126
G1 X144.939 Y96.138 E20.14424
G1 X150.000 Y94.697 E20.75667
G1 X155.061 Y96.138 E21.36910
G1 X158.920 Y99.847 E21.99208
G1 X160.097 Y104.896 E22.59547
G1 X159.477 Y105.309 F7200.000
G1 F1800.000 E21.59547
G92 E0
G1 X147.629 Y111.015 F7200.000
G1 E1.00000 F1800.000
G1 X147.478 Y110.864 E1.03177 F1080.000
G1 X145.804 Y110.479 E1.28725
G1 X148.269 Y112.945 E1.80562
G1 X147.348 Y113.314 E1.95310
G1 X144.813 Y110.779 E2.48618
G1 X143.860 Y111.116 E2.63655
G1 X145.479 Y112.735 E2.97710
G1 F1800.000 E1.97710
G92 E0
G1 X149.886 Y114.647 F7200.000
G1 X149.551 Y117.670 F7200.000
G1 X140.878 Y113.287 F7200.000
G1 X137.573 Y104.318 F7200.000
G1 X141.888 Y95.742 F7200.000
G1 X141.771 Y100.014 F7200.000
G1 X145.284 Y101.279 F7200.000
G1 X141.549 Y103.429 F7200.000
G1 E1.00000 F1800.000
G1 X141.483 Y103.363 E1.01235 F1080.000
G1 X142.398 Y103.125 E1.13773
G1 X141.701 Y102.429 E1.26847
G1 X141.919 Y101.495 E1.39578
G1 X143.254 Y102.830 E1.64639
G1 X144.087 Y102.511 E1.76478
G1 X142.137 Y100.561 E2.13086
G1 X142.703 Y99.975 E2.23899
G1 X144.490 Y101.762 E2.57445
G1 X144.452 Y100.572 E2.73252
G1 X143.279 Y99.400 E2.95266
G1 X143.859 Y98.828 E3.06078
G1 X143.949 Y98.918 E3.07766
G1 F1800.000 E2.07766
G92 E0
G1 X145.284 Y101.279 F7200.000
G1 X141.771 Y100.014 F7200.000
G1 X141.888 Y95.742 F7200.000
G1 X150.000 Y92.202 F7200.000
G1 X150.000 Y95.321 F7200.000
G1 X150.782 Y96.149 F7200.000
G1 X152.533 Y99.133 F7200.000
G1 E1.00000 F1800.000
G1 X152.362 Y98.962 E1.03589 F1080.000
G1 X154.203 Y99.518 E1.32088
G1 X151.723 Y97.038 E1.84056
G1 X152.658 Y96.688 E1.98855
G1 X155.190 Y99.219 E2.51892
G1 X156.140 Y98.884 E2.66820
G1 X154.526 Y97.270 E3.00628
G1 F1800.000 E2.00628
G92 E0
G1 X151.539 Y98.271 F7200.000
G1 X148.885 Y99.858 F7200.000
G1 X151.630 Y108.892 F7200.000
G1 X155.041 Y109.800 F7200.000
G1 X158.517 Y106.636 F7200.000
G1 E1.00000 F1800.000
G1 X158.451 Y106.571 E1.01236 F1080.000
G1 X157.602 Y106.874 E1.13211
G1 X158.299 Y107.571 E1.26301
G1 X158.081 Y108.506 E1.39048
G1 X156.745 Y107.170 E1.64139
G1 X155.909 Y107.487 E1.76010
G1 X157.863 Y109.441 E2.12708
G1 X157.296 Y110.026 E2.23533
G1 X155.516 Y108.246 E2.56968
G1 X155.546 Y109.428 E2.72684
G1 X156.719 Y110.602 E2.94726
G1 X156.049 Y111.084 E3.05694
G1 X156.139 Y111.174 E3.07384
M106 S255
G1 F1800.000 E2.07384
G92 E0
G1 Z0.700 F7200.000
G1 X154.975 Y111.733 F7200.000
G1 E1.00000 F1800.000
G1 X151.966 Y112.644 E1.15375 F1205.957
G1 X149.223 Y113.329 E1.29195
G1 X148.245 Y110.110 E1.45644
G1 X147.572 Y109.838 E1.49197
G1 X146.791 Y109.354 E1.53688
G1 X146.566 Y109.155 E1.55156
G1 X143.305 Y109.970 E1.71590
G1 X142.387 Y106.950 E1.87022
G1 X141.696 Y104.197 E2.00901
G1 X144.908 Y103.224 E2.17309
G1 X145.070 Y102.760 E2.19712
G1 X145.515 Y101.958 E2.24196
G1 X145.846 Y101.547 E2.26776
G1 X145.023 Y98.268 E2.43306
G1 X148.032 Y97.356 E2.58681
G1 X150.775 Y96.671 E2.72501
G1 X151.754 Y99.894 E2.88973
G1 X152.007 Y99.973 E2.90270
G1 X152.827 Y100.388 E2.94762
G1 X153.439 Y100.843 E2.98492
G1 X156.693 Y100.030 E3.14891
G1 X157.610 Y103.050 E3.30323
G1 X158.302 Y105.804 E3.44202
G1 X155.118 Y106.768 E3.60469
G1 X154.722 Y107.650 E3.65196
G1 X154.160 Y108.486 E3.70120
G1 X154.961 Y111.674 E3.86193
G1 X154.494 Y111.460 F7200.000
G1 X151.859 Y112.258 E3.99656 F844.170
G1 X149.495 Y112.849 E4.11568
G1 X148.573 Y109.811 E4.27092
G1 X147.754 Y109.480 E4.31411
G1 X147.030 Y109.032 E4.35570
G1 X146.673 Y108.716 E4.37901
G1 X143.577 Y109.489 E4.53504
G1 X142.773 Y106.843 E4.67028
G1 X142.177 Y104.469 E4.78995
G1 X145.218 Y103.548 E4.94531
G1 X145.437 Y102.924 E4.97761
G1 X145.849 Y102.182 E5.01912
G1 X146.283 Y101.642 E5.05298
G1 X145.503 Y98.540 E5.20937
G1 X148.139 Y97.742 E5.34400
G1 X150.502 Y97.151 E5.46312
G1 X151.433 Y100.214 E5.61961
G1 X151.857 Y100.345 E5.64131
G1 X152.616 Y100.729 E5.68290
G1 X153.352 Y101.277 E5.72778
G1 X156.421 Y100.511 E5.88244
G1 X157.225 Y103.157 E6.01768
G1 X157.821 Y105.531 E6.13735
G1 X154.777 Y106.453 E6.29285
G1 X154.719 Y106.680 E6.30432
G1 X154.371 Y107.455 E6.34584
G1 X153.897 Y108.160 E6.38739
G1 X153.714 Y108.352 E6.40033
G1 X154.480 Y111.402 E6.55410
G1 X154.604 Y111.845 F7200.000
G1 X155.032 Y113.612 F7200.000
G1 X154.958 Y113.683 E6.55909 F1205.957
G1 X150.000 Y115.095 E6.81114
G1 X145.042 Y113.683 E7.06319
G1 X141.261 Y110.050 E7.31955
G1 X140.084 Y105.000 E7.57308
G1 X141.261 Y99.950 E7.82661
G1 X145.042 Y96.317 E8.08297
G1 X150.000 Y94.905 E8.33502
G1 X154.958 Y96.317 E8.58707
G1 X158.739 Y99.950 E8.84343
G1 X159.916 Y105.000 E9.09696
G1 X158.739 Y110.050 E9.35049
G1 X155.075 Y113.571 E9.59892
G1 X155.309 Y113.901 F7200.000
G1 X155.163 Y114.041 E9.60879 F844.170
G1 X150.000 Y115.511 E9.87127
G1 X144.837 Y114.041 E10.13376
G1 X140.899 Y110.256 E10.40079
G1 X139.673 Y105.000 E10.66467
G1 X140.899 Y99.744 E10.92855
G1 X144.837 Y95.959 E11.19559
G1 X150.000 Y94.489 E11.45807
G1 X155.163 Y95.959 E11.72056
G1 X159.101 Y99.744 E11.98759
G1 X160.327 Y105.000 E12.25147
G1 X159.101 Y110.256 E12.51535
G1 X155.352 Y113.859 E12.76959
G1 X155.115 Y113.845 F7200.000
G1 X152.484 Y114.104 F7200.000
G1 X154.393 Y112.194 E12.90827 F1205.957
G1 X153.541 Y112.452 E12.95401
G1 X151.653 Y114.340 E13.09112
G1 X150.822 Y114.577 E13.13549
G1 X152.688 Y112.711 E13.27103
G1 X151.850 Y112.955 E13.31586
G1 X149.995 Y114.810 E13.45060
G1 X149.533 Y114.678 E13.47530
G1 X151.058 Y113.152 E13.58609
G1 X150.266 Y113.350 E13.62803
G1 X149.070 Y114.546 E13.71489
G1 X148.608 Y114.414 E13.73959
G1 X149.474 Y113.548 E13.80251
G1 X148.975 Y113.453 E13.82859
G1 X148.145 Y114.283 E13.88888
G1 X147.683 Y114.151 E13.91358
G1 X148.837 Y112.997 E13.99740
G1 X148.698 Y112.541 E14.02187
G1 X147.220 Y114.019 E14.12923
G1 X146.758 Y113.888 E14.15393
G1 X148.560 Y112.085 E14.28483
G1 X148.421 Y111.630 E14.30930
G1 X146.295 Y113.756 E14.46374
G1 X145.833 Y113.624 E14.48844
G1 X148.283 Y111.174 E14.66641
G1 X148.144 Y110.718 E14.69088
G1 X145.370 Y113.492 E14.89240
G1 X145.002 Y113.266 E14.91458
G1 X147.973 Y110.295 E15.13039
G1 X147.550 Y110.124 E15.15383
G1 X144.699 Y112.975 E15.36092
G1 X144.396 Y112.684 E15.38251
G1 X147.170 Y109.910 E15.58397
G1 X146.803 Y109.683 E15.60614
G1 X144.093 Y112.392 E15.80296
G1 X143.790 Y112.101 E15.82454
G1 X146.418 Y109.474 E16.01539
G1 X145.625 Y109.672 E16.05732
G1 X143.487 Y111.810 E16.21265
G1 X143.184 Y111.519 E16.23423
G1 X144.833 Y109.869 E16.35403
G1 X144.041 Y110.067 E16.39596
G1 X142.881 Y111.228 E16.48024
G1 X142.578 Y110.936 E16.50182
G1 X143.249 Y110.265 E16.55058
G1 X143.003 Y109.917 E16.57248
G1 X142.275 Y110.645 E16.62537
G1 X141.978 Y110.348 E16.64695
G1 X142.865 Y109.461 E16.71138
G1 X142.726 Y109.005 E16.73584
G1 X141.681 Y110.051 E16.81179
G1 X141.456 Y109.682 E16.83400
G1 X142.588 Y108.550 E16.91623
G1 X142.449 Y108.094 E16.94069
G1 X141.344 Y109.200 E17.02101
G1 X141.231 Y108.718 E17.04643
G1 X142.311 Y107.638 E17.12486
G1 X142.172 Y107.182 E17.14932
G1 X141.119 Y108.236 E17.22585
G1 X141.006 Y107.754 E17.25126
G1 X142.046 Y106.714 E17.32680
G1 X141.927 Y106.239 E17.35195
G1 X140.894 Y107.272 E17.42698
G1 X140.782 Y106.790 E17.45240
G1 X141.808 Y105.764 E17.52693
G1 X141.689 Y105.289 E17.55208
G1 X140.669 Y106.308 E17.62610
G1 X140.557 Y105.826 E17.65151
G1 X141.569 Y104.814 E17.72503
G1 X141.450 Y104.339 E17.75018
G1 X140.445 Y105.344 E17.82319
G1 X140.416 Y104.779 E17.85227
G1 X145.180 Y100.015 E18.19828
G1 X145.060 Y99.540 E18.22343
G1 X140.597 Y104.004 E18.54766
G1 X140.777 Y103.229 E18.58852
G1 X144.941 Y99.065 E18.89096
G1 X144.822 Y98.590 E18.91611
G1 X140.958 Y102.454 E19.19677
G1 X141.139 Y101.680 E19.23764
G1 X146.685 Y96.133 E19.64050
G1 X147.516 Y95.896 E19.68487
G1 X145.607 Y97.805 E19.82350
G1 X146.460 Y97.547 E19.86924
G1 X148.347 Y95.660 E20.00630
G1 X149.177 Y95.423 E20.05067
G1 X147.312 Y97.289 E20.18616
G1 X148.150 Y97.045 E20.23098
G1 X150.005 Y95.190 E20.36568
G1 X150.467 Y95.322 E20.39038
G1 X148.942 Y96.847 E20.50114
G1 X149.734 Y96.649 E20.54308
G1 X150.930 Y95.454 E20.62990
G1 X151.392 Y95.586 E20.65460
G1 X150.526 Y96.451 E20.71749
G1 X151.023 Y96.549 E20.74348
G1 X151.855 Y95.717 E20.80389
G1 X152.317 Y95.849 E20.82859
G1 X151.161 Y97.005 E20.91255
G1 X151.300 Y97.461 E20.93701
G1 X152.780 Y95.981 E21.04450
G1 X153.242 Y96.112 E21.06920
G1 X151.438 Y97.916 E21.20023
G1 X151.577 Y98.372 E21.22469
G1 X153.705 Y96.244 E21.37926
G1 X154.167 Y96.376 E21.40396
G1 X151.715 Y98.828 E21.58206
G1 X151.854 Y99.284 E21.60653
G1 X154.630 Y96.508 E21.80817
G1 X154.998 Y96.734 E21.83036
G1 X152.036 Y99.696 E22.04549
G1 X152.440 Y99.886 E22.06843
G1 X155.301 Y97.025 E22.27621
G1 X155.604 Y97.316 E22.29779
G1 X152.835 Y100.085 E22.49892
G1 X153.194 Y100.320 E22.52096
G1 X155.907 Y97.608 E22.71800
G1 X156.210 Y97.899 E22.73959
G1 X153.583 Y100.526 E22.93040
G1 X154.375 Y100.328 E22.97233
G1 X156.513 Y98.190 E23.12762
G1 X156.816 Y98.481 E23.14921
G1 X155.167 Y100.130 E23.26897
G1 X155.959 Y99.932 E23.31091
G1 X157.119 Y98.772 E23.39515
G1 X157.422 Y99.064 E23.41673
G1 X156.751 Y99.734 E23.46545
G1 X156.995 Y100.085 E23.48738
G1 X157.725 Y99.355 E23.54040
G1 X158.022 Y99.652 E23.56198
G1 X157.134 Y100.541 E23.62653
G1 X157.272 Y100.996 E23.65100
G1 X158.319 Y99.949 E23.72707
G1 X158.544 Y100.318 E23.74929
G1 X157.410 Y101.452 E23.83163
G1 X157.549 Y101.908 E23.85610
G1 X158.656 Y100.800 E23.93655
G1 X158.769 Y101.282 E23.96196
G1 X157.687 Y102.364 E24.04052
G1 X157.826 Y102.819 E24.06498
G1 X158.881 Y101.764 E24.14164
G1 X158.993 Y102.246 E24.16705
G1 X157.952 Y103.288 E24.24272
G1 X158.071 Y103.763 E24.26787
G1 X159.106 Y102.728 E24.34304
G1 X159.218 Y103.210 E24.36845
G1 X158.190 Y104.238 E24.44311
G1 X158.310 Y104.713 E24.46826
G1 X159.330 Y103.692 E24.54241
G1 X159.443 Y104.174 E24.56783
G1 X158.429 Y105.188 E24.64147
G1 X158.548 Y105.662 E24.66662
G1 X159.555 Y104.656 E24.73976
G1 X159.584 Y105.221 E24.76884
G1 X154.818 Y109.986 E25.11499
G1 X154.938 Y110.461 E25.14014
G1 X159.403 Y105.996 E25.46449
G1 X159.223 Y106.771 E25.50536
G1 X155.057 Y110.936 E25.80793
G1 X155.176 Y111.411 E25.83308
G1 X159.042 Y107.546 E26.11387
G1 X158.861 Y108.320 E26.15474
G1 X153.315 Y113.867 E26.55760
G1 X154.146 Y113.630 E26.60197
G1 X158.681 Y109.095 E26.93137
G1 X158.500 Y109.870 F7200.000
G1 X157.726 Y110.644 E26.98759 F1205.957
G1 X154.699 Y109.512 F7200.000
G1 X158.043 Y106.167 E27.23050 F1205.957
G1 X157.191 Y106.426 E27.27624
G1 X154.580 Y109.037 E27.46589
G1 X154.461 Y108.562 E27.49104
G1 X156.338 Y106.684 E27.62744
G1 X155.486 Y106.942 E27.67319
G1 X155.219 Y107.209 E27.69255
G1 F1800.000 E26.69255
G92 E0
G1 X158.314 Y109.903 F7200.000
G1 X158.449 Y113.935 F7200.000
G1 X162.533 Y105.227 F7200.000
G1 X158.785 Y96.389 F7200.000
G1 X150.000 Y92.202 F7200.000
G1 X141.888 Y95.742 F7200.000
