; generated by Slic3r 1.0.0RC2 on 2014-05-19 at 17:52:26

; layer_height = 0.3
; perimeters = 2
; top_solid_layers = 3
; bottom_solid_layers = 3
; fill_density = 1
; perimeter_speed = 60
; infill_speed = 60
; travel_speed = 120
; nozzle_diameter = 0.4
; filament_diameter = 1.75
; extrusion_multiplier = 0.98
; perimeters extrusion width = 0.40mm
; infill extrusion width = 0.42mm
; solid infill extrusion width = 0.42mm
; top infill extrusion width = 0.42mm
; first layer extrusion width = 0.80mm

G21 ; set units to millimeters
M107
M104 S220 ; set temperature
G28 ; home all axes
M106 S255;
G1 Z200 F1200 ; lift nozzle
M109 S220 ; wait for temperature to be reached
G90 ; use absolute coordinates
G92 E0
M82 ; use absolute distances for extrusion
G1 F1800.000 E-1.00000
G92 E0
G1 Z0.400 F7200.000
G1 X127.400 Y91.132 F7200.000
G1 E1.00000 F1800.000
G1 X129.840 Y87.782 E1.48237 F1080.000
G1 X130.280 Y87.242 E1.56344
G1 X130.770 Y86.752 E1.64409
G1 X133.840 Y83.982 E2.12536
G1 X134.390 Y83.532 E2.20807
G1 X134.990 Y83.142 E2.29136
G1 X138.580 Y81.072 E2.77368
G1 X139.200 Y80.762 E2.85436
G1 X139.860 Y80.502 E2.93693
G1 X143.800 Y79.222 E3.41909
G1 X144.920 Y78.962 E3.55292
G1 X149.300 Y78.502 E4.06551
G1 X149.990 Y78.472 E4.14589
G1 X150.690 Y78.502 E4.22744
G1 X154.810 Y78.932 E4.70957
G1 X155.500 Y79.042 E4.79090
G1 X156.180 Y79.222 E4.87277
G1 X160.120 Y80.502 E5.35494
G1 X160.780 Y80.762 E5.43750
G1 X161.400 Y81.072 E5.51818
G1 X164.990 Y83.142 E6.00050
G1 X165.580 Y83.532 E6.08282
G1 X166.130 Y83.972 E6.16480
G1 X169.210 Y86.742 E6.64693
G1 X169.710 Y87.232 E6.72841
G1 X170.150 Y87.782 E6.81039
G1 X172.590 Y91.132 E7.29275
G1 X172.980 Y91.722 E7.37507
G1 X173.300 Y92.362 E7.45835
G1 X174.980 Y96.152 E7.94086
G1 X175.230 Y96.802 E8.02192
G1 X175.410 Y97.482 E8.10379
G1 X176.270 Y101.532 E8.58568
G1 X176.380 Y102.222 E8.66700
G1 X176.410 Y102.922 E8.74855
G1 X176.410 Y107.062 E9.23041
G1 X176.380 Y107.762 E9.31195
G1 X176.270 Y108.452 E9.39328
G1 X175.410 Y112.512 E9.87630
G1 X175.230 Y113.192 E9.95818
G1 X174.980 Y113.852 E10.04032
G1 X173.300 Y117.632 E10.52177
G1 X172.970 Y118.262 E10.60454
G1 X172.590 Y118.852 E10.68622
G1 X170.150 Y122.202 E11.16859
G1 X169.710 Y122.742 E11.24966
G1 X169.220 Y123.232 E11.33032
G1 X166.140 Y126.012 E11.81323
G1 X165.590 Y126.462 E11.89594
G1 X164.990 Y126.852 E11.97923
G1 X161.400 Y128.922 E12.46155
G1 X160.780 Y129.232 E12.54223
G1 X160.120 Y129.492 E12.62479
G1 X156.180 Y130.772 E13.10696
G1 X155.500 Y130.952 E13.18883
G1 X154.810 Y131.062 E13.27016
G1 X150.690 Y131.492 E13.75229
G1 X149.990 Y131.522 E13.83384
G1 X149.290 Y131.492 E13.91538
G1 X145.170 Y131.062 E14.39751
G1 X144.480 Y130.952 E14.47884
G1 X143.800 Y130.772 E14.56071
G1 X139.860 Y129.492 E15.04288
G1 X139.200 Y129.232 E15.12544
G1 X138.580 Y128.922 E15.20612
G1 X134.990 Y126.852 E15.68844
G1 X134.390 Y126.462 E15.77173
G1 X133.830 Y126.012 E15.85535
G1 X130.760 Y123.232 E16.33739
G1 X130.280 Y122.742 E16.41723
G1 X129.840 Y122.202 E16.49830
G1 X127.400 Y118.852 E16.98067
G1 X127.020 Y118.262 E17.06235
G1 X126.690 Y117.632 E17.14513
G1 X125.010 Y113.852 E17.62657
G1 X124.770 Y113.202 E17.70722
G1 X124.580 Y112.532 E17.78828
G1 X123.710 Y108.472 E18.27155
G1 X123.600 Y107.772 E18.35402
G1 X123.570 Y107.062 E18.43673
G1 X123.570 Y102.922 E18.91858
G1 X123.600 Y102.212 E19.00129
G1 X123.720 Y101.512 E19.08396
G1 X124.590 Y97.462 E19.56609
G1 X124.760 Y96.792 E19.64654
G1 X125.010 Y96.152 E19.72651
G1 X126.690 Y92.362 E20.20902
G1 X127.010 Y91.722 E20.29231
G1 X127.341 Y91.221 E20.36215
G1 F1800.000 E19.36215
G92 E0
G1 X148.278 Y88.490 F7200.000
G1 E1.00000 F1800.000
G1 X148.409 Y87.838 E1.07745 F540.000
G1 X148.778 Y87.286 E1.15468
G1 X149.330 Y86.917 E1.23192
G1 X149.982 Y86.786 E1.30937
G1 X150.634 Y86.917 E1.38682
G1 X151.185 Y87.285 E1.46390
G1 X151.559 Y87.838 E1.54158
G1 X151.685 Y88.490 E1.61891
G1 X151.559 Y89.142 E1.69624
G1 X151.186 Y89.694 E1.77376
G1 X150.634 Y90.067 E1.85129
G1 X149.982 Y90.193 E1.92862
G1 X149.330 Y90.067 E2.00595
G1 X148.777 Y89.693 E2.08363
G1 X148.409 Y89.142 E2.16071
G1 X148.299 Y88.595 E2.22569
G1 X147.725 Y88.120 F7200.000
G1 X134.447 Y103.871 F7200.000
G1 X134.815 Y104.422 E2.30276 F540.000
G1 X134.946 Y105.074 E2.38022
G1 X134.815 Y105.726 E2.45766
G1 X134.446 Y106.278 E2.53490
G1 X133.894 Y106.647 E2.61213
G1 X133.242 Y106.778 E2.68958
G1 X132.590 Y106.647 E2.76703
G1 X132.038 Y106.278 E2.84427
G1 X131.669 Y105.726 E2.92150
G1 X131.538 Y105.074 E2.99895
G1 X131.669 Y104.422 E3.07640
G1 X132.037 Y103.871 E3.15347
G1 X132.590 Y103.497 E3.23116
G1 X133.242 Y103.371 E3.30849
G1 X133.894 Y103.497 E3.38582
G1 X134.358 Y103.811 E3.45103
G1 X135.097 Y103.743 F7200.000
G1 F1800.000 E2.45103
G92 E0
G1 X165.186 Y105.074 F7200.000
G1 E1.00000 F1800.000
G1 X165.317 Y104.422 E1.07745 F540.000
G1 X165.685 Y103.871 E1.15453
G1 X166.238 Y103.497 E1.23221
G1 X166.890 Y103.371 E1.30954
G1 X167.542 Y103.497 E1.38687
G1 X168.095 Y103.871 E1.46455
G1 X168.463 Y104.422 E1.54163
G1 X168.594 Y105.074 E1.61908
G1 X168.463 Y105.726 E1.69653
G1 X168.094 Y106.278 E1.77376
G1 X167.542 Y106.647 E1.85100
G1 X166.890 Y106.778 E1.92845
G1 X166.238 Y106.647 E2.00590
G1 X165.686 Y106.278 E2.08313
G1 X165.317 Y105.726 E2.16036
G1 X165.207 Y105.179 E2.22535
G1 X164.633 Y104.704 F7200.000
G1 X156.244 Y104.345 F7200.000
G1 X156.244 Y105.655 E2.37779 F540.000
G1 X155.971 Y106.941 E2.53079
G1 X155.436 Y108.137 E2.68332
G1 X154.667 Y109.204 E2.83637
G1 X153.688 Y110.081 E2.98936
G1 X152.554 Y110.738 E3.14193
G1 X151.302 Y111.142 E3.29506
G1 X149.998 Y111.278 E3.44761
G1 X148.694 Y111.142 E3.60017
G1 X147.442 Y110.738 E3.75330
G1 X146.307 Y110.080 E3.90603
G1 X145.333 Y109.204 E4.05848
G1 X144.560 Y108.139 E4.21164
G1 X144.025 Y106.941 E4.36436
G1 X143.752 Y105.655 E4.51737
G1 X143.752 Y104.345 E4.66981
G1 X144.024 Y103.060 E4.82272
G1 X144.560 Y101.857 E4.97601
G1 X145.334 Y100.796 E5.12889
G1 X146.307 Y99.920 E5.28120
G1 X147.442 Y99.262 E5.43393
G1 X148.694 Y98.858 E5.58706
G1 X149.998 Y98.722 E5.73962
G1 X151.302 Y98.858 E5.89217
G1 X152.554 Y99.262 E6.04530
G1 X153.688 Y99.919 E6.19787
G1 X154.666 Y100.796 E6.35072
G1 X155.436 Y101.858 E6.50349
G1 X155.972 Y103.060 E6.65658
G1 X156.222 Y104.240 E6.79702
G1 X155.530 Y104.420 F7200.000
G1 X155.530 Y105.580 E6.93203 F540.000
G1 X155.288 Y106.719 E7.06749
G1 X154.814 Y107.779 E7.20267
G1 X154.133 Y108.723 E7.33820
G1 X153.266 Y109.499 E7.47364
G1 X152.262 Y110.082 E7.60878
G1 X151.153 Y110.439 E7.74435
G1 X149.998 Y110.560 E7.87953
G1 X148.843 Y110.439 E8.01471
G1 X147.734 Y110.082 E8.15028
G1 X146.729 Y109.499 E8.28547
G1 X145.867 Y108.723 E8.42050
G1 X145.182 Y107.779 E8.55625
G1 X144.708 Y106.719 E8.69149
G1 X144.466 Y105.580 E8.82696
G1 X144.466 Y104.420 E8.96196
G1 X144.707 Y103.282 E9.09739
G1 X145.182 Y102.217 E9.23311
G1 X145.867 Y101.277 E9.36852
G1 X146.729 Y100.501 E9.50349
G1 X147.734 Y99.918 E9.63869
G1 X148.843 Y99.561 E9.77426
G1 X149.998 Y99.440 E9.90944
G1 X151.153 Y99.561 E10.04461
G1 X152.262 Y99.918 E10.18019
G1 X153.266 Y100.501 E10.31532
G1 X154.133 Y101.277 E10.45071
G1 X154.814 Y102.217 E10.58590
G1 X155.289 Y103.282 E10.72155
G1 X155.508 Y104.315 E10.84452
G1 X156.172 Y104.733 F7200.000
G1 X150.634 Y119.937 F7200.000
G1 X151.185 Y120.305 E10.92159 F540.000
G1 X151.559 Y120.858 E10.99928
G1 X151.685 Y121.510 E11.07661
G1 X151.559 Y122.162 E11.15394
G1 X151.185 Y122.715 E11.23162
G1 X150.634 Y123.083 E11.30870
G1 X149.982 Y123.214 E11.38615
G1 X149.330 Y123.083 E11.46360
G1 X148.778 Y122.714 E11.54083
G1 X148.409 Y122.162 E11.61806
G1 X148.278 Y121.510 E11.69551
G1 X148.409 Y120.858 E11.77297
G1 X148.778 Y120.306 E11.85020
G1 X149.330 Y119.937 E11.92743
G1 X149.982 Y119.806 E12.00488
G1 X150.529 Y119.916 E12.06987
G1 X151.185 Y119.570 F7200.000
G1 X151.111 Y119.397 F7200.000
G1 X150.913 Y119.265 E12.09745 F1080.000
G1 X149.982 Y119.077 E12.20804
G1 X149.051 Y119.265 E12.31863
G1 X148.263 Y119.791 E12.42886
G1 X147.737 Y120.579 E12.53909
G1 X147.549 Y121.510 E12.64968
G1 X147.737 Y122.441 E12.76026
G1 X148.468 Y123.537 E12.91358
G1 X146.111 Y123.291 E13.18939
G1 X142.394 Y122.082 E13.64431
G1 X139.008 Y120.127 E14.09937
G1 X136.104 Y117.510 E14.55436
G1 X133.807 Y114.349 E15.00914
G1 X132.218 Y110.780 E15.46395
G1 X131.345 Y106.675 E15.95234
G1 X132.311 Y107.319 E16.08741
G1 X133.242 Y107.507 E16.19799
G1 X134.173 Y107.319 E16.30858
G1 X134.961 Y106.793 E16.41881
G1 X135.487 Y106.005 E16.52905
G1 X135.675 Y105.074 E16.63963
G1 X135.487 Y104.143 E16.75022
G1 X134.964 Y103.358 E16.86002
G1 X134.173 Y102.823 E16.97103
G1 X133.242 Y102.643 E17.08145
G1 X132.311 Y102.823 E17.19186
G1 X131.306 Y103.503 E17.33297
G1 X132.217 Y99.221 E17.84246
G1 X133.807 Y95.650 E18.29742
G1 X136.104 Y92.486 E18.75248
G1 X139.008 Y89.873 E19.20709
G1 X142.394 Y87.918 E19.66221
G1 X146.111 Y86.709 E20.11717
G1 X148.468 Y86.463 E20.39295
G1 X147.737 Y87.559 E20.54628
G1 X147.549 Y88.490 E20.65686
G1 X147.737 Y89.421 E20.76745
G1 X148.260 Y90.206 E20.87724
G1 X149.051 Y90.741 E20.98826
G1 X149.982 Y90.921 E21.09868
G1 X150.913 Y90.741 E21.20909
G1 X151.700 Y90.208 E21.31967
G1 X152.233 Y89.421 E21.43024
G1 X152.413 Y88.490 E21.54066
G1 X152.233 Y87.559 E21.65107
G1 X151.489 Y86.458 E21.80565
G1 X153.885 Y86.709 E22.08610
G1 X157.602 Y87.918 E22.54104
G1 X160.988 Y89.873 E22.99604
G1 X163.896 Y92.487 E23.45118
G1 X166.193 Y95.650 E23.90613
G1 X167.782 Y99.220 E24.36103
G1 X168.671 Y103.398 E24.85815
G1 X167.821 Y102.823 E24.97757
G1 X166.890 Y102.643 E25.08798
G1 X165.959 Y102.823 E25.19840
G1 X165.168 Y103.358 E25.30942
G1 X164.645 Y104.143 E25.41921
G1 X164.457 Y105.074 E25.52979
G1 X164.645 Y106.005 E25.64038
G1 X165.171 Y106.793 E25.75061
G1 X165.959 Y107.319 E25.86084
G1 X166.890 Y107.507 E25.97143
G1 X167.821 Y107.319 E26.08201
G1 X168.633 Y106.778 E26.19556
G1 X167.782 Y110.780 E26.67176
G1 X166.193 Y114.349 E27.12653
G1 X163.896 Y117.510 E27.58129
G1 X160.988 Y120.127 E28.03668
G1 X157.602 Y122.082 E28.49166
G1 X153.885 Y123.291 E28.94666
G1 X151.489 Y123.542 E29.22706
G1 X152.233 Y122.441 E29.38165
G1 X152.413 Y121.510 E29.49206
G1 X152.233 Y120.579 E29.60247
G1 X151.698 Y119.788 E29.71350
G1 X151.200 Y119.456 E29.78324
G1 X157.458 Y122.249 F7200.000
G1 X149.998 Y124.416 F7200.000
G1 X145.962 Y123.993 E30.25557 F756.000
G1 X142.102 Y122.738 E30.72799
G1 X138.586 Y120.708 E31.20051
G1 X135.571 Y117.990 E31.67299
G1 X133.185 Y114.709 E32.14519
G1 X131.535 Y111.001 E32.61752
G1 X130.690 Y107.028 E33.09033
G1 X130.690 Y102.968 E33.56281
G1 X131.535 Y98.999 E34.03516
G1 X133.185 Y95.291 E34.50754
G1 X135.571 Y92.006 E34.98008
G1 X138.586 Y89.292 E35.45223
G1 X142.102 Y87.262 E35.92477
G1 X145.962 Y86.007 E36.39720
G1 X149.998 Y85.584 E36.86951
G1 X154.034 Y86.007 E37.34186
G1 X157.894 Y87.262 E37.81429
G1 X161.410 Y89.292 E38.28678
G1 X164.429 Y92.006 E38.75933
G1 X166.815 Y95.291 E39.23184
G1 X168.465 Y98.999 E39.70420
G1 X169.310 Y102.968 E40.17657
G1 X169.310 Y107.028 E40.64905
G1 X168.465 Y111.001 E41.12187
G1 X166.815 Y114.709 E41.59418
G1 X164.429 Y117.990 E42.06637
G1 X161.410 Y120.708 E42.53920
G1 X157.894 Y122.738 E43.01170
G1 X154.034 Y123.993 E43.48415
G1 X150.105 Y124.405 E43.94400
G1 X149.663 Y123.785 F7200.000
G1 X153.475 Y122.850 F7200.000
G1 X152.779 Y122.153 E44.06055 F1080.000
G1 X152.841 Y121.189 E44.17494
G1 X154.301 Y122.649 E44.41935
G1 X155.076 Y122.397 E44.51578
G1 X132.568 Y99.888 E48.28272
G1 X132.387 Y100.735 E48.38515
G1 X133.940 Y102.288 E48.64504
G1 X132.854 Y102.228 F7200.000
G1 X132.207 Y101.582 E48.75320 F1080.000
G1 X133.433 Y97.673 F7200.000
G1 X144.142 Y108.382 E50.54534 F1080.000
G1 X143.480 Y106.693 F7200.000
G1 X133.750 Y96.963 E52.17376 F1080.000
G1 X134.066 Y96.252 E52.26580
G1 X143.270 Y105.457 E53.80621
G1 X143.270 Y104.430 E53.92773
G1 X134.439 Y95.599 E55.40566
G1 X134.871 Y95.004 E55.49266
G1 X143.426 Y103.559 E56.92442
G1 X143.638 Y102.744 E57.02408
G1 X135.303 Y94.409 E58.41897
G1 X135.735 Y93.814 E58.50597
G1 X143.955 Y102.033 E59.88152
G1 X144.319 Y101.371 E59.97100
G1 X136.167 Y93.219 E61.33522
G1 X136.650 Y92.676 E61.42129
G1 X144.752 Y100.777 E62.77712
G1 X145.237 Y100.235 E62.86317
G1 X137.174 Y92.172 E64.21265
G1 X137.714 Y91.685 E64.29870
G1 X145.778 Y99.749 E65.64818
G1 X146.378 Y99.323 E65.73534
G1 X138.254 Y91.199 E67.09488
G1 X138.795 Y90.712 E67.18093
G1 X147.028 Y98.946 E68.55884
G1 X147.762 Y98.653 E68.65236
G1 X139.344 Y90.235 E70.06120
G1 X139.995 Y89.859 E70.15016
G1 X148.539 Y98.402 E71.57995
G1 X149.457 Y98.294 E71.68942
G1 X140.646 Y89.483 E73.16401
G1 X141.297 Y89.107 E73.25296
G1 X150.478 Y98.288 E74.78938
G1 X151.696 Y98.480 E74.93536
G1 X141.948 Y88.731 E76.56676
G1 X142.601 Y88.357 E76.65579
G1 X153.495 Y99.251 E78.47900
G1 X155.844 Y101.600 F7200.000
G1 X166.568 Y112.324 E80.27371 F1080.000
G1 X166.251 Y113.035 E80.36575
G1 X156.514 Y103.297 E81.99536
G1 X156.726 Y104.536 E82.14404
G1 X165.935 Y113.745 E83.68530
G1 X165.562 Y114.399 E83.77438
G1 X156.726 Y105.563 E85.25319
G1 X156.571 Y106.435 E85.35801
G1 X165.130 Y114.993 E86.79036
G1 X164.697 Y115.588 E86.87735
G1 X156.360 Y107.251 E88.27263
G1 X156.043 Y107.960 E88.36461
G1 X164.265 Y116.183 E89.74064
G1 X163.833 Y116.777 E89.82764
G1 X155.679 Y108.624 E91.19218
G1 X155.249 Y109.220 E91.27923
G1 X163.349 Y117.321 E92.63489
G1 X162.826 Y117.824 E92.72083
G1 X154.764 Y109.763 E94.07000
G1 X154.223 Y110.248 E94.15606
G1 X162.286 Y118.311 E95.50547
G1 X161.745 Y118.797 E95.59151
G1 X153.623 Y110.675 E96.95089
G1 X152.973 Y111.051 E97.03981
G1 X161.205 Y119.284 E98.41757
G1 X160.657 Y119.762 E98.50369
G1 X152.239 Y111.345 E99.91238
G1 X151.463 Y111.596 E100.00891
G1 X160.006 Y120.138 E101.43855
G1 X159.355 Y120.514 E101.52751
G1 X150.546 Y111.705 E103.00176
G1 X149.527 Y111.713 E103.12233
G1 X158.704 Y120.890 E104.65815
G1 X158.053 Y121.266 E104.74710
G1 X148.311 Y111.524 E106.37744
G1 X146.519 Y110.759 F7200.000
G1 X157.401 Y121.641 E108.19858 F1080.000
G1 X156.626 Y121.893 E108.29500
G1 X133.117 Y98.384 E112.22936
G1 X132.801 Y99.095 E112.32140
G1 X155.851 Y122.145 E116.17901
G1 X157.458 Y122.249 F7200.000
G1 X150.662 Y111.094 F7200.000
G1 X141.837 Y121.892 F7200.000
G1 X143.232 Y121.848 F7200.000
G1 X133.211 Y111.827 E117.85603 F1080.000
G1 X132.580 Y110.170 F7200.000
G1 X144.754 Y122.343 E119.89331 F1080.000
G1 X146.260 Y122.822 E120.08035
G1 X132.303 Y108.865 E122.41609
G1 X132.265 Y107.801 E122.54217
G1 X147.332 Y122.868 E125.06371
G1 X147.073 Y121.582 E125.21898
G1 X133.447 Y107.956 E127.49923
G1 X134.302 Y107.784 E127.60239
G1 X147.221 Y120.703 E129.76445
G1 X147.545 Y120.000 E129.85606
G1 X134.935 Y107.390 E131.96637
G1 X135.470 Y106.898 E132.05238
G1 X147.975 Y119.403 E134.14518
G1 X148.591 Y118.993 E134.23281
G1 X135.881 Y106.282 E136.35997
G1 X136.087 Y105.462 E136.46007
G1 X149.341 Y118.716 E138.67812
G1 X150.304 Y118.651 E138.79227
G1 X136.024 Y104.372 E141.18200
G1 X134.035 Y113.678 F7200.000
G1 X141.184 Y120.828 E142.37853 F1080.000
G1 X136.987 Y117.657 F7200.000
G1 X136.327 Y116.997 E142.48904 F1080.000
G1 X143.376 Y88.105 F7200.000
G1 X166.884 Y111.614 E146.42328 F1080.000
G1 X167.200 Y110.903 E146.51532
G1 X144.151 Y87.853 E150.37283
G1 X144.925 Y87.601 E150.46925
G1 X167.433 Y110.108 E154.23596
G1 X167.613 Y109.262 E154.33842
G1 X166.212 Y107.861 E154.57280
G1 X167.294 Y107.916 E154.70101
G1 X167.793 Y108.415 E154.78445
G1 X164.103 Y105.752 F7200.000
G1 X149.710 Y91.358 E157.19322 F1080.000
G1 X150.658 Y91.280 E157.30587
G1 X164.048 Y104.670 E159.54665
G1 X164.259 Y103.854 E159.64637
G1 X151.399 Y90.994 E161.79861
G1 X152.011 Y90.579 E161.88613
G1 X164.670 Y103.238 E164.00459
G1 X165.208 Y102.750 E164.09062
G1 X152.437 Y89.978 E166.22795
G1 X152.753 Y89.267 E166.32003
G1 X165.841 Y102.356 E168.51047
G1 X166.702 Y102.189 E168.61417
G1 X152.879 Y88.367 E170.92740
G1 X152.633 Y87.094 E171.08087
G1 X167.885 Y102.345 E173.63332
G1 X167.696 Y101.130 E173.77882
G1 X153.745 Y87.179 E176.11369
G1 X155.254 Y87.661 E176.30113
G1 X167.419 Y99.826 E178.33703
G1 X166.786 Y98.166 F7200.000
