; generated by Slic3r 1.0.0RC2 on 2014-05-19 at 17:49:24

; layer_height = 0.3
; perimeters = 2
; top_solid_layers = 3
; bottom_solid_layers = 3
; fill_density = 0.1
; perimeter_speed = 60
; infill_speed = 60
; travel_speed = 120
; nozzle_diameter = 0.4
; filament_diameter = 1.75
; extrusion_multiplier = 0.98
; perimeters extrusion width = 0.40mm
; infill extrusion width = 0.42mm
; solid infill extrusion width = 0.42mm
; top infill extrusion width = 0.42mm
; first layer extrusion width = 0.80mm

G21 ; set units to millimeters
M107
M104 S220 ; set temperature
G28 ; home all axes
M106 S255;
G1 Z200 F1200 ; lift nozzle
M109 S220 ; wait for temperature to be reached
G90 ; use absolute coordinates
G92 E0
M82 ; use absolute distances for extrusion
G1 F1800.000 E-1.00000
G92 E0
G1 Z0.400 F7200.000
G1 X113.479 Y89.747 F7200.000
G1 E1.00000 F1800.000
G1 X114.459 Y88.587 E1.17674 F1080.000
G1 X115.659 Y87.687 E1.35133
G1 X117.039 Y87.067 E1.52741
G1 X130.289 Y82.857 E3.14555
G1 X131.289 Y82.627 E3.26498
G1 X132.319 Y82.547 E3.38522
G1 X167.669 Y82.547 E7.49961
G1 X168.699 Y82.627 E7.61985
G1 X169.699 Y82.857 E7.73928
G1 X182.949 Y87.067 E9.35742
G1 X184.329 Y87.687 E9.53350
G1 X185.529 Y88.587 E9.70808
G1 X186.509 Y89.747 E9.88483
G1 X187.199 Y91.087 E10.06025
G1 X187.569 Y92.547 E10.23555
G1 X191.359 Y119.817 E13.44001
G1 X191.419 Y121.087 E13.58799
G1 X191.229 Y122.347 E13.73630
G1 X190.809 Y123.547 E13.88428
G1 X190.169 Y124.647 E14.03240
G1 X189.329 Y125.607 E14.18087
G1 X188.329 Y126.387 E14.32848
G1 X187.199 Y126.977 E14.47685
G1 X185.979 Y127.327 E14.62457
G1 X184.709 Y127.447 E14.77304
G1 X115.289 Y127.447 E22.85283
G1 X114.019 Y127.327 E23.00130
G1 X112.799 Y126.977 E23.14902
G1 X111.669 Y126.387 E23.29739
G1 X110.669 Y125.607 E23.44500
G1 X109.829 Y124.647 E23.59347
G1 X109.189 Y123.547 E23.74159
G1 X108.769 Y122.347 E23.88957
G1 X108.579 Y121.087 E24.03788
G1 X108.639 Y119.817 E24.18586
G1 X112.419 Y92.547 E27.39016
G1 X112.789 Y91.087 E27.56546
G1 X113.430 Y89.842 E27.72841
G1 F1800.000 E26.72841
G92 E0
G1 X168.626 Y102.554 F7200.000
G1 E1.00000 F1800.000
G1 X178.366 Y102.554 E2.13356 F1080.000
G1 X178.366 Y116.035 E3.70256
G1 X168.626 Y116.035 E4.83612
G1 X168.626 Y102.661 E6.39264
G1 X169.341 Y103.268 F7200.000
G1 X177.652 Y103.268 E7.35997 F540.000
G1 X177.652 Y115.321 E8.76272
G1 X169.341 Y115.321 E9.73004
G1 X169.341 Y103.375 E11.12032
G1 X169.341 Y102.554 F7200.000
G1 X131.374 Y102.554 F7200.000
G1 X131.374 Y116.035 E12.68931 F1080.000
G1 X121.634 Y116.035 E13.82288
G1 X121.634 Y102.554 E15.39187
G1 X131.267 Y102.554 E16.51297
G1 X130.660 Y103.268 F7200.000
G1 X130.659 Y115.321 E17.91572 F540.000
G1 X122.348 Y115.321 E18.88304
G1 X122.348 Y103.268 E20.28579
G1 X130.552 Y103.268 E21.24064
G1 X131.374 Y103.268 F7200.000
G1 X132.332 Y90.422 F7200.000
G1 X132.496 Y90.371 E21.26066 F1080.000
G1 X167.499 Y90.371 E25.33471
G1 X179.915 Y94.317 E26.85100
G1 X183.431 Y119.629 E29.82532
G1 X116.569 Y119.629 E37.60741
G1 X120.085 Y94.316 E40.58185
G1 X132.229 Y90.455 E42.06505
G1 X132.113 Y89.742 F7200.000
G1 X132.386 Y89.657 E42.09825 F756.000
G1 X167.614 Y89.657 E46.19842
G1 X180.560 Y93.773 E47.77962
G1 X184.251 Y120.343 E50.90181
G1 X115.749 Y120.343 E58.87483
G1 X119.440 Y93.772 E61.99713
G1 X132.011 Y89.775 E63.53251
G1 X132.323 Y89.935 F7200.000
G1 X131.739 Y102.072 F7200.000
G1 X123.426 Y93.760 E64.91414 F1080.000
G1 X122.652 Y94.005 E65.00957
G1 X130.719 Y102.072 E66.35032
G1 X129.699 Y102.072 E66.47017
G1 X121.878 Y94.251 E67.77003
G1 X121.104 Y94.497 E67.86546
G1 X128.679 Y102.072 E69.12445
G1 X127.660 Y102.072 E69.24430
G1 X120.490 Y94.903 E70.43592
G1 X120.366 Y95.798 E70.54216
G1 X126.640 Y102.072 E71.58496
G1 X125.620 Y102.072 E71.70481
G1 X120.241 Y96.694 E72.59879
G1 X120.117 Y97.589 E72.70504
G1 X124.600 Y102.072 E73.45020
G1 X123.580 Y102.072 E73.57005
G1 X119.992 Y98.484 E74.16639
G1 X119.868 Y99.380 E74.27263
G1 X122.561 Y102.072 E74.72015
G1 X121.541 Y102.072 E74.84000
G1 X119.744 Y100.275 E75.13870
G1 X119.619 Y101.171 E75.24494
G1 X121.153 Y102.704 E75.49979
G1 X121.153 Y103.724 E75.61964
G1 X119.495 Y102.066 E75.89516
G1 X119.370 Y102.962 E76.00140
G1 X121.153 Y104.744 E76.29760
G1 X121.153 Y105.763 E76.41745
G1 X119.246 Y103.857 E76.73432
G1 X119.122 Y104.752 E76.84056
G1 X121.153 Y106.783 E77.17810
G1 X121.153 Y107.803 E77.29795
G1 X118.997 Y105.648 E77.65616
G1 X118.873 Y106.543 E77.76240
G1 X121.153 Y108.823 E78.14129
G1 X121.153 Y109.843 E78.26114
G1 X118.749 Y107.439 E78.66070
G1 X118.624 Y108.334 E78.76694
G1 X121.153 Y110.862 E79.18717
G1 X121.153 Y111.882 E79.30702
G1 X118.500 Y109.229 E79.74793
G1 X118.375 Y110.125 E79.85417
G1 X121.153 Y112.902 E80.31575
G1 X121.153 Y113.922 E80.43559
G1 X118.251 Y111.020 E80.91785
G1 X118.127 Y111.916 E81.02409
G1 X121.153 Y114.942 E81.52701
G1 X117.200 Y119.147 F7200.000
G1 X117.132 Y119.079 E81.53832 F1080.000
G1 X117.256 Y118.184 E81.64456
G1 X118.219 Y119.147 E81.80468
G1 X119.239 Y119.147 E81.92453
G1 X117.380 Y117.288 E82.23348
G1 X117.505 Y116.393 E82.33972
G1 X120.259 Y119.147 E82.79748
G1 X121.279 Y119.147 E82.91733
G1 X117.629 Y115.497 E83.52392
G1 X117.753 Y114.602 E83.63016
G1 X122.299 Y119.147 E84.38556
G1 X123.318 Y119.147 E84.50541
G1 X117.878 Y113.707 E85.40964
G1 X118.002 Y112.811 E85.51588
G1 X124.338 Y119.147 E86.56892
G1 X125.358 Y119.147 E86.68877
G1 X122.727 Y116.516 E87.12600
G1 X123.747 Y116.516 E87.24585
G1 X126.378 Y119.147 E87.68307
G1 X127.398 Y119.147 E87.80292
G1 X124.767 Y116.516 E88.24015
G1 X125.787 Y116.516 E88.36000
G1 X128.417 Y119.147 E88.79722
G1 X129.437 Y119.147 E88.91707
G1 X126.806 Y116.516 E89.35430
G1 X127.826 Y116.516 E89.47415
G1 X130.457 Y119.147 E89.91137
G1 X131.477 Y119.147 E90.03122
G1 X128.846 Y116.516 E90.46844
G1 X129.866 Y116.516 E90.58829
G1 X132.497 Y119.147 E91.02552
G1 X133.516 Y119.147 E91.14537
G1 X130.886 Y116.516 E91.58259
G1 X131.855 Y116.466 E91.69670
G1 X134.536 Y119.147 E92.14226
G1 X135.556 Y119.147 E92.26211
G1 X131.855 Y115.446 E92.87716
G1 X131.855 Y114.427 E92.99701
G1 X136.576 Y119.147 E93.78156
G1 X137.596 Y119.147 E93.90141
G1 X131.855 Y113.407 E94.85545
G1 X131.855 Y112.387 E94.97530
G1 X138.615 Y119.147 E96.09883
G1 X139.635 Y119.147 E96.21868
G1 X131.855 Y111.367 E97.51170
G1 X131.855 Y110.347 E97.63155
G1 X140.655 Y119.147 E99.09407
G1 X141.675 Y119.147 E99.21392
G1 X131.855 Y109.328 E100.84592
G1 X131.855 Y108.308 E100.96577
G1 X142.695 Y119.147 E102.76728
G1 X143.714 Y119.147 E102.88713
G1 X131.855 Y107.288 E104.85812
G1 X131.855 Y106.268 E104.97797
G1 X144.734 Y119.147 E107.11846
G1 X145.754 Y119.147 E107.23831
G1 X131.855 Y105.248 E109.54829
G1 X131.855 Y104.229 E109.66814
G1 X146.774 Y119.147 E112.14761
G1 X147.794 Y119.147 E112.26746
G1 X131.855 Y103.209 E114.91642
G1 X131.855 Y102.189 E115.03627
G1 X148.813 Y119.147 E117.85473
G1 X149.833 Y119.147 E117.97458
G1 X124.200 Y93.514 E122.23491
G1 X124.974 Y93.268 E122.33034
G1 X150.853 Y119.147 E126.63154
G1 X151.873 Y119.147 E126.75139
G1 X125.747 Y93.022 E131.09348
G1 X126.521 Y92.776 E131.18891
G1 X152.893 Y119.147 E135.57187
G1 X153.912 Y119.147 E135.69172
G1 X127.295 Y92.530 E140.11557
G1 X128.069 Y92.284 E140.21099
G1 X154.932 Y119.147 E144.67572
G1 X155.952 Y119.147 E144.79557
G1 X128.843 Y92.038 E149.30117
G1 X129.617 Y91.792 E149.39660
G1 X156.972 Y119.147 E153.94308
G1 X157.992 Y119.147 E154.06293
G1 X130.390 Y91.546 E158.65029
G1 X131.164 Y91.300 E158.74572
G1 X159.011 Y119.147 E163.37396
G1 X160.031 Y119.147 E163.49381
G1 X131.938 Y91.054 E168.16293
G1 X132.757 Y90.853 E168.26202
G1 X161.051 Y119.147 E172.96455
G1 X162.071 Y119.147 E173.08440
G1 X133.777 Y90.853 E177.78692
G1 X134.797 Y90.853 E177.90677
G1 X163.091 Y119.147 E182.60930
G1 X164.110 Y119.147 E182.72915
G1 X135.816 Y90.853 E187.43168
G1 X136.836 Y90.853 E187.55152
G1 X165.130 Y119.147 E192.25405
G1 X166.150 Y119.147 E192.37390
G1 X137.856 Y90.853 E197.07643
G1 X138.876 Y90.853 E197.19628
G1 X167.170 Y119.147 E201.89880
G1 X168.190 Y119.147 E202.01865
G1 X139.896 Y90.853 E206.72118
G1 X140.915 Y90.853 E206.84103
G1 X169.209 Y119.147 E211.54356
G1 X170.229 Y119.147 E211.66341
G1 X141.935 Y90.853 E216.36593
G1 X142.955 Y90.853 E216.48578
G1 X171.249 Y119.147 E221.18831
G1 X172.269 Y119.147 E221.30816
G1 X169.638 Y116.516 E221.74538
G1 X170.658 Y116.516 E221.86523
G1 X173.289 Y119.147 E222.30246
G1 X174.308 Y119.147 E222.42231
G1 X171.678 Y116.516 E222.85953
G1 X172.698 Y116.516 E222.97938
G1 X175.328 Y119.147 E223.41661
G1 X176.348 Y119.147 E223.53646
G1 X173.717 Y116.516 E223.97368
G1 X174.737 Y116.516 E224.09353
G1 X177.368 Y119.147 E224.53076
G1 X178.388 Y119.147 E224.65061
G1 X175.757 Y116.516 E225.08783
G1 X176.777 Y116.516 E225.20768
G1 X179.407 Y119.147 E225.64491
G1 X180.427 Y119.147 E225.76476
G1 X177.797 Y116.516 E226.20198
G1 X178.816 Y116.516 E226.32183
G1 X181.447 Y119.147 E226.75906
G1 X182.467 Y119.147 E226.87891
G1 X178.847 Y115.528 E227.48046
G1 X178.847 Y114.508 E227.60031
G1 X182.780 Y118.440 E228.25387
G1 X182.615 Y117.256 E228.39439
G1 X178.847 Y113.488 E229.02060
G1 X178.847 Y112.468 E229.14045
G1 X182.451 Y116.071 E229.73932
G1 X182.286 Y114.887 E229.87984
G1 X178.847 Y111.448 E230.45136
G1 X178.847 Y110.429 E230.57121
G1 X182.122 Y113.703 E231.11539
G1 X181.957 Y112.519 E231.25591
G1 X178.847 Y109.409 E231.77275
G1 X178.847 Y108.389 E231.89260
G1 X181.793 Y111.334 E232.38210
G1 X181.628 Y110.150 E232.52262
G1 X178.847 Y107.369 E232.98478
G1 X178.847 Y106.349 E233.10462
G1 X181.464 Y108.966 E233.53944
G1 X181.299 Y107.781 E233.67996
G1 X178.847 Y105.330 E234.08742
G1 X178.847 Y104.310 E234.20727
G1 X181.135 Y106.597 E234.58740
G1 X180.970 Y105.413 E234.72792
G1 X178.847 Y103.290 E235.08070
G1 X178.847 Y102.270 E235.20055
G1 X180.806 Y104.228 E235.52599
G1 X180.641 Y103.044 E235.66651
G1 X168.928 Y91.331 E237.61328
G1 X170.423 Y91.806 E237.79762
G1 X180.476 Y101.860 E239.46861
G1 X180.312 Y100.675 E239.60913
G1 X171.917 Y92.281 E241.00432
G1 X173.412 Y92.756 E241.18866
G1 X180.147 Y99.491 E242.30806
G1 X179.983 Y98.307 E242.44858
G1 X174.907 Y93.231 E243.29219
G1 X176.402 Y93.706 E243.47652
G1 X179.818 Y97.122 E244.04434
G1 X179.654 Y95.938 E244.18486
G1 X177.897 Y94.181 E244.47689
G1 X179.392 Y94.656 E244.66122
G1 X179.489 Y94.754 E244.67746
G1 X178.650 Y102.072 F7200.000
G1 X167.433 Y90.856 E246.54173 F1080.000
G1 X166.410 Y90.853 E246.66189
G1 X177.630 Y102.072 E248.52659
G1 X176.610 Y102.072 E248.64644
G1 X165.391 Y90.853 E250.51115
G1 X164.371 Y90.853 E250.63100
G1 X175.590 Y102.072 E252.49570
G1 X174.571 Y102.072 E252.61555
G1 X163.351 Y90.853 E254.48026
G1 X162.331 Y90.853 E254.60011
G1 X173.551 Y102.072 E256.46481
G1 X172.531 Y102.072 E256.58466
G1 X161.311 Y90.853 E258.44937
G1 X160.292 Y90.853 E258.56922
G1 X171.511 Y102.072 E260.43392
G1 X170.491 Y102.072 E260.55377
G1 X159.272 Y90.853 E262.41848
G1 X158.252 Y90.853 E262.53833
G1 X169.471 Y102.072 E264.40303
G1 X168.452 Y102.072 E264.52288
G1 X157.232 Y90.853 E266.38759
G1 X156.212 Y90.853 E266.50744
G1 X168.145 Y102.785 E268.49060
G1 X168.145 Y103.805 E268.61045
G1 X155.193 Y90.853 E270.76312
G1 X154.173 Y90.853 E270.88296
G1 X168.145 Y104.825 E273.20512
G1 X168.145 Y105.845 E273.32497
G1 X153.153 Y90.853 E275.81662
G1 X152.133 Y90.853 E275.93646
G1 X168.145 Y106.864 E278.59760
G1 X168.145 Y107.884 E278.71745
G1 X151.113 Y90.853 E281.54809
G1 X150.094 Y90.853 E281.66794
G1 X168.145 Y108.904 E284.66806
G1 X168.145 Y109.924 E284.78791
G1 X149.074 Y90.853 E287.95753
G1 X148.054 Y90.853 E288.07738
G1 X168.145 Y110.944 E291.41649
G1 X168.145 Y111.963 E291.53634
G1 X147.034 Y90.853 E295.04494
G1 X146.014 Y90.853 E295.16479
G1 X168.145 Y112.983 E298.84289
G1 X168.145 Y114.003 E298.96274
G1 X144.995 Y90.853 E302.81033
G1 X143.975 Y90.853 E302.93018
G1 X168.145 Y115.023 E306.94726
G1 F1800.000 E305.94726
G92 E0
G1 Z0.700 F7200.000
G1 X169.141 Y115.521 F7200.000
G1 E1.00000 F1800.000
G1 X169.141 Y103.068 E1.60882 F3600
G1 X177.852 Y103.068 E2.03472
G1 X177.852 Y115.521 E2.64354
G1 X169.201 Y115.521 E3.06651
G1 X169.541 Y115.121 F7200.000
G1 X169.541 Y103.468 E3.63621 F1800
G1 X177.452 Y103.468 E4.02300
G1 X177.452 Y115.121 E4.59270
G1 X169.601 Y115.121 E4.97656
G1 X169.141 Y115.121 F7200.000
G1 X130.859 Y115.521 F7200.000
G1 X122.148 Y115.521 E5.40246 F3600
G1 X122.148 Y103.068 E6.01128
G1 X130.860 Y103.068 E6.43718
G1 X130.859 Y115.461 E7.04307
G1 X130.459 Y115.121 F7200.000
G1 X122.548 Y115.121 E7.42986 F1800
G1 X122.548 Y103.468 E7.99956
G1 X130.459 Y103.468 E8.38635
G1 X130.459 Y115.061 E8.95312
G1 X130.459 Y115.521 F7200.000
G1 X115.978 Y120.143 F7200.000
G1 X119.621 Y93.922 E10.24741 F3600
G1 X132.416 Y89.857 E10.90384
G1 X167.582 Y89.857 E12.62318
G1 X180.380 Y93.929 E13.27982
G1 X184.022 Y120.143 E14.57378
G1 X116.038 Y120.143 E17.89765
G1 X115.519 Y120.543 F7200.000
G1 X119.259 Y93.620 E19.22662 F2520
G1 X132.355 Y89.457 E19.89848
G1 X167.645 Y89.457 E21.62389
G1 X180.741 Y93.621 E22.29579
G1 X184.481 Y120.543 E23.62472
G1 X115.579 Y120.543 E26.99351
G1 X115.750 Y120.216 F7200.000
G1 X126.170 Y119.870 F7200.000
G1 X130.246 Y115.794 E27.28879 F3600
G1 X129.653 Y115.794 E27.31915
G1 X125.577 Y119.870 E27.61444
G1 X124.985 Y119.870 E27.64480
G1 X129.060 Y115.794 E27.94009
G1 X128.468 Y115.794 E27.97045
G1 X124.392 Y119.870 E28.26573
G1 X123.799 Y119.870 E28.29610
G1 X127.875 Y115.794 E28.59138
G1 X127.282 Y115.794 E28.62175
G1 X123.206 Y119.870 E28.91703
G1 X122.614 Y119.870 E28.94739
G1 X126.690 Y115.794 E29.24268
G1 X126.097 Y115.794 E29.27304
G1 X122.021 Y119.870 E29.56833
G1 X121.428 Y119.870 E29.59869
G1 X125.504 Y115.794 E29.89398
G1 X124.911 Y115.794 E29.92434
G1 X120.836 Y119.870 E30.21962
G1 X120.243 Y119.870 E30.24999
G1 X124.319 Y115.794 E30.54527
G1 X123.726 Y115.794 E30.57564
G1 X119.650 Y119.870 E30.87092
G1 X119.057 Y119.870 E30.90128
G1 X123.133 Y115.794 E31.19657
G1 X122.541 Y115.794 E31.22693
G1 X118.465 Y119.870 E31.52222
G1 X117.872 Y119.870 E31.55258
G1 X121.948 Y115.794 E31.84786
G1 X121.875 Y115.274 E31.87476
G1 X117.279 Y119.870 E32.20773
G1 X116.687 Y119.870 E32.23809
G1 X121.875 Y114.681 E32.61399
G1 X121.875 Y114.088 E32.64435
G1 X116.324 Y119.639 E33.04651
G1 X116.420 Y118.951 E33.08211
G1 X121.875 Y113.496 E33.47734
G1 X121.875 Y112.903 E33.50770
G1 X116.515 Y118.263 E33.89600
G1 X116.611 Y117.574 E33.93160
G1 X121.875 Y112.310 E34.31297
G1 X121.875 Y111.717 E34.34334
G1 X116.707 Y116.886 E34.71778
G1 X116.802 Y116.198 E34.75338
G1 X121.875 Y111.125 E35.12090
G1 X121.875 Y110.532 E35.15127
G1 X116.898 Y115.509 E35.51186
G1 X116.994 Y114.821 E35.54746
G1 X121.875 Y109.939 E35.90112
G1 X121.875 Y109.347 E35.93148
G1 X117.089 Y114.133 E36.27822
G1 X117.185 Y113.444 E36.31382
G1 X121.875 Y108.754 E36.65363
G1 X121.875 Y108.161 E36.68399
G1 X117.280 Y112.756 E37.01688
G1 X117.376 Y112.068 E37.05248
G1 X121.875 Y107.568 E37.37843
G1 X121.875 Y106.976 E37.40880
G1 X117.472 Y111.379 E37.72782
G1 X117.567 Y110.691 E37.76342
G1 X121.875 Y106.383 E38.07552
G1 X121.875 Y105.790 E38.10589
G1 X117.663 Y110.003 E38.41106
G1 X117.758 Y109.314 E38.44666
G1 X121.875 Y105.198 E38.74491
G1 X121.875 Y104.605 E38.77527
G1 X117.854 Y108.626 E39.06659
G1 X117.950 Y107.938 E39.10219
G1 X121.875 Y104.012 E39.38658
G1 X121.875 Y103.420 E39.41695
G1 X118.045 Y107.249 E39.69441
G1 X118.141 Y106.561 E39.73001
G1 X134.572 Y90.130 E40.92037
G1 X135.164 Y90.130 E40.95074
G1 X122.500 Y102.795 E41.86826
G1 X123.092 Y102.795 E41.89862
G1 X135.757 Y90.130 E42.81615
G1 X136.350 Y90.130 E42.84651
G1 X123.685 Y102.795 E43.76404
G1 X124.278 Y102.795 E43.79440
G1 X136.942 Y90.130 E44.71192
G1 X137.535 Y90.130 E44.74229
G1 X124.870 Y102.795 E45.65981
G1 X125.463 Y102.795 E45.69018
G1 X138.128 Y90.130 E46.60770
G1 X138.721 Y90.130 E46.63806
G1 X126.056 Y102.795 E47.55559
G1 X126.649 Y102.795 E47.58595
G1 X139.313 Y90.130 E48.50348
G1 X139.906 Y90.130 E48.53384
G1 X127.241 Y102.795 E49.45137
G1 X127.834 Y102.795 E49.48173
G1 X140.499 Y90.130 E50.39925
G1 X141.091 Y90.130 E50.42962
G1 X128.427 Y102.795 E51.34714
G1 X129.019 Y102.795 E51.37750
