; generated by Slic3r 1.0.0RC3 on 2014-03-12 at 08:52:48

; layer_height = 0.3
; perimeters = 2
; top_solid_layers = 3
; bottom_solid_layers = 3
; fill_density = 0.1
; perimeter_speed = 60
; infill_speed = 60
; travel_speed = 120
; nozzle_diameter = 0.4
; filament_diameter = 1.75
; extrusion_multiplier = 0.98
; perimeters extrusion width = 0.40mm
; infill extrusion width = 0.42mm
; solid infill extrusion width = 0.42mm
; top infill extrusion width = 0.42mm
; first layer extrusion width = 0.60mm

G21 ; set units to millimeters
M107
M104 S220 ; set temperature
G28 ; home all axes
M106 S255;
G1 Z200 F1200 ; lift nozzle
M109 S220 ; wait for temperature to be reached
G90 ; use absolute coordinates
G92 E0
M82 ; use absolute distances for extrusion
G1 F1800.000 E-1.00000
G92 E0
G1 Z0.300 F7200.000
G1 X109.071 Y78.233 F7200.000
G1 E1.00000 F1800.000
G1 X113.321 Y72.223 E1.50122 F1080.000
G1 X113.761 Y71.663 E1.54971
G1 X114.271 Y71.153 E1.59883
G1 X119.721 Y66.213 E2.09969
G1 X120.211 Y65.803 E2.14320
G1 X120.751 Y65.453 E2.18701
G1 X127.211 Y61.583 E2.69978
G1 X128.651 Y60.933 E2.80736
G1 X130.191 Y60.653 E2.91395
G1 X137.341 Y60.193 E3.40181
G1 X138.271 Y60.193 E3.46514
G1 X161.501 Y61.963 E5.05151
G1 X162.271 Y62.073 E5.10447
G1 X163.021 Y62.263 E5.15716
G1 X170.311 Y64.623 E5.67891
G1 X171.291 Y65.033 E5.75125
G1 X172.201 Y65.593 E5.82401
G1 X178.791 Y70.483 E6.38278
G1 X179.521 Y71.113 E6.44844
G1 X185.281 Y77.213 E7.01971
G1 X185.661 Y77.653 E7.05930
G1 X185.991 Y78.113 E7.09785
G1 X190.461 Y84.923 E7.65253
G1 X190.771 Y85.443 E7.69375
G1 X191.021 Y85.983 E7.73427
G1 X194.131 Y93.373 E8.28022
G1 X194.351 Y93.943 E8.32182
G1 X194.501 Y94.543 E8.36394
G1 X196.151 Y102.243 E8.90015
G1 X196.251 Y102.863 E8.94291
G1 X196.301 Y103.503 E8.98662
G1 X196.431 Y111.213 E9.51169
G1 X196.401 Y111.883 E9.55736
G1 X196.311 Y112.543 E9.60272
G1 X194.901 Y119.963 E10.11700
G1 X194.741 Y120.633 E10.16391
G1 X194.501 Y121.283 E10.21109
G1 X191.621 Y128.123 E10.71644
G1 X191.311 Y128.773 E10.76548
G1 X190.931 Y129.373 E10.81384
G1 X186.671 Y135.383 E11.31545
G1 X186.231 Y135.943 E11.36395
G1 X185.721 Y136.453 E11.41306
G1 X180.271 Y141.393 E11.91392
G1 X179.721 Y141.843 E11.96231
G1 X179.121 Y142.233 E12.01104
G1 X172.671 Y145.913 E12.51669
G1 X172.051 Y146.223 E12.56389
G1 X171.401 Y146.463 E12.61107
G1 X164.201 Y148.743 E13.12533
G1 X163.561 Y148.913 E13.17042
G1 X162.901 Y149.013 E13.21588
G1 X155.231 Y149.813 E13.74098
G1 X154.591 Y149.853 E13.78464
G1 X153.951 Y149.823 E13.82827
G1 X146.111 Y149.103 E14.36436
G1 X145.501 Y149.013 E14.40635
G1 X144.901 Y148.873 E14.44830
G1 X137.181 Y146.653 E14.99528
G1 X136.621 Y146.463 E15.03554
G1 X136.081 Y146.233 E15.07551
G1 X128.791 Y142.623 E15.62943
G1 X128.281 Y142.333 E15.66938
G1 X127.801 Y142.013 E15.70866
G1 X121.211 Y137.133 E16.26703
G1 X120.761 Y136.773 E16.30627
G1 X120.341 Y136.363 E16.34624
G1 X114.711 Y130.403 E16.90451
G1 X114.331 Y129.963 E16.94409
G1 X113.991 Y129.493 E16.98359
G1 X109.531 Y122.683 E17.53790
G1 X109.231 Y122.173 E17.57819
G1 X108.981 Y121.643 E17.61809
G1 X105.861 Y114.243 E18.16493
G1 X105.651 Y113.663 E18.20693
G1 X105.491 Y113.063 E18.24922
G1 X103.841 Y105.363 E18.78543
G1 X103.741 Y104.743 E18.82819
G1 X103.691 Y104.103 E18.87190
G1 X103.561 Y96.393 E19.39697
G1 X103.591 Y95.723 E19.44264
G1 X103.681 Y95.063 E19.48800
G1 X105.091 Y87.643 E20.00228
G1 X105.251 Y86.963 E20.04985
G1 X105.491 Y86.313 E20.09703
G1 X108.381 Y79.473 E20.60265
G1 X108.691 Y78.833 E20.65107
G1 X109.026 Y78.304 E20.69374
G1 F1800.000 E19.69374
G92 E0
G1 X139.934 Y79.457 F7200.000
G1 E1.00000 F1800.000
G1 X161.589 Y79.412 E2.47458 F1080.000
G1 X161.568 Y90.921 E3.25829
G1 X139.982 Y90.966 E4.72814
G1 X139.934 Y79.540 E5.50616
G1 X140.493 Y80.013 F7200.000
G1 X161.031 Y79.970 E6.90465 F540.000
G1 X161.012 Y90.365 E7.61249
G1 X140.537 Y90.408 E9.00670
G1 X140.494 Y80.096 E9.70886
G1 X140.492 Y79.456 F7200.000
G1 F1800.000 E8.70886
G92 E0
G1 X147.375 Y114.551 F7200.000
G1 E1.00000 F1800.000
G1 X158.274 Y124.219 E1.99205 F1080.000
G1 X148.606 Y135.118 E2.98409
G1 X137.707 Y125.451 E3.97614
G1 X147.319 Y114.614 E4.96249
G1 X147.422 Y115.338 F7200.000
G1 X157.488 Y124.266 E5.87867 F540.000
G1 X148.559 Y134.332 E6.79485
G1 X138.493 Y125.404 E7.71104
G1 X147.366 Y115.400 E8.62152
G1 X147.791 Y114.921 F7200.000
G1 F1800.000 E7.62152
G92 E0
G1 X139.200 Y139.505 F7200.000
G1 E1.00000 F1800.000
G1 X132.156 Y136.012 E1.53535 F1080.000
G1 X125.688 Y131.220 E2.08347
G1 X120.159 Y125.370 E2.63158
G1 X115.783 Y118.690 E3.17539
G1 X112.727 Y111.439 E3.71115
G1 X111.109 Y103.900 E4.23620
G1 X110.987 Y96.365 E4.74938
G1 X112.361 Y89.122 E5.25135
G1 X115.175 Y82.448 E5.74455
G1 X119.319 Y76.594 E6.23294
G1 X124.643 Y71.774 E6.72197
G1 X130.848 Y68.051 E7.21464
G1 X137.630 Y67.607 E7.67744
G1 X145.241 Y71.352 E8.25504
G1 X153.368 Y71.392 E8.80846
G1 X153.670 Y71.333 E8.82942
G1 X160.979 Y69.406 E9.34408
G1 X167.899 Y71.645 E9.83935
G1 X174.315 Y76.399 E10.38310
G1 X179.845 Y82.249 E10.93124
G1 X184.221 Y88.929 E11.47505
G1 X187.277 Y96.180 E12.01081
G1 X188.895 Y103.719 E12.53585
G1 X189.017 Y111.255 E13.04904
G1 X187.643 Y118.498 E13.55100
G1 X184.829 Y125.172 E14.04421
G1 X180.685 Y131.026 E14.53259
G1 X175.367 Y135.839 E15.02098
G1 X169.077 Y139.429 E15.51419
G1 X162.050 Y141.657 E16.01615
G1 X154.553 Y142.435 E16.52934
G1 X146.875 Y141.728 E17.05438
G1 X139.275 Y139.542 E17.59287
G1 X138.953 Y140.004 F7200.000
G1 X131.865 Y136.489 E18.13159 F540.000
G1 X125.317 Y131.639 E18.68642
G1 X119.720 Y125.717 E19.24125
G1 X115.289 Y118.953 E19.79188
G1 X112.194 Y111.607 E20.33465
G1 X110.553 Y103.964 E20.86697
G1 X110.429 Y96.317 E21.38775
G1 X111.824 Y88.960 E21.89762
G1 X114.685 Y82.175 E22.39898
G1 X118.900 Y76.222 E22.89567
G1 X124.310 Y71.324 E23.39260
G1 X130.675 Y67.505 E23.89801
G1 X137.727 Y67.042 E24.37927
G1 X145.374 Y70.797 E24.95932
G1 X153.316 Y70.834 E25.50011
G1 X153.546 Y70.790 E25.51608
G1 X160.995 Y68.825 E26.04062
G1 X168.157 Y71.143 E26.55323
G1 X174.687 Y75.980 E27.10654
G1 X180.284 Y81.902 E27.66140
G1 X184.715 Y88.666 E28.21202
G1 X187.810 Y96.012 E28.75479
G1 X189.451 Y103.656 E29.28711
G1 X189.575 Y111.303 E29.80789
G1 X188.179 Y118.659 E30.31776
G1 X185.319 Y125.444 E30.81912
G1 X181.104 Y131.398 E31.31582
G1 X175.696 Y136.293 E31.81251
G1 X169.301 Y139.942 E32.31387
G1 X162.164 Y142.206 E32.82374
G1 X154.556 Y142.995 E33.34452
G1 X146.772 Y142.278 E33.87684
G1 X139.109 Y140.082 E34.41961
G1 X139.027 Y140.041 E34.42583
G1 X138.917 Y139.448 F7200.000
G1 X138.534 Y138.735 F7200.000
G1 X114.551 Y114.752 E36.75062 F1080.000
G1 X113.973 Y113.381 F7200.000
G1 X139.915 Y139.324 E39.26535 F1080.000
G1 F1800.000 E38.26535
G92 E0
G1 X136.960 Y137.955 F7200.000
G1 E1.00000 F1800.000
G1 X115.128 Y116.122 E3.11633 F1080.000
G1 X115.706 Y117.493 F7200.000
G1 X135.387 Y137.175 E5.02418 F1080.000
G1 X133.814 Y136.395 F7200.000
G1 X116.527 Y119.107 E6.69995 F1080.000
G1 F1800.000 E5.69995
G92 E0
G1 X118.033 Y121.407 F7200.000
G1 E1.00000 F1800.000
G1 X132.126 Y135.499 E2.36609 F1080.000
G1 F1800.000 E1.36609
G92 E0
G1 X129.066 Y133.232 F7200.000
G1 E1.00000 F1800.000
G1 X119.540 Y123.706 E1.92342 F1080.000
G1 F1800.000 E0.92342
G92 E0
G1 X125.706 Y130.666 F7200.000
G1 E1.00000 F1800.000
G1 X126.005 Y130.965 E1.02900 F1080.000
G1 F1800.000 E0.02900
G92 E0
G1 X144.413 Y131.925 F7200.000
G1 E1.00000 F1800.000
G1 X154.525 Y142.037 E1.98017 F1080.000
G1 X155.248 Y141.967 E2.02997
G1 X148.788 Y135.507 E2.65616
G1 X149.161 Y135.087 E2.69467
G1 X155.966 Y141.893 E3.35437
G1 X156.685 Y141.818 E3.40389
G1 X149.533 Y134.667 E4.09710
G1 X149.906 Y134.246 E4.13561
G1 X157.403 Y141.743 E4.86234
G1 X158.122 Y141.669 E4.91186
G1 X150.279 Y133.826 E5.67210
G1 X150.652 Y133.406 E5.71061
G1 X158.840 Y141.594 E6.50437
G1 X159.559 Y141.520 E6.55388
G1 X151.025 Y132.986 E7.38115
G1 X151.397 Y132.565 E7.41966
G1 X160.277 Y141.445 E8.28044
G1 X160.996 Y141.371 E8.32996
G1 X151.770 Y132.145 E9.22426
G1 X152.143 Y131.725 E9.26276
G1 X161.714 Y141.296 E10.19057
G1 X162.358 Y141.146 E10.23585
G1 X152.516 Y131.305 E11.18989
G1 X152.888 Y130.884 E11.22840
G1 X162.960 Y140.956 E12.20467
G1 X163.562 Y140.765 E12.24796
G1 X153.261 Y130.464 E13.24646
G1 X153.634 Y130.044 E13.28497
G1 X164.164 Y140.574 E14.30570
G1 X164.766 Y140.383 E14.34900
G1 X154.007 Y129.623 E15.39196
G1 X154.380 Y129.203 E15.43047
G1 X165.368 Y140.192 E16.49566
G1 X165.970 Y140.001 E16.53896
G1 X154.752 Y128.783 E17.62638
G1 X155.125 Y128.363 E17.66489
G1 X166.572 Y139.810 E18.77454
G1 X167.175 Y139.619 E18.81784
G1 X155.498 Y127.942 E19.94972
G1 X155.871 Y127.522 E19.98823
G1 X167.777 Y139.428 E21.14234
G1 X168.379 Y139.237 E21.18564
G1 X156.244 Y127.102 E22.36199
G1 X156.616 Y126.682 E22.40049
G1 X168.971 Y139.036 E23.59808
G1 X169.476 Y138.748 E23.63793
G1 X156.989 Y126.261 E24.84832
G1 X157.362 Y125.841 E24.88683
G1 X169.981 Y138.460 E26.11003
G1 X170.485 Y138.171 E26.14988
G1 X157.735 Y125.421 E27.38588
G1 X158.107 Y125.000 E27.42439
G1 X170.990 Y137.883 E28.67321
G1 X171.495 Y137.595 E28.71306
G1 X158.480 Y124.580 E29.97468
G1 F1800.000 E28.97468
G92 E0
G1 X152.245 Y118.345 F7200.000
G1 E1.00000 F1800.000
G1 X115.943 Y82.043 E4.51895 F1080.000
G1 X116.272 Y81.579 E4.55795
G1 X172.000 Y137.307 E9.96000
G1 X172.505 Y137.019 E9.99985
G1 X116.601 Y81.115 E15.41898
G1 X116.930 Y80.650 E15.45798
G1 X173.010 Y136.731 E20.89419
G1 X173.515 Y136.443 E20.93404
G1 X117.258 Y80.186 E26.38733
G1 X117.587 Y79.722 E26.42632
G1 X174.020 Y136.154 E31.89669
G1 X174.525 Y135.866 E31.93654
G1 X117.916 Y79.257 E37.42398
G1 X118.244 Y78.793 E37.46298
G1 X175.030 Y135.578 E42.96750
G1 X175.464 Y135.220 E43.00612
G1 X118.573 Y78.329 E48.52092
G1 X118.902 Y77.864 E48.55992
G1 X175.881 Y134.843 E54.08321
G1 X176.297 Y134.466 E54.12169
G1 X119.231 Y77.400 E59.65346
G1 X119.559 Y76.936 E59.69246
G1 X176.713 Y134.089 E65.23272
G1 X177.129 Y133.713 E65.27121
G1 X119.961 Y76.544 E70.81291
G1 X120.377 Y76.167 E70.85140
G1 X177.546 Y133.336 E76.39310
G1 X177.962 Y132.959 E76.43159
G1 X120.793 Y75.790 E81.97329
G1 X121.209 Y75.414 E82.01178
G1 X178.378 Y132.582 E87.55348
G1 X178.794 Y132.206 E87.59197
G1 X121.626 Y75.037 E93.13367
G1 X122.042 Y74.660 E93.17216
G1 X179.211 Y131.829 E98.71386
G1 X179.627 Y131.452 E98.75235
G1 X122.458 Y74.283 E104.29406
G1 X122.875 Y73.906 E104.33254
G1 X139.587 Y90.619 E105.95258
G1 X139.584 Y89.822 E106.00717
G1 X123.291 Y73.530 E107.58653
G1 X123.707 Y73.153 E107.62501
G1 X139.580 Y89.026 E109.16370
G1 X139.577 Y88.230 E109.21829
G1 X124.123 Y72.776 E110.71630
G1 X124.540 Y72.399 E110.75478
G1 X139.574 Y87.433 E112.21212
G1 X139.570 Y86.637 E112.26671
G1 X124.970 Y72.037 E113.68195
G1 X125.466 Y71.740 E113.72157
G1 X139.567 Y85.840 E115.08843
G1 X139.564 Y85.044 E115.14302
G1 X125.962 Y71.442 E116.46152
G1 X126.457 Y71.145 E116.50114
G1 X139.560 Y84.248 E117.77127
G1 X139.557 Y83.451 E117.82586
G1 X126.953 Y70.847 E119.04761
G1 X127.449 Y70.550 E119.08723
G1 X139.553 Y82.655 E120.26061
G1 X139.550 Y81.858 E120.31520
G1 X127.944 Y70.253 E121.44021
G1 X128.440 Y69.955 E121.47983
G1 X139.547 Y81.062 E122.55647
G1 X139.543 Y80.266 E122.61106
G1 X128.936 Y69.658 E123.63933
G1 X129.431 Y69.360 E123.67895
G1 X139.540 Y79.469 E124.65884
G1 X139.927 Y79.063 E124.69729
G1 X129.927 Y69.063 E125.66662
G1 X130.423 Y68.766 E125.70624
G1 X140.718 Y79.061 E126.70425
G1 X141.510 Y79.060 E126.75849
G1 X130.918 Y68.468 E127.78516
G1 X131.638 Y68.394 E127.83472
G1 X142.301 Y79.058 E128.86839
G1 X143.092 Y79.056 E128.92264
G1 X132.382 Y68.346 E129.96089
G1 X133.126 Y68.297 E130.01201
G1 X143.884 Y79.055 E131.05483
G1 X144.675 Y79.053 E131.10907
G1 X133.870 Y68.248 E132.15646
G1 X134.615 Y68.199 E132.20758
G1 X145.467 Y79.051 E133.25953
G1 X146.258 Y79.050 E133.31378
G1 X135.359 Y68.151 E134.37029
G1 X136.103 Y68.102 E134.42142
G1 X147.050 Y79.048 E135.48251
G1 X147.841 Y79.046 E135.53675
G1 X136.848 Y68.053 E136.60240
G1 X137.637 Y68.050 E136.65655
G1 X148.632 Y79.045 E137.72235
G1 X149.424 Y79.043 E137.77659
G1 X139.199 Y68.818 E138.76777
G1 X140.760 Y69.586 F7200.000
G1 X150.215 Y79.042 E139.68431 F1080.000
G1 X151.007 Y79.040 E139.73856
G1 X142.321 Y70.355 E140.58047
G1 X143.883 Y71.123 F7200.000
G1 X151.798 Y79.038 E141.34776 F1080.000
G1 X152.589 Y79.037 E141.40200
G1 X145.299 Y71.746 E142.10870
G1 X146.096 Y71.750 E142.16332
G1 X153.381 Y79.035 E142.86948
G1 X154.172 Y79.033 E142.92373
G1 X146.893 Y71.754 E143.62935
G1 X147.690 Y71.758 E143.68398
G1 X154.964 Y79.032 E144.38907
G1 X155.755 Y79.030 E144.44332
G1 X148.487 Y71.762 E145.14788
G1 X149.284 Y71.766 E145.20250
G1 X156.547 Y79.028 E145.90653
G1 X157.338 Y79.027 E145.96077
G1 X150.081 Y71.770 E146.66426
G1 X150.878 Y71.773 E146.71889
G1 X158.129 Y79.025 E147.42185
G1 X158.921 Y79.024 E147.47609
G1 X151.675 Y71.777 E148.17852
G1 X152.471 Y71.781 E148.23314
G1 X159.712 Y79.022 E148.93503
G1 X160.504 Y79.020 E148.98928
G1 X153.268 Y71.785 E149.69063
G1 X153.944 Y71.668 E149.73766
G1 X161.295 Y79.019 E150.45020
G1 X161.983 Y79.706 F7200.000
G1 X188.542 Y106.266 E153.02476 F1080.000
G1 X188.529 Y105.459 E153.08002
G1 X154.572 Y71.502 E156.37168
G1 X155.200 Y71.337 E156.41616
G1 X188.516 Y104.653 E159.64572
G1 X188.503 Y103.847 E159.70098
G1 X155.827 Y71.172 E162.86843
G1 X156.455 Y71.006 E162.91292
G1 X188.307 Y102.858 E166.00056
G1 X188.090 Y101.849 E166.07135
G1 X157.082 Y70.841 E169.07715
G1 X157.710 Y70.675 E169.12163
G1 X187.874 Y100.839 E172.04559
G1 X187.657 Y99.829 E172.11638
G1 X158.337 Y70.510 E174.95849
G1 X158.965 Y70.344 E175.00298
G1 X187.440 Y98.819 E177.76325
G1 X187.223 Y97.809 E177.83404
G1 X159.593 Y70.179 E180.51247
G1 X160.220 Y70.013 E180.55695
G1 X187.007 Y96.800 E183.15354
G1 X186.608 Y95.608 F7200.000
G1 X160.848 Y69.848 E185.65065 F1080.000
G1 X161.916 Y70.123 E185.72628
G1 X186.031 Y94.238 E188.06384
G1 X185.453 Y92.867 F7200.000
G1 X163.089 Y70.502 E190.23177 F1080.000
G1 X164.261 Y70.882 E190.31624
G1 X184.876 Y91.496 E192.31454
G1 X184.298 Y90.126 F7200.000
G1 X165.434 Y71.261 E194.14321 F1080.000
G1 X166.606 Y71.641 E194.22768
G1 X183.477 Y88.512 E195.86307
G1 F1800.000 E194.86307
G92 E0
G1 X181.971 Y86.212 F7200.000
G1 E1.00000 F1800.000
G1 X167.878 Y72.120 E2.36602 F1080.000
G1 F1800.000 E1.36602
G92 E0
G1 X170.939 Y74.387 F7200.000
G1 E1.00000 F1800.000
G1 X180.464 Y83.913 E1.92336 F1080.000
G1 F1800.000 E0.92336
G92 E0
G1 X174.295 Y76.951 F7200.000
G1 E1.00000 F1800.000
G1 X173.999 Y76.654 E1.02876 F1080.000
G1 F1800.000 E0.02876
G92 E0
G1 X161.981 Y80.498 F7200.000
G1 E1.00000 F1800.000
G1 X188.555 Y107.072 E3.57597 F1080.000
G1 X188.568 Y107.878 E3.63123
G1 X161.980 Y81.289 E6.20860
G1 X161.978 Y82.081 E6.26286
G1 X188.581 Y108.684 E8.84165
G1 X188.594 Y109.490 E8.89691
G1 X161.977 Y82.873 E11.47710
G1 X161.975 Y83.664 E11.53136
G1 X188.608 Y110.296 E14.11296
G1 X188.621 Y111.102 E14.16823
G1 X161.974 Y84.456 E16.75124
G1 X161.973 Y85.248 E16.80550
G1 X188.515 Y111.790 E19.37838
G1 X188.388 Y112.456 E19.42488
G1 X161.971 Y86.039 E21.98565
G1 X161.970 Y86.831 E22.03991
G1 X188.262 Y113.123 E24.58855
G1 X188.135 Y113.789 E24.63506
G1 X161.968 Y87.622 E27.17159
G1 X161.967 Y88.414 E27.22585
G1 X188.009 Y114.456 E29.75026
G1 X187.882 Y115.123 E29.79676
G1 X161.965 Y89.206 E32.30906
G1 X161.964 Y89.997 E32.36332
G1 X187.756 Y115.789 E34.86349
G1 X187.629 Y116.456 E34.91000
G1 X161.962 Y90.789 E37.39806
G1 X161.696 Y91.315 E37.43850
G1 X187.503 Y117.122 E39.94016
G1 X187.377 Y117.789 E39.98667
G1 X160.904 Y91.317 E42.55279
G1 X160.113 Y91.318 E42.60704
G1 X187.238 Y118.444 E45.23648
G1 X187.003 Y119.002 E45.27797
G1 X159.321 Y91.320 E47.96133
G1 X158.530 Y91.322 E48.01557
G1 X186.768 Y119.559 E50.75285
G1 X186.533 Y120.117 E50.79434
G1 X157.739 Y91.323 E53.58553
G1 X156.947 Y91.325 E53.63978
G1 X186.298 Y120.675 E56.48489
G1 X186.062 Y121.233 E56.52638
G1 X156.156 Y91.326 E59.42541
G1 X155.364 Y91.328 E59.47966
G1 X185.827 Y121.791 E62.43260
G1 X185.592 Y122.349 E62.47410
G1 X154.573 Y91.330 E65.48096
G1 X153.781 Y91.331 E65.53520
G1 X185.357 Y122.907 E68.59598
