; generated by Slic3r 1.0.0RC2 on 2014-05-22 at 19:58:01

; layer_height = 0.3
; perimeters = 3
; top_solid_layers = 3
; bottom_solid_layers = 3
; fill_density = 0.30
; perimeter_speed = 60
; infill_speed = 60
; travel_speed = 120
; nozzle_diameter = 0.4
; filament_diameter = 1.75
; extrusion_multiplier = 0.98
; perimeters extrusion width = 0.40mm
; infill extrusion width = 0.42mm
; solid infill extrusion width = 0.42mm
; top infill extrusion width = 0.42mm
; first layer extrusion width = 0.80mm

G21 ; set units to millimeters
M107
M104 S220 ; set temperature
G28 ; home all axes
M106 S255;
G1 Z200 F1200 ; lift nozzle
M109 S220 ; wait for temperature to be reached
G90 ; use absolute coordinates
G92 E0
M82 ; use absolute distances for extrusion
G1 F1800.000 E-1.00000
G92 E0
G1 Z0.400 F7200.000
G1 X105.957 Y106.128 F7200.000
G1 E1.00000 F1800.000
G1 X134.407 Y81.388 E5.38818 F1080.000
G1 X135.737 Y80.498 E5.57444
G1 X137.227 Y79.938 E5.75970
G1 X138.817 Y79.748 E5.94608
G1 X167.947 Y79.748 E9.33651
G1 X169.367 Y79.898 E9.50271
G1 X170.717 Y80.338 E9.66797
G1 X171.947 Y81.068 E9.83444
G1 X172.997 Y82.028 E10.00003
G1 X194.677 Y106.768 E13.82869
G1 X195.587 Y108.098 E14.01626
G1 X196.147 Y109.598 E14.20261
G1 X196.337 Y111.198 E14.39014
G1 X196.337 Y115.078 E14.84174
G1 X196.127 Y116.758 E15.03879
G1 X195.497 Y118.338 E15.23677
G1 X194.097 Y120.858 E15.57229
G1 X193.467 Y121.798 E15.70400
G1 X192.677 Y122.628 E15.83737
G1 X189.257 Y125.658 E16.36917
G1 X188.847 Y125.988 E16.43043
G1 X184.987 Y128.898 E16.99306
G1 X183.747 Y129.638 E17.16113
G1 X182.377 Y130.098 E17.32933
G1 X180.947 Y130.248 E17.49668
G1 X118.977 Y130.248 E24.70936
G1 X117.137 Y129.998 E24.92549
G1 X115.427 Y129.238 E25.14329
G1 X110.317 Y126.058 E25.84380
G1 X109.617 Y125.558 E25.94392
G1 X108.987 Y124.968 E26.04438
G1 X105.487 Y121.268 E26.63717
G1 X104.707 Y120.268 E26.78478
G1 X104.127 Y119.138 E26.93261
G1 X103.777 Y117.918 E27.08034
G1 X103.657 Y116.658 E27.22765
G1 X103.657 Y111.198 E27.86314
G1 X103.807 Y109.778 E28.02933
G1 X104.257 Y108.418 E28.19606
G1 X104.987 Y107.178 E28.36354
G1 X105.884 Y106.207 E28.51745
G1 F1800.000 E27.51745
G92 E0
G1 X149.076 Y94.705 F7200.000
G1 E1.00000 F1800.000
G1 X148.988 Y93.829 E1.10245 F540.000
G1 X149.075 Y92.958 E1.20429
G1 X149.326 Y92.117 E1.30646
G1 X149.737 Y91.341 E1.40858
G1 X150.289 Y90.661 E1.51057
G1 X150.959 Y90.104 E1.61191
G1 X151.746 Y89.680 E1.71605
G1 X152.574 Y89.425 E1.81679
G1 X153.457 Y89.339 E1.92015
G1 X154.320 Y89.423 E2.02108
G1 X155.176 Y89.687 E2.12525
G1 X155.940 Y90.098 E2.22626
G1 X156.615 Y90.660 E2.32850
G1 X157.169 Y91.341 E2.43068
G1 X157.580 Y92.118 E2.53300
G1 X157.830 Y92.958 E2.63495
G1 X157.918 Y93.830 E2.73702
G1 X157.831 Y94.704 E2.83916
G1 X157.580 Y95.544 E2.94129
G1 X157.170 Y96.319 E3.04329
G1 X156.615 Y97.000 E3.14555
G1 X155.943 Y97.559 E3.24732
G1 X155.168 Y97.978 E3.34981
G1 X154.329 Y98.235 E3.45193
G1 X153.452 Y98.323 E3.55454
G1 X152.576 Y98.235 E3.65702
G1 X151.739 Y97.978 E3.75896
G1 X150.964 Y97.560 E3.86145
G1 X150.291 Y97.000 E3.96335
G1 X149.738 Y96.322 E4.06512
G1 X149.325 Y95.540 E4.16805
G1 X149.106 Y94.807 E4.25711
G1 X149.779 Y94.566 F7200.000
G1 X149.706 Y93.829 E4.34324 F540.000
G1 X149.779 Y93.097 E4.42890
G1 X149.990 Y92.389 E4.51485
G1 X150.335 Y91.738 E4.60062
G1 X150.800 Y91.166 E4.68643
G1 X151.363 Y90.697 E4.77164
G1 X152.021 Y90.343 E4.85860
G1 X152.717 Y90.129 E4.94340
G1 X153.456 Y90.057 E5.02981
G1 X154.182 Y90.127 E5.11474
G1 X154.895 Y90.347 E5.20163
G1 X155.539 Y90.694 E5.28669
G1 X156.105 Y91.165 E5.37244
G1 X156.571 Y91.738 E5.45836
G1 X156.916 Y92.390 E5.54426
G1 X157.127 Y93.097 E5.63008
G1 X157.200 Y93.830 E5.71588
G1 X157.127 Y94.565 E5.80182
G1 X156.916 Y95.272 E5.88766
G1 X156.572 Y95.923 E5.97344
G1 X156.105 Y96.495 E6.05934
G1 X155.541 Y96.965 E6.14481
G1 X154.891 Y97.316 E6.23080
G1 X154.187 Y97.532 E6.31642
G1 X153.452 Y97.606 E6.40238
G1 X152.718 Y97.532 E6.48826
G1 X152.016 Y97.316 E6.57378
G1 X151.366 Y96.965 E6.65977
G1 X150.801 Y96.495 E6.74531
G1 X150.336 Y95.925 E6.83092
G1 X149.990 Y95.269 E6.91726
G1 X149.810 Y94.668 E6.99028
G1 X150.483 Y94.426 F7200.000
G1 X150.424 Y93.830 E7.06008 F540.000
G1 X150.483 Y93.236 E7.12956
G1 X150.654 Y92.661 E7.19929
G1 X150.933 Y92.134 E7.26872
G1 X151.310 Y91.670 E7.33834
G1 X151.766 Y91.290 E7.40742
G1 X152.295 Y91.007 E7.47720
G1 X152.860 Y90.832 E7.54606
G1 X153.454 Y90.774 E7.61552
G1 X154.043 Y90.832 E7.68445
G1 X154.615 Y91.008 E7.75407
G1 X155.138 Y91.289 E7.82316
G1 X155.595 Y91.670 E7.89243
G1 X155.973 Y92.134 E7.96209
G1 X156.252 Y92.662 E8.03157
G1 X156.423 Y93.236 E8.10125
G1 X156.482 Y93.830 E8.17079
G1 X156.423 Y94.426 E8.24052
G1 X156.252 Y94.999 E8.31008
G1 X155.973 Y95.527 E8.37963
G1 X155.595 Y95.991 E8.44918
G1 X155.139 Y96.371 E8.51835
G1 X154.613 Y96.654 E8.58784
G1 X154.045 Y96.828 E8.65697
G1 X153.453 Y96.888 E8.72628
G1 X152.861 Y96.828 E8.79556
G1 X152.293 Y96.654 E8.86465
G1 X151.768 Y96.371 E8.93413
G1 X151.311 Y95.991 E9.00333
G1 X150.934 Y95.528 E9.07277
G1 X150.654 Y94.998 E9.14253
G1 X150.514 Y94.529 E9.19949
G1 X149.922 Y94.215 F7200.000
G1 F1800.000 E8.19949
G92 E0
G1 X180.023 Y111.878 F7200.000
G1 E1.00000 F1800.000
G1 X180.253 Y111.571 E1.04472 F540.000
G1 X180.534 Y111.313 E1.08904
G1 X180.859 Y111.121 E1.13302
G1 X181.215 Y110.999 E1.17675
G1 X181.588 Y110.960 E1.22039
G1 X181.962 Y110.999 E1.26418
G1 X182.318 Y111.121 E1.30800
G1 X182.643 Y111.313 E1.35197
G1 X182.924 Y111.571 E1.39641
G1 X183.151 Y111.878 E1.44086
G1 X183.320 Y112.227 E1.48595
G1 X183.529 Y112.995 E1.57859
G1 X183.320 Y113.759 E1.67078
G1 X183.152 Y114.107 E1.71575
G1 X182.924 Y114.417 E1.76050
G1 X182.643 Y114.673 E1.80474
G1 X182.317 Y114.868 E1.84892
G1 X181.962 Y114.987 E1.89251
G1 X181.587 Y115.028 E1.93643
G1 X181.215 Y114.987 E1.98008
G1 X180.859 Y114.867 E2.02372
G1 X180.534 Y114.673 E2.06785
G1 X180.254 Y114.418 E2.11196
G1 X180.023 Y114.107 E2.15699
G1 X179.857 Y113.758 E2.20197
G1 X179.754 Y113.383 E2.24721
G1 X179.720 Y112.994 E2.29267
G1 X179.754 Y112.605 E2.33809
G1 X179.857 Y112.228 E2.38355
G1 X179.977 Y111.975 E2.41619
G1 X179.849 Y111.536 F7200.000
G1 X181.587 Y110.357 F7200.000
G1 X183.788 Y112.995 F7200.000
G1 X183.997 Y112.228 E2.50871 F540.000
G1 X184.163 Y111.878 E2.55383
G1 X184.393 Y111.571 E2.59855
G1 X184.674 Y111.313 E2.64287
G1 X184.999 Y111.121 E2.68684
G1 X185.355 Y110.999 E2.73058
G1 X185.728 Y110.960 E2.77422
G1 X186.100 Y110.999 E2.81780
G1 X186.457 Y111.121 E2.86176
G1 X186.783 Y111.313 E2.90579
G1 X187.064 Y111.571 E2.95023
G1 X187.291 Y111.878 E2.99468
G1 X187.460 Y112.227 E3.03977
G1 X187.563 Y112.605 E3.08537
G1 X187.597 Y112.994 E3.13078
G1 X187.563 Y113.383 E3.17624
G1 X187.460 Y113.759 E3.22161
G1 X187.292 Y114.107 E3.26658
G1 X187.064 Y114.417 E3.31133
G1 X186.783 Y114.673 E3.35557
G1 X186.457 Y114.868 E3.39975
G1 X186.100 Y114.987 E3.44361
G1 X185.728 Y115.028 E3.48723
G1 X185.355 Y114.987 E3.53090
G1 X184.999 Y114.867 E3.57454
G1 X184.674 Y114.673 E3.61867
G1 X184.394 Y114.418 E3.66278
G1 X184.163 Y114.107 E3.70781
G1 X183.997 Y113.758 E3.75280
G1 X183.816 Y113.099 E3.83236
G1 X183.203 Y112.585 F7200.000
G1 F1800.000 E2.83236
G92 E0
G1 X181.587 Y110.357 F7200.000
G1 X120.038 Y112.994 F7200.000
G1 E1.00000 F1800.000
G1 X120.004 Y113.383 E1.04545 F540.000
G1 X119.901 Y113.758 E1.09070
G1 X119.735 Y114.107 E1.13568
G1 X119.504 Y114.418 E1.18070
G1 X119.224 Y114.673 E1.22482
G1 X118.899 Y114.867 E1.26895
G1 X118.543 Y114.987 E1.31259
G1 X118.170 Y115.028 E1.35626
G1 X117.798 Y114.987 E1.39988
G1 X117.441 Y114.868 E1.44374
G1 X117.115 Y114.673 E1.48792
G1 X116.834 Y114.417 E1.53216
G1 X116.606 Y114.107 E1.57691
G1 X116.438 Y113.759 E1.62187
G1 X116.229 Y112.995 E1.71404
G1 X116.438 Y112.227 E1.80670
G1 X116.607 Y111.878 E1.85179
G1 X116.834 Y111.571 E1.89624
G1 X117.115 Y111.313 E1.94068
G1 X117.441 Y111.121 E1.98471
G1 X117.798 Y110.999 E2.02867
G1 X118.170 Y110.960 E2.07225
G1 X118.543 Y110.999 E2.11589
G1 X118.899 Y111.121 E2.15963
G1 X119.224 Y111.313 E2.20360
G1 X119.505 Y111.571 E2.24792
G1 X119.735 Y111.878 E2.29264
G1 X119.901 Y112.228 E2.33776
G1 X120.004 Y112.605 E2.38322
G1 X120.029 Y112.887 E2.41617
G1 X120.370 Y113.199 F7200.000
G1 X118.170 Y110.357 F7200.000
G1 X115.969 Y112.990 F7200.000
G1 X115.761 Y113.757 E2.50859 F540.000
G1 X115.594 Y114.108 E2.55386
G1 X115.365 Y114.417 E2.59862
G1 X115.083 Y114.673 E2.64297
G1 X114.760 Y114.867 E2.68691
G1 X114.403 Y114.987 E2.73068
G1 X114.030 Y115.028 E2.77430
G1 X113.658 Y114.987 E2.81792
G1 X113.301 Y114.868 E2.86178
G1 X112.975 Y114.673 E2.90596
G1 X112.694 Y114.417 E2.95020
G1 X112.466 Y114.107 E2.99496
G1 X112.298 Y113.759 E3.03992
G1 X112.195 Y113.383 E3.08529
G1 X112.161 Y112.994 E3.13075
G1 X112.195 Y112.605 E3.17617
G1 X112.298 Y112.227 E3.22177
G1 X112.467 Y111.878 E3.26686
G1 X112.694 Y111.571 E3.31131
G1 X112.975 Y111.313 E3.35575
G1 X113.301 Y111.121 E3.39977
G1 X113.658 Y110.999 E3.44374
G1 X114.030 Y110.960 E3.48732
G1 X114.403 Y110.999 E3.53095
G1 X114.758 Y111.121 E3.57465
G1 X115.085 Y111.313 E3.61875
G1 X115.364 Y111.570 E3.66289
G1 X115.595 Y111.879 E3.70783
G1 X115.761 Y112.227 E3.75269
G1 X115.941 Y112.887 E3.83226
G1 X116.554 Y113.400 F7200.000
G1 F1800.000 E2.83226
G92 E0
G1 X120.968 Y121.721 F7200.000
G1 X121.465 Y118.529 F7200.000
G1 E1.00000 F1800.000
G1 X121.756 Y118.271 E1.04524 F540.000
G1 X122.086 Y118.079 E1.08969
G1 X122.499 Y117.945 E1.14024
G1 X122.875 Y117.907 E1.18414
G1 X123.247 Y117.945 E1.22774
G1 X123.608 Y118.058 E1.27171
G1 X123.943 Y118.243 E1.31626
G1 X124.236 Y118.490 E1.36091
G1 X124.483 Y118.797 E1.40680
G1 X124.668 Y119.153 E1.45345
G1 X124.781 Y119.541 E1.50053
G1 X124.820 Y119.960 E1.54943
G1 X124.781 Y120.362 E1.59641
G1 X124.684 Y120.708 E1.63830
G1 X124.508 Y121.072 E1.68541
G1 X124.268 Y121.388 E1.73152
G1 X123.979 Y121.645 E1.77656
G1 X123.647 Y121.840 E1.82135
G1 X123.234 Y121.973 E1.87181
G1 X122.863 Y122.009 E1.91527
G1 X122.487 Y121.973 E1.95925
G1 X122.125 Y121.860 E2.00333
G1 X121.791 Y121.675 E2.04777
G1 X121.496 Y121.425 E2.09280
G1 X121.253 Y121.119 E2.13832
G1 X121.069 Y120.765 E2.18471
G1 X120.953 Y120.376 E2.23196
G1 X120.913 Y119.965 E2.27996
G1 X120.953 Y119.556 E2.32790
G1 X121.052 Y119.207 E2.37012
G1 X121.228 Y118.844 E2.41698
G1 X121.400 Y118.614 E2.45045
G1 X121.362 Y118.154 F7200.000
G1 X152.052 Y97.206 F7200.000
G1 X174.802 Y119.949 F7200.000
G1 X174.839 Y119.543 E2.49798 F540.000
G1 X174.955 Y119.152 E2.54540
G1 X175.139 Y118.797 E2.59191
G1 X175.386 Y118.490 E2.63780
G1 X175.680 Y118.243 E2.68245
G1 X176.012 Y118.058 E2.72672
G1 X176.373 Y117.945 E2.77078
G1 X176.748 Y117.907 E2.81462
G1 X177.123 Y117.945 E2.85850
G1 X177.537 Y118.079 E2.90913
G1 X177.864 Y118.271 E2.95321
G1 X178.157 Y118.529 E2.99871
G1 X178.395 Y118.844 E3.04465
G1 X178.571 Y119.207 E3.09152
G1 X178.670 Y119.556 E3.13374
G1 X178.706 Y119.955 E3.18049
G1 X178.670 Y120.375 E3.22947
G1 X178.554 Y120.765 E3.27687
G1 X178.370 Y121.119 E3.32325
G1 X178.126 Y121.425 E3.36878
G1 X177.829 Y121.675 E3.41408
G1 X177.498 Y121.860 E3.45813
G1 X177.136 Y121.973 E3.50230
G1 X176.760 Y122.009 E3.54628
G1 X176.386 Y121.973 E3.58994
G1 X175.973 Y121.839 E3.64050
G1 X175.643 Y121.645 E3.68502
G1 X175.354 Y121.388 E3.73006
G1 X175.115 Y121.072 E3.77617
G1 X174.956 Y120.752 E3.81776
G1 X174.840 Y120.363 E3.86508
G1 X174.811 Y120.056 E3.90095
G1 X174.454 Y119.734 F7200.000
G1 X152.052 Y97.206 F7200.000
G1 X129.378 Y119.950 F7200.000
G1 X129.338 Y120.363 E3.94916 F540.000
G1 X129.239 Y120.709 E3.99111
G1 X129.063 Y121.072 E4.03797
G1 X128.825 Y121.387 E4.08393
G1 X128.536 Y121.645 E4.12909
G1 X128.203 Y121.840 E4.17392
G1 X127.791 Y121.973 E4.22433
G1 X127.417 Y122.009 E4.26805
G1 X127.043 Y121.973 E4.31178
G1 X126.682 Y121.860 E4.35590
G1 X126.348 Y121.675 E4.40026
G1 X126.054 Y121.425 E4.44522
G1 X125.807 Y121.119 E4.49100
G1 X125.623 Y120.763 E4.53764
G1 X125.509 Y120.376 E4.58458
G1 X125.471 Y119.956 E4.63366
G1 X125.509 Y119.557 E4.68035
G1 X125.606 Y119.208 E4.72251
G1 X125.782 Y118.845 E4.76940
G1 X126.023 Y118.528 E4.81570
G1 X126.313 Y118.271 E4.86082
G1 X126.643 Y118.079 E4.90531
G1 X127.056 Y117.945 E4.95578
G1 X127.429 Y117.907 E4.99950
G1 X127.804 Y117.945 E5.04333
G1 X128.165 Y118.058 E5.08732
G1 X128.499 Y118.243 E5.13181
G1 X128.794 Y118.491 E5.17662
G1 X129.038 Y118.797 E5.22226
G1 X129.222 Y119.153 E5.26888
G1 X129.338 Y119.541 E5.31604
G1 X129.366 Y119.844 E5.35140
G1 X129.730 Y120.169 F7200.000
G1 X147.310 Y122.542 F7200.000
G1 X162.784 Y119.951 F7200.000
G1 X162.829 Y119.514 E5.40253 F540.000
G1 X162.956 Y119.098 E5.45314
G1 X163.159 Y118.723 E5.50277
G1 X163.426 Y118.397 E5.55178
G1 X163.750 Y118.132 E5.60059
G1 X164.115 Y117.938 E5.64870
G1 X164.507 Y117.820 E5.69634
G1 X164.915 Y117.781 E5.74397
G1 X165.322 Y117.820 E5.79164
G1 X165.768 Y117.958 E5.84599
G1 X166.132 Y118.162 E5.89444
G1 X166.448 Y118.435 E5.94308
G1 X166.711 Y118.769 E5.99260
G1 X166.905 Y119.155 E6.04288
G1 X167.015 Y119.529 E6.08820
G1 X167.057 Y119.966 E6.13931
G1 X167.015 Y120.403 E6.19040
G1 X166.887 Y120.821 E6.24126
G1 X166.685 Y121.195 E6.29080
G1 X166.414 Y121.522 E6.34015
G1 X166.094 Y121.784 E6.38831
G1 X165.729 Y121.980 E6.43655
G1 X165.334 Y122.098 E6.48455
G1 X164.927 Y122.137 E6.53214
G1 X164.519 Y122.098 E6.57983
G1 X164.073 Y121.959 E6.63412
G1 X163.714 Y121.756 E6.68222
G1 X163.393 Y121.482 E6.73127
G1 X163.132 Y121.148 E6.78064
G1 X162.957 Y120.808 E6.82509
G1 X162.828 Y120.389 E6.87615
G1 X162.794 Y120.058 E6.91492
G1 X162.411 Y119.718 F7200.000
G1 X143.642 Y119.964 F7200.000
G1 X143.603 Y120.392 E6.96500 F540.000
G1 X143.489 Y120.804 E7.01477
G1 X143.306 Y121.180 E7.06338
G1 X143.060 Y121.506 E7.11094
G1 X142.763 Y121.776 E7.15763
G1 X142.441 Y121.963 E7.20105
G1 X142.051 Y122.099 E7.24904
G1 X141.666 Y122.140 E7.29407
G1 X141.279 Y122.098 E7.33942
G1 X140.858 Y121.952 E7.39128
G1 X140.522 Y121.744 E7.43733
G1 X140.228 Y121.467 E7.48432
G1 X139.989 Y121.132 E7.53217
G1 X139.830 Y120.793 E7.57580
G1 X139.717 Y120.380 E7.62557
G1 X139.679 Y119.952 E7.67559
G1 X139.717 Y119.526 E7.72543
G1 X139.830 Y119.115 E7.77499
G1 X140.013 Y118.739 E7.82364
G1 X140.259 Y118.409 E7.87150
G1 X140.559 Y118.142 E7.91827
G1 X140.899 Y117.941 E7.96425
G1 X141.269 Y117.819 E8.00959
G1 X141.655 Y117.778 E8.05477
G1 X142.039 Y117.819 E8.09977
G1 X142.464 Y117.965 E8.15209
G1 X142.799 Y118.174 E8.19792
G1 X143.092 Y118.450 E8.24486
G1 X143.330 Y118.786 E8.29273
G1 X143.489 Y119.125 E8.33636
G1 X143.603 Y119.537 E8.38605
G1 X143.632 Y119.857 E8.42349
G1 X144.008 Y120.190 F7200.000
G1 F1800.000 E7.42349
G92 E0
G1 X178.261 Y122.428 F7200.000
G1 E1.00000 F1800.000
G1 X179.032 Y121.414 E1.14827 F540.000
G1 X179.802 Y122.428 E1.29654
G1 X178.368 Y122.428 E1.46349
G1 X179.034 Y117.397 F7200.000
G1 X178.714 Y117.117 E1.51295 F1080.000
G1 X178.170 Y116.795 E1.58660
G1 X177.556 Y116.579 E1.66237
G1 X177.357 Y116.534 E1.68608
G1 X176.725 Y116.473 E1.75996
G1 X176.095 Y116.534 E1.83364
G1 X175.686 Y116.667 E1.88367
G1 X175.483 Y116.713 E1.90797
G1 X175.095 Y116.939 E1.96026
G1 X174.918 Y117.012 E1.98251
G1 X174.577 Y117.311 E2.03534
G1 X174.413 Y117.412 E2.05775
G1 X174.118 Y117.796 E2.11410
G1 X173.977 Y117.926 E2.13640
G1 X173.752 Y118.379 E2.19527
G1 X173.648 Y118.528 E2.21638
G1 X173.503 Y119.036 E2.27784
G1 X173.434 Y119.207 E2.29939
G1 X173.365 Y119.918 E2.38247
G1 X173.474 Y120.940 E2.50208
G1 X170.092 Y120.940 E2.89574
G1 X170.084 Y121.182 E2.92392
G1 X168.378 Y121.182 E3.12253
G1 X168.494 Y119.994 E3.26142
G1 X168.416 Y119.232 E3.35058
G1 X168.254 Y118.680 E3.41752
G1 X167.927 Y118.013 E3.50402
G1 X167.491 Y117.452 E3.58673
G1 X166.972 Y117.001 E3.66675
G1 X166.377 Y116.662 E3.74643
G1 X166.189 Y116.589 E3.76986
G1 X165.548 Y116.408 E3.84743
G1 X165.093 Y116.361 E3.90066
G1 X164.893 Y116.347 E3.92399
G1 X164.240 Y116.408 E4.00040
G1 X163.605 Y116.588 E4.07719
G1 X163.194 Y116.816 E4.13193
G1 X163.007 Y116.888 E4.15523
G1 X162.633 Y117.207 E4.21241
G1 X162.464 Y117.310 E4.23545
G1 X162.151 Y117.708 E4.29442
G1 X162.010 Y117.834 E4.31637
