; generated by Slic3r 1.0.0RC2 on 2014-05-23 at 10:20:05

; layer_height = 0.3
; perimeters = 3
; top_solid_layers = 3
; bottom_solid_layers = 3
; fill_density = 0.30
; perimeter_speed = 60
; infill_speed = 60
; travel_speed = 120
; nozzle_diameter = 0.4
; filament_diameter = 1.75
; extrusion_multiplier = 0.98
; perimeters extrusion width = 0.40mm
; infill extrusion width = 0.42mm
; solid infill extrusion width = 0.42mm
; top infill extrusion width = 0.42mm
; first layer extrusion width = 0.80mm

G21 ; set units to millimeters
M107
M104 S220 ; set temperature
G28 ; home all axes
M106 S255;
G1 Z200 F1200 ; lift nozzle
M109 S220 ; wait for temperature to be reached
G90 ; use absolute coordinates
G92 E0
M82 ; use absolute distances for extrusion
G1 F1800.000 E-1.00000
G92 E0
G1 Z0.400 F7200.000
G1 X97.020 Y53.952 F7200.000
G1 E1.00000 F1800.000
G1 X97.770 Y52.822 E1.15785 F1080.000
G1 X98.740 Y51.872 E1.31588
G1 X99.880 Y51.132 E1.47407
G1 X101.150 Y50.642 E1.63250
G1 X102.490 Y50.412 E1.79074
G1 X137.000 Y48.102 E5.81635
G1 X150.720 Y48.092 E7.41322
G1 X188.260 Y48.872 E11.78343
G1 X189.550 Y49.022 E11.93459
G1 X190.780 Y49.422 E12.08513
G1 X191.920 Y50.042 E12.23617
G1 X192.910 Y50.882 E12.38728
G1 X193.730 Y51.892 E12.53870
G1 X194.330 Y53.032 E12.68864
G1 X196.870 Y59.232 E13.46847
G1 X197.150 Y60.072 E13.57152
G1 X206.490 Y95.542 E17.84060
G1 X206.660 Y96.392 E17.94149
G1 X206.710 Y97.252 E18.04175
G1 X206.710 Y126.382 E21.43219
G1 X206.560 Y127.802 E21.59838
G1 X206.110 Y129.152 E21.76401
G1 X205.390 Y130.382 E21.92989
G1 X204.420 Y131.432 E22.09627
G1 X179.670 Y153.112 E25.92580
G1 X178.140 Y154.122 E26.13918
G1 X176.390 Y154.682 E26.35304
G1 X134.960 Y161.812 E31.24596
G1 X133.820 Y161.902 E31.37905
G1 X124.620 Y161.902 E32.44984
G1 X123.490 Y161.812 E32.58178
G1 X122.390 Y161.522 E32.71418
G1 X122.020 Y161.392 E32.75983
G1 X120.470 Y160.732 E32.95590
G1 X119.710 Y160.352 E33.05480
G1 X119.260 Y160.102 E33.11472
G1 X118.160 Y159.432 E33.26463
G1 X117.490 Y158.972 E33.35922
G1 X116.150 Y157.932 E33.55664
G1 X115.230 Y157.102 E33.70086
G1 X114.630 Y156.502 E33.79962
G1 X114.330 Y156.172 E33.85152
G1 X113.520 Y155.232 E33.99595
G1 X112.760 Y154.242 E34.14121
G1 X112.030 Y153.152 E34.29390
G1 X111.600 Y152.422 E34.39251
G1 X95.610 Y122.132 E38.37903
G1 X95.060 Y120.872 E38.53905
G1 X94.640 Y119.742 E38.67936
G1 X94.180 Y118.152 E38.87201
G1 X93.990 Y117.332 E38.96997
G1 X93.900 Y116.862 E39.02567
G1 X93.700 Y115.522 E39.18336
G1 X93.630 Y114.722 E39.27683
G1 X93.580 Y113.522 E39.41662
G1 X93.290 Y84.372 E42.80955
G1 X93.310 Y83.292 E42.93527
G1 X93.340 Y82.822 E42.99009
G1 X95.330 Y61.722 E45.45681
G1 X95.390 Y61.242 E45.51311
G1 X96.240 Y56.152 E46.11374
G1 X96.500 Y55.102 E46.23964
G1 X96.970 Y54.046 E46.37410
G1 F1800.000 E45.37410
G92 E0
G1 X128.621 Y134.164 F7200.000
G1 E1.00000 F1800.000
G1 X129.832 Y134.164 E1.14099 F540.000
G1 X130.434 Y135.212 E1.28163
G1 X129.832 Y136.260 E1.42228
G1 X128.621 Y136.260 E1.56327
G1 X128.010 Y135.212 E1.70448
G1 X128.567 Y134.257 E1.83323
G1 X128.746 Y133.461 F7200.000
G1 X122.975 Y141.904 F7200.000
G1 X122.975 Y143.117 E1.97446 F540.000
G1 X121.920 Y143.727 E2.11628
G1 X120.873 Y143.116 E2.25737
G1 X120.873 Y141.905 E2.39836
G1 X121.920 Y141.303 E2.53888
G1 X122.882 Y141.851 E2.66767
G1 X123.678 Y142.026 F7200.000
G1 F1800.000 E1.66767
G92 E0
G1 X135.477 Y141.905 F7200.000
G1 E1.00000 F1800.000
G1 X136.525 Y141.303 E1.14065 F540.000
G1 X137.573 Y141.905 E1.28129
G1 X137.573 Y143.116 E1.42228
G1 X136.525 Y143.727 E1.56349
G1 X135.477 Y143.116 E1.70471
G1 X135.477 Y142.012 E1.83323
G1 X135.234 Y141.233 F7200.000
G1 X133.984 Y141.578 F7200.000
G1 X134.036 Y141.909 E1.87220 F540.000
G1 X134.075 Y142.514 E1.94284
G1 X134.036 Y143.119 E2.01339
G1 X133.990 Y143.422 E2.04900
G1 X133.839 Y144.012 E2.11993
G1 X133.734 Y144.302 E2.15576
G1 X133.473 Y144.850 E2.22653
G1 X133.149 Y145.362 E2.29699
G1 X132.964 Y145.606 E2.33258
G1 X132.543 Y146.054 E2.40419
G1 X132.075 Y146.437 E2.47453
G1 X131.825 Y146.608 E2.50983
G1 X131.287 Y146.903 E2.58120
G1 X131.006 Y147.021 E2.61666
G1 X130.432 Y147.210 E2.68704
G1 X130.134 Y147.275 E2.72259
G1 X129.832 Y147.327 E2.75816
G1 X129.223 Y147.367 E2.82929
G1 X128.613 Y147.327 E2.90034
G1 X128.020 Y147.210 E2.97077
G1 X127.725 Y147.125 E3.00651
G1 X127.158 Y146.903 E3.07732
G1 X126.887 Y146.764 E3.11284
G1 X126.372 Y146.438 E3.18370
G1 X125.900 Y146.052 E3.25468
G1 X125.689 Y145.834 E3.28998
G1 X125.299 Y145.365 E3.36106
G1 X125.129 Y145.110 E3.39669
G1 X124.834 Y144.579 E3.46742
G1 X124.716 Y144.298 E3.50287
G1 X124.612 Y144.012 E3.53825
G1 X124.462 Y143.426 E3.60869
G1 X124.410 Y143.123 E3.64441
G1 X124.370 Y142.514 E3.71545
G1 X124.410 Y141.904 E3.78659
G1 X124.527 Y141.305 E3.85770
G1 X124.613 Y141.015 E3.89287
G1 X124.834 Y140.450 E3.96355
G1 X124.973 Y140.178 E3.99907
G1 X125.299 Y139.664 E4.06992
G1 X125.489 Y139.420 E4.10594
G1 X125.898 Y138.979 E4.17594
G1 X126.131 Y138.773 E4.21215
G1 X126.627 Y138.420 E4.28294
G1 X126.887 Y138.264 E4.31819
G1 X127.439 Y138.001 E4.38943
G1 X127.729 Y137.903 E4.42503
G1 X128.311 Y137.747 E4.49517
G1 X128.618 Y137.701 E4.53128
G1 X129.309 Y137.656 E4.61194
G1 X130.134 Y137.747 E4.70847
G1 X130.436 Y137.820 E4.74467
G1 X131.006 Y138.001 E4.81434
G1 X131.291 Y138.127 E4.85054
G1 X131.825 Y138.420 E4.92146
G1 X132.314 Y138.773 E4.99165
G1 X132.545 Y138.977 E5.02750
G1 X132.964 Y139.423 E5.09874
G1 X133.149 Y139.666 E5.13433
G1 X133.473 Y140.178 E5.20479
G1 X133.610 Y140.446 E5.23985
G1 X133.839 Y141.015 E5.31123
G1 X133.961 Y141.473 E5.36643
G1 X134.300 Y141.688 F7200.000
G1 X131.104 Y150.758 F7200.000
G1 X129.833 Y148.762 F7200.000
G1 X130.434 Y149.817 E5.50769 F540.000
G1 X129.832 Y150.864 E5.64821
G1 X128.621 Y150.864 E5.78920
G1 X128.010 Y149.817 E5.93029
G1 X128.620 Y148.762 E6.07210
G1 X129.726 Y148.762 E6.20087
G1 X130.506 Y148.521 F7200.000
G1 X131.298 Y148.447 F7200.000
G1 X131.890 Y148.200 E6.27557 F1080.000
G1 X132.590 Y147.816 E6.36854
G1 X132.920 Y147.590 E6.41508
G1 X133.514 Y147.103 E6.50447
G1 X134.070 Y146.512 E6.59893
G1 X134.524 Y145.874 E6.69002
G1 X134.722 Y145.544 E6.73481
G1 X134.900 Y145.197 E6.78020
G1 X135.168 Y144.590 E6.85751
G1 X136.525 Y145.381 E7.04028
G1 X139.001 Y143.936 E7.37395
G1 X139.001 Y141.078 E7.70667
G1 X136.525 Y139.656 E8.03901
G1 X135.167 Y140.436 E8.22124
G1 X134.900 Y139.831 E8.29813
G1 X134.722 Y139.484 E8.34352
G1 X134.524 Y139.154 E8.38830
G1 X134.070 Y138.517 E8.47939
G1 X133.524 Y137.936 E8.57213
G1 X133.220 Y137.667 E8.61942
G1 X132.590 Y137.213 E8.70981
G1 X131.906 Y136.837 E8.80070
G1 X131.301 Y136.570 E8.87758
G1 X132.081 Y135.212 E9.05981
G1 X130.659 Y132.736 E9.39215
G1 X127.801 Y132.736 E9.72487
G1 X126.356 Y135.212 E10.05854
G1 X127.147 Y136.569 E10.24132
G1 X126.540 Y136.837 E10.31860
G1 X126.193 Y137.015 E10.36401
G1 X125.863 Y137.213 E10.40879
G1 X125.225 Y137.667 E10.49988
G1 X124.911 Y137.946 E10.54882
G1 X124.392 Y138.505 E10.63763
G1 X124.141 Y138.826 E10.68503
G1 X123.921 Y139.154 E10.73100
G1 X123.724 Y139.484 E10.77578
G1 X123.538 Y139.847 E10.82327
G1 X123.290 Y140.439 E10.89798
G1 X121.917 Y139.658 E11.08182
G1 X119.444 Y141.078 E11.41360
G1 X119.444 Y143.936 E11.74632
G1 X121.917 Y145.378 E12.07942
G1 X123.288 Y144.586 E12.26381
G1 X123.537 Y145.181 E12.33895
G1 X123.723 Y145.544 E12.38644
G1 X123.921 Y145.874 E12.43122
G1 X124.141 Y146.203 E12.47719
G1 X124.392 Y146.523 E12.52459
G1 X124.921 Y147.093 E12.61513
G1 X125.534 Y147.596 E12.70744
G1 X125.863 Y147.816 E12.75341
G1 X126.193 Y148.014 E12.79819
G1 X126.556 Y148.200 E12.84569
G1 X127.151 Y148.449 E12.92082
G1 X126.474 Y149.620 E13.07828
G1 X124.934 Y149.001 E13.27151
G1 X124.282 Y150.777 E13.49177
G1 X124.222 Y150.896 E13.50718
G1 X124.163 Y151.104 E13.53240
G1 X123.573 Y152.727 E13.73340
G1 X122.971 Y152.369 E13.81497
G1 X122.364 Y151.953 E13.90059
G1 X121.785 Y151.508 E13.98563
G1 X121.237 Y151.023 E14.07082
G1 X120.715 Y150.501 E14.15665
G1 X120.231 Y149.949 E14.24216
G1 X119.781 Y149.369 E14.32752
G1 X119.367 Y148.769 E14.41242
G1 X118.996 Y148.141 E14.49727
G1 X118.663 Y147.487 E14.58276
G1 X118.370 Y146.806 E14.66903
G1 X118.125 Y146.125 E14.75331
G1 X117.921 Y145.416 E14.83910
G1 X117.759 Y144.702 E14.92434
G1 X117.645 Y143.975 E15.00997
G1 X117.577 Y143.236 E15.09639
G1 X117.552 Y142.514 E15.18041
G1 X117.578 Y141.788 E15.26502
G1 X117.646 Y141.048 E15.35145
G1 X117.760 Y140.325 E15.43668
G1 X117.921 Y139.609 E15.52211
G1 X118.123 Y138.909 E15.60690
G1 X118.372 Y138.219 E15.69228
G1 X118.663 Y137.543 E15.77790
G1 X118.995 Y136.890 E15.86321
G1 X119.371 Y136.253 E15.94931
G1 X119.782 Y135.653 E16.03397
G1 X120.233 Y135.078 E16.11896
G1 X120.718 Y134.525 E16.20460
G1 X121.237 Y134.006 E16.29004
G1 X121.783 Y133.522 E16.37495
G1 X122.365 Y133.075 E16.46034
G1 X122.977 Y132.656 E16.54672
G1 X123.601 Y132.285 E16.63124
G1 X124.253 Y131.954 E16.71634
G1 X124.927 Y131.663 E16.80178
G1 X125.613 Y131.416 E16.88660
G1 X126.322 Y131.212 E16.97242
G1 X127.013 Y131.056 E17.05496
G1 X127.764 Y130.936 E17.14346
G1 X128.491 Y130.864 E17.22849
G1 X129.223 Y130.843 E17.31368
G1 X129.952 Y130.864 E17.39855
G1 X130.682 Y130.936 E17.48401
G1 X131.412 Y131.051 E17.56999
G1 X132.128 Y131.212 E17.65542
G1 X132.828 Y131.414 E17.74021
G1 X133.518 Y131.663 E17.82559
G1 X134.194 Y131.954 E17.91121
G1 X134.847 Y132.286 E17.99652
G1 X135.478 Y132.658 E18.08173
G1 X136.083 Y133.072 E18.16704
G1 X136.659 Y133.518 E18.25188
G1 X137.209 Y134.006 E18.33738
G1 X137.731 Y134.528 E18.42339
G1 X138.218 Y135.077 E18.50876
G1 X138.662 Y135.650 E18.59313
G1 X139.079 Y136.260 E18.67913
G1 X139.451 Y136.890 E18.76425
G1 X139.782 Y137.541 E18.84927
G1 X140.074 Y138.219 E18.93518
G1 X140.322 Y138.906 E19.02021
G1 X140.525 Y139.609 E19.10535
G1 X140.685 Y140.319 E19.19009
G1 X140.801 Y141.055 E19.27676
G1 X140.873 Y141.782 E19.36181
G1 X140.894 Y142.515 E19.44717
G1 X140.873 Y143.241 E19.53177
G1 X140.800 Y143.983 E19.61850
G1 X140.686 Y144.704 E19.70341
G1 X140.523 Y145.421 E19.78904
G1 X140.322 Y146.121 E19.87381
G1 X140.074 Y146.810 E19.95910
G1 X139.784 Y147.483 E20.04438
G1 X139.451 Y148.138 E20.12979
G1 X139.080 Y148.768 E20.21494
G1 X138.664 Y149.370 E20.30012
G1 X138.217 Y149.952 E20.38558
G1 X137.731 Y150.500 E20.47077
G1 X137.208 Y151.024 E20.55696
G1 X136.656 Y151.513 E20.64275
G1 X136.086 Y151.954 E20.72669
G1 X135.481 Y152.368 E20.81200
G1 X134.875 Y152.726 E20.89392
G1 X133.528 Y149.004 E21.35464
G1 X131.967 Y149.625 E21.55016
G1 X131.351 Y148.540 E21.69535
G1 X130.918 Y149.224 F7200.000
G1 X130.230 Y148.014 E21.85737 F1080.000
G1 X130.945 Y147.803 E21.94422
G1 X131.267 Y147.686 E21.98400
G1 X131.589 Y147.551 E22.02463
G1 X131.901 Y147.392 E22.06544
G1 X132.498 Y147.013 E22.14770
G1 X133.028 Y146.578 E22.22757
G1 X133.280 Y146.326 E22.26907
G1 X133.517 Y146.059 E22.31064
G1 X133.731 Y145.776 E22.35192
G1 X134.097 Y145.197 E22.43161
G1 X134.397 Y144.568 E22.51272
G1 X134.519 Y144.234 E22.55416
G1 X134.729 Y143.506 E22.64226
G1 X136.525 Y144.554 E22.88426
G1 X138.287 Y143.526 E23.12170
G1 X138.287 Y141.491 E23.35856
G1 X136.525 Y140.479 E23.59505
G1 X134.730 Y141.510 E23.83595
G1 X134.518 Y140.792 E23.92312
G1 X134.397 Y140.460 E23.96418
G1 X134.097 Y139.831 E24.04528
G1 X133.731 Y139.252 E24.12497
G1 X133.517 Y138.970 E24.16625
G1 X133.035 Y138.456 E24.24823
G1 X132.767 Y138.220 E24.28981
G1 X132.490 Y138.010 E24.33031
G1 X131.901 Y137.637 E24.41147
G1 X131.266 Y137.335 E24.49320
G1 X130.224 Y137.012 E24.62021
G1 X131.258 Y135.212 E24.86179
G1 X130.246 Y133.450 E25.09828
G1 X128.211 Y133.450 E25.33514
G1 X127.183 Y135.212 E25.57258
G1 X128.234 Y137.013 E25.81527
G1 X127.179 Y137.335 E25.94359
G1 X126.804 Y137.504 E25.99154
G1 X126.540 Y137.640 E26.02605
G1 X125.961 Y138.006 E26.10573
G1 X125.678 Y138.220 E26.14701
G1 X125.404 Y138.462 E26.18959
G1 X124.941 Y138.962 E26.26900
G1 X124.720 Y139.245 E26.31071
G1 X124.348 Y139.831 E26.39149
G1 X124.186 Y140.148 E26.43300
G1 X124.051 Y140.470 E26.47363
G1 X123.934 Y140.792 E26.51341
G1 X123.723 Y141.507 E26.60026
G1 X121.918 Y140.481 E26.84186
G1 X120.159 Y141.491 E27.07801
G1 X120.159 Y143.526 E27.31487
G1 X121.918 Y144.553 E27.55196
G1 X123.724 Y143.509 E27.79466
G1 X123.933 Y144.234 E27.88243
G1 X124.051 Y144.558 E27.92259
G1 X124.186 Y144.880 E27.96323
G1 X124.348 Y145.197 E28.00473
G1 X124.720 Y145.784 E28.08552
G1 X124.941 Y146.066 E28.12723
G1 X125.411 Y146.573 E28.20769
G1 X125.953 Y147.017 E28.28934
G1 X126.540 Y147.389 E28.37013
G1 X126.857 Y147.551 E28.41164
G1 X127.503 Y147.804 E28.49242
G1 X128.228 Y148.013 E28.58019
G1 X127.184 Y149.819 E28.82289
G1 X127.698 Y150.699 E28.94146
G1 X127.581 Y150.834 E28.96233
G1 X125.351 Y149.938 E29.24204
G1 X123.968 Y153.731 E29.71193
G1 X123.269 Y153.376 E29.80322
G1 X122.584 Y152.970 E29.89589
G1 X121.945 Y152.531 E29.98614
G1 X121.330 Y152.060 E30.07634
G1 X120.747 Y151.543 E30.16701
G1 X120.193 Y150.989 E30.25817
G1 X119.679 Y150.402 E30.34897
G1 X119.206 Y149.792 E30.43882
G1 X118.766 Y149.155 E30.52897
G1 X118.322 Y148.391 E30.63176
G1 X118.017 Y147.790 E30.71025
G1 X117.705 Y147.067 E30.80182
G1 X117.445 Y146.346 E30.89114
G1 X117.229 Y145.594 E30.98215
G1 X117.058 Y144.836 E31.07259
G1 X116.936 Y144.062 E31.16383
G1 X116.864 Y143.279 E31.25534
G1 X116.838 Y142.514 E31.34438
G1 X116.865 Y141.741 E31.43443
G1 X116.937 Y140.960 E31.52572
G1 X117.058 Y140.191 E31.61632
G1 X117.229 Y139.431 E31.70696
G1 X117.443 Y138.688 E31.79696
G1 X117.707 Y137.956 E31.88756
G1 X118.016 Y137.240 E31.97835
G1 X118.368 Y136.546 E32.06888
G1 X118.706 Y135.974 E32.14621
G1 X119.204 Y135.232 E32.25022
G1 X119.683 Y134.622 E32.34049
G1 X120.196 Y134.036 E32.43114
G1 X120.747 Y133.486 E32.52178
G1 X121.328 Y132.970 E32.61217
G1 X121.945 Y132.496 E32.70272
G1 X122.593 Y132.054 E32.79403
G1 X123.257 Y131.659 E32.88394
G1 X123.949 Y131.307 E32.97435
G1 X124.665 Y130.999 E33.06503
G1 X125.340 Y130.755 E33.14859
G1 X126.145 Y130.520 E33.24616
G1 X126.902 Y130.350 E33.33645
G1 X127.673 Y130.228 E33.42737
G1 X128.447 Y130.151 E33.51783
G1 X129.223 Y130.129 E33.60822
G1 X129.997 Y130.151 E33.69842
G1 X130.773 Y130.228 E33.78915
G1 X131.546 Y130.349 E33.88020
G1 X132.306 Y130.520 E33.97084
G1 X133.049 Y130.735 E34.06084
G1 X133.781 Y130.999 E34.15144
G1 X134.497 Y131.307 E34.24223
G1 X135.191 Y131.660 E34.33277
G1 X135.861 Y132.055 E34.42334
G1 X136.504 Y132.495 E34.51398
G1 X137.115 Y132.968 E34.60399
G1 X137.699 Y133.486 E34.69474
G1 X138.251 Y134.038 E34.78573
G1 X138.768 Y134.621 E34.87640
G1 X139.241 Y135.231 E34.96612
G1 X139.682 Y135.876 E35.05718
G1 X140.077 Y136.546 E35.14770
G1 X140.429 Y137.238 E35.23806
G1 X140.738 Y137.956 E35.32902
G1 X140.982 Y138.631 E35.41259
G1 X141.217 Y139.431 E35.50961
G1 X141.387 Y140.187 E35.59983
G1 X141.509 Y140.964 E35.69131
G1 X141.586 Y141.737 E35.78178
G1 X141.608 Y142.515 E35.87233
G1 X141.586 Y143.286 E35.96211
G1 X141.508 Y144.076 E36.05455
G1 X141.388 Y144.838 E36.14434
G1 X141.215 Y145.600 E36.23528
G1 X141.002 Y146.341 E36.32496
G1 X140.738 Y147.073 E36.41558
G1 X140.431 Y147.786 E36.50589
G1 X140.078 Y148.481 E36.59659
G1 X139.681 Y149.153 E36.68747
G1 X139.241 Y149.791 E36.77760
G1 X138.768 Y150.407 E36.86805
G1 X138.251 Y150.990 E36.95872
G1 X137.697 Y151.544 E37.04994
G1 X137.111 Y152.064 E37.14110
G1 X136.507 Y152.531 E37.23004
G1 X135.866 Y152.970 E37.32034
G1 X135.190 Y153.369 E37.41185
G1 X134.479 Y153.731 E37.50465
G1 X133.107 Y149.940 E37.97385
G1 X130.862 Y150.833 E38.25507
G1 X130.749 Y150.702 E38.27525
G1 X131.256 Y149.819 E38.39383
G1 X130.971 Y149.318 E38.46094
G1 X131.723 Y151.259 F7200.000
G1 X129.369 Y151.671 E38.73907 F756.000
G1 X129.424 Y151.575 E38.75188
G1 X129.036 Y151.575 E38.79709
G1 X129.093 Y151.674 E38.81040
G1 X126.723 Y151.259 E39.09047
G1 X125.767 Y150.875 E39.21035
G1 X124.382 Y154.685 E39.68221
G1 X123.645 Y154.368 E39.77552
G1 X122.916 Y153.998 E39.87075
G1 X122.186 Y153.562 E39.96966
G1 X121.526 Y153.110 E40.06281
G1 X120.874 Y152.610 E40.15840
G1 X120.257 Y152.063 E40.25437
G1 X119.674 Y151.479 E40.35042
