; generated by Slic3r 1.0.0RC3 on 2014-03-11 at 11:00:07

; layer_height = 0.3
; perimeters = 2
; top_solid_layers = 3
; bottom_solid_layers = 3
; fill_density = 0.1
; perimeter_speed = 60
; infill_speed = 60
; travel_speed = 120
; nozzle_diameter = 0.4
; filament_diameter = 1.75
; extrusion_multiplier = 0.98
; perimeters extrusion width = 0.40mm
; infill extrusion width = 0.42mm
; solid infill extrusion width = 0.42mm
; top infill extrusion width = 0.42mm
; first layer extrusion width = 0.60mm

G21 ; set units to millimeters
M107
M104 S220 ; set temperature
G28 ; home all axes
M106 S255;
G1 Z200 F1200 ; lift nozzle
M109 S220 ; wait for temperature to be reached
G90 ; use absolute coordinates
G92 E0
M82 ; use absolute distances for extrusion
G1 F1800.000 E-1.00000
G92 E0
G1 Z0.300 F7200.000
G1 X119.493 Y87.487 F7200.000
G1 E1.00000 F1800.000
G1 X119.923 Y86.947 E1.04700 F1080.000
G1 X120.413 Y86.457 E1.09419
G1 X124.403 Y82.817 E1.46195
G1 X124.893 Y82.407 E1.50545
G1 X125.413 Y82.057 E1.54814
G1 X130.393 Y79.027 E1.94507
G1 X131.363 Y78.537 E2.01907
G1 X136.953 Y76.297 E2.42913
G1 X137.953 Y75.987 E2.50042
G1 X144.043 Y74.617 E2.92546
G1 X145.003 Y74.477 E2.99152
G1 X151.263 Y74.017 E3.41893
G1 X152.233 Y74.017 E3.48498
G1 X158.533 Y74.487 E3.91515
G1 X159.503 Y74.637 E3.98199
G1 X165.553 Y76.017 E4.40453
G1 X166.533 Y76.317 E4.47432
G1 X172.113 Y78.557 E4.88374
G1 X173.113 Y79.067 E4.96018
G1 X178.003 Y82.077 E5.35118
G1 X178.513 Y82.427 E5.39329
G1 X178.993 Y82.817 E5.43541
G1 X183.003 Y86.487 E5.80555
G1 X183.483 Y86.977 E5.85226
G1 X183.913 Y87.517 E5.89926
G1 X186.893 Y91.697 E6.24881
G1 X187.303 Y92.357 E6.30172
G1 X187.633 Y93.057 E6.35442
G1 X189.473 Y97.627 E6.68987
G1 X189.733 Y98.407 E6.74586
G1 X189.893 Y99.217 E6.80208
G1 X190.513 Y103.917 E7.12489
G1 X190.573 Y104.787 E7.18427
G1 X190.513 Y105.647 E7.24297
G1 X189.883 Y110.367 E7.56722
G1 X189.723 Y111.177 E7.62344
G1 X189.463 Y111.967 E7.68007
G1 X187.623 Y116.497 E8.01300
G1 X187.293 Y117.187 E8.06508
G1 X186.883 Y117.827 E8.11684
G1 X183.903 Y122.017 E8.46694
G1 X183.473 Y122.567 E8.51448
G1 X182.973 Y123.067 E8.56263
G1 X178.953 Y126.727 E8.93282
G1 X178.483 Y127.117 E8.97440
G1 X177.983 Y127.457 E9.01557
G1 X173.093 Y130.467 E9.40657
G1 X172.083 Y130.977 E9.48361
G1 X166.503 Y133.207 E9.89279
G1 X165.533 Y133.507 E9.96193
G1 X159.473 Y134.887 E10.38513
G1 X158.493 Y135.037 E10.45264
G1 X152.193 Y135.497 E10.88276
G1 X151.223 Y135.497 E10.94881
G1 X144.933 Y135.027 E11.37831
G1 X143.963 Y134.877 E11.44514
G1 X137.903 Y133.497 E11.86834
G1 X136.923 Y133.197 E11.93813
G1 X131.343 Y130.957 E12.34756
G1 X130.343 Y130.447 E12.42400
G1 X125.453 Y127.437 E12.81499
G1 X124.953 Y127.097 E12.85616
G1 X124.483 Y126.707 E12.89775
G1 X120.413 Y123.007 E13.27229
G1 X119.923 Y122.517 E13.31947
G1 X119.483 Y121.967 E13.36744
G1 X116.513 Y117.807 E13.71548
G1 X116.103 Y117.147 E13.76839
G1 X115.773 Y116.447 E13.82109
G1 X113.953 Y111.937 E14.15225
G1 X113.693 Y111.147 E14.20888
G1 X113.533 Y110.327 E14.26577
G1 X112.923 Y105.577 E14.59186
G1 X112.863 Y104.727 E14.64988
G1 X112.923 Y103.887 E14.70723
G1 X113.543 Y99.137 E15.03341
G1 X113.703 Y98.327 E15.08963
G1 X113.963 Y97.547 E15.14561
G1 X115.783 Y93.017 E15.47804
G1 X116.113 Y92.307 E15.53135
G1 X116.523 Y91.647 E15.58426
G1 X119.444 Y87.555 E15.92661
G1 F1800.000 E14.92661
G92 E0
G1 X128.903 Y100.236 F7200.000
G1 E1.00000 F1800.000
G1 X129.629 Y99.849 E1.05601 F540.000
G1 X130.416 Y99.611 E1.11203
G1 X131.235 Y99.531 E1.16805
G1 X132.054 Y99.612 E1.22407
G1 X132.841 Y99.851 E1.28009
G1 X133.567 Y100.239 E1.33611
G1 X134.203 Y100.761 E1.39213
G1 X134.725 Y101.396 E1.44813
G1 X135.113 Y102.121 E1.50413
G1 X135.352 Y102.908 E1.56012
G1 X135.432 Y103.727 E1.61612
G1 X135.351 Y104.545 E1.67210
G1 X135.111 Y105.331 E1.72809
G1 X134.723 Y106.056 E1.78409
G1 X134.200 Y106.691 E1.84010
G1 X133.564 Y107.212 E1.89610
G1 X132.838 Y107.599 E1.95212
G1 X132.050 Y107.837 E2.00813
G1 X131.231 Y107.917 E2.06416
G1 X130.413 Y107.836 E2.12018
G1 X129.625 Y107.597 E2.17620
G1 X128.900 Y107.209 E2.23222
G1 X128.264 Y106.688 E2.28823
G1 X127.742 Y106.052 E2.34424
G1 X127.354 Y105.327 E2.40024
G1 X127.115 Y104.540 E2.45623
G1 X127.035 Y103.722 E2.51222
G1 X127.116 Y102.903 E2.56821
G1 X127.355 Y102.117 E2.62420
G1 X127.744 Y101.392 E2.68020
G1 X128.266 Y100.757 E2.73620
G1 X128.838 Y100.289 E2.78652
G1 X129.213 Y100.702 F7200.000
G1 X129.842 Y100.367 E2.83507 F540.000
G1 X130.525 Y100.160 E2.88363
G1 X131.235 Y100.091 E2.93219
G1 X131.945 Y100.161 E2.98076
G1 X132.627 Y100.368 E3.02932
G1 X133.256 Y100.704 E3.07788
G1 X133.807 Y101.156 E3.12642
G1 X134.260 Y101.707 E3.17495
G1 X134.596 Y102.336 E3.22347
G1 X134.803 Y103.017 E3.27198
G1 X134.872 Y103.726 E3.32049
G1 X134.802 Y104.435 E3.36899
G1 X134.595 Y105.117 E3.41750
G1 X134.258 Y105.745 E3.46601
G1 X133.805 Y106.295 E3.51454
G1 X133.253 Y106.746 E3.56307
G1 X132.624 Y107.081 E3.61162
G1 X131.941 Y107.288 E3.66018
G1 X131.232 Y107.357 E3.70875
G1 X130.522 Y107.287 E3.75731
G1 X129.839 Y107.080 E3.80587
G1 X129.211 Y106.744 E3.85443
G1 X128.659 Y106.292 E3.90297
G1 X128.207 Y105.741 E3.95150
G1 X127.871 Y105.112 E4.00003
G1 X127.664 Y104.431 E4.04853
G1 X127.594 Y103.722 E4.09704
G1 X127.665 Y103.013 E4.14554
G1 X127.872 Y102.331 E4.19405
G1 X128.209 Y101.704 E4.24256
G1 X128.662 Y101.153 E4.29109
G1 X129.149 Y100.755 E4.33394
G1 X129.196 Y100.145 F7200.000
G1 F1800.000 E3.33394
G92 E0
G1 X140.112 Y101.598 F7200.000
G1 E1.00000 F1800.000
G1 X140.158 Y101.389 E1.01456 F1080.000
G1 X140.779 Y99.346 E1.15991
G1 X141.853 Y97.339 E1.31496
G1 X143.299 Y95.579 E1.47002
G1 X145.060 Y94.136 E1.62507
G1 X147.068 Y93.064 E1.78011
G1 X149.248 Y92.404 E1.93517
G1 X151.514 Y92.182 E2.09022
G1 X153.780 Y92.407 E2.24528
G1 X155.959 Y93.069 E2.40033
G1 X157.967 Y94.144 E2.55541
G1 X159.727 Y95.590 E2.71048
G1 X161.170 Y97.351 E2.86555
G1 X162.243 Y99.360 E3.02063
G1 X162.903 Y101.539 E3.17569
G1 X163.125 Y103.806 E3.33076
G1 X162.901 Y106.072 E3.48581
G1 X162.239 Y108.251 E3.64087
G1 X161.165 Y110.258 E3.79592
G1 X159.719 Y112.018 E3.95098
G1 X157.958 Y113.461 E4.10602
G1 X155.949 Y114.533 E4.26107
G1 X153.770 Y115.193 E4.41613
G1 X151.504 Y115.415 E4.57118
G1 X149.237 Y115.190 E4.72624
G1 X147.059 Y114.528 E4.88130
G1 X145.051 Y113.453 E5.03637
G1 X143.291 Y112.007 E5.19144
G1 X141.847 Y110.246 E5.34651
G1 X140.775 Y108.237 E5.50159
G1 X140.117 Y106.066 E5.65604
G1 X139.864 Y103.944 E5.80161
G1 X139.859 Y103.706 E5.81778
G1 X140.102 Y101.681 E5.95669
G1 X140.662 Y101.691 F7200.000
G1 X141.296 Y99.561 E6.10801 F540.000
G1 X142.318 Y97.650 E6.25559
G1 X143.694 Y95.975 E6.40317
G1 X145.370 Y94.601 E6.55074
G1 X147.282 Y93.581 E6.69831
G1 X149.357 Y92.953 E6.84590
G1 X151.514 Y92.742 E6.99348
G1 X153.671 Y92.956 E7.14107
G1 X155.744 Y93.586 E7.28866
G1 X157.656 Y94.609 E7.43626
G1 X159.331 Y95.985 E7.58386
G1 X160.705 Y97.661 E7.73146
G1 X161.726 Y99.574 E7.87907
G1 X162.354 Y101.648 E8.02665
G1 X162.565 Y103.805 E8.17425
G1 X162.352 Y105.962 E8.32183
G1 X161.722 Y108.036 E8.46942
G1 X160.699 Y109.947 E8.61699
G1 X159.324 Y111.622 E8.76457
G1 X157.647 Y112.995 E8.91215
G1 X155.735 Y114.016 E9.05972
G1 X153.661 Y114.644 E9.20731
G1 X151.504 Y114.855 E9.35489
G1 X149.347 Y114.641 E9.50248
G1 X147.273 Y114.011 E9.65006
G1 X145.362 Y112.988 E9.79767
G1 X143.687 Y111.612 E9.94527
G1 X142.313 Y109.936 E10.09287
G1 X141.292 Y108.023 E10.24047
G1 X140.665 Y105.952 E10.38785
G1 X140.421 Y103.904 E10.52825
G1 X140.417 Y103.733 E10.53990
G1 X140.652 Y101.774 E10.67428
G1 X140.257 Y101.309 F7200.000
G1 F1800.000 E9.67428
G92 E0
G1 X129.384 Y88.357 F7200.000
G1 E1.00000 F1800.000
G1 X134.198 Y85.398 E1.38475 F1080.000
G1 X139.642 Y83.219 E1.78408
G1 X145.576 Y81.873 E2.19836
G1 X151.747 Y81.420 E2.61970
G1 X157.918 Y81.879 E3.04105
G1 X163.849 Y83.232 E3.45527
G1 X169.291 Y85.417 E3.85463
G1 X174.057 Y88.353 E4.23578
G1 X177.938 Y91.903 E4.59396
G1 X180.805 Y95.930 E4.93055
G1 X182.562 Y100.278 E5.24985
G1 X183.150 Y104.777 E5.55879
G1 X182.557 Y109.275 E5.86771
G1 X180.796 Y113.621 E6.18705
G1 X177.927 Y117.642 E6.52334
G1 X174.033 Y121.196 E6.88237
G1 X169.279 Y124.119 E7.26237
G1 X163.820 Y126.303 E7.66271
G1 X157.896 Y127.647 E8.07635
G1 X151.722 Y128.100 E8.49788
G1 X145.551 Y127.641 E8.91923
G1 X139.620 Y126.289 E9.33345
G1 X134.178 Y124.104 E9.73280
G1 X129.414 Y121.169 E10.11382
G1 X125.401 Y117.498 E10.48412
G1 X122.619 Y113.591 E10.81071
G1 X120.882 Y109.289 E11.12666
G1 X120.289 Y104.760 E11.43769
G1 X120.892 Y100.186 E11.75181
G1 X122.654 Y95.838 E12.07126
G1 X125.482 Y91.874 E12.40284
G1 X129.252 Y88.433 E12.75038
G1 X129.311 Y88.399 E12.75507
G1 X129.034 Y87.916 F7200.000
G1 X133.947 Y84.899 E13.14763 F540.000
G1 X139.476 Y82.686 E13.55319
G1 X145.493 Y81.321 E13.97331
G1 X151.747 Y80.862 E14.40030
G1 X158.001 Y81.327 E14.82730
G1 X164.015 Y82.698 E15.24737
G1 X169.543 Y84.917 E15.65296
G1 X174.394 Y87.906 E16.04094
G1 X178.358 Y91.532 E16.40673
G1 X181.297 Y95.661 E16.75182
G1 X183.105 Y100.135 E17.08043
G1 X183.712 Y104.777 E17.39919
G1 X183.100 Y109.418 E17.71794
G1 X181.287 Y113.891 E18.04659
G1 X178.347 Y118.013 E18.39137
G1 X174.370 Y121.643 E18.75802
G1 X169.530 Y124.618 E19.14484
G1 X163.986 Y126.837 E19.55142
G1 X157.979 Y128.200 E19.97091
G1 X151.722 Y128.659 E20.39809
G1 X145.468 Y128.194 E20.82508
G1 X139.454 Y126.822 E21.24515
G1 X133.926 Y124.603 E21.65074
G1 X129.077 Y121.615 E22.03858
G1 X125.012 Y117.912 E22.41298
G1 X122.127 Y113.861 E22.75167
G1 X120.338 Y109.431 E23.07693
G1 X119.727 Y104.759 E23.39778
G1 X120.349 Y100.043 E23.72172
G1 X122.162 Y95.568 E24.05048
G1 X125.063 Y91.502 E24.39056
G1 X128.958 Y87.947 E24.74969
G1 X129.539 Y88.150 F7200.000
G1 F1800.000 E23.74969
G92 E0
G1 X132.379 Y99.299 F7200.000
G1 E1.00000 F1800.000
G1 X125.544 Y92.465 E1.66304 F1080.000
G1 X125.214 Y92.928 E1.70207
G1 X131.442 Y99.156 E2.30627
G1 X130.682 Y99.190 E2.35845
G1 X124.883 Y93.391 E2.92098
G1 X124.553 Y93.854 E2.96001
G1 X130.019 Y99.320 E3.49026
G1 X129.420 Y99.514 E3.53347
G1 X124.222 Y94.317 E4.03765
G1 X123.892 Y94.781 E4.07668
G1 X128.902 Y99.790 E4.56269
G1 X128.431 Y100.113 E4.60184
G1 X123.562 Y95.244 E5.07424
G1 X123.231 Y95.707 E5.11327
G1 X127.995 Y100.470 E5.57538
G1 X127.635 Y100.904 E5.61404
G1 X122.932 Y96.201 E6.07031
G1 X122.703 Y96.766 E6.11212
G1 X127.308 Y101.371 E6.55887
G1 X127.031 Y101.888 E6.59909
G1 X122.474 Y97.331 E7.04117
G1 X122.245 Y97.896 E7.08298
G1 X126.832 Y102.483 E7.52797
G1 X126.696 Y103.141 E7.57405
G1 X122.016 Y98.460 E8.02808
G1 X121.787 Y99.025 E8.06988
G1 X126.656 Y103.894 E8.54216
G1 X126.788 Y104.820 E8.60635
G1 X121.559 Y99.590 E9.11369
G1 X121.330 Y100.155 E9.15550
G1 X127.373 Y106.199 E9.74179
G1 X128.751 Y107.577 F7200.000
G1 X148.652 Y127.477 E11.67234 F1080.000
G1 X147.794 Y127.413 E11.73132
G1 X121.205 Y100.824 E14.31073
G1 X121.113 Y101.525 E14.35925
G1 X146.937 Y127.349 E16.86446
G1 X146.079 Y127.286 E16.92344
G1 X121.020 Y102.227 E19.35444
G1 X120.928 Y102.928 E19.40295
G1 X145.145 Y127.145 E21.75226
G1 X144.117 Y126.910 E21.82459
G1 X120.835 Y103.629 E24.08313
G1 X120.743 Y104.330 E24.13164
G1 X143.088 Y126.676 E26.29941
G1 X142.060 Y126.441 E26.37175
G1 X120.732 Y105.113 E28.44079
G1 X120.852 Y106.026 E28.50397
G1 X141.032 Y126.207 E30.46168
G1 X140.004 Y125.972 E30.53402
G1 X120.971 Y106.940 E32.38040
G1 X121.091 Y107.853 E32.44357
G1 X138.755 Y125.517 E34.15720
G1 X137.429 Y124.985 F7200.000
G1 X121.210 Y108.766 E35.73060 F1080.000
G1 X121.555 Y109.904 E35.81216
G1 X136.103 Y124.452 E37.22353
G1 X134.777 Y123.920 F7200.000
G1 X122.092 Y111.235 E38.45411 F1080.000
G1 X122.630 Y112.566 F7200.000
G1 X132.946 Y122.882 E39.45484 F1080.000
G1 F1800.000 E38.45484
G92 E0
G1 X130.878 Y121.608 F7200.000
G1 E1.00000 F1800.000
G1 X123.700 Y114.430 E1.69635 F1080.000
G1 F1800.000 E0.69635
G92 E0
G1 X125.663 Y117.186 F7200.000
G1 E1.00000 F1800.000
G1 X125.864 Y117.388 E1.01955 F1080.000
G1 F1800.000 E0.01955
G92 E0
G1 X130.130 Y108.162 F7200.000
G1 E1.00000 F1800.000
G1 X149.509 Y127.541 E2.87996 F1080.000
G1 X150.367 Y127.604 E2.93894
G1 X131.058 Y108.295 E4.81212
G1 X131.812 Y108.256 E4.86392
G1 X151.224 Y127.668 E6.74713
G1 X152.032 Y127.683 E6.80257
G1 X132.471 Y108.121 E8.70023
G1 X133.066 Y107.923 E8.74329
G1 X152.771 Y127.628 E10.65489
G1 X153.511 Y127.574 E10.70575
G1 X133.584 Y107.647 E12.63885
G1 X134.052 Y107.321 E12.67795
G1 X154.250 Y127.520 E14.63741
G1 X154.990 Y127.466 E14.68827
G1 X134.487 Y106.963 E16.67726
G1 X134.845 Y106.527 E16.71594
G1 X155.729 Y127.411 E18.74190
G1 X156.469 Y127.357 E18.79276
G1 X135.169 Y106.058 E20.85904
G1 X135.446 Y105.541 E20.89925
G1 X157.208 Y127.303 E23.01040
G1 X157.934 Y127.235 E23.06039
G1 X135.641 Y104.943 E25.22298
G1 X135.773 Y104.280 E25.26929
G1 X141.014 Y109.521 E25.77770
G1 X140.293 Y108.007 F7200.000
G1 X135.808 Y103.521 E26.21288 F1080.000
G1 X135.665 Y102.586 E26.27782
G1 X139.949 Y106.869 E26.69336
G1 X139.691 Y105.818 E26.76762
G1 X135.059 Y101.186 E27.21696
G1 X133.779 Y99.906 F7200.000
G1 X125.901 Y92.028 E27.98119 F1080.000
G1 X126.314 Y91.647 E28.01972
G1 X139.584 Y104.917 E29.30698
G1 X139.476 Y104.016 E29.36922
G1 X126.729 Y91.269 E30.60581
G1 X127.144 Y90.890 E30.64435
G1 X139.516 Y103.261 E31.84453
G1 X139.601 Y102.553 E31.89349
G1 X127.559 Y90.511 E33.06166
G1 X127.974 Y90.132 E33.10020
G1 X139.686 Y101.844 E34.23637
G1 X139.811 Y101.176 E34.28302
G1 X128.389 Y89.754 E35.39110
G1 X128.804 Y89.375 E35.42963
G1 X139.996 Y100.567 E36.51540
G1 X140.181 Y99.958 E36.55904
G1 X129.219 Y88.996 E37.62250
G1 X129.661 Y88.644 E37.66124
G1 X140.366 Y99.350 E38.69980
G1 X140.619 Y98.809 E38.74073
G1 X130.152 Y88.342 E39.75615
G1 X130.644 Y88.041 E39.79573
G1 X140.896 Y98.292 E40.79026
G1 X141.173 Y97.775 E40.83049
G1 X131.136 Y87.739 E41.80414
G1 X131.628 Y87.437 E41.84373
G1 X141.449 Y97.258 E42.79650
G1 X141.785 Y96.801 E42.83544
G1 X132.120 Y87.135 E43.77310
G1 X132.612 Y86.833 E43.81268
G1 X142.143 Y96.365 E44.73734
G1 X142.501 Y95.929 E44.77602
G1 X133.104 Y86.532 E45.68769
G1 X133.596 Y86.230 E45.72728
G1 X142.859 Y95.493 E46.62595
G1 X143.261 Y95.101 E46.66445
G1 X134.088 Y85.928 E47.55434
G1 X134.611 Y85.657 E47.59474
G1 X143.697 Y94.744 E48.47620
G1 X144.133 Y94.386 E48.51489
G1 X135.177 Y85.431 E49.38368
G1 X135.744 Y85.204 E49.42556
G1 X144.569 Y94.029 E50.28167
G1 X145.036 Y93.702 E50.32077
G1 X136.311 Y84.977 E51.16720
G1 X136.878 Y84.750 E51.20908
G1 X145.554 Y93.426 E52.05072
G1 X146.071 Y93.150 E52.09095
G1 X137.445 Y84.523 E52.92781
G1 X138.011 Y84.296 E52.96969
G1 X146.589 Y92.873 E53.80176
G1 X147.140 Y92.631 E53.84306
G1 X138.578 Y84.069 E54.67359
G1 X139.145 Y83.843 E54.71547
G1 X147.749 Y92.446 E55.55011
G1 X148.358 Y92.262 E55.59378
G1 X139.712 Y83.616 E56.43254
G1 X140.352 Y83.462 E56.47770
G1 X148.967 Y92.078 E57.31347
G1 X149.652 Y91.969 E57.36104
G1 X140.999 Y83.315 E58.20051
G1 X141.646 Y83.169 E58.24601
G1 X150.375 Y91.898 E59.09284
G1 X151.098 Y91.827 E59.14267
G1 X142.293 Y83.022 E59.99688
G1 X142.940 Y82.875 E60.04238
G1 X151.888 Y91.823 E60.91047
G1 X152.769 Y91.911 E60.97120
G1 X143.587 Y82.728 E61.86199
G1 X144.233 Y82.582 E61.90749
G1 X153.650 Y91.998 E62.82099
G1 X154.729 Y92.284 E62.89757
G1 X144.880 Y82.435 E63.85301
G1 X145.527 Y82.288 E63.89851
G1 X155.869 Y92.630 E64.90183
G1 X157.457 Y93.424 F7200.000
G1 X146.251 Y82.218 E65.98891 F1080.000
G1 X146.991 Y82.164 E66.03977
G1 X179.536 Y114.709 E69.19700
G1 X179.866 Y114.246 E69.23603
G1 X147.730 Y82.110 E72.35358
G1 X148.470 Y82.056 E72.40444
G1 X180.197 Y113.783 E75.48232
G1 X180.503 Y113.295 E75.52181
G1 X149.209 Y82.001 E78.55766
G1 X149.948 Y81.947 E78.60851
G1 X180.732 Y112.731 E81.59483
G1 X180.961 Y112.166 E81.63664
G1 X150.688 Y81.893 E84.57342
G1 X151.427 Y81.839 E84.62428
G1 X181.189 Y111.601 E87.51153
G1 X181.418 Y111.036 E87.55333
G1 X152.234 Y81.852 E90.38455
G1 X153.091 Y81.915 E90.44353
G1 X181.647 Y110.471 E93.21376
G1 X181.876 Y109.906 E93.25557
G1 X153.949 Y81.979 E95.96482
G1 X154.806 Y82.043 E96.02380
G1 X182.105 Y109.342 E98.67208
