; generated by Slic3r 1.0.0RC3 on 2014-03-12 at 08:57:43

; layer_height = 0.3
; perimeters = 2
; top_solid_layers = 3
; bottom_solid_layers = 3
; fill_density = 0.1
; perimeter_speed = 60
; infill_speed = 60
; travel_speed = 120
; nozzle_diameter = 0.4
; filament_diameter = 1.75
; extrusion_multiplier = 0.98
; perimeters extrusion width = 0.40mm
; infill extrusion width = 0.42mm
; solid infill extrusion width = 0.42mm
; top infill extrusion width = 0.42mm
; first layer extrusion width = 0.60mm

G21 ; set units to millimeters
M107
M104 S220 ; set temperature
G28 ; home all axes
M106 S255;
G1 Z200 F1200 ; lift nozzle
M109 S220 ; wait for temperature to be reached
G90 ; use absolute coordinates
G92 E0
M82 ; use absolute distances for extrusion
G1 F1800.000 E-1.00000
G92 E0
G1 Z0.300 F7200.000
G1 X114.714 Y71.436 F7200.000
G1 E1.00000 F1800.000
G1 X118.894 Y65.496 E1.49458 F1080.000
G1 X119.794 Y64.456 E1.58823
G1 X120.904 Y63.636 E1.68220
G1 X122.154 Y63.056 E1.77603
G1 X123.494 Y62.756 E1.86953
G1 X124.874 Y62.736 E1.96351
G1 X126.224 Y63.016 E2.05739
G1 X127.484 Y63.556 E2.15074
G1 X128.604 Y64.356 E2.24446
G1 X192.284 Y120.846 E8.04082
G1 X193.214 Y121.866 E8.13481
G1 X193.914 Y123.056 E8.22882
G1 X194.344 Y124.366 E8.32270
G1 X194.494 Y125.736 E8.41655
G1 X194.354 Y127.106 E8.51032
G1 X193.924 Y128.416 E8.60420
G1 X193.244 Y129.606 E8.69753
G1 X192.314 Y130.636 E8.79202
G1 X186.874 Y135.526 E9.29010
G1 X186.314 Y135.976 E9.33902
G1 X185.704 Y136.366 E9.38832
G1 X179.254 Y139.986 E9.89196
G1 X178.614 Y140.296 E9.94038
G1 X177.944 Y140.546 E9.98908
G1 X167.824 Y143.606 E10.70898
G1 X166.884 Y143.816 E10.77457
G1 X165.924 Y143.886 E10.84011
G1 X148.274 Y143.886 E12.04194
G1 X146.974 Y143.756 E12.13090
G1 X145.724 Y143.366 E12.22007
G1 X144.584 Y142.746 E12.30843
G1 X134.144 Y135.616 E13.16928
G1 X127.484 Y130.666 E13.73432
G1 X126.634 Y129.916 E13.81150
G1 X120.874 Y123.846 E14.38130
G1 X120.174 Y122.966 E14.45786
G1 X115.604 Y116.086 E15.02027
G1 X115.304 Y115.586 E15.05998
G1 X115.044 Y115.056 E15.10018
G1 X111.824 Y107.596 E15.65344
G1 X111.614 Y107.026 E15.69481
G1 X111.444 Y106.446 E15.73596
G1 X109.694 Y98.706 E16.27630
G1 X109.584 Y98.076 E16.31985
G1 X109.544 Y97.436 E16.36351
G1 X109.334 Y89.696 E16.89074
G1 X109.344 Y89.026 E16.93637
G1 X109.424 Y88.376 E16.98096
G1 X110.734 Y80.986 E17.49201
G1 X110.894 Y80.296 E17.54024
G1 X111.134 Y79.626 E17.58870
G1 X113.884 Y72.956 E18.07997
G1 X114.254 Y72.176 E18.13875
G1 X114.670 Y71.507 E18.19239
G1 F1800.000 E17.19239
G92 E0
G1 X116.568 Y72.936 F7200.000
G1 E1.00000 F1800.000
G1 X121.922 Y65.328 E1.63345 F1080.000
G1 X125.667 Y64.913 E1.89001
G1 X130.152 Y68.982 E2.30235
G1 X130.158 Y69.037 E2.30614
G1 X130.253 Y69.220 E2.32018
G1 X158.782 Y94.572 E4.91900
G1 X188.664 Y120.871 E7.62952
G1 X192.093 Y123.825 E7.93771
G1 X192.135 Y127.600 E8.19475
G1 X185.127 Y133.913 E8.83703
G1 X184.750 Y134.184 E8.86862
G1 X177.685 Y138.148 E9.42024
G1 X176.784 Y138.415 E9.48422
G1 X170.453 Y138.818 E9.91623
G1 X170.268 Y138.902 E9.93007
G1 X167.661 Y141.509 E10.18111
G1 X159.359 Y141.509 E10.74637
G1 X157.418 Y139.568 E10.93330
G1 X156.956 Y139.568 E10.96475
G1 X155.019 Y141.509 E11.15147
G1 X146.509 Y141.509 E11.73097
G1 X144.047 Y138.972 E11.97165
G1 X144.098 Y137.268 E12.08775
G1 X144.019 Y137.060 E12.10287
G1 X143.527 Y136.540 E12.15164
G1 X143.408 Y136.465 E12.16124
G1 X136.458 Y134.235 E12.65825
G1 X135.845 Y133.920 E12.70511
G1 X128.758 Y128.653 E13.30644
G1 X128.488 Y128.413 E13.33100
G1 X122.483 Y122.085 E13.92502
G1 X122.258 Y121.802 E13.94968
G1 X117.487 Y114.613 E14.53715
G1 X117.309 Y114.285 E14.56255
G1 X113.939 Y106.476 E15.14170
G1 X113.819 Y106.109 E15.16800
G1 X111.978 Y97.981 E15.73547
G1 X111.927 Y97.576 E15.76329
G1 X111.704 Y89.421 E16.31875
G1 X111.735 Y88.998 E16.34768
G1 X113.124 Y81.178 E16.88842
G1 X113.250 Y80.745 E16.91915
G1 X116.117 Y73.803 E17.43060
G1 X116.405 Y73.210 E17.47549
G1 X116.526 Y73.008 E17.49151
G1 X117.036 Y73.239 F7200.000
G1 X122.233 Y65.854 E18.10641 F1080.000
G1 X125.479 Y65.494 E18.32876
G1 X129.622 Y69.253 E18.70968
G1 X129.628 Y69.312 E18.71370
G1 X129.723 Y69.495 E18.72774
G1 X158.413 Y94.989 E21.34119
G1 X188.298 Y121.292 E24.05200
G1 X191.539 Y124.083 E24.34325
G1 X191.575 Y127.354 E24.56603
G1 X184.777 Y133.479 E25.18906
G1 X184.450 Y133.713 E25.21644
G1 X177.467 Y137.632 E25.76169
G1 X176.687 Y137.863 E25.81713
G1 X169.853 Y138.298 E26.28341
G1 X169.551 Y138.620 E26.31343
G1 X169.551 Y138.830 E26.32779
G1 X167.430 Y140.952 E26.53205
G1 X159.590 Y140.952 E27.06589
G1 X157.418 Y138.779 E27.27508
G1 X156.956 Y138.780 E27.30653
G1 X154.788 Y140.952 E27.51549
G1 X146.744 Y140.952 E28.06320
G1 X144.611 Y138.753 E28.27179
G1 X144.662 Y137.053 E28.38759
G1 X144.583 Y136.846 E28.40272
G1 X143.834 Y136.053 E28.47699
G1 X143.714 Y135.978 E28.48658
G1 X136.671 Y133.719 E28.99022
G1 X136.141 Y133.446 E29.03084
G1 X129.109 Y128.220 E29.62740
G1 X128.875 Y128.013 E29.64869
G1 X122.904 Y121.719 E30.23943
G1 X122.708 Y121.473 E30.26080
G1 X117.965 Y114.326 E30.84493
G1 X117.811 Y114.041 E30.86694
G1 X114.460 Y106.279 E31.44265
G1 X114.357 Y105.961 E31.46544
G1 X112.527 Y97.884 E32.02931
G1 X112.483 Y97.533 E32.05341
G1 X112.261 Y89.434 E32.60510
G1 X112.289 Y89.067 E32.63016
G1 X113.667 Y81.306 E33.16694
G1 X113.777 Y80.930 E33.19356
G1 X116.628 Y74.024 E33.70231
G1 X116.994 Y73.311 E33.75688
G1 X117.504 Y73.542 F7200.000
G1 X122.544 Y66.380 E34.35323 F1080.000
G1 X125.290 Y66.076 E34.54137
G1 X129.092 Y69.524 E34.89088
G1 X129.099 Y69.586 E34.89512
G1 X129.194 Y69.769 E34.90915
G1 X158.044 Y95.407 E37.53723
G1 X187.932 Y121.712 E40.24834
G1 X190.985 Y124.341 E40.52266
G1 X191.015 Y127.109 E40.71116
G1 X184.427 Y133.044 E41.31495
G1 X184.151 Y133.242 E41.33812
G1 X177.249 Y137.116 E41.87700
G1 X176.589 Y137.311 E41.92391
G1 X169.594 Y137.756 E42.40114
G1 X169.397 Y137.852 E42.41606
G1 X169.067 Y138.220 E42.44969
G1 X168.994 Y138.412 E42.46371
G1 X168.994 Y138.600 E42.47649
G1 X167.199 Y140.395 E42.64932
G1 X159.821 Y140.395 E43.15174
G1 X158.026 Y138.600 E43.32458
G1 X158.026 Y134.772 E43.58522
G1 X157.701 Y134.446 E43.61658
G1 X156.672 Y134.443 E43.68659
G1 X156.345 Y134.770 E43.71813
G1 X156.352 Y138.595 E43.97861
G1 X154.557 Y140.395 E44.15169
G1 X146.980 Y140.395 E44.66763
G1 X145.175 Y138.534 E44.84413
G1 X145.225 Y136.839 E44.95963
G1 X145.146 Y136.631 E44.97475
G1 X144.140 Y135.566 E45.07453
G1 X144.021 Y135.491 E45.08412
G1 X136.885 Y133.202 E45.59439
G1 X136.436 Y132.971 E45.62876
G1 X129.461 Y127.787 E46.22056
G1 X129.263 Y127.612 E46.23857
G1 X123.325 Y121.353 E46.82603
G1 X123.159 Y121.145 E46.84411
G1 X118.443 Y114.038 E47.42491
G1 X118.313 Y113.798 E47.44353
G1 X114.982 Y106.082 E48.01580
G1 X114.894 Y105.813 E48.03508
G1 X113.077 Y97.788 E48.59534
G1 X113.039 Y97.491 E48.61574
G1 X112.819 Y89.447 E49.16364
G1 X112.842 Y89.137 E49.18485
G1 X114.210 Y81.433 E49.71764
G1 X114.303 Y81.115 E49.74018
G1 X117.139 Y74.246 E50.24622
G1 X117.461 Y73.614 E50.29449
G1 X117.972 Y73.846 F7200.000
G1 X122.855 Y66.906 E50.87229 F1080.000
G1 X125.102 Y66.657 E51.02622
G1 X128.562 Y69.796 E51.34431
G1 X128.569 Y69.861 E51.34877
G1 X128.664 Y70.044 E51.36281
G1 X157.675 Y95.824 E54.00552
G1 X187.566 Y122.132 E56.71691
G1 X190.430 Y124.599 E56.97430
G1 X190.455 Y126.864 E57.12852
G1 X184.077 Y132.609 E57.71308
G1 X183.851 Y132.772 E57.73203
G1 X177.031 Y136.599 E58.26454
G1 X176.491 Y136.759 E58.30292
G1 X169.331 Y137.215 E58.79141
G1 X169.134 Y137.310 E58.80632
G1 X168.510 Y138.007 E58.86998
G1 X168.437 Y138.199 E58.88400
G1 X168.437 Y138.369 E58.89557
G1 X166.968 Y139.837 E59.03698
G1 X160.051 Y139.837 E59.50798
G1 X158.583 Y138.369 E59.64939
G1 X158.583 Y134.217 E59.93214
G1 X158.258 Y133.890 E59.96350
G1 X156.114 Y133.884 E60.10945
G1 X155.787 Y134.211 E60.14099
G1 X155.795 Y138.365 E60.42386
G1 X154.326 Y139.837 E60.56548
G1 X147.216 Y139.837 E61.04963
G1 X145.739 Y138.316 E61.19404
G1 X145.789 Y136.624 E61.30924
G1 X145.710 Y136.417 E61.32437
G1 X144.447 Y135.080 E61.44964
G1 X144.327 Y135.005 E61.45924
G1 X137.099 Y132.686 E61.97613
G1 X136.732 Y132.497 E62.00425
G1 X129.812 Y127.354 E62.59129
G1 X129.650 Y127.211 E62.60603
G1 X123.745 Y120.987 E63.19021
G1 X123.610 Y120.817 E63.20500
G1 X118.921 Y113.751 E63.78246
G1 X118.814 Y113.554 E63.79770
G1 X115.504 Y105.885 E64.36651
G1 X115.432 Y105.664 E64.38229
G1 X113.626 Y97.691 E64.93894
G1 X113.595 Y97.448 E64.95563
G1 X113.377 Y89.460 E65.49975
G1 X113.396 Y89.206 E65.51711
G1 X114.754 Y81.560 E66.04593
G1 X114.829 Y81.300 E66.06436
G1 X117.650 Y74.467 E66.56770
G1 X117.929 Y73.917 E66.60967
G1 X118.440 Y74.149 F7200.000
G1 X123.166 Y67.432 E67.16892 F1080.000
G1 X124.914 Y67.238 E67.28864
G1 X128.032 Y70.067 E67.57532
G1 X128.040 Y70.135 E67.58000
G1 X128.134 Y70.318 E67.59404
G1 X157.306 Y96.241 E70.25137
G1 X187.201 Y122.552 E72.96306
G1 X189.876 Y124.857 E73.20351
G1 X189.896 Y126.618 E73.32347
G1 X183.727 Y132.175 E73.88878
G1 X183.551 Y132.301 E73.90352
G1 X176.813 Y136.083 E74.42966
G1 X176.393 Y136.207 E74.45951
G1 X169.069 Y136.673 E74.95925
G1 X168.871 Y136.769 E74.97416
G1 X167.953 Y137.794 E75.06784
G1 X167.880 Y137.986 E75.08186
G1 X167.880 Y138.138 E75.09223
G1 X166.738 Y139.280 E75.20222
G1 X160.282 Y139.280 E75.64179
G1 X159.140 Y138.138 E75.75178
G1 X159.140 Y133.661 E76.05663
G1 X158.815 Y133.335 E76.08799
G1 X155.556 Y133.325 E76.30989
G1 X155.228 Y133.652 E76.34142
G1 X155.237 Y138.135 E76.64669
G1 X154.095 Y139.280 E76.75683
G1 X147.451 Y139.280 E77.20921
G1 X146.302 Y138.097 E77.32153
G1 X146.353 Y136.410 E77.43643
G1 X146.274 Y136.202 E77.45155
G1 X144.753 Y134.593 E77.60233
G1 X144.634 Y134.518 E77.61192
G1 X137.313 Y132.169 E78.13544
G1 X137.027 Y132.022 E78.15731
G1 X130.164 Y126.922 E78.73960
G1 X130.038 Y126.810 E78.75106
G1 X124.166 Y120.621 E79.33196
G1 X124.061 Y120.489 E79.34346
G1 X119.399 Y113.464 E79.91758
G1 X119.316 Y113.311 E79.92944
G1 X116.025 Y105.688 E80.49481
G1 X115.969 Y105.516 E80.50708
G1 X114.175 Y97.595 E81.06012
G1 X114.152 Y97.406 E81.07310
G1 X113.934 Y89.473 E81.61344
G1 X113.949 Y89.276 E81.62694
G1 X115.297 Y81.687 E82.15178
G1 X115.356 Y81.484 E82.16612
G1 X118.162 Y74.689 E82.66675
G1 X118.397 Y74.221 E82.70243
G1 X118.853 Y74.543 F7200.000
G1 X123.477 Y67.958 E83.25034 F1080.000
G1 X124.725 Y67.820 E83.33586
G1 X127.502 Y70.338 E83.59111
G1 X127.510 Y70.410 E83.59602
G1 X127.605 Y70.593 E83.61006
G1 X156.937 Y96.659 E86.28202
G1 X186.835 Y122.972 E88.99400
G1 X189.322 Y125.114 E89.21752
G1 X189.336 Y126.373 E89.30320
G1 X183.377 Y131.740 E89.84927
G1 X183.252 Y131.830 E89.85980
G1 X176.595 Y135.566 E90.37956
G1 X176.295 Y135.655 E90.40089
G1 X168.806 Y136.132 E90.91187
G1 X168.609 Y136.228 E90.92679
G1 X167.396 Y137.581 E91.05050
G1 X167.323 Y137.773 E91.06451
G1 X167.323 Y137.907 E91.07369
G1 X166.507 Y138.723 E91.15225
G1 X160.513 Y138.723 E91.56039
G1 X159.697 Y137.907 E91.63895
G1 X159.697 Y133.106 E91.96591
G1 X159.372 Y132.780 E91.99727
G1 X154.998 Y132.766 E92.29511
G1 X154.670 Y133.094 E92.32665
G1 X154.680 Y137.906 E92.65430
G1 X153.864 Y138.723 E92.73298
G1 X147.687 Y138.723 E93.15357
G1 X146.866 Y137.878 E93.23380
G1 X146.917 Y136.195 E93.34841
G1 X146.838 Y135.988 E93.36353
G1 X145.060 Y134.106 E93.53980
G1 X144.940 Y134.031 E93.54940
G1 X137.527 Y131.653 E94.07955
G1 X137.323 Y131.548 E94.09517
G1 X130.426 Y126.409 E94.68085
G1 X124.512 Y120.161 E95.26665
G1 X119.817 Y113.067 E95.84587
G1 X116.507 Y105.368 E96.41653
G1 X114.725 Y97.498 E96.96596
G1 X114.708 Y97.363 E96.97523
G1 X114.492 Y89.486 E97.51179
G1 X114.503 Y89.345 E97.52143
G1 X115.840 Y81.814 E98.04230
G1 X115.882 Y81.669 E98.05254
G1 X118.673 Y74.910 E98.55047
G1 X118.816 Y74.618 E98.57261
G1 X119.343 Y74.810 F7200.000
G1 X123.788 Y68.484 E99.09908 F1080.000
G1 X124.537 Y68.401 E99.15039
G1 X126.972 Y70.610 E99.37423
G1 X126.980 Y70.685 E99.37936
G1 X127.075 Y70.868 E99.39340
G1 X156.568 Y97.076 E102.07999
G1 X186.469 Y123.392 E104.79227
G1 X188.768 Y125.372 E104.99885
G1 X188.776 Y126.127 E105.05026
G1 X183.028 Y131.306 E105.57708
G1 X176.377 Y135.050 E106.09676
G1 X176.197 Y135.103 E106.10955
G1 X168.543 Y135.590 E106.63179
G1 X168.346 Y135.686 E106.64671
G1 X166.839 Y137.367 E106.80044
G1 X166.766 Y137.560 E106.81445
G1 X166.766 Y137.677 E106.82242
G1 X166.276 Y138.166 E106.86956
G1 X160.744 Y138.166 E107.24628
G1 X160.254 Y137.677 E107.29342
G1 X160.254 Y132.550 E107.64248
G1 X159.929 Y132.224 E107.67384
G1 X154.440 Y132.207 E108.04762
G1 X154.112 Y132.535 E108.07916
G1 X154.122 Y137.676 E108.42921
G1 X153.633 Y138.166 E108.47641
G1 X147.923 Y138.166 E108.86522
G1 X147.430 Y137.659 E108.91336
G1 X147.480 Y135.981 E109.02767
G1 X147.401 Y135.773 E109.04279
G1 X145.366 Y133.620 E109.24456
G1 X145.247 Y133.544 E109.25416
G1 X137.741 Y131.136 E109.79094
G1 X137.618 Y131.074 E109.80031
G1 X130.813 Y126.008 E110.37796
G1 X124.963 Y119.833 E110.95722
G1 X120.319 Y112.823 E111.52972
G1 X117.045 Y105.220 E112.09344
G1 X115.274 Y97.402 E112.63927
G1 X115.056 Y89.415 E113.18333
G1 X116.409 Y81.854 E113.70633
G1 X119.184 Y75.132 E114.20156
G1 X119.306 Y74.885 E114.22029
G1 X119.832 Y75.077 F7200.000
G1 X124.099 Y69.010 E114.72532 F1080.000
G1 X124.349 Y68.982 E114.74243
G1 X126.442 Y70.881 E114.93485
G1 X126.451 Y70.959 E114.94020
G1 X126.546 Y71.142 E114.95424
G1 X156.199 Y97.493 E117.65546
G1 X186.103 Y123.812 E120.36803
G1 X188.213 Y125.630 E120.55767
G1 X188.216 Y125.882 E120.57481
G1 X182.678 Y130.871 E121.08239
G1 X176.159 Y134.533 E121.59151
G1 X176.099 Y134.551 E121.59578
G1 X168.280 Y135.049 E122.12926
G1 X168.083 Y135.145 E122.14418
G1 X166.282 Y137.154 E122.32794
G1 X166.209 Y137.347 E122.34195
G1 X166.209 Y137.446 E122.34872
G1 X166.045 Y137.609 E122.36443
G1 X160.974 Y137.609 E122.70973
G1 X160.811 Y137.446 E122.72544
G1 X160.811 Y131.995 E123.09661
G1 X160.486 Y131.669 E123.12796
G1 X153.881 Y131.649 E123.57769
G1 X153.554 Y131.976 E123.60923
G1 X153.565 Y137.446 E123.98167
G1 X153.402 Y137.609 E123.99740
G1 X148.158 Y137.609 E124.35444
G1 X147.994 Y137.440 E124.37048
G1 X148.044 Y135.766 E124.48449
G1 X147.965 Y135.559 E124.49961
G1 X145.673 Y133.133 E124.72689
G1 X145.554 Y133.058 E124.73648
G1 X137.914 Y130.599 E125.28297
G1 X131.201 Y125.607 E125.85260
G1 X125.428 Y119.523 E126.42366
G1 X120.833 Y112.602 E126.98941
G1 X117.590 Y105.096 E127.54613
G1 X115.823 Y97.305 E128.09009
G1 X115.607 Y89.512 E128.62093
G1 X116.935 Y82.039 E129.13780
G1 X119.695 Y75.353 E129.63032
G1 X119.795 Y75.151 E129.64564
G1 X120.311 Y75.399 F7200.000
G1 X124.305 Y69.723 E130.11818 F540.000
G1 X125.780 Y71.061 E130.25377
G1 X125.704 Y71.169 E130.26275
G1 X155.816 Y97.927 E133.00573
G1 X185.920 Y124.427 E135.73668
G1 X185.932 Y124.417 E135.73770
G1 X187.483 Y125.763 E135.87754
G1 X182.330 Y130.405 E136.34982
G1 X175.963 Y133.980 E136.84702
G1 X168.077 Y134.482 E137.38508
G1 X167.836 Y134.553 E137.40218
G1 X165.616 Y137.031 E137.62869
G1 X161.390 Y137.031 E137.91647
G1 X161.390 Y131.093 E138.32077
G1 X152.974 Y131.067 E138.89383
G1 X152.985 Y137.031 E139.29988
G1 X148.579 Y137.031 E139.59990
G1 X148.634 Y135.424 E139.70936
G1 X145.949 Y132.583 E139.97552
G1 X138.199 Y130.091 E140.52988
G1 X131.594 Y125.182 E141.09021
G1 X125.877 Y119.157 E141.65575
G1 X121.334 Y112.310 E142.21528
G1 X118.138 Y104.904 E142.76452
G1 X116.395 Y97.208 E143.30183
G1 X116.187 Y89.530 E143.82484
G1 X117.496 Y82.172 E144.33378
G1 X120.278 Y75.475 E144.82752
G1 X120.868 Y75.408 F7200.000
G1 X120.802 Y75.670 F7200.000
G1 X124.397 Y70.560 E145.25298 F1080.000
G1 X125.041 Y71.144 E145.31216
G1 X124.962 Y71.257 E145.32158
G1 X155.447 Y98.344 E148.09847
G1 X184.423 Y123.843 E150.72669
G1 X185.919 Y125.178 E150.86317
G1 X185.938 Y125.160 E150.86493
G1 X186.642 Y125.771 E150.92839
G1 X182.003 Y129.950 E151.35353
G1 X175.801 Y133.432 E151.83787
G1 X167.979 Y133.930 E152.37155
G1 X167.527 Y134.064 E152.40367
G1 X165.367 Y136.474 E152.62399
G1 X161.947 Y136.474 E152.85690
G1 X161.947 Y130.538 E153.26108
G1 X152.416 Y130.509 E153.91003
G1 X152.427 Y136.474 E154.31620
