; generated by Slic3r 1.0.0RC2 on 2014-05-05 at 10:54:38

; layer_height = 0.3
; perimeters = 2
; top_solid_layers = 3
; bottom_solid_layers = 3
; fill_density = 0.1
; perimeter_speed = 60
; infill_speed = 60
; travel_speed = 120
; nozzle_diameter = 0.4
; filament_diameter = 1.75
; extrusion_multiplier = 0.98
; perimeters extrusion width = 0.40mm
; infill extrusion width = 0.42mm
; solid infill extrusion width = 0.42mm
; top infill extrusion width = 0.42mm
; first layer extrusion width = 0.80mm

G21 ; set units to millimeters
M107
M104 S220 ; set temperature
G28 ; home all axes
M106 S255;
G1 Z200 F1200 ; lift nozzle
M109 S220 ; wait for temperature to be reached
G90 ; use absolute coordinates
G92 E0
M82 ; use absolute distances for extrusion
G1 F1800.000 E-1.00000
G92 E0
G1 Z0.400 F7200.000
G1 X121.322 Y88.243 F7200.000
G1 E1.00000 F1800.000
G1 X121.732 Y87.683 E1.08078 F1080.000
G1 X122.612 Y86.623 E1.24113
G1 X123.032 Y86.163 E1.31363
G1 X123.492 Y85.743 E1.38613
G1 X124.552 Y84.863 E1.54647
G1 X125.112 Y84.453 E1.62725
G1 X125.702 Y84.093 E1.70770
G1 X126.912 Y83.453 E1.86702
G1 X127.492 Y83.183 E1.94148
G1 X128.092 Y82.973 E2.01547
G1 X129.402 Y82.573 E2.17489
G1 X130.052 Y82.403 E2.25308
G1 X130.722 Y82.313 E2.33177
G1 X132.072 Y82.183 E2.48962
G1 X132.712 Y82.153 E2.56419
G1 X167.262 Y82.153 E6.58546
G1 X167.892 Y82.183 E6.65887
G1 X169.262 Y82.313 E6.81904
G1 X169.932 Y82.403 E6.89772
G1 X170.592 Y82.573 E6.97704
G1 X171.902 Y82.973 E7.13646
G1 X172.502 Y83.183 E7.21045
G1 X173.082 Y83.453 E7.28491
G1 X174.292 Y84.093 E7.44423
G1 X174.882 Y84.453 E7.52468
G1 X175.442 Y84.863 E7.60546
G1 X176.502 Y85.743 E7.76580
G1 X176.972 Y86.183 E7.84074
G1 X177.402 Y86.653 E7.91488
G1 X178.272 Y87.713 E8.07449
G1 X178.662 Y88.233 E8.15014
G1 X178.992 Y88.793 E8.22580
G1 X179.642 Y90.003 E8.38566
G1 X179.932 Y90.603 E8.46322
G1 X180.152 Y91.223 E8.53979
G1 X180.552 Y92.533 E8.69921
G1 X180.722 Y93.193 E8.77854
G1 X180.812 Y93.863 E8.85722
G1 X180.942 Y95.233 E9.01739
G1 X180.972 Y96.133 E9.12220
G1 X180.182 Y115.843 E11.41809
G1 X180.152 Y116.243 E11.46477
G1 X180.042 Y117.333 E11.59228
G1 X179.942 Y117.993 E11.66998
G1 X179.782 Y118.633 E11.74676
G1 X179.462 Y119.673 E11.87340
G1 X179.242 Y120.273 E11.94778
G1 X178.972 Y120.853 E12.02225
G1 X178.462 Y121.813 E12.14877
G1 X178.122 Y122.383 E12.22602
G1 X177.722 Y122.923 E12.30423
G1 X177.032 Y123.763 E12.43076
G1 X176.592 Y124.253 E12.50741
G1 X176.102 Y124.693 E12.58405
G1 X175.262 Y125.383 E12.71058
G1 X174.752 Y125.763 E12.78460
G1 X174.202 Y126.093 E12.85925
G1 X173.242 Y126.613 E12.98633
G1 X172.602 Y126.923 E13.06910
G1 X171.942 Y127.153 E13.15044
G1 X170.892 Y127.463 E13.27787
G1 X170.292 Y127.613 E13.34985
G1 X169.672 Y127.703 E13.42277
G1 X168.592 Y127.813 E13.54912
G1 X167.912 Y127.843 E13.62834
G1 X131.932 Y127.843 E17.81605
G1 X131.252 Y127.813 E17.89527
G1 X130.172 Y127.703 E18.02162
G1 X129.552 Y127.613 E18.09454
G1 X128.932 Y127.453 E18.16907
G1 X127.892 Y127.143 E18.29538
G1 X127.252 Y126.923 E18.37414
G1 X126.642 Y126.633 E18.45276
G1 X125.672 Y126.113 E18.58085
G1 X125.112 Y125.773 E18.65710
G1 X124.582 Y125.383 E18.73369
G1 X123.742 Y124.693 E18.86022
G1 X123.252 Y124.253 E18.93687
G1 X122.812 Y123.763 E19.01351
G1 X122.122 Y122.923 E19.14004
G1 X121.722 Y122.383 E19.21825
G1 X121.382 Y121.813 E19.29550
G1 X120.872 Y120.853 E19.42202
G1 X120.602 Y120.273 E19.49649
G1 X120.382 Y119.673 E19.57087
G1 X120.062 Y118.633 E19.69751
G1 X119.902 Y117.993 E19.77429
G1 X119.802 Y117.333 E19.85199
G1 X119.662 Y115.793 E20.03197
G1 X119.022 Y96.083 E22.32722
G1 X119.052 Y95.233 E22.42621
G1 X119.182 Y93.863 E22.58638
G1 X119.272 Y93.193 E22.66507
G1 X119.442 Y92.533 E22.74439
G1 X119.842 Y91.223 E22.90381
G1 X120.052 Y90.623 E22.97780
G1 X120.322 Y90.043 E23.05226
G1 X120.962 Y88.833 E23.21158
G1 X121.266 Y88.334 E23.27955
G1 F1800.000 E22.27955
G92 E0
G1 X123.539 Y89.952 F7200.000
G1 E1.00000 F1800.000
G1 X123.753 Y89.631 E1.04491 F1080.000
G1 X124.868 Y88.272 E1.24954
G1 X125.141 Y87.999 E1.29446
G1 X126.500 Y86.884 E1.49910
G1 X126.821 Y86.669 E1.54402
G1 X128.372 Y85.840 E1.74865
G1 X128.729 Y85.693 E1.79357
G1 X130.411 Y85.182 E1.99821
G1 X130.790 Y85.107 E2.04312
G1 X132.539 Y84.935 E2.24776
G1 X132.925 Y84.935 E2.29268
G1 X134.675 Y85.107 E2.49731
G1 X135.053 Y85.182 E2.54223
G1 X136.736 Y85.693 E2.74687
G1 X137.092 Y85.840 E2.79179
G1 X138.643 Y86.669 E2.99642
G1 X138.964 Y86.884 E3.04134
G1 X140.323 Y87.999 E3.24597
G1 X140.596 Y88.272 E3.29088
G1 X140.856 Y88.588 E3.33854
G1 X141.401 Y88.669 E3.40266
G1 X145.212 Y86.122 E3.93623
G1 X145.927 Y85.826 E4.02628
G1 X149.295 Y85.156 E4.42592
G1 X150.068 Y85.156 E4.51598
G1 X153.436 Y85.826 E4.91562
G1 X154.151 Y86.122 E5.00567
G1 X157.006 Y88.030 E5.40531
G1 X157.553 Y88.577 E5.49536
G1 X157.936 Y89.150 E5.57563
G1 X158.654 Y89.186 E5.65931
G1 X159.396 Y88.281 E5.79547
G1 X159.667 Y88.010 E5.84004
G1 X161.033 Y86.886 E6.04591
G1 X161.356 Y86.670 E6.09117
G1 X162.908 Y85.840 E6.29598
G1 X163.264 Y85.693 E6.34090
G1 X164.947 Y85.182 E6.54554
G1 X165.325 Y85.107 E6.59045
G1 X167.075 Y84.935 E6.79507
G1 X167.461 Y84.935 E6.84000
G1 X169.211 Y85.107 E7.04464
G1 X169.589 Y85.182 E7.08956
G1 X171.272 Y85.693 E7.29420
G1 X171.628 Y85.840 E7.33912
G1 X173.179 Y86.669 E7.54375
G1 X173.500 Y86.884 E7.58867
G1 X174.859 Y87.999 E7.79330
G1 X175.131 Y88.272 E7.83821
G1 X176.247 Y89.631 E8.04285
G1 X176.461 Y89.952 E8.08777
G1 X177.290 Y91.502 E8.29240
G1 X177.438 Y91.859 E8.33731
G1 X177.948 Y93.541 E8.54195
G1 X178.023 Y93.920 E8.58687
G1 X178.196 Y95.670 E8.79150
G1 X178.196 Y96.056 E8.83642
G1 X178.023 Y97.805 E9.04105
G1 X177.948 Y98.184 E9.08596
G1 X177.438 Y99.866 E9.29059
G1 X177.290 Y100.223 E9.33552
G1 X175.744 Y103.115 E9.71727
G1 X172.427 Y103.986 E10.11640
G1 X168.392 Y101.420 E10.67297
G1 X167.817 Y99.254 E10.93371
G1 X166.719 Y99.254 E11.06157
G1 X166.144 Y101.420 E11.32231
G1 X162.109 Y103.986 E11.87887
G1 X158.792 Y103.115 E12.27801
G1 X158.645 Y102.841 E12.31427
G1 X157.837 Y102.801 E12.40844
G1 X157.553 Y103.226 E12.46790
G1 X157.006 Y103.773 E12.55795
G1 X154.151 Y105.680 E12.95759
G1 X153.743 Y105.849 E13.00892
G1 X153.699 Y106.753 E13.11420
G1 X154.690 Y107.282 E13.24497
G1 X155.011 Y107.497 E13.28989
G1 X156.151 Y108.433 E13.46162
G1 X156.424 Y108.706 E13.50654
G1 X157.360 Y109.846 E13.67827
G1 X157.575 Y110.167 E13.72319
G1 X158.401 Y111.713 E13.92719
G1 X159.257 Y111.713 E14.02683
G1 X159.922 Y110.470 E14.19088
G1 X160.136 Y110.149 E14.23579
G1 X161.072 Y109.008 E14.40752
G1 X161.345 Y108.735 E14.45244
G1 X162.485 Y107.799 E14.62418
G1 X162.806 Y107.585 E14.66910
G1 X164.112 Y106.887 E14.84142
G1 X164.478 Y106.736 E14.88752
G1 X165.920 Y106.307 E15.06263
G1 X166.289 Y106.235 E15.10637
G1 X167.723 Y106.093 E15.27407
G1 X168.109 Y106.093 E15.31899
G1 X169.577 Y106.238 E15.49072
G1 X169.956 Y106.313 E15.53564
G1 X171.368 Y106.742 E15.70737
G1 X171.724 Y106.889 E15.75229
G1 X173.026 Y107.585 E15.92402
G1 X173.347 Y107.799 E15.96894
G1 X174.487 Y108.735 E16.14067
G1 X174.760 Y109.008 E16.18559
G1 X175.696 Y110.149 E16.35732
G1 X175.910 Y110.470 E16.40225
G1 X176.606 Y111.771 E16.57398
G1 X176.754 Y112.128 E16.61890
G1 X177.182 Y113.540 E16.79063
G1 X177.257 Y113.918 E16.83554
G1 X177.402 Y115.386 E17.00728
G1 X177.402 Y115.772 E17.05220
G1 X177.257 Y117.241 E17.22393
G1 X177.182 Y117.619 E17.26885
G1 X176.754 Y119.031 E17.44058
G1 X176.606 Y119.388 E17.48550
G1 X175.910 Y120.689 E17.65723
G1 X175.696 Y121.010 E17.70215
G1 X174.760 Y122.151 E17.87389
G1 X174.487 Y122.423 E17.91880
G1 X173.347 Y123.359 E18.09054
G1 X173.026 Y123.574 E18.13545
G1 X171.724 Y124.269 E18.30719
G1 X171.368 Y124.417 E18.35210
G1 X169.956 Y124.845 E18.52384
G1 X169.577 Y124.921 E18.56876
G1 X168.109 Y125.065 E18.74049
G1 X167.723 Y125.065 E18.78541
G1 X166.255 Y124.921 E18.95714
G1 X165.876 Y124.845 E19.00205
G1 X164.464 Y124.417 E19.17379
G1 X164.108 Y124.269 E19.21870
G1 X162.806 Y123.574 E19.39044
G1 X162.485 Y123.359 E19.43536
G1 X161.345 Y122.423 E19.60709
G1 X161.072 Y122.151 E19.65201
G1 X160.136 Y121.010 E19.82374
G1 X159.922 Y120.689 E19.86865
G1 X159.095 Y119.143 E20.07266
G1 X158.239 Y119.143 E20.17230
G1 X157.575 Y120.386 E20.33635
G1 X157.360 Y120.707 E20.38127
G1 X156.424 Y121.848 E20.55300
G1 X156.151 Y122.121 E20.59791
G1 X155.011 Y123.057 E20.76964
G1 X154.690 Y123.271 E20.81457
G1 X153.389 Y123.967 E20.98630
G1 X153.032 Y124.114 E21.03122
G1 X151.620 Y124.543 E21.20295
G1 X151.242 Y124.618 E21.24787
G1 X149.773 Y124.763 E21.41960
G1 X149.387 Y124.763 E21.46452
G1 X147.919 Y124.618 E21.63625
G1 X147.541 Y124.543 E21.68117
G1 X146.129 Y124.114 E21.85290
G1 X145.772 Y123.967 E21.89782
G1 X144.471 Y123.271 E22.06955
G1 X144.150 Y123.057 E22.11448
G1 X143.009 Y122.121 E22.28621
G1 X142.736 Y121.848 E22.33112
G1 X141.800 Y120.707 E22.50285
G1 X141.586 Y120.386 E22.54776
G1 X141.269 Y119.793 E22.62607
G1 X140.413 Y119.793 E22.72571
G1 X139.934 Y120.689 E22.84396
G1 X139.719 Y121.010 E22.88888
G1 X138.783 Y122.151 E23.06061
G1 X138.510 Y122.423 E23.10553
G1 X137.370 Y123.359 E23.27726
G1 X137.049 Y123.574 E23.32218
G1 X135.748 Y124.269 E23.49391
G1 X135.391 Y124.417 E23.53883
G1 X133.979 Y124.845 E23.71056
G1 X133.601 Y124.921 E23.75548
G1 X132.132 Y125.065 E23.92722
G1 X131.746 Y125.065 E23.97213
G1 X130.278 Y124.921 E24.14386
G1 X129.899 Y124.845 E24.18878
G1 X128.487 Y124.417 E24.36051
G1 X128.131 Y124.269 E24.40543
G1 X126.830 Y123.574 E24.57717
G1 X126.509 Y123.359 E24.62209
G1 X125.368 Y122.423 E24.79382
G1 X125.095 Y122.151 E24.83874
G1 X124.159 Y121.010 E25.01047
G1 X123.945 Y120.689 E25.05538
G1 X123.249 Y119.388 E25.22712
G1 X123.102 Y119.031 E25.27204
G1 X122.673 Y117.619 E25.44377
G1 X122.598 Y117.241 E25.48870
G1 X122.453 Y115.772 E25.66043
G1 X122.453 Y115.386 E25.70534
G1 X122.598 Y113.918 E25.87707
G1 X122.673 Y113.540 E25.92199
G1 X123.102 Y112.128 E26.09373
G1 X123.249 Y111.771 E26.13865
G1 X123.945 Y110.470 E26.31038
G1 X124.159 Y110.149 E26.35529
G1 X125.095 Y109.008 E26.52702
G1 X125.368 Y108.735 E26.57195
G1 X126.509 Y107.799 E26.74368
G1 X126.830 Y107.585 E26.78860
G1 X128.135 Y106.887 E26.96090
G1 X128.501 Y106.737 E27.00698
G1 X129.943 Y106.307 E27.18200
G1 X130.311 Y106.235 E27.22577
G1 X131.746 Y106.093 E27.39357
G1 X132.132 Y106.093 E27.43849
G1 X133.601 Y106.238 E27.61022
G1 X133.979 Y106.313 E27.65514
G1 X135.391 Y106.742 E27.82687
G1 X135.748 Y106.889 E27.87179
G1 X137.049 Y107.585 E28.04352
G1 X137.370 Y107.799 E28.08844
G1 X138.510 Y108.735 E28.26018
G1 X138.783 Y109.008 E28.30509
G1 X139.719 Y110.149 E28.47683
G1 X139.934 Y110.470 E28.52175
G1 X140.251 Y111.063 E28.60004
G1 X141.107 Y111.063 E28.69968
G1 X141.586 Y110.167 E28.81794
G1 X141.800 Y109.846 E28.86284
G1 X142.736 Y108.706 E29.03456
G1 X143.009 Y108.433 E29.07949
G1 X144.150 Y107.497 E29.25123
G1 X144.471 Y107.282 E29.29614
G1 X145.520 Y106.721 E29.43470
G1 X145.560 Y105.913 E29.52887
G1 X141.359 Y103.106 E30.11690
G1 X140.814 Y103.187 E30.18103
G1 X139.675 Y104.575 E30.39000
G1 X136.402 Y104.873 E30.77262
G1 X132.994 Y101.992 E31.29200
G1 X132.471 Y101.992 E31.35285
G1 X129.063 Y104.873 E31.87223
G1 X125.789 Y104.575 E32.25486
G1 X123.753 Y102.094 E32.62834
G1 X123.539 Y101.773 E32.67326
G1 X122.710 Y100.223 E32.87789
G1 X122.562 Y99.866 E32.92281
G1 X122.052 Y98.184 E33.12745
G1 X121.977 Y97.805 E33.17237
G1 X121.804 Y96.055 E33.37700
G1 X121.804 Y95.670 E33.42191
G1 X121.977 Y93.920 E33.62654
G1 X122.052 Y93.541 E33.67147
G1 X122.562 Y91.859 E33.87610
G1 X122.710 Y91.502 E33.92102
G1 X123.488 Y90.046 E34.11318
G1 F1800.000 E33.11318
G92 E0
G1 X165.797 Y95.580 F7200.000
G1 E1.00000 F1800.000
G1 X165.907 Y95.213 E1.04469 F1080.000
G1 X166.020 Y95.000 E1.07271
G1 X166.205 Y94.759 E1.10806
G1 X166.487 Y94.525 E1.15075
G1 X166.681 Y94.420 E1.17636
G1 X166.952 Y94.329 E1.20959
G1 X167.303 Y94.294 E1.25073
G1 X167.584 Y94.329 E1.28364
G1 X167.789 Y94.393 E1.30866
G1 X168.107 Y94.564 E1.35064
G1 X168.330 Y94.759 E1.38518
G1 X168.478 Y94.941 E1.41242
G1 X168.655 Y95.277 E1.45659
G1 X168.738 Y95.581 E1.49324
G1 X168.762 Y95.897 E1.53020
G1 X168.725 Y96.213 E1.56717
G1 X168.628 Y96.512 E1.60384
G1 X167.699 Y98.275 E1.83583
G1 X166.837 Y98.275 E1.93610
G1 X165.881 Y96.448 E2.17614
G1 X165.797 Y96.145 E2.21278
G1 X165.773 Y95.897 E2.24172
G1 X165.787 Y95.687 E2.26623
G1 X165.093 Y95.442 F7200.000
G1 X165.056 Y95.897 E2.31935 F1080.000
G1 X165.093 Y96.283 E2.36445
G1 X165.217 Y96.720 E2.41729
G1 X166.169 Y98.540 E2.65644
G1 X165.525 Y100.967 E2.94865
G1 X161.989 Y103.216 E3.43646
G1 X159.275 Y102.504 E3.76303
G1 X158.713 Y101.453 E3.90168
G1 X157.905 Y101.413 E3.99585
G1 X156.998 Y102.770 E4.18579
G1 X156.551 Y103.218 E4.25947
G1 X153.813 Y105.047 E4.64274
G1 X153.228 Y105.290 E4.71642
G1 X151.585 Y105.616 E4.91133
G1 X151.531 Y106.730 E5.04107
G1 X152.791 Y107.112 E5.19439
G1 X153.083 Y107.233 E5.23114
G1 X154.322 Y107.895 E5.39471
G1 X154.585 Y108.071 E5.43147
G1 X155.671 Y108.962 E5.59503
G1 X155.895 Y109.186 E5.63178
G1 X156.786 Y110.272 E5.79535
G1 X156.961 Y110.535 E5.83210
G1 X157.624 Y111.774 E5.99566
G1 X157.745 Y112.066 E6.03242
G1 X158.264 Y113.779 E6.24076
G1 X159.324 Y113.779 E6.36405
G1 X159.752 Y112.368 E6.53557
G1 X159.872 Y112.077 E6.57233
G1 X160.535 Y110.837 E6.73589
G1 X160.710 Y110.575 E6.77264
G1 X161.602 Y109.489 E6.93620
G1 X161.825 Y109.265 E6.97296
G1 X162.911 Y108.374 E7.13653
G1 X163.174 Y108.198 E7.17327
G1 X164.417 Y107.534 E7.33732
G1 X164.717 Y107.411 E7.37504
G1 X166.091 Y107.001 E7.54199
G1 X166.393 Y106.942 E7.57777
G1 X167.758 Y106.808 E7.73741
G1 X168.074 Y106.808 E7.77416
G1 X169.472 Y106.945 E7.93773
G1 X169.782 Y107.007 E7.97448
G1 X171.127 Y107.415 E8.13805
G1 X171.419 Y107.536 E8.17480
G1 X172.658 Y108.198 E8.33836
G1 X172.921 Y108.374 E8.37511
G1 X174.007 Y109.265 E8.53868
G1 X174.230 Y109.488 E8.57543
G1 X175.122 Y110.575 E8.73900
G1 X175.297 Y110.837 E8.77575
G1 X175.960 Y112.077 E8.93932
G1 X176.080 Y112.368 E8.97607
G1 X176.488 Y113.713 E9.13963
G1 X176.550 Y114.023 E9.17638
G1 X176.688 Y115.422 E9.33995
G1 X176.688 Y115.737 E9.37671
G1 X176.550 Y117.136 E9.54027
G1 X176.488 Y117.446 E9.57702
G1 X176.080 Y118.790 E9.74058
G1 X175.960 Y119.082 E9.77733
G1 X175.297 Y120.321 E9.94090
G1 X175.122 Y120.584 E9.97765
G1 X174.230 Y121.670 E10.14122
G1 X174.007 Y121.894 E10.17797
G1 X172.921 Y122.785 E10.34154
G1 X172.658 Y122.961 E10.37829
G1 X171.419 Y123.623 E10.54186
G1 X171.127 Y123.744 E10.57861
G1 X169.782 Y124.152 E10.74217
G1 X169.472 Y124.213 E10.77893
G1 X168.074 Y124.351 E10.94249
G1 X167.758 Y124.351 E10.97924
G1 X166.360 Y124.213 E11.14280
G1 X166.050 Y124.152 E11.17956
G1 X164.705 Y123.744 E11.34312
G1 X164.413 Y123.623 E11.37987
G1 X163.174 Y122.961 E11.54344
G1 X162.911 Y122.785 E11.58020
G1 X161.825 Y121.894 E11.74376
G1 X161.602 Y121.670 E11.78051
G1 X160.710 Y120.584 E11.94407
G1 X160.535 Y120.322 E11.98082
G1 X159.872 Y119.082 E12.14439
G1 X159.752 Y118.790 E12.18114
G1 X159.232 Y117.077 E12.38949
G1 X158.173 Y117.077 E12.51278
G1 X157.745 Y118.488 E12.68430
G1 X157.624 Y118.779 E12.72105
G1 X156.961 Y120.019 E12.88462
G1 X156.786 Y120.281 E12.92137
G1 X155.895 Y121.368 E13.08494
G1 X155.671 Y121.591 E13.12169
G1 X154.585 Y122.482 E13.28525
G1 X154.322 Y122.658 E13.32201
G1 X153.083 Y123.320 E13.48558
G1 X152.791 Y123.441 E13.52232
G1 X151.446 Y123.849 E13.68589
G1 X151.137 Y123.911 E13.72264
G1 X149.738 Y124.048 E13.88620
G1 X149.422 Y124.048 E13.92296
G1 X148.024 Y123.911 E14.08652
G1 X147.714 Y123.849 E14.12327
G1 X146.369 Y123.441 E14.28683
G1 X146.078 Y123.320 E14.32358
G1 X144.838 Y122.658 E14.48715
G1 X144.576 Y122.482 E14.52391
G1 X143.489 Y121.591 E14.68747
G1 X143.266 Y121.368 E14.72422
G1 X142.375 Y120.281 E14.88778
G1 X142.199 Y120.019 E14.92453
G1 X141.537 Y118.779 E15.08810
G1 X141.283 Y118.166 E15.16533
G1 X140.278 Y118.216 E15.28241
G1 X140.104 Y118.790 E15.35229
G1 X139.983 Y119.082 E15.38904
G1 X139.320 Y120.321 E15.55261
G1 X139.145 Y120.584 E15.58936
G1 X138.253 Y121.670 E15.75293
G1 X138.030 Y121.894 E15.78968
