; generated by Slic3r 1.0.0RC3 on 2014-03-11 at 10:50:51

; layer_height = 0.3
; perimeters = 2
; top_solid_layers = 3
; bottom_solid_layers = 3
; fill_density = 0.1
; perimeter_speed = 60
; infill_speed = 60
; travel_speed = 120
; nozzle_diameter = 0.4
; filament_diameter = 1.75
; extrusion_multiplier = 0.98
; perimeters extrusion width = 0.40mm
; infill extrusion width = 0.42mm
; solid infill extrusion width = 0.42mm
; top infill extrusion width = 0.42mm
; first layer extrusion width = 0.60mm

G21 ; set units to millimeters
M107
M104 S220 ; set temperature
G28 ; home all axes
M106 S255;
G1 Z200 F1200 ; lift nozzle
M109 S220 ; wait for temperature to be reached
G90 ; use absolute coordinates
G92 E0
M82 ; use absolute distances for extrusion
G1 F1800.000 E-1.00000
G92 E0
G1 Z0.300 F7200.000
G1 X128.766 Y87.110 F7200.000
G1 E1.00000 F1800.000
G1 X129.646 Y86.100 E1.09122 F1080.000
G1 X130.706 Y85.280 E1.18247
G1 X131.476 Y84.860 E1.24219
G1 X133.126 Y84.070 E1.36676
G1 X134.506 Y83.590 E1.46625
G1 X135.956 Y83.420 E1.56566
G1 X170.096 Y83.420 E3.89033
G1 X171.376 Y83.550 E3.97794
G1 X172.606 Y83.920 E4.06540
G1 X173.746 Y84.530 E4.15344
G1 X174.736 Y85.350 E4.24097
G1 X175.556 Y86.340 E4.32851
G1 X176.156 Y87.480 E4.41623
G1 X176.526 Y88.710 E4.50369
G1 X176.656 Y89.990 E4.59129
G1 X176.646 Y96.600 E5.04139
G1 X176.586 Y97.440 E5.09873
G1 X176.426 Y98.260 E5.15562
G1 X170.236 Y121.780 E6.81169
G1 X169.726 Y123.120 E6.90932
G1 X168.936 Y124.310 E7.00658
G1 X167.896 Y125.300 E7.10435
G1 X166.676 Y126.050 E7.20186
G1 X165.316 Y126.510 E7.29962
G1 X163.896 Y126.670 E7.39692
G1 X143.416 Y126.670 E8.79146
G1 X141.776 Y126.460 E8.90404
G1 X140.246 Y125.850 E9.01620
G1 X130.966 Y120.720 E9.73822
G1 X129.826 Y119.920 E9.83305
G1 X128.876 Y118.890 E9.92846
G1 X128.166 Y117.690 E10.02340
G1 X127.726 Y116.370 E10.11815
G1 X127.576 Y114.980 E10.21334
G1 X127.566 Y90.880 E11.85437
G1 X127.706 Y89.550 E11.94544
G1 X128.106 Y88.270 E12.03675
G1 X128.724 Y87.183 E12.12194
G1 F1800.000 E11.12194
G92 E0
G1 X134.989 Y91.398 F7200.000
G1 E1.00000 F1800.000
G1 X136.041 Y90.896 E1.07934 F1080.000
G1 X136.041 Y99.983 E1.69807
G1 X139.708 Y99.983 E1.94778
G1 X139.708 Y98.916 E2.02041
G1 X143.313 Y98.916 E2.26585
G1 X143.313 Y90.837 E2.81595
G1 X144.092 Y90.838 E2.86903
G1 X144.092 Y96.013 E3.22141
G1 X164.013 Y96.013 E4.57784
G1 X166.416 Y95.961 E4.74151
G1 X166.416 Y95.981 E4.74287
G1 X169.184 Y95.981 E4.93139
G1 X169.234 Y96.141 E4.94282
G1 X164.951 Y99.072 E5.29619
G1 X163.043 Y103.045 E5.59632
G1 X163.043 Y119.254 E6.70003
G1 X161.545 Y119.254 E6.80202
G1 X161.545 Y112.653 E7.25148
G1 X146.045 Y112.653 E8.30689
G1 X146.045 Y119.254 E8.75635
G1 X143.642 Y119.254 E8.92001
G1 X134.999 Y114.477 E9.59246
G1 X134.989 Y91.482 E11.15824
G1 X134.432 Y91.047 F7200.000
G1 X136.033 Y90.282 E11.27904 F540.000
G1 X136.596 Y90.282 E11.31734
G1 X136.598 Y99.426 E11.93992
G1 X139.151 Y99.426 E12.11377
G1 X139.147 Y90.282 E12.73635
G1 X140.137 Y90.282 E12.80382
G1 X140.142 Y98.359 E13.35378
G1 X142.324 Y98.359 E13.50238
G1 X142.756 Y98.359 E13.53175
G1 X142.751 Y90.283 E14.08170
G1 X144.649 Y90.282 E14.21095
G1 X144.649 Y95.456 E14.56327
G1 X146.812 Y95.456 E14.71056
G1 X146.812 Y90.282 E15.06286
G1 X147.803 Y90.282 E15.13033
G1 X147.803 Y95.456 E15.48263
G1 X149.895 Y95.456 E15.62508
G1 X149.895 Y90.282 E15.97738
G1 X150.867 Y90.282 E16.04356
G1 X150.867 Y95.456 E16.39586
G1 X152.864 Y95.456 E16.53183
G1 X152.864 Y90.282 E16.88413
G1 X153.851 Y90.282 E16.95134
G1 X153.851 Y95.456 E17.30364
G1 X155.943 Y95.456 E17.44609
G1 X155.943 Y90.282 E17.79839
G1 X156.976 Y90.282 E17.86873
G1 X156.976 Y95.456 E18.22103
G1 X159.289 Y95.456 E18.37854
G1 X159.289 Y90.282 E18.73084
G1 X160.353 Y90.282 E18.80328
G1 X160.353 Y95.456 E19.15558
G1 X162.551 Y95.456 E19.30526
G1 X162.551 Y90.282 E19.65757
G1 X163.600 Y90.281 E19.72897
G1 X163.600 Y95.455 E20.08130
G1 X165.791 Y95.417 E20.23052
G1 X165.791 Y90.281 E20.58025
G1 X166.973 Y90.282 E20.66074
G1 X166.973 Y95.424 E21.01083
G1 X169.072 Y95.424 E21.15380
G1 X169.072 Y90.282 E21.50388
G1 X169.804 Y90.282 E21.55372
G1 X169.793 Y96.434 E21.97260
G1 X165.389 Y99.448 E22.33595
G1 X163.600 Y103.172 E22.61729
G1 X163.600 Y119.811 E23.75030
G1 X156.250 Y119.811 E24.25073
G1 X156.250 Y118.363 E24.34933
G1 X160.988 Y118.363 E24.67190
G1 X160.988 Y113.210 E25.02277
G1 X146.602 Y113.210 E26.00231
G1 X146.602 Y118.363 E26.35317
G1 X150.624 Y118.363 E26.62701
G1 X150.624 Y119.811 E26.72561
G1 X143.498 Y119.811 E27.21083
G1 X134.441 Y114.805 E27.91548
G1 X134.432 Y91.131 E29.52754
G1 X134.975 Y91.172 F7200.000
G1 F1800.000 E28.52754
G92 E0
G1 X137.034 Y90.121 F7200.000
G1 E1.00000 F1800.000
G1 X137.347 Y90.433 E1.03009 F540.000
G1 X137.596 Y90.433 E1.04708
G1 X138.398 Y90.432 E1.10165
G1 X138.845 Y90.122 E1.13869
G1 X138.398 Y90.432 F7200.000
G1 X138.711 Y90.851 E1.17431 F540.000
G1 X137.347 Y90.433 F7200.000
G1 X137.039 Y90.844 E1.20924 F540.000
G1 X136.899 Y90.850 E1.21883
G1 F1800.000 E0.21883
G92 E0
G1 X140.473 Y90.743 F7200.000
G1 E1.00000 F1800.000
G1 X140.885 Y90.434 E1.03511 F540.000
G1 X140.476 Y90.015 E1.07500
G1 X140.885 Y90.434 F7200.000
G1 X142.085 Y90.437 E1.15669 F540.000
G1 X142.234 Y90.321 F7200.000
G1 X142.085 Y90.437 E1.16957 F540.000
G1 X142.315 Y90.809 E1.19938
G1 F1800.000 E0.19938
G92 E0
G1 X145.034 Y90.743 F7200.000
G1 E1.00000 F1800.000
G1 X145.395 Y90.426 E1.03273 F540.000
G1 X145.088 Y90.015 E1.06764
G1 X145.395 Y90.426 F7200.000
G1 X146.066 Y90.439 E1.11336 F540.000
G1 X146.427 Y90.122 E1.14609
G1 X146.066 Y90.439 F7200.000
G1 X146.373 Y90.850 E1.18100 F540.000
G1 X148.153 Y90.743 F7200.000
G1 X148.551 Y90.429 E1.21555 F540.000
G1 X148.242 Y90.015 E1.25070
G1 X148.551 Y90.429 F7200.000
G1 X149.147 Y90.437 E1.29133 F540.000
G1 X149.545 Y90.122 E1.32588
G1 X149.147 Y90.437 F7200.000
G1 X149.456 Y90.850 E1.36103 F540.000
G1 X151.169 Y90.743 F7200.000
G1 X151.617 Y90.433 E1.39816 F540.000
G1 X152.113 Y90.432 F7200.000
G1 X152.425 Y90.850 E1.43365 F540.000
G1 X152.562 Y90.122 F7200.000
G1 X152.113 Y90.432 E1.47078 F540.000
G1 X151.617 Y90.433 E1.50456
G1 X151.306 Y90.015 E1.54006
G1 F1800.000 E0.54006
G92 E0
G1 X154.290 Y90.015 F7200.000
G1 E1.00000 F1800.000
G1 X154.599 Y90.429 E1.03514 F540.000
G1 X154.201 Y90.743 E1.06970
G1 X154.599 Y90.429 F7200.000
G1 X155.195 Y90.437 E1.11033 F540.000
G1 X155.593 Y90.122 E1.14488
G1 X155.195 Y90.437 F7200.000
G1 X155.504 Y90.850 E1.18003 F540.000
G1 X157.297 Y90.743 F7200.000
G1 X157.728 Y90.436 E1.21609 F540.000
G1 X158.537 Y90.429 E1.27114
G1 X158.968 Y90.122 E1.30721
G1 X158.537 Y90.429 F7200.000
G1 X158.850 Y90.850 E1.34295 F540.000
G1 X157.728 Y90.436 F7200.000
G1 X157.415 Y90.015 E1.37869 F540.000
G1 F1800.000 E0.37869
G92 E0
G1 X160.792 Y90.015 F7200.000
G1 E1.00000 F1800.000
G1 X161.099 Y90.427 E1.03498 F540.000
G1 X160.756 Y90.743 E1.06680
G1 X161.099 Y90.427 F7200.000
G1 X161.805 Y90.439 E1.11485 F540.000
G1 X162.148 Y90.122 E1.14668
G1 X161.805 Y90.439 F7200.000
G1 X162.112 Y90.850 E1.18166 F540.000
G1 X163.999 Y90.743 F7200.000
G1 X164.347 Y90.425 E1.21375 F540.000
G1 X164.039 Y90.014 E1.24875
G1 X164.347 Y90.425 F7200.000
G1 X165.001 Y90.434 E1.29329 F540.000
G1 X165.340 Y90.126 E1.32445
G1 X165.001 Y90.434 F7200.000
G1 X165.352 Y90.862 E1.36213 F540.000
G1 X167.326 Y90.850 F7200.000
G1 X167.718 Y90.428 E1.40137 F540.000
G1 X167.412 Y89.983 F7200.000
G1 X167.412 Y90.122 E1.41083 F540.000
G1 X167.798 Y90.443 E1.44499
G1 X168.325 Y90.437 E1.48092
G1 X168.719 Y90.122 E1.51527
G1 X168.325 Y90.437 F7200.000
G1 X168.633 Y90.850 E1.55037 F540.000
G1 F1800.000 E0.55037
G92 E0
G1 X167.677 Y96.392 F7200.000
G1 E1.00000 F1800.000
G1 X167.660 Y96.375 E1.00167 F1080.000
G1 X166.864 Y96.375 E1.05638
G1 X167.205 Y96.715 E1.08948
G1 X166.732 Y97.038 E1.12883
G1 X166.069 Y96.375 E1.19337
G1 X165.278 Y96.379 E1.24776
G1 X166.260 Y97.362 E1.34328
G1 X165.788 Y97.685 E1.38263
G1 X164.499 Y96.396 E1.50796
G1 X163.714 Y96.406 E1.56196
G1 X165.315 Y98.008 E1.71771
G1 X164.843 Y98.331 E1.75706
G1 X162.918 Y96.406 E1.94424
G1 X162.123 Y96.407 E1.99895
G1 X164.394 Y98.678 E2.21986
G1 X164.136 Y99.216 E2.26086
G1 X161.327 Y96.407 E2.53403
G1 X160.532 Y96.407 E2.58874
G1 X163.878 Y99.753 E2.91417
G1 X163.620 Y100.290 E2.95516
G1 X159.736 Y96.407 E3.33285
G1 X158.941 Y96.407 E3.38755
G1 X163.362 Y100.828 E3.81750
G1 X163.104 Y101.365 E3.85849
G1 X158.145 Y96.407 E4.34069
G1 X157.349 Y96.407 E4.39540
G1 X162.845 Y101.903 E4.92985
G1 X162.587 Y102.440 E4.97085
G1 X156.554 Y96.407 E5.55756
G1 X155.758 Y96.407 E5.61227
G1 X162.370 Y103.019 E6.25524
G1 X162.370 Y103.814 E6.30994
G1 X154.963 Y96.407 E7.03027
G1 X154.167 Y96.407 E7.08498
G1 X162.370 Y104.610 E7.88267
G1 X162.370 Y105.405 E7.93738
G1 X153.372 Y96.407 E8.81243
G1 X152.576 Y96.407 E8.86714
G1 X162.370 Y106.201 E9.81956
G1 X162.370 Y106.997 E9.87426
G1 X151.781 Y96.407 E10.90405
G1 X150.985 Y96.407 E10.95875
G1 X162.370 Y107.792 E12.06589
G1 X162.370 Y108.588 E12.12060
G1 X150.190 Y96.407 E13.30511
G1 X149.394 Y96.407 E13.35981
G1 X162.370 Y109.383 E14.62168
G1 X162.370 Y110.179 E14.67638
G1 X148.598 Y96.407 E16.01562
G1 X147.803 Y96.407 E16.07032
G1 X162.370 Y110.974 E17.48691
G1 X162.370 Y111.770 E17.54162
G1 X147.007 Y96.407 E19.03557
G1 X146.212 Y96.407 E19.09028
G1 X161.786 Y111.981 E20.60474
G1 X160.990 Y111.981 E20.65945
G1 X145.416 Y96.407 E22.17391
G1 X144.621 Y96.407 E22.22861
G1 X160.194 Y111.981 E23.74307
G1 X159.399 Y111.981 E23.79778
G1 X144.104 Y96.686 E25.28514
G1 X143.707 Y97.084 E25.32383
G1 X158.603 Y111.981 E26.77245
G1 X157.808 Y111.981 E26.82716
G1 X143.707 Y97.880 E28.19842
G1 X143.707 Y98.675 E28.25312
G1 X157.012 Y111.981 E29.54702
G1 X156.217 Y111.981 E29.60172
G1 X143.546 Y99.310 E30.83390
G1 X142.750 Y99.310 E30.88861
G1 X155.421 Y111.981 E32.12079
G1 X154.625 Y111.981 E32.17550
G1 X141.954 Y99.310 E33.40768
G1 X141.159 Y99.310 E33.46239
G1 X153.830 Y111.981 E34.69457
G1 X153.034 Y111.981 E34.74927
G1 X140.363 Y99.310 E35.98146
G1 X140.102 Y99.844 E36.02236
G1 X152.239 Y111.981 E37.20258
G1 X151.443 Y111.981 E37.25728
G1 X139.839 Y100.377 E38.38574
G1 X139.043 Y100.377 E38.44045
G1 X150.647 Y111.981 E39.56891
G1 X149.852 Y111.981 E39.62361
G1 X138.248 Y100.377 E40.75207
G1 X137.452 Y100.377 E40.80678
G1 X149.056 Y111.981 E41.93524
G1 X148.261 Y111.981 E41.98994
G1 X136.656 Y100.377 E43.11840
G1 X136.139 Y100.655 E43.15879
G1 X147.465 Y111.981 E44.26016
G1 X146.670 Y111.981 E44.31486
G1 X135.387 Y100.698 E45.41203
G1 X135.387 Y101.494 E45.46676
G1 X145.874 Y111.981 E46.48654
G1 X145.373 Y112.275 E46.52650
G1 X135.388 Y102.290 E47.49751
G1 X135.388 Y103.086 E47.55224
G1 X145.373 Y113.071 E48.52321
G1 X145.373 Y113.867 E48.57792
G1 X135.388 Y103.882 E49.54887
G1 X135.389 Y104.678 E49.60359
G1 X145.373 Y114.662 E50.57451
G1 X145.373 Y115.458 E50.62921
G1 X135.389 Y105.474 E51.60010
G1 X135.389 Y106.270 E51.65483
G1 X145.373 Y116.253 E52.62568
G1 X145.373 Y117.049 E52.68039
G1 X135.389 Y107.066 E53.65121
G1 X135.390 Y107.861 E53.70594
G1 X145.373 Y117.844 E54.67673
G1 X145.315 Y118.582 E54.72759
G1 X135.390 Y108.657 E55.69268
G1 X135.390 Y109.453 E55.74741
G1 X144.519 Y118.582 E56.63511
G1 X143.610 Y118.468 E56.69811
G1 X135.391 Y110.249 E57.49737
G1 X135.391 Y111.045 E57.55210
G1 X141.831 Y117.485 E58.17836
G1 F1800.000 E57.17836
G92 E0
G1 X140.052 Y116.502 F7200.000
G1 E1.00000 F1800.000
G1 X135.391 Y111.841 E1.45325 F1080.000
G1 X135.392 Y112.637 E1.50798
G1 X138.274 Y115.519 E1.78823
G1 X136.728 Y114.768 F7200.000
G1 X135.392 Y113.433 E1.91810 F1080.000
G1 X135.392 Y114.229 E1.97283
G1 X135.428 Y114.264 E1.97629
G1 F1800.000 E0.97629
G92 E0
G1 X146.614 Y119.223 F7200.000
G1 E1.00000 F1800.000
G1 X147.251 Y118.932 E1.05619 F360.000
G1 X147.562 Y119.243 E1.09146 F360.000
G1 X148.179 Y118.932 E1.14690 F360.000
G1 X148.490 Y119.243 E1.18217 F360.000
G1 X149.107 Y118.932 E1.23761 F360.000
G1 X149.418 Y119.243 E1.27288 F360.000
G1 X150.035 Y118.932 E1.32832 F360.000
G1 X150.055 Y118.952 E1.33059 F360.000
G1 F1800.000 E0.33059
G92 E0
G1 X146.634 Y119.243 F7200.000
G1 E1.00000 F1800.000
G1 X146.614 Y119.223 E1.00227 F360.000
G1 F1800.000 E0.00227
G92 E0
G1 X156.819 Y119.223 F7200.000
G1 E1.00000 F1800.000
G1 X157.414 Y118.932 E1.05068 F360.000
G1 X157.725 Y119.243 E1.08433 F360.000
G1 X158.299 Y118.932 E1.13435 F360.000
G1 X158.610 Y119.243 E1.16801 F360.000
G1 X159.185 Y118.932 E1.21803 F360.000
G1 X159.496 Y119.243 E1.25168 F360.000
G1 X160.071 Y118.932 E1.30170 F360.000
G1 X160.382 Y119.243 E1.33536 F360.000
G1 X160.956 Y118.932 E1.38538 F360.000
G1 X160.976 Y118.952 E1.38754 F360.000
G1 X162.113 Y118.666 F7200.000
G1 X162.474 Y118.234 E1.42610 F360.000
G1 X162.113 Y117.873 E1.46105 F360.000
G1 X162.474 Y117.441 E1.49961 F360.000
G1 X162.113 Y117.080 E1.53456 F360.000
G1 X162.474 Y116.648 E1.57312 F360.000
G1 X162.113 Y116.288 E1.60807 F360.000
G1 X162.474 Y115.856 E1.64663 F360.000
G1 X162.113 Y115.495 E1.68158 F360.000
G1 X162.474 Y115.063 E1.72014 F360.000
G1 X162.113 Y114.702 E1.75509 F360.000
G1 X162.474 Y114.270 E1.79365 F360.000
G1 X162.113 Y113.909 E1.82860 F360.000
G1 X162.474 Y113.478 E1.86716 F360.000
G1 X162.113 Y113.117 E1.90211 F360.000
G1 X162.474 Y112.685 E1.94067 F360.000
G1 X162.454 Y112.665 E1.94260 F360.000
G1 F1800.000 E0.94260
G92 E0
G1 X162.113 Y118.666 F7200.000
G1 E1.00000 F1800.000
G1 X162.133 Y118.686 E1.00194 F360.000
G1 F1800.000 E0.00194
G92 E0
G1 X156.839 Y119.243 F7200.000
G1 E1.00000 F1800.000
G1 X156.819 Y119.223 E1.00217 F360.000
G1 F1800.000 E0.00217
G92 E0
G1 X156.351 Y95.625 F7200.000
G1 E1.00000 F1800.000
G1 X156.331 Y95.605 E1.00101 F360.000
G1 X156.587 Y95.447 E1.01175 F360.000
G1 X156.331 Y95.191 E1.02468 F360.000
G1 X156.587 Y95.034 E1.03542 F360.000
G1 X156.331 Y94.778 E1.04836 F360.000
G1 X156.587 Y94.621 E1.05910 F360.000
G1 X156.331 Y94.365 E1.07203 F360.000
G1 X156.587 Y94.207 E1.08277 F360.000
G1 X156.331 Y93.951 E1.09571 F360.000
G1 X156.587 Y93.794 E1.10645 F360.000
G1 X156.331 Y93.538 E1.11938 F360.000
G1 X156.587 Y93.380 E1.13012 F360.000
G1 X156.331 Y93.124 E1.14306 F360.000
G1 X156.587 Y92.967 E1.15379 F360.000
G1 X156.331 Y92.711 E1.16673 F360.000
G1 X156.587 Y92.554 E1.17747 F360.000
G1 X156.331 Y92.298 E1.19040 F360.000
G1 X156.587 Y92.140 E1.20114 F360.000
G1 X156.331 Y91.884 E1.21408 F360.000
G1 X156.587 Y91.727 E1.22482 F360.000
G1 X156.331 Y91.471 E1.23775 F360.000
G1 X156.587 Y91.313 E1.24849 F360.000
G1 X156.367 Y91.093 E1.25964 F360.000
G1 X156.411 Y90.724 E1.27292 F360.000
G1 X156.359 Y90.671 E1.27558 F360.000
G1 F1800.000 E0.27558
G92 E0
G1 X153.462 Y91.326 F7200.000
G1 E1.00000 F1800.000
G1 X153.255 Y91.118 E1.01037 F360.000
G1 X153.323 Y90.779 E1.02258 F360.000
G1 X153.262 Y90.718 E1.02562 F360.000
G1 X153.462 Y91.326 F7200.000
G1 X153.252 Y91.524 E1.03580 F360.000
G1 X153.462 Y91.734 E1.04628 F360.000
G1 X153.252 Y91.932 E1.05646 F360.000
G1 X153.462 Y92.142 E1.06694 F360.000
G1 X153.252 Y92.340 E1.07712 F360.000
G1 X153.462 Y92.550 E1.08760 F360.000
G1 X153.252 Y92.748 E1.09778 F360.000
G1 X153.462 Y92.958 E1.10826 F360.000
G1 X153.252 Y93.156 E1.11844 F360.000
G1 X153.462 Y93.366 E1.12892 F360.000
G1 X153.252 Y93.564 E1.13910 F360.000
G1 X153.462 Y93.774 E1.14958 F360.000
G1 X153.252 Y93.973 E1.15976 F360.000
G1 X153.462 Y94.183 E1.17024 F360.000
G1 X153.252 Y94.381 E1.18042 F360.000
G1 X153.462 Y94.591 E1.19090 F360.000
G1 X153.252 Y94.789 E1.20108 F360.000
G1 X153.462 Y94.999 E1.21156 F360.000
G1 X153.252 Y95.197 E1.22174 F360.000
G1 X153.462 Y95.407 E1.23222 F360.000
G1 X153.252 Y95.605 E1.24240 F360.000
G1 X153.272 Y95.625 E1.24340 F360.000
G1 F1800.000 E0.24340
G92 E0
G1 X150.478 Y95.394 F7200.000
G1 E1.00000 F1800.000
G1 X150.284 Y95.199 E1.00967 F360.000
G1 X150.478 Y94.988 E1.01975 F360.000
G1 X150.284 Y94.793 E1.02942 F360.000
G1 X150.478 Y94.582 E1.03950 F360.000
G1 X150.284 Y94.387 E1.04917 F360.000
G1 X150.478 Y94.176 E1.05925 F360.000
G1 X150.284 Y93.981 E1.06892 F360.000
G1 X150.478 Y93.770 E1.07900 F360.000
G1 X150.284 Y93.575 E1.08867 F360.000
G1 X150.478 Y93.364 E1.09874 F360.000
