; generated by Slic3r 1.0.0RC3 on 2014-03-11 at 11:00:56

; layer_height = 0.3
; perimeters = 2
; top_solid_layers = 3
; bottom_solid_layers = 3
; fill_density = 0.1
; perimeter_speed = 60
; infill_speed = 60
; travel_speed = 120
; nozzle_diameter = 0.4
; filament_diameter = 1.75
; extrusion_multiplier = 0.98
; perimeters extrusion width = 0.40mm
; infill extrusion width = 0.42mm
; solid infill extrusion width = 0.42mm
; top infill extrusion width = 0.42mm
; first layer extrusion width = 0.60mm

G21 ; set units to millimeters
M107
M104 S220 ; set temperature
G28 ; home all axes
M106 S255;
G1 Z200 F1200 ; lift nozzle
M109 S220 ; wait for temperature to be reached
G90 ; use absolute coordinates
G92 E0
M82 ; use absolute distances for extrusion
G1 F1800.000 E-1.00000
G92 E0
G1 Z0.300 F7200.000
G1 X124.990 Y89.264 F7200.000
G1 E1.00000 F1800.000
G1 X125.390 Y88.744 E1.04467 F1080.000
G1 X128.320 Y85.284 E1.35340
G1 X128.760 Y84.814 E1.39724
G1 X129.240 Y84.394 E1.44067
G1 X132.810 Y81.554 E1.75129
G1 X133.320 Y81.184 E1.79420
G1 X133.870 Y80.864 E1.83753
G1 X137.940 Y78.754 E2.14969
G1 X138.520 Y78.494 E2.19297
G1 X139.110 Y78.284 E2.23561
G1 X143.540 Y76.984 E2.54998
G1 X144.150 Y76.834 E2.59276
G1 X144.770 Y76.744 E2.63542
G1 X149.370 Y76.304 E2.95007
G1 X149.990 Y76.274 E2.99234
G1 X150.610 Y76.304 E3.03461
G1 X155.210 Y76.744 E3.34926
G1 X155.830 Y76.834 E3.39192
G1 X156.430 Y76.984 E3.43403
G1 X160.850 Y78.274 E3.74756
G1 X161.450 Y78.474 E3.79062
G1 X162.020 Y78.744 E3.83357
G1 X166.100 Y80.854 E4.14634
G1 X166.650 Y81.164 E4.18933
G1 X167.160 Y81.534 E4.23223
G1 X170.560 Y84.224 E4.52744
G1 X171.260 Y84.824 E4.59022
G1 X171.650 Y85.254 E4.62975
G1 X174.590 Y88.704 E4.93840
G1 X174.990 Y89.224 E4.98307
G1 X175.340 Y89.784 E5.02804
G1 X177.520 Y93.724 E5.33465
G1 X177.810 Y94.314 E5.37942
G1 X178.040 Y94.934 E5.42444
G1 X179.380 Y99.214 E5.72983
G1 X179.540 Y99.854 E5.77475
G1 X179.640 Y100.514 E5.82020
G1 X180.090 Y104.954 E6.12408
G1 X180.130 Y105.614 E6.16911
G1 X180.090 Y106.274 E6.21413
G1 X179.640 Y110.724 E6.51869
G1 X179.540 Y111.384 E6.56414
G1 X179.380 Y112.024 E6.60906
G1 X178.040 Y116.304 E6.91445
G1 X177.810 Y116.914 E6.95884
G1 X177.520 Y117.504 E7.00360
G1 X175.350 Y121.444 E7.30988
G1 X175.010 Y122.004 E7.35449
G1 X174.610 Y122.534 E7.39971
G1 X171.670 Y125.994 E7.70887
G1 X171.230 Y126.454 E7.75222
G1 X170.750 Y126.874 E7.79565
G1 X167.180 Y129.714 E8.10628
G1 X166.670 Y130.084 E8.14918
G1 X166.120 Y130.404 E8.19251
G1 X162.050 Y132.514 E8.50467
G1 X160.970 Y132.954 E8.58408
G1 X159.820 Y133.204 E8.66422
G1 X156.130 Y133.654 E8.91734
G1 X155.350 Y133.704 E8.97056
G1 X144.680 Y133.714 E9.69711
G1 X143.880 Y133.664 E9.75169
G1 X140.190 Y133.214 E10.00481
G1 X139.050 Y132.974 E10.08414
G1 X137.970 Y132.534 E10.16354
G1 X134.080 Y130.524 E10.46169
G1 X133.430 Y130.164 E10.51229
G1 X132.820 Y129.734 E10.56311
G1 X129.250 Y126.894 E10.87374
G1 X128.770 Y126.474 E10.91717
G1 X128.330 Y126.004 E10.96101
G1 X125.400 Y122.554 E11.26921
G1 X125.010 Y122.044 E11.31293
G1 X124.660 Y121.484 E11.35790
G1 X122.480 Y117.544 E11.66451
G1 X122.190 Y116.964 E11.70866
G1 X121.970 Y116.344 E11.75346
G1 X120.620 Y112.064 E12.05905
G1 X120.450 Y111.414 E12.10480
G1 X120.350 Y110.754 E12.15025
G1 X119.900 Y106.314 E12.45413
G1 X119.860 Y105.654 E12.49915
G1 X119.900 Y104.994 E12.54418
G1 X120.350 Y100.544 E12.84873
G1 X120.450 Y99.884 E12.89419
G1 X120.610 Y99.244 E12.93911
G1 X121.950 Y94.964 E13.24449
G1 X122.180 Y94.344 E13.28952
G1 X122.470 Y93.754 E13.33429
G1 X124.650 Y89.814 E13.64090
G1 X124.946 Y89.335 E13.67924
G1 F1800.000 E12.67924
G92 E0
G1 X140.622 Y99.164 F7200.000
G1 E1.00000 F1800.000
G1 X142.063 Y97.408 E1.15474 F1080.000
G1 X143.820 Y95.965 E1.30950
G1 X145.824 Y94.893 E1.46429
G1 X147.999 Y94.233 E1.61906
G1 X150.261 Y94.009 E1.77385
G1 X152.524 Y94.230 E1.92864
G1 X154.700 Y94.888 E2.08341
G1 X156.705 Y95.957 E2.23816
G1 X158.463 Y97.397 E2.39290
G1 X159.906 Y99.153 E2.54763
G1 X160.979 Y101.155 E2.70233
G1 X161.640 Y103.329 E2.85703
G1 X161.864 Y105.590 E3.01173
G1 X161.642 Y107.851 E3.16642
G1 X160.983 Y110.025 E3.32112
G1 X159.912 Y112.029 E3.47585
G1 X158.470 Y113.786 E3.63059
G1 X156.714 Y115.228 E3.78535
G1 X154.709 Y116.300 E3.94014
G1 X152.538 Y116.960 E4.09462
G1 X150.343 Y117.173 E4.24480
G1 X150.201 Y117.173 E4.25451
G1 X148.009 Y116.963 E4.40440
G1 X145.834 Y116.306 E4.55915
G1 X143.829 Y115.236 E4.71390
G1 X142.071 Y113.796 E4.86864
G1 X140.627 Y112.041 E5.02336
G1 X139.555 Y110.038 E5.17806
G1 X138.894 Y107.865 E5.33276
G1 X138.670 Y105.604 E5.48745
G1 X138.892 Y103.343 E5.64215
G1 X139.551 Y101.169 E5.79685
G1 X140.582 Y99.238 E5.94589
G1 X141.087 Y99.475 F7200.000
G1 X142.459 Y97.803 E6.09315 F540.000
G1 X144.131 Y96.431 E6.24045
G1 X146.039 Y95.411 E6.38776
G1 X148.109 Y94.782 E6.53507
G1 X150.262 Y94.569 E6.68239
G1 X152.415 Y94.779 E6.82971
G1 X154.486 Y95.405 E6.97702
G1 X156.394 Y96.423 E7.12430
G1 X158.068 Y97.794 E7.27157
G1 X159.441 Y99.464 E7.41882
G1 X160.462 Y101.370 E7.56604
G1 X161.091 Y103.439 E7.71327
G1 X161.304 Y105.590 E7.86049
G1 X161.093 Y107.742 E8.00770
G1 X160.466 Y109.811 E8.15493
G1 X159.446 Y111.718 E8.30218
G1 X158.074 Y113.390 E8.44945
G1 X156.403 Y114.763 E8.59674
G1 X154.495 Y115.783 E8.74406
G1 X152.426 Y116.411 E8.89126
G1 X150.319 Y116.616 E9.03544
G1 X148.118 Y116.414 E9.18589
G1 X146.048 Y115.788 E9.33319
G1 X144.139 Y114.770 E9.48047
G1 X142.466 Y113.400 E9.62774
G1 X141.093 Y111.730 E9.77499
G1 X140.072 Y109.824 E9.92222
G1 X139.443 Y107.755 E10.06944
G1 X139.230 Y105.604 E10.21665
G1 X139.441 Y103.452 E10.36387
G1 X140.068 Y101.383 E10.51109
G1 X141.048 Y99.549 E10.65266
G1 X140.857 Y98.968 F7200.000
G1 F1800.000 E9.65266
G92 E0
G1 X133.831 Y90.256 F7200.000
G1 E1.00000 F1800.000
G1 X133.922 Y90.148 E1.00962 F1080.000
G1 X137.363 Y87.415 E1.30885
G1 X141.292 Y85.382 E1.61006
G1 X145.556 Y84.128 E1.91271
G1 X149.992 Y83.703 E2.21618
G1 X154.429 Y84.122 E2.51963
G1 X158.695 Y85.370 E2.82226
G1 X162.625 Y87.397 E3.12336
G1 X166.067 Y90.125 E3.42245
G1 X168.891 Y93.448 E3.71941
G1 X170.989 Y97.238 E4.01435
G1 X172.281 Y101.349 E4.30779
G1 X172.718 Y105.624 E4.60040
G1 X172.284 Y109.899 E4.89302
G1 X170.996 Y114.012 E5.18649
G1 X168.901 Y117.805 E5.48154
G1 X166.079 Y121.132 E5.77860
G1 X162.638 Y123.866 E6.07783
G1 X158.773 Y125.866 E6.37416
G1 X155.616 Y126.254 E6.59078
G1 X154.824 Y125.563 E6.66235
G1 X153.822 Y124.063 E6.78514
G1 X152.073 Y122.895 E6.92833
G1 X150.011 Y122.485 E7.07151
G1 X147.948 Y122.895 E7.21470
G1 X146.200 Y124.063 E7.35789
G1 X145.190 Y125.576 E7.48172
G1 X144.403 Y126.262 E7.55280
G1 X141.246 Y125.879 E7.76938
G1 X137.377 Y123.883 E8.06581
G1 X133.934 Y121.155 E8.36492
G1 X131.110 Y117.832 E8.66187
G1 X129.013 Y114.042 E8.95681
G1 X127.721 Y109.931 E9.25024
G1 X127.283 Y105.656 E9.54284
G1 X127.717 Y101.381 E9.83547
G1 X129.006 Y97.268 E10.12893
G1 X131.101 Y93.475 E10.42399
G1 X133.777 Y90.320 E10.70574
G1 X133.406 Y89.897 F7200.000
G1 X133.532 Y89.747 E10.71909 F540.000
G1 X137.058 Y86.945 E11.02574
G1 X141.082 Y84.863 E11.33429
G1 X145.449 Y83.579 E11.64424
G1 X149.992 Y83.143 E11.95498
G1 X154.535 Y83.573 E12.26569
G1 X158.903 Y84.851 E12.57563
G1 X162.929 Y86.928 E12.88408
G1 X166.457 Y89.724 E13.19062
G1 X169.353 Y93.131 E13.49509
G1 X171.504 Y97.019 E13.79763
G1 X172.829 Y101.237 E14.09872
G1 X173.278 Y105.624 E14.39901
G1 X172.833 Y110.012 E14.69931
G1 X171.511 Y114.232 E15.00042
G1 X169.363 Y118.122 E15.30306
G1 X166.470 Y121.534 E15.60762
G1 X162.944 Y124.335 E15.91427
G1 X158.941 Y126.406 E16.22112
G1 X155.437 Y126.837 E16.46156
G1 X154.402 Y125.934 E16.55511
G1 X153.420 Y124.465 E16.67540
G1 X151.856 Y123.420 E16.80349
G1 X150.011 Y123.053 E16.93159
G1 X148.166 Y123.420 E17.05968
G1 X146.602 Y124.465 E17.18778
G1 X145.612 Y125.947 E17.30910
G1 X144.583 Y126.845 E17.40213
G1 X141.077 Y126.419 E17.64262
G1 X137.073 Y124.353 E17.94943
G1 X133.544 Y121.557 E18.25596
G1 X130.649 Y118.149 E18.56044
G1 X128.498 Y114.262 E18.86298
G1 X127.172 Y110.043 E19.16406
G1 X126.723 Y105.656 E19.46434
G1 X127.168 Y101.269 E19.76465
G1 X128.491 Y97.049 E20.06576
G1 X130.639 Y93.158 E20.36840
G1 X133.352 Y89.961 E20.65391
G1 X133.599 Y89.931 F7200.000
G1 F1800.000 E19.65391
G92 E0
G1 X128.538 Y100.079 F7200.000
G1 E1.00000 F1800.000
G1 X139.812 Y111.353 E2.09570 F1080.000
G1 X139.078 Y109.824 F7200.000
G1 X128.728 Y99.473 E3.10160 F1080.000
G1 X128.917 Y98.868 E3.14519
G1 X138.731 Y108.681 E4.09889
G1 X138.475 Y107.631 E4.17320
G1 X129.107 Y98.263 E5.08362
G1 X129.297 Y97.657 E5.12722
G1 X138.388 Y106.748 E6.01071
G1 X138.300 Y105.866 E6.07165
G1 X129.544 Y97.109 E6.92265
G1 X129.826 Y96.597 E6.96286
G1 X138.324 Y105.095 E7.78871
G1 X138.395 Y104.371 E7.83870
G1 X130.109 Y96.085 E8.64397
G1 X130.392 Y95.573 E8.68418
G1 X138.466 Y103.647 E9.46885
G1 X138.591 Y102.977 E9.51569
G1 X130.675 Y95.060 E10.28503
G1 X130.958 Y94.548 E10.32523
G1 X138.776 Y102.367 E11.08505
G1 X138.961 Y101.756 E11.12886
G1 X131.241 Y94.036 E11.87917
G1 X131.552 Y93.552 E11.91870
G1 X139.146 Y101.146 E12.65675
G1 X139.404 Y100.609 E12.69771
G1 X131.917 Y93.122 E13.42532
G1 X132.282 Y92.691 E13.46408
G1 X139.681 Y100.090 E14.18313
G1 X139.957 Y99.572 E14.22351
G1 X132.646 Y92.261 E14.93401
G1 X133.011 Y91.831 E14.97278
G1 X140.234 Y99.054 E15.67473
G1 X140.575 Y98.600 E15.71375
G1 X133.376 Y91.401 E16.41340
G1 X133.741 Y90.971 E16.45216
G1 X140.934 Y98.163 E17.15118
G1 X141.292 Y97.727 E17.19000
G1 X134.106 Y90.540 E17.88838
G1 X134.529 Y90.169 E17.92710
G1 X141.650 Y97.290 E18.61915
G1 X142.058 Y96.902 E18.65780
G1 X134.972 Y89.817 E19.34640
G1 X135.416 Y89.465 E19.38529
G1 X142.495 Y96.544 E20.07326
G1 X142.931 Y96.185 E20.11208
G1 X135.859 Y89.113 E20.79942
G1 X136.302 Y88.761 E20.83831
G1 X143.368 Y95.827 E21.52502
G1 X143.843 Y95.507 E21.56438
G1 X136.745 Y88.409 E22.25417
G1 X137.188 Y88.057 E22.29305
G1 X144.361 Y95.230 E22.99012
G1 X144.879 Y94.953 E23.03049
G1 X137.641 Y87.715 E23.73390
G1 X138.165 Y87.443 E23.77444
G1 X145.397 Y94.676 E24.47728
G1 X145.958 Y94.441 E24.51905
G1 X138.689 Y87.172 E25.22548
G1 X139.212 Y86.901 E25.26602
G1 X146.567 Y94.256 E25.98080
G1 X147.177 Y94.071 E26.02460
G1 X139.736 Y86.630 E26.74772
G1 X140.260 Y86.359 E26.78826
G1 X147.787 Y93.886 E27.51974
G1 X148.485 Y93.789 E27.56818
G1 X140.784 Y86.088 E28.31660
G1 X141.308 Y85.817 E28.35714
G1 X149.209 Y93.717 E29.12495
G1 X149.932 Y93.646 E29.17491
G1 X141.900 Y85.613 E29.95551
G1 X142.514 Y85.433 E29.99952
G1 X150.742 Y93.660 E30.79908
G1 X151.623 Y93.746 E30.85993
G1 X143.129 Y85.252 E31.68542
G1 X143.743 Y85.071 E31.72943
G1 X152.504 Y93.832 E32.58086
G1 X153.616 Y94.149 E32.66027
G1 X144.358 Y84.891 E33.56001
G1 X144.972 Y84.710 E33.60402
G1 X154.756 Y94.494 E34.55480
G1 X156.412 Y95.355 F7200.000
G1 X145.587 Y84.529 E35.60687 F1080.000
G1 X146.304 Y84.452 E35.65646
G1 X171.843 Y109.991 E38.13841
G1 X171.653 Y110.596 E38.18200
G1 X160.518 Y99.461 E39.26418
G1 X161.378 Y101.116 F7200.000
G1 X171.464 Y111.202 E40.24431 F1080.000
G1 X171.274 Y111.807 E40.28791
G1 X161.726 Y102.259 E41.21584
G1 X162.039 Y103.367 E41.29499
G1 X171.084 Y112.412 E42.17403
G1 X170.895 Y113.018 E42.21763
G1 X162.127 Y104.250 E43.06975
G1 X162.214 Y105.132 E43.13069
G1 X170.705 Y113.623 E43.95588
G1 X170.458 Y114.171 E43.99719
G1 X162.225 Y105.938 E44.79731
G1 X162.154 Y106.662 E44.84730
G1 X170.175 Y114.684 E45.62683
G1 X169.892 Y115.196 E45.66703
G1 X162.083 Y107.386 E46.42597
G1 X161.983 Y108.082 E46.47424
G1 X169.609 Y115.708 E47.21539
G1 X169.327 Y116.220 E47.25560
G1 X161.798 Y108.692 E47.98721
G1 X161.613 Y109.302 E48.03103
G1 X169.044 Y116.732 E48.75312
G1 X168.761 Y117.244 E48.79333
G1 X161.429 Y109.912 E49.50590
G1 X161.191 Y110.470 E49.54756
G1 X168.450 Y117.728 E50.25293
G1 X168.085 Y118.159 E50.29170
G1 X160.915 Y110.988 E50.98852
G1 X160.638 Y111.507 E51.02890
G1 X167.720 Y118.589 E51.71718
G1 X167.355 Y119.019 E51.75594
G1 X160.361 Y112.025 E52.43567
G1 X160.038 Y112.497 E52.47498
G1 X166.990 Y119.449 E53.15065
G1 X166.625 Y119.880 E53.18942
G1 X159.679 Y112.933 E53.86446
G1 X159.321 Y113.370 E53.90328
G1 X166.261 Y120.310 E54.57769
G1 X165.896 Y120.740 E54.61645
G1 X158.963 Y113.807 E55.29023
G1 X158.572 Y114.212 E55.32887
G1 X165.472 Y121.112 E55.99941
G1 X165.029 Y121.464 E56.03830
G1 X158.136 Y114.570 E56.70822
G1 X157.699 Y114.929 E56.74704
G1 X164.586 Y121.816 E57.41632
G1 X164.143 Y122.168 E57.45521
G1 X157.263 Y115.287 E58.12387
G1 X156.806 Y115.626 E58.16293
G1 X163.700 Y122.519 E58.83290
G1 X163.257 Y122.871 E58.87179
G1 X156.288 Y115.903 E59.54905
G1 X155.770 Y116.180 E59.58942
G1 X162.814 Y123.223 E60.27396
G1 X162.361 Y123.566 E60.31296
G1 X155.252 Y116.457 E61.00384
G1 X154.711 Y116.711 E61.04490
G1 X161.837 Y123.837 E61.73739
G1 X161.313 Y124.108 E61.77793
G1 X154.101 Y116.896 E62.47877
G1 X153.492 Y117.082 E62.52257
G1 X160.789 Y124.379 E63.23175
G1 X160.265 Y124.650 E63.27229
G1 X152.882 Y117.267 E63.98981
G1 X152.207 Y117.388 E64.03690
G1 X159.741 Y124.921 E64.76905
G1 X159.217 Y125.192 E64.80959
G1 X151.483 Y117.458 E65.56124
G1 X150.758 Y117.529 E65.61127
G1 X158.693 Y125.464 E66.38241
G1 X157.998 Y125.564 E66.43064
G1 X149.982 Y117.548 E67.20966
G1 X149.103 Y117.464 E67.27035
G1 X157.290 Y125.651 E68.06599
G1 F1800.000 E67.06599
G92 E0
G1 X154.663 Y124.614 F7200.000
G1 E1.00000 F1800.000
G1 X155.874 Y125.825 E1.11770 F1080.000
G1 X156.582 Y125.738 E1.16672
G1 X148.224 Y117.380 E1.97898
G1 X147.170 Y117.121 E2.05356
G1 X153.271 Y123.222 E2.64644
G1 X151.667 Y122.413 F7200.000
G1 X146.031 Y116.777 E3.19419 F1080.000
G1 X144.499 Y116.040 F7200.000
G1 X150.674 Y122.215 E3.79432 F1080.000
G1 X149.791 Y122.127 E3.85533
G1 X128.348 Y100.684 E5.93922
G1 X128.158 Y101.290 E5.98281
G1 X149.128 Y122.259 E8.02069
G1 X148.465 Y122.391 E8.06716
G1 X128.052 Y101.978 E10.05090
G1 X127.979 Y102.700 E10.10076
G1 X147.802 Y122.523 E12.02716
G1 X147.323 Y122.839 E12.06659
G1 X127.906 Y103.422 E13.95361
G1 X127.833 Y104.144 E14.00347
G1 X146.846 Y123.158 E15.85128
G1 X146.370 Y123.476 E15.89067
G1 X127.759 Y104.866 E17.69929
G1 X127.686 Y105.588 E17.74915
G1 X145.901 Y123.802 E19.51929
G1 X145.582 Y124.279 E19.55868
G1 X127.761 Y106.458 E21.29059
G1 X127.852 Y107.344 E21.35176
G1 X145.264 Y124.756 E23.04392
G1 X144.945 Y125.232 E23.08331
G1 X127.942 Y108.229 E24.73571
G1 X128.033 Y109.115 E24.79689
G1 X144.539 Y125.621 E26.40100
G1 X143.931 Y125.808 E26.44470
G1 X128.170 Y110.046 E27.97647
G1 X128.534 Y111.206 E28.05998
G1 X143.026 Y125.698 E29.46840
G1 X142.122 Y125.589 E29.53104
G1 X128.898 Y112.365 E30.81610
G1 X129.263 Y113.525 E30.89962
G1 X141.097 Y125.359 E32.04971
G1 X139.455 Y124.512 F7200.000
G1 X130.055 Y115.112 E32.96324 F1080.000
G1 F1800.000 E31.96324
G92 E0
G1 X131.040 Y116.892 F7200.000
G1 E1.00000 F1800.000
G1 X137.812 Y123.665 E1.65816 F1080.000
G1 F1800.000 E0.65816
G92 E0
G1 X134.277 Y120.925 F7200.000
G1 E1.00000 F1800.000
G1 X134.128 Y120.776 E1.01448 F1080.000
G1 F1800.000 E0.01448
G92 E0
G1 X147.030 Y84.382 F7200.000
G1 E1.00000 F1800.000
G1 X171.949 Y109.302 E3.42175 F1080.000
G1 X172.022 Y108.580 E3.47161
G1 X147.755 Y84.313 E5.82997
G1 X148.481 Y84.243 E5.88005
G1 X172.096 Y107.858 E8.17502
G1 X172.169 Y107.136 E8.22488
G1 X149.206 Y84.174 E10.45646
G1 X149.932 Y84.104 E10.50654
G1 X172.242 Y106.415 E12.67474
G1 X172.316 Y105.693 E12.72459
G1 X150.797 Y84.174 E14.81583
G1 X151.675 Y84.257 E14.87644
G1 X172.240 Y104.823 E16.87504
G1 X172.150 Y103.937 E16.93622
G1 X152.553 Y84.340 E18.84067
G1 X153.431 Y84.423 E18.90129
G1 X172.059 Y103.051 E20.71159
G1 X171.969 Y102.166 E20.77278
G1 X154.309 Y84.506 E22.48894
G1 X155.420 Y84.822 E22.56832
G1 X171.832 Y101.234 E24.16322
G1 X171.467 Y100.074 E24.24674
G1 X156.544 Y85.151 E25.69703
G1 X157.668 Y85.479 E25.77748
G1 X171.103 Y98.915 E27.08316
G1 X170.739 Y97.755 E27.16668
G1 X158.905 Y85.921 E28.31674
G1 X160.547 Y86.769 F7200.000
G1 X169.947 Y96.168 E29.23024 F1080.000
G1 F1800.000 E28.23024
G92 E0
G1 X168.961 Y94.388 F7200.000
G1 E1.00000 F1800.000
