; generated by Slic3r 1.0.0RC3 on 2014-03-11 at 10:57:41

; layer_height = 0.3
; perimeters = 2
; top_solid_layers = 3
; bottom_solid_layers = 3
; fill_density = 0.1
; perimeter_speed = 60
; infill_speed = 60
; travel_speed = 120
; nozzle_diameter = 0.4
; filament_diameter = 1.75
; extrusion_multiplier = 0.98
; perimeters extrusion width = 0.40mm
; infill extrusion width = 0.42mm
; solid infill extrusion width = 0.42mm
; top infill extrusion width = 0.42mm
; first layer extrusion width = 0.60mm

G21 ; set units to millimeters
M107
M104 S220 ; set temperature
G28 ; home all axes
M106 S255;
G1 Z200 F1200 ; lift nozzle
M109 S220 ; wait for temperature to be reached
G90 ; use absolute coordinates
G92 E0
M82 ; use absolute distances for extrusion
G1 F1800.000 E-1.00000
G92 E0
G1 Z0.300 F7200.000
G1 X116.073 Y87.517 F7200.000
G1 E1.00000 F1800.000
G1 X116.503 Y86.977 E1.04700 F1080.000
G1 X116.983 Y86.487 E1.09371
G1 X120.993 Y82.817 E1.46385
G1 X121.473 Y82.427 E1.50597
G1 X121.983 Y82.077 E1.54808
G1 X126.873 Y79.067 E1.93908
G1 X127.873 Y78.557 E2.01552
G1 X133.453 Y76.317 E2.42494
G1 X134.433 Y76.017 E2.49473
G1 X140.523 Y74.627 E2.92008
G1 X141.503 Y74.477 E2.98759
G1 X147.763 Y74.017 E3.41499
G1 X148.723 Y74.017 E3.48036
G1 X155.023 Y74.477 E3.91049
G1 X155.993 Y74.617 E3.97722
G1 X162.053 Y75.987 E4.40027
G1 X163.043 Y76.297 E4.47091
G1 X168.623 Y78.537 E4.88034
G1 X169.583 Y79.027 E4.95373
G1 X174.573 Y82.057 E5.35125
G1 X175.103 Y82.407 E5.39450
G1 X175.603 Y82.817 E5.43853
G1 X179.583 Y86.457 E5.80578
G1 X180.063 Y86.947 E5.85249
G1 X180.493 Y87.487 E5.89949
G1 X183.463 Y91.647 E6.24754
G1 X183.873 Y92.307 E6.30045
G1 X184.203 Y92.997 E6.35253
G1 X186.033 Y97.527 E6.68521
G1 X186.293 Y98.317 E6.74184
G1 X186.453 Y99.137 E6.79873
G1 X187.073 Y103.887 E7.12491
G1 X187.133 Y104.737 E7.18293
G1 X187.073 Y105.587 E7.24095
G1 X186.453 Y110.337 E7.56714
G1 X186.293 Y111.147 E7.62336
G1 X186.033 Y111.937 E7.67999
G1 X184.213 Y116.447 E8.01115
G1 X183.883 Y117.147 E8.06384
G1 X183.473 Y117.797 E8.11617
G1 X180.513 Y121.957 E8.46383
G1 X180.073 Y122.507 E8.51179
G1 X179.573 Y123.017 E8.56042
G1 X175.493 Y126.717 E8.93546
G1 X175.033 Y127.097 E8.97609
G1 X174.533 Y127.437 E9.01726
G1 X169.643 Y130.447 E9.40826
G1 X168.643 Y130.957 E9.48469
G1 X163.063 Y133.197 E9.89412
G1 X162.083 Y133.497 E9.96391
G1 X156.033 Y134.877 E10.38645
G1 X155.063 Y135.027 E10.45328
G1 X148.763 Y135.497 E10.88346
G1 X147.793 Y135.497 E10.94951
G1 X141.493 Y135.037 E11.37963
G1 X140.513 Y134.887 E11.44714
G1 X134.463 Y133.507 E11.86968
G1 X133.493 Y133.207 E11.93881
G1 X127.903 Y130.977 E12.34862
G1 X126.893 Y130.467 E12.42567
G1 X122.003 Y127.457 E12.81666
G1 X121.503 Y127.117 E12.85783
G1 X121.033 Y126.727 E12.89942
G1 X117.013 Y123.067 E13.26961
G1 X116.513 Y122.567 E13.31776
G1 X116.083 Y122.017 E13.36529
G1 X113.103 Y117.827 E13.71540
G1 X112.693 Y117.187 E13.76716
G1 X112.363 Y116.497 E13.81924
G1 X110.523 Y111.967 E14.15217
G1 X110.263 Y111.167 E14.20945
G1 X110.103 Y110.347 E14.26634
G1 X109.483 Y105.627 E14.59049
G1 X109.423 Y104.777 E14.64852
G1 X109.483 Y103.927 E14.70654
G1 X110.103 Y99.197 E15.03137
G1 X110.263 Y98.377 E15.08826
G1 X110.523 Y97.597 E15.14424
G1 X112.353 Y93.057 E15.47755
G1 X112.683 Y92.357 E15.53025
G1 X113.093 Y91.697 E15.58316
G1 X116.025 Y87.585 E15.92702
G1 F1800.000 E14.92702
G92 E0
G1 X164.852 Y102.238 F7200.000
G1 E1.00000 F1800.000
G1 X164.887 Y102.121 E1.00832 F540.000
G1 X165.275 Y101.396 E1.06432
G1 X165.797 Y100.761 E1.12032
G1 X166.433 Y100.239 E1.17634
G1 X167.159 Y99.851 E1.23236
G1 X167.946 Y99.612 E1.28838
G1 X168.765 Y99.531 E1.34440
G1 X169.584 Y99.611 E1.40042
G1 X170.371 Y99.849 E1.45645
G1 X171.097 Y100.236 E1.51245
G1 X171.734 Y100.757 E1.56846
G1 X172.256 Y101.392 E1.62447
G1 X172.645 Y102.117 E1.68047
G1 X172.884 Y102.903 E1.73646
G1 X172.965 Y103.722 E1.79245
G1 X172.885 Y104.540 E1.84844
G1 X172.646 Y105.327 E1.90443
G1 X172.258 Y106.052 E1.96043
G1 X171.736 Y106.688 E2.01643
G1 X171.100 Y107.209 E2.07245
G1 X170.375 Y107.597 E2.12846
G1 X169.587 Y107.836 E2.18448
G1 X168.769 Y107.917 E2.24051
G1 X167.950 Y107.837 E2.29653
G1 X167.162 Y107.599 E2.35255
G1 X166.436 Y107.212 E2.40857
G1 X165.800 Y106.691 E2.46457
G1 X165.277 Y106.056 E2.52058
G1 X164.889 Y105.331 E2.57657
G1 X164.649 Y104.545 E2.63256
G1 X164.568 Y103.727 E2.68855
G1 X164.648 Y102.908 E2.74454
G1 X164.827 Y102.318 E2.78652
G1 X165.385 Y102.400 F7200.000
G1 X165.740 Y101.707 E2.83955 F540.000
G1 X166.193 Y101.156 E2.88808
G1 X166.744 Y100.704 E2.93662
G1 X167.373 Y100.368 E2.98518
G1 X168.055 Y100.161 E3.03374
G1 X168.765 Y100.091 E3.08230
G1 X169.475 Y100.160 E3.13087
G1 X170.158 Y100.367 E3.17943
G1 X170.787 Y100.702 E3.22797
G1 X171.338 Y101.153 E3.27651
G1 X171.791 Y101.704 E3.32504
G1 X172.128 Y102.331 E3.37355
G1 X172.335 Y103.013 E3.42206
G1 X172.406 Y103.722 E3.47057
G1 X172.336 Y104.431 E3.51907
G1 X172.129 Y105.112 E3.56758
G1 X171.793 Y105.741 E3.61610
G1 X171.341 Y106.292 E3.66463
G1 X170.789 Y106.744 E3.71318
G1 X170.161 Y107.080 E3.76173
G1 X169.478 Y107.287 E3.81029
G1 X168.768 Y107.357 E3.85886
G1 X168.059 Y107.288 E3.90742
G1 X167.376 Y107.081 E3.95598
G1 X166.747 Y106.746 E4.00453
G1 X166.195 Y106.295 E4.05307
G1 X165.742 Y105.745 E4.10159
G1 X165.405 Y105.117 E4.15011
G1 X165.198 Y104.435 E4.19861
G1 X165.128 Y103.726 E4.24712
G1 X165.197 Y103.017 E4.29562
G1 X165.360 Y102.480 E4.33386
G1 X165.055 Y101.951 F7200.000
G1 F1800.000 E3.33386
G92 E0
G1 X159.888 Y101.598 F7200.000
G1 E1.00000 F1800.000
G1 X160.141 Y103.706 E1.14460 F1080.000
G1 X160.136 Y103.944 E1.16077
G1 X159.883 Y106.066 E1.30634
G1 X159.225 Y108.237 E1.46079
G1 X158.153 Y110.246 E1.61587
G1 X156.709 Y112.007 E1.77094
G1 X154.949 Y113.453 E1.92601
G1 X152.941 Y114.528 E2.08109
G1 X150.763 Y115.190 E2.23614
G1 X148.496 Y115.415 E2.39120
G1 X146.230 Y115.193 E2.54626
G1 X144.051 Y114.533 E2.70131
G1 X142.042 Y113.461 E2.85636
G1 X140.281 Y112.018 E3.01141
G1 X138.835 Y110.258 E3.16646
G1 X137.761 Y108.251 E3.32151
G1 X137.099 Y106.072 E3.47657
G1 X136.875 Y103.806 E3.63163
G1 X137.097 Y101.539 E3.78669
G1 X137.757 Y99.360 E3.94175
G1 X138.830 Y97.351 E4.09683
G1 X140.273 Y95.590 E4.25190
G1 X142.033 Y94.144 E4.40697
G1 X144.041 Y93.069 E4.56205
G1 X146.220 Y92.407 E4.71710
G1 X148.486 Y92.182 E4.87216
G1 X150.752 Y92.404 E5.02722
G1 X152.932 Y93.064 E5.18227
G1 X154.940 Y94.136 E5.33731
G1 X156.701 Y95.579 E5.49237
G1 X158.147 Y97.339 E5.64742
G1 X159.221 Y99.346 E5.80247
G1 X159.870 Y101.516 E5.95667
G1 X159.338 Y101.691 F7200.000
G1 X159.583 Y103.733 E6.09674 F540.000
G1 X159.579 Y103.904 E6.10839
G1 X159.335 Y105.952 E6.24879
G1 X158.708 Y108.023 E6.39617
G1 X157.687 Y109.936 E6.54377
G1 X156.313 Y111.612 E6.69137
G1 X154.638 Y112.988 E6.83897
G1 X152.727 Y114.011 E6.98657
G1 X150.653 Y114.641 E7.13416
G1 X148.496 Y114.855 E7.28175
G1 X146.339 Y114.644 E7.42933
G1 X144.265 Y114.016 E7.57692
G1 X142.353 Y112.995 E7.72449
G1 X140.676 Y111.622 E7.87206
G1 X139.301 Y109.947 E8.01965
G1 X138.278 Y108.036 E8.16722
G1 X137.648 Y105.962 E8.31481
G1 X137.435 Y103.805 E8.46239
G1 X137.646 Y101.648 E8.60998
G1 X138.274 Y99.574 E8.75757
G1 X139.295 Y97.661 E8.90518
G1 X140.669 Y95.985 E9.05277
G1 X142.344 Y94.609 E9.20038
G1 X144.256 Y93.586 E9.34798
G1 X146.329 Y92.956 E9.49557
G1 X148.486 Y92.742 E9.64315
G1 X150.643 Y92.953 E9.79074
G1 X152.718 Y93.581 E9.93832
G1 X154.630 Y94.601 E10.08589
G1 X156.306 Y95.975 E10.23347
G1 X157.682 Y97.650 E10.38105
G1 X158.704 Y99.561 E10.52863
G1 X159.320 Y101.609 E10.67427
G1 X159.862 Y101.881 F7200.000
G1 F1800.000 E9.67427
G92 E0
G1 X170.616 Y88.357 F7200.000
G1 E1.00000 F1800.000
G1 X170.748 Y88.433 E1.01038 F1080.000
G1 X174.518 Y91.874 E1.35792
G1 X177.346 Y95.838 E1.68950
G1 X179.108 Y100.186 E2.00894
G1 X179.711 Y104.760 E2.32307
G1 X179.118 Y109.289 E2.63410
G1 X177.381 Y113.591 E2.95004
G1 X174.599 Y117.498 E3.27664
G1 X170.586 Y121.169 E3.64694
G1 X165.822 Y124.104 E4.02795
G1 X160.380 Y126.289 E4.42731
G1 X154.449 Y127.641 E4.84153
G1 X148.278 Y128.100 E5.26287
G1 X142.104 Y127.647 E5.68441
G1 X136.180 Y126.303 E6.09805
G1 X130.721 Y124.119 E6.49839
G1 X125.967 Y121.196 E6.87839
G1 X122.073 Y117.642 E7.23742
G1 X119.204 Y113.621 E7.57371
G1 X117.443 Y109.275 E7.89304
G1 X116.850 Y104.777 E8.20197
G1 X117.438 Y100.278 E8.51091
G1 X119.195 Y95.930 E8.83021
G1 X122.062 Y91.903 E9.16680
G1 X125.943 Y88.353 E9.52498
G1 X130.709 Y85.417 E9.90613
G1 X136.151 Y83.232 E10.30549
G1 X142.082 Y81.879 E10.71971
G1 X148.253 Y81.420 E11.14106
G1 X154.424 Y81.873 E11.56240
G1 X160.358 Y83.219 E11.97667
G1 X165.802 Y85.398 E12.37601
G1 X170.545 Y88.313 E12.75507
G1 X170.901 Y87.878 F7200.000
G1 X171.026 Y87.932 E12.76434 F540.000
G1 X174.937 Y91.502 E13.12494
G1 X177.838 Y95.568 E13.46502
G1 X179.651 Y100.043 E13.79378
G1 X180.273 Y104.759 E14.11772
G1 X179.662 Y109.431 E14.43858
G1 X177.873 Y113.861 E14.76384
G1 X174.988 Y117.912 E15.10252
G1 X170.923 Y121.615 E15.47692
G1 X166.074 Y124.603 E15.86476
G1 X160.546 Y126.822 E16.27035
G1 X154.532 Y128.194 E16.69042
G1 X148.278 Y128.659 E17.11741
G1 X142.021 Y128.200 E17.54459
G1 X136.014 Y126.837 E17.96408
G1 X130.470 Y124.618 E18.37066
G1 X125.630 Y121.643 E18.75748
G1 X121.653 Y118.013 E19.12413
G1 X118.713 Y113.891 E19.46891
G1 X116.900 Y109.418 E19.79756
G1 X116.288 Y104.777 E20.11631
G1 X116.895 Y100.135 E20.43507
G1 X118.703 Y95.661 E20.76368
G1 X121.642 Y91.532 E21.10877
G1 X125.606 Y87.906 E21.47456
G1 X130.457 Y84.917 E21.86254
G1 X135.985 Y82.698 E22.26813
G1 X141.999 Y81.327 E22.68820
G1 X148.253 Y80.862 E23.11520
G1 X154.507 Y81.321 E23.54219
G1 X160.524 Y82.686 E23.96231
G1 X166.053 Y84.899 E24.36787
G1 X170.830 Y87.834 E24.74961
G1 X170.910 Y88.014 F7200.000
G1 X169.255 Y87.979 F7200.000
G1 X176.235 Y94.959 E25.42743 F1080.000
G1 F1800.000 E24.42743
G92 E0
G1 X177.331 Y96.849 F7200.000
G1 E1.00000 F1800.000
G1 X167.200 Y86.718 E1.98388 F1080.000
G1 F1800.000 E0.98388
G92 E0
G1 X165.315 Y85.627 F7200.000
G1 E1.00000 F1800.000
G1 X177.872 Y98.185 E2.21946 F1080.000
G1 F1800.000 E1.21946
G92 E0
G1 X173.053 Y102.105 F7200.000
G1 E1.00000 F1800.000
G1 X178.897 Y107.949 E1.56749 F1080.000
G1 X178.805 Y108.651 E1.61615
G1 X173.305 Y103.151 E2.15027
G1 X173.336 Y103.977 E2.20703
G1 X178.680 Y109.322 E2.72604
G1 X178.452 Y109.888 E2.76795
G1 X173.252 Y104.687 E3.27295
G1 X173.067 Y105.297 E3.31669
G1 X178.223 Y110.454 E3.81745
G1 X177.995 Y111.019 E3.85936
G1 X172.817 Y105.842 E4.36216
G1 X172.527 Y106.346 E4.40210
G1 X177.766 Y111.585 E4.91093
G1 X177.538 Y112.151 E4.95284
G1 X172.168 Y106.782 E5.47426
G1 X171.765 Y107.173 E5.51285
G1 X177.309 Y112.717 E6.05124
G1 X177.081 Y113.283 E6.09315
G1 X171.329 Y107.531 E6.65174
G1 X170.812 Y107.810 E6.69201
G1 X176.771 Y113.768 E7.27069
G1 X176.441 Y114.233 E7.30981
G1 X170.254 Y108.045 E7.91067
G1 X169.640 Y108.226 E7.95459
G1 X176.110 Y114.697 E8.58293
G1 X175.780 Y115.161 E8.62205
G1 X168.917 Y108.298 E9.28851
G1 X168.069 Y108.244 E9.34687
G1 X175.450 Y115.625 E10.06362
G1 X175.119 Y116.089 E10.10274
G1 X166.976 Y107.946 E10.89349
G1 F1800.000 E9.89349
G92 E0
G1 X164.534 Y105.504 F7200.000
G1 E1.00000 F1800.000
G1 X160.181 Y101.151 E1.42272 F1080.000
G1 X160.346 Y102.110 E1.48956
G1 X174.789 Y116.553 E2.89213
G1 X174.458 Y117.017 E2.93125
G1 X160.454 Y103.013 E4.29121
G1 X160.531 Y103.884 E4.35125
G1 X174.083 Y117.436 E5.66735
G1 X173.668 Y117.816 E5.70596
G1 X160.454 Y104.602 E6.98924
G1 X160.369 Y105.311 E7.03834
G1 X173.253 Y118.195 E8.28953
G1 X172.838 Y118.575 E8.32814
G1 X160.285 Y106.021 E9.54725
G1 X160.118 Y106.649 E9.59185
G1 X172.423 Y118.954 E10.78686
G1 X172.008 Y119.334 E10.82548
G1 X159.933 Y107.259 E11.99813
G1 X159.749 Y107.869 E12.04189
G1 X171.593 Y119.714 E13.19218
G1 X171.178 Y120.093 E13.23079
G1 X159.550 Y108.465 E14.36003
G1 X159.274 Y108.983 E14.40035
G1 X170.763 Y120.473 E15.51615
G1 X170.349 Y120.852 E15.55477
G1 X158.997 Y109.501 E16.65713
G1 X158.721 Y110.019 E16.69745
G1 X169.857 Y121.155 E17.77894
G1 X169.365 Y121.458 E17.81859
G1 X158.433 Y110.526 E18.88027
G1 X158.075 Y110.962 E18.91904
G1 X168.874 Y121.761 E19.96774
G1 X168.382 Y122.064 E20.00740
G1 X157.717 Y111.399 E21.04312
G1 X157.359 Y111.835 E21.08189
G1 X167.891 Y122.367 E22.10463
G1 X167.399 Y122.670 E22.14428
G1 X157.001 Y112.272 E23.15404
G1 X156.568 Y112.633 E23.19278
G1 X166.907 Y122.973 E24.19689
G1 X166.416 Y123.276 E24.23655
G1 X156.132 Y112.991 E25.23528
G1 X155.695 Y113.350 E25.27404
G1 X165.924 Y123.578 E26.26738
G1 X165.400 Y123.849 E26.30788
G1 X155.259 Y113.708 E27.29269
G1 X154.759 Y114.002 E27.33256
G1 X164.833 Y124.077 E28.31093
G1 X164.266 Y124.304 E28.35288
G1 X154.241 Y114.279 E29.32646
G1 X153.724 Y114.556 E29.36677
G1 X163.699 Y124.532 E30.33555
G1 X163.132 Y124.759 E30.37750
G1 X153.206 Y114.833 E31.34149
G1 X152.617 Y115.038 E31.38433
G1 X162.566 Y124.987 E32.35048
G1 X161.999 Y125.214 E32.39243
G1 X152.008 Y115.223 E33.36269
G1 X151.398 Y115.409 E33.40642
G1 X161.432 Y125.442 E34.38079
G1 X160.865 Y125.670 E34.42274
G1 X150.780 Y115.584 E35.40214
G1 X150.057 Y115.656 E35.45203
G1 X160.298 Y125.897 E36.44658
G1 X159.656 Y126.050 E36.49188
G1 X149.334 Y115.728 E37.49430
G1 X148.611 Y115.799 E37.54418
G1 X159.009 Y126.197 E38.55397
G1 X158.362 Y126.345 E38.59954
G1 X147.755 Y115.738 E39.62961
G1 X146.874 Y115.652 E39.69038
G1 X157.715 Y126.492 E40.74315
G1 X157.068 Y126.640 E40.78871
G1 X145.947 Y115.519 E41.86874
G1 X144.808 Y115.174 E41.95048
G1 X156.421 Y126.787 E43.07831
G1 X155.774 Y126.935 E43.12388
G1 X143.554 Y114.714 E44.31066
G1 X141.850 Y113.805 F7200.000
G1 X155.127 Y127.083 E45.60007 F1080.000
G1 F1800.000 E44.60007
G92 E0
G1 X135.296 Y125.525 F7200.000
G1 E1.00000 F1800.000
G1 X117.657 Y107.886 E2.71297 F1080.000
G1 X117.537 Y106.971 E2.77636
G1 X136.548 Y125.983 E4.62264
G1 X137.576 Y126.216 E4.69500
G1 X117.416 Y106.056 E6.65280
G1 X117.295 Y105.141 E6.71619
G1 X138.604 Y126.449 E8.78550
G1 X139.632 Y126.682 E8.85787
G1 X117.303 Y104.354 E11.02628
G1 X117.395 Y103.651 E11.07494
G1 X140.659 Y126.916 E13.33423
G1 X141.687 Y127.149 E13.40659
G1 X117.487 Y102.948 E15.75676
G1 X117.578 Y102.246 E15.80542
G1 X142.623 Y127.290 E18.23759
G1 X143.480 Y127.353 E18.29662
G1 X117.670 Y101.543 E20.80313
G1 X117.762 Y100.840 E20.85179
G1 X144.338 Y127.416 E23.43264
G1 X145.195 Y127.479 E23.49167
G1 X117.901 Y100.185 E26.14231
G1 X118.130 Y99.619 E26.18422
G1 X146.053 Y127.542 E28.89592
G1 X146.910 Y127.605 E28.95496
G1 X118.358 Y99.053 E31.72772
G1 X118.587 Y98.487 E31.76963
G1 X147.767 Y127.668 E34.60346
G1 X148.577 Y127.683 E34.65907
G1 X118.815 Y97.921 E37.54933
G1 X119.044 Y97.355 E37.59124
G1 X149.317 Y127.628 E40.53111
G1 X150.056 Y127.573 E40.58203
G1 X119.273 Y96.789 E43.57152
G1 X119.501 Y96.223 E43.61344
G1 X150.796 Y127.518 E46.65254
G1 X151.535 Y127.463 E46.70346
G1 X119.813 Y95.741 E49.78409
G1 X120.143 Y95.277 E49.82321
G1 X152.275 Y127.408 E52.94357
G1 X153.014 Y127.353 E52.99449
G1 X120.474 Y94.813 E56.15458
G1 X120.804 Y94.349 E56.19370
G1 X153.754 Y127.298 E59.39351
G1 X154.480 Y127.230 E59.44363
G1 X121.135 Y93.884 E62.68192
G1 X121.465 Y93.420 E62.72104
G1 X138.487 Y110.442 E64.37410
G1 X137.573 Y108.734 F7200.000
G1 X121.795 Y92.956 E65.90628 F1080.000
G1 X122.126 Y92.492 E65.94540
G1 X137.116 Y107.482 E67.40113
G1 X136.769 Y106.341 E67.48304
G1 X122.483 Y92.055 E68.87038
G1 X122.896 Y91.674 E68.90899
G1 X136.638 Y105.416 E70.24352
G1 X136.551 Y104.534 E70.30436
G1 X123.311 Y91.294 E71.59011
G1 X123.726 Y90.915 E71.62873
G1 X136.491 Y103.680 E72.86840
G1 X136.562 Y102.956 E72.91832
G1 X124.141 Y90.535 E74.12458
G1 X124.556 Y90.155 E74.16319
G1 X136.633 Y102.233 E75.33604
G1 X136.704 Y101.509 E75.38596
G1 X124.971 Y89.776 E76.52539
G1 X125.386 Y89.396 E76.56401
G1 X136.881 Y100.892 E77.68037
G1 X137.066 Y100.282 E77.72412
G1 X125.801 Y89.017 E78.81812
G1 X126.222 Y88.644 E78.85677
G1 X137.251 Y99.672 E79.92778
G1 X137.458 Y99.084 E79.97057
G1 X126.714 Y88.341 E81.01392
G1 X127.206 Y88.038 E81.05357
G1 X137.734 Y98.566 E82.07603
G1 X138.011 Y98.048 E82.11635
