; generated by Slic3r 1.0.0RC2 on 2014-05-19 at 20:39:44

; layer_height = 0.3
; perimeters = 2
; top_solid_layers = 3
; bottom_solid_layers = 3
; fill_density = 0.1
; perimeter_speed = 60
; infill_speed = 60
; travel_speed = 120
; nozzle_diameter = 0.4
; filament_diameter = 1.75
; extrusion_multiplier = 0.98
; perimeters extrusion width = 0.40mm
; infill extrusion width = 0.42mm
; solid infill extrusion width = 0.42mm
; top infill extrusion width = 0.42mm
; first layer extrusion width = 0.80mm

G21 ; set units to millimeters
M107
M104 S220 ; set temperature
G28 ; home all axes
M106 S255;
G1 Z200 F1200 ; lift nozzle
M109 S220 ; wait for temperature to be reached
G90 ; use absolute coordinates
G92 E0
M82 ; use absolute distances for extrusion
G1 F1800.000 E-1.00000
G92 E0
G1 Z0.400 F7200.000
G1 X103.140 Y79.767 F7200.000
G1 E1.00000 F1800.000
G1 X103.550 Y79.257 E1.07616 F1080.000
G1 X107.180 Y75.287 E1.70227
G1 X107.690 Y74.787 E1.78540
G1 X108.240 Y74.347 E1.86737
G1 X112.390 Y71.387 E2.46067
G1 X113.070 Y70.967 E2.55369
G1 X113.790 Y70.627 E2.64637
G1 X118.320 Y68.807 E3.21457
G1 X119.120 Y68.537 E3.31285
G1 X119.950 Y68.377 E3.41123
G1 X124.710 Y67.757 E3.96992
G1 X125.580 Y67.707 E4.07135
G1 X126.450 Y67.757 E4.17278
G1 X131.470 Y68.417 E4.76208
G1 X180.720 Y76.857 E10.57784
G1 X181.470 Y77.027 E10.66735
G1 X185.890 Y78.317 E11.20326
G1 X186.510 Y78.537 E11.27983
G1 X187.100 Y78.807 E11.35534
G1 X191.170 Y80.917 E11.88893
G1 X191.720 Y81.237 E11.96299
G1 X192.240 Y81.607 E12.03727
G1 X195.580 Y84.247 E12.53278
G1 X196.330 Y84.877 E12.64678
G1 X196.780 Y85.357 E12.72336
G1 X199.710 Y88.807 E13.25018
G1 X200.110 Y89.337 E13.32746
G1 X200.460 Y89.907 E13.40531
G1 X202.640 Y93.847 E13.92940
G1 X202.940 Y94.457 E14.00852
G1 X203.180 Y95.087 E14.08699
G1 X204.520 Y99.367 E14.60898
G1 X204.690 Y100.017 E14.68718
G1 X204.790 Y100.687 E14.76602
G1 X205.250 Y105.127 E15.28556
G1 X205.280 Y105.807 E15.36478
G1 X205.250 Y106.497 E15.44517
G1 X204.800 Y110.947 E15.96575
G1 X204.700 Y111.617 E16.04459
G1 X204.530 Y112.277 E16.12391
G1 X203.190 Y116.557 E16.64591
G1 X202.950 Y117.187 E16.72437
G1 X202.650 Y117.797 E16.80349
G1 X200.470 Y121.737 E17.32758
G1 X200.130 Y122.297 E17.40383
G1 X199.720 Y122.827 E17.48182
G1 X196.790 Y126.287 E18.00953
G1 X196.340 Y126.767 E18.08611
G1 X195.850 Y127.197 E18.16198
G1 X192.280 Y130.037 E18.69294
G1 X191.750 Y130.427 E18.76952
G1 X191.180 Y130.747 E18.84561
G1 X187.100 Y132.857 E19.38022
G1 X186.280 Y133.217 E19.48445
G1 X185.430 Y133.467 E19.58758
G1 X131.750 Y144.957 E25.97690
G1 X131.230 Y145.047 E26.03833
G1 X126.510 Y145.677 E26.59256
G1 X125.630 Y145.727 E26.69515
G1 X124.750 Y145.677 E26.79774
G1 X120.020 Y145.057 E27.35297
G1 X119.180 Y144.887 E27.45272
G1 X118.370 Y144.617 E27.55209
G1 X113.830 Y142.777 E28.12225
G1 X113.120 Y142.447 E28.21338
G1 X112.450 Y142.027 E28.30542
G1 X108.270 Y139.047 E28.90290
G1 X107.720 Y138.607 E28.98488
G1 X107.220 Y138.107 E29.06718
G1 X103.550 Y134.097 E29.69986
G1 X103.140 Y133.607 E29.77423
G1 X102.780 Y133.087 E29.84784
G1 X99.770 Y128.197 E30.51617
G1 X99.260 Y127.177 E30.64890
G1 X97.020 Y121.597 E31.34873
G1 X96.700 Y120.587 E31.47204
G1 X95.320 Y114.527 E32.19542
G1 X95.170 Y113.537 E32.31196
G1 X94.700 Y107.247 E33.04609
G1 X94.700 Y106.257 E33.16132
G1 X95.160 Y99.957 E33.89653
G1 X95.310 Y98.957 E34.01422
G1 X96.690 Y92.897 E34.73760
G1 X97.010 Y91.897 E34.85980
G1 X99.240 Y86.317 E35.55920
G1 X99.730 Y85.327 E35.68777
G1 X102.770 Y80.307 E36.37083
G1 X103.080 Y79.855 E36.43455
G1 F1800.000 E35.43455
G92 E0
G1 X120.200 Y85.366 F7200.000
G1 E1.00000 F1800.000
G1 X120.453 Y84.530 E1.10165 F540.000
G1 X120.863 Y83.760 E1.20327
G1 X121.416 Y83.084 E1.30491
G1 X122.091 Y82.529 E1.40654
G1 X122.860 Y82.116 E1.50816
G1 X123.695 Y81.862 E1.60977
G1 X124.564 Y81.776 E1.71139
G1 X125.433 Y81.861 E1.81300
G1 X126.268 Y82.115 E1.91461
G1 X127.038 Y82.527 E2.01624
G1 X127.713 Y83.081 E2.11786
G1 X128.267 Y83.756 E2.21950
G1 X128.678 Y84.526 E2.32114
G1 X128.932 Y85.362 E2.42278
G1 X129.018 Y86.231 E2.52444
G1 X128.933 Y87.100 E2.62608
G1 X128.680 Y87.936 E2.72773
G1 X128.270 Y88.707 E2.82937
G1 X127.717 Y89.383 E2.93099
G1 X127.043 Y89.938 E3.03263
G1 X126.273 Y90.350 E3.13424
G1 X125.438 Y90.604 E3.23586
G1 X124.569 Y90.690 E3.33746
G1 X123.700 Y90.605 E3.43908
G1 X122.865 Y90.352 E3.54069
G1 X122.095 Y89.940 E3.64231
G1 X121.420 Y89.386 E3.74394
G1 X120.867 Y88.710 E3.84558
G1 X120.455 Y87.940 E3.94723
G1 X120.201 Y87.104 E4.04887
G1 X120.115 Y86.235 E4.15052
G1 X120.190 Y85.473 E4.23970
G1 X120.904 Y85.505 F7200.000
G1 X121.116 Y84.804 E4.32499 F540.000
G1 X121.461 Y84.157 E4.41027
G1 X121.925 Y83.590 E4.49553
G1 X122.490 Y83.125 E4.58078
G1 X123.136 Y82.779 E4.66600
G1 X123.836 Y82.566 E4.75121
G1 X124.564 Y82.494 E4.83642
G1 X125.293 Y82.565 E4.92163
G1 X125.994 Y82.778 E5.00685
G1 X126.639 Y83.123 E5.09208
G1 X127.205 Y83.588 E5.17733
G1 X127.670 Y84.154 E5.26261
G1 X128.015 Y84.801 E5.34790
G1 X128.228 Y85.502 E5.43319
G1 X128.300 Y86.231 E5.51850
G1 X128.229 Y86.961 E5.60381
G1 X128.017 Y87.662 E5.68910
G1 X127.673 Y88.309 E5.77438
G1 X127.209 Y88.876 E5.85964
G1 X126.643 Y89.341 E5.94489
G1 X125.998 Y89.687 E6.03011
G1 X125.297 Y89.901 E6.11532
G1 X124.569 Y89.973 E6.20053
G1 X123.840 Y89.901 E6.28574
G1 X123.140 Y89.689 E6.37095
G1 X122.494 Y89.343 E6.45619
G1 X121.928 Y88.878 E6.54144
G1 X121.463 Y88.312 E6.62671
G1 X121.118 Y87.666 E6.71201
G1 X120.905 Y86.964 E6.79730
G1 X120.833 Y86.235 E6.88261
G1 X120.894 Y85.612 E6.95544
G1 X120.383 Y85.018 F7200.000
G1 X122.422 Y94.856 F7200.000
G1 X124.513 Y94.605 E7.20057 F1080.000
G1 X124.852 Y94.612 E7.24005
G1 X126.962 Y94.863 E7.48734
G1 X129.178 Y95.535 E7.75694
G1 X131.232 Y96.631 E8.02792
G1 X133.033 Y98.107 E8.29888
G1 X134.511 Y99.906 E8.56985
G1 X135.609 Y101.959 E8.84082
G1 X136.286 Y104.186 E9.11177
G1 X136.516 Y106.503 E9.38272
G1 X136.289 Y108.820 E9.65366
G1 X135.615 Y111.048 E9.92461
G1 X134.519 Y113.101 E10.19554
G1 X133.043 Y114.902 E10.46646
G1 X131.244 Y116.379 E10.73741
G1 X129.192 Y117.478 E11.00834
G1 X126.964 Y118.154 E11.27929
G1 X124.648 Y118.384 E11.55024
G1 X122.331 Y118.157 E11.82121
G1 X120.103 Y117.482 E12.09215
G1 X118.049 Y116.385 E12.36313
G1 X116.249 Y114.909 E12.63410
G1 X114.771 Y113.110 E12.90508
G1 X113.672 Y111.058 E13.17605
G1 X112.995 Y108.830 E13.44699
G1 X112.765 Y106.514 E13.71795
G1 X112.992 Y104.197 E13.98889
G1 X113.667 Y101.969 E14.25983
G1 X114.763 Y99.915 E14.53075
G1 X116.238 Y98.115 E14.80169
G1 X118.037 Y96.637 E15.07264
G1 X120.089 Y95.539 E15.34357
G1 X122.120 Y94.922 E15.59053
G1 X122.317 Y94.879 E15.61405
G1 X122.541 Y95.561 F7200.000
G1 X124.548 Y95.320 E15.84925 F756.000
G1 X124.802 Y95.325 E15.87883
G1 X126.815 Y95.565 E16.11479
G1 X128.904 Y96.198 E16.36888
G1 X130.834 Y97.228 E16.62349
G1 X132.525 Y98.615 E16.87808
G1 X133.914 Y100.305 E17.13269
G1 X134.946 Y102.234 E17.38729
G1 X135.583 Y104.327 E17.64186
G1 X135.798 Y106.503 E17.89644
G1 X135.585 Y108.680 E18.15101
G1 X134.951 Y110.774 E18.40559
G1 X133.922 Y112.703 E18.66014
G1 X132.535 Y114.395 E18.91470
G1 X130.845 Y115.783 E19.16926
G1 X128.917 Y116.815 E19.42382
G1 X126.824 Y117.451 E19.67839
G1 X124.648 Y117.666 E19.93296
G1 X122.471 Y117.453 E20.18755
G1 X120.377 Y116.819 E20.44213
G1 X118.447 Y115.788 E20.69674
G1 X116.756 Y114.402 E20.95133
G1 X115.367 Y112.711 E21.20594
G1 X114.335 Y110.783 E21.46054
G1 X113.699 Y108.690 E21.71511
G1 X113.483 Y106.513 E21.96969
G1 X113.696 Y104.337 E22.22426
G1 X114.330 Y102.243 E22.47884
G1 X115.360 Y100.314 E22.73339
G1 X116.746 Y98.622 E22.98794
G1 X118.436 Y97.234 E23.24251
G1 X120.364 Y96.202 E23.49707
G1 X122.437 Y95.584 E23.74875
G1 X122.785 Y94.889 F7200.000
G1 X109.417 Y84.523 F7200.000
G1 X109.519 Y84.344 E23.77272 F1080.000
G1 X112.890 Y80.652 E24.35458
G1 X116.786 Y77.872 E24.91169
G1 X121.077 Y76.134 E25.45055
G1 X125.609 Y75.536 E25.98257
G1 X130.081 Y76.121 E26.50755
G1 X134.311 Y77.829 E27.03845
G1 X138.130 Y80.549 E27.58418
G1 X141.805 Y84.566 E28.21787
G1 X144.717 Y89.293 E28.86404
G1 X146.886 Y94.695 E29.54154
G1 X148.230 Y100.589 E30.24524
G1 X148.686 Y106.723 E30.96109
G1 X148.236 Y112.860 E31.67737
G1 X146.901 Y118.745 E32.37971
G1 X144.731 Y124.168 E33.05948
G1 X141.834 Y128.881 E33.70334
G1 X138.312 Y132.739 E34.31135
G1 X134.341 Y135.572 E34.87919
G1 X130.052 Y137.310 E35.41779
G1 X125.621 Y137.894 E35.93798
G1 X121.189 Y137.315 E36.45819
G1 X116.899 Y135.582 E36.99673
G1 X112.919 Y132.749 E37.56524
G1 X109.405 Y128.906 E38.17131
G1 X106.491 Y124.178 E38.81780
G1 X104.323 Y118.776 E39.49530
G1 X102.978 Y112.881 E40.19900
G1 X102.522 Y106.747 E40.91485
G1 X102.972 Y100.613 E41.63069
G1 X104.310 Y94.716 E42.33449
G1 X106.473 Y89.313 E43.01195
G1 X109.361 Y84.614 E43.65382
G1 X108.803 Y84.158 F7200.000
G1 X108.875 Y83.991 E43.67495 F756.000
G1 X112.413 Y80.115 E44.28586
G1 X116.440 Y77.242 E44.86159
G1 X120.893 Y75.437 E45.42085
G1 X125.608 Y74.815 E45.97439
G1 X130.264 Y75.425 E46.52090
G1 X134.656 Y77.198 E47.07221
G1 X138.663 Y80.052 E47.64475
G1 X138.719 Y80.135 E47.65640
G1 X142.377 Y84.134 E48.28723
G1 X145.357 Y88.970 E48.94837
G1 X147.569 Y94.481 E49.63953
G1 X148.938 Y100.483 E50.35603
G1 X149.402 Y106.722 E51.08427
G1 X148.944 Y112.966 E51.81292
G1 X147.585 Y118.958 E52.52807
G1 X145.371 Y124.490 E53.22151
G1 X142.407 Y129.312 E53.88033
G1 X138.789 Y133.276 E54.50502
G1 X134.687 Y136.203 E55.09147
G1 X130.235 Y138.006 E55.65049
G1 X125.621 Y138.614 E56.19220
G1 X121.006 Y138.011 E56.73393
G1 X116.553 Y136.212 E57.29288
G1 X112.444 Y133.287 E57.88000
G1 X108.832 Y129.339 E58.50275
G1 X105.851 Y124.500 E59.16420
G1 X103.639 Y118.989 E59.85537
G1 X102.270 Y112.987 E60.57187
G1 X101.806 Y106.748 E61.30011
G1 X102.264 Y100.508 E62.02833
G1 X103.626 Y94.503 E62.74494
G1 X105.833 Y88.991 E63.43605
G1 X108.747 Y84.249 E64.08379
G1 X108.984 Y84.146 F7200.000
G1 X119.724 Y87.179 F7200.000
G1 X113.415 Y80.869 E65.12499 F1080.000
G1 X114.006 Y80.448 E65.20970
G1 X119.646 Y86.088 E66.14038
G1 X119.753 Y85.182 E66.24679
G1 X114.597 Y80.026 E67.09760
G1 X115.188 Y79.604 E67.18231
G1 X119.987 Y84.404 E67.97437
G1 X120.331 Y83.735 E68.06215
G1 X115.779 Y79.183 E68.81332
G1 X116.369 Y78.761 E68.89802
G1 X120.748 Y83.140 E69.62055
G1 X121.232 Y82.611 E69.70417
G1 X116.960 Y78.340 E70.40907
G1 X117.668 Y78.035 E70.49898
G1 X121.787 Y82.154 E71.17877
G1 X122.440 Y81.794 E71.26575
G1 X118.389 Y77.743 E71.93437
G1 X119.109 Y77.451 E72.02509
G1 X123.175 Y81.517 E72.69604
G1 X124.017 Y81.346 E72.79626
G1 X119.830 Y77.159 E73.48720
G1 X120.550 Y76.867 E73.57793
G1 X125.020 Y81.336 E74.31549
G1 X126.324 Y81.628 E74.47141
G1 X121.288 Y76.592 E75.30246
G1 X122.182 Y76.474 E75.40775
G1 X147.863 Y102.154 E79.64556
G1 X147.782 Y101.061 E79.77356
G1 X123.077 Y76.356 E83.85033
G1 X123.972 Y76.238 E83.95562
G1 X147.562 Y99.828 E87.84853
G1 X147.263 Y98.517 E88.00552
G1 X124.866 Y76.120 E91.70145
G1 X125.806 Y76.048 E91.81150
G1 X146.964 Y97.205 E95.30290
G1 X146.665 Y95.893 E95.45988
G1 X126.971 Y76.200 E98.70967
G1 X128.136 Y76.353 E98.84677
G1 X146.291 Y94.507 E101.84266
G1 X145.612 Y92.816 F7200.000
G1 X129.301 Y76.505 E104.53425 F1080.000
G1 X130.699 Y76.890 E104.70344
G1 X144.933 Y91.124 E107.05229
G1 X144.210 Y89.389 F7200.000
G1 X132.398 Y77.576 E109.00162 F1080.000
G1 X134.116 Y78.282 F7200.000
G1 X142.585 Y86.751 E110.39916 F1080.000
G1 X138.354 Y81.507 F7200.000
G1 X137.633 Y80.786 E110.51811 F1080.000
G1 X129.165 Y84.468 F7200.000
G1 X147.944 Y103.248 E113.61718 F1080.000
G1 X148.026 Y104.342 E113.74517
G1 X129.457 Y85.773 E116.80940
G1 X129.449 Y86.778 E116.92659
G1 X148.107 Y105.436 E120.00560
G1 X148.189 Y106.530 E120.13359
G1 X129.279 Y87.621 E123.25401
G1 X129.003 Y88.357 E123.34574
G1 X148.146 Y107.500 E126.50478
G1 X148.077 Y108.443 E126.61515
G1 X128.644 Y89.011 E129.82192
G1 X128.188 Y89.568 E129.90589
G1 X148.007 Y109.387 E133.17643
G1 X147.938 Y110.330 E133.28680
G1 X127.661 Y90.053 E136.63294
G1 X127.067 Y90.471 E136.71774
G1 X147.869 Y111.273 E140.15048
G1 X147.800 Y112.217 E140.26085
G1 X126.399 Y90.816 E143.79246
G1 X125.623 Y91.052 E143.88714
G1 X129.995 Y95.424 E144.60871
G1 X128.333 Y94.775 F7200.000
G1 X124.718 Y91.160 E145.20532 F1080.000
G1 X123.628 Y91.082 E145.33287
G1 X126.919 Y94.373 E145.87592
G1 X125.769 Y94.236 E146.01100
G1 X121.932 Y90.399 E146.64416
G1 X120.408 Y88.875 F7200.000
G1 X112.905 Y81.372 E147.88236 F1080.000
G1 X112.411 Y81.891 E147.96593
G1 X124.646 Y94.126 E149.98490
G1 X123.722 Y94.214 E150.09321
G1 X111.928 Y82.420 E152.03945
G1 X111.445 Y82.950 E152.12308
G1 X122.818 Y94.323 E153.99987
G1 X121.952 Y94.469 E154.10235
G1 X110.962 Y83.479 E155.91598
G1 X110.479 Y84.008 E155.99961
G1 X121.175 Y94.705 E157.76482
G1 X120.399 Y94.941 E157.85953
G1 X109.995 Y84.538 E159.57633
G1 X109.592 Y85.147 E159.66159
G1 X119.665 Y95.220 E161.32374
G1 X119.005 Y95.573 E161.41104
G1 X109.207 Y85.775 E163.02785
G1 X108.823 Y86.403 E163.11377
G1 X118.346 Y95.925 E164.68525
G1 X117.699 Y96.291 E164.77195
G1 X108.438 Y87.030 E166.30021
G1 X108.053 Y87.658 E166.38613
G1 X117.143 Y96.748 E167.88617
G1 X116.587 Y97.205 E167.97012
G1 X107.668 Y88.286 E169.44195
G1 X107.283 Y88.913 E169.52786
G1 X116.031 Y97.661 E170.97147
G1 X115.551 Y98.193 E171.05513
G1 X106.900 Y89.543 E172.48268
G1 X106.611 Y90.266 E172.57357
G1 X115.095 Y98.750 E173.97362
G1 X114.639 Y99.306 E174.05757
G1 X106.321 Y90.989 E175.43012
G1 X106.032 Y91.712 E175.52100
G1 X114.223 Y99.903 E176.87269
G1 X113.870 Y100.563 E176.96001
G1 X105.742 Y92.435 E178.30131
G1 X105.453 Y93.158 E178.39220
G1 X113.518 Y101.224 E179.72311
G1 X113.183 Y101.901 E179.81132
G1 X105.164 Y93.882 E181.13477
G1 X104.874 Y94.605 E181.22565
G1 X112.948 Y102.679 E182.55803
G1 X112.713 Y103.456 E182.65280
G1 X104.651 Y95.394 E183.98321
G1 X104.464 Y96.219 E184.08196
G1 X112.502 Y104.258 E185.40847
G1 X112.412 Y105.180 E185.51660
G1 X104.276 Y97.044 E186.85912
G1 X104.089 Y97.870 E186.95787
G1 X112.321 Y106.102 E188.31638
G1 X112.343 Y107.136 E188.43705
G1 X103.902 Y98.695 E189.82999
G1 X103.714 Y99.520 E189.92873
G1 X112.454 Y108.260 E191.37095
G1 X112.701 Y109.519 E191.52065
G1 X103.527 Y100.346 E193.03443
G1 X103.409 Y101.240 E193.13975
G1 X113.143 Y110.974 E194.74595
G1 X114.175 Y113.018 F7200.000
G1 X103.340 Y102.184 E196.53388 F1080.000
G1 X103.271 Y103.127 E196.64426
G1 X134.798 Y134.654 E201.84682
G1 X134.207 Y135.076 E201.93153
G1 X103.202 Y104.070 E207.04799
G1 X103.133 Y105.014 E207.15837
G1 X133.508 Y135.390 E212.17096
G1 X132.788 Y135.681 E212.26169
G1 X103.063 Y105.957 E217.16679
G1 X103.019 Y106.925 E217.27984
G1 X132.067 Y135.973 E222.07342
G1 X131.347 Y136.265 E222.16414
G1 X103.100 Y108.019 E226.82537
G1 X103.181 Y109.113 E226.95337
G1 X130.626 Y136.557 E231.48226
G1 X129.900 Y136.844 E231.57334
G1 X103.263 Y110.207 E235.96901
G1 X103.344 Y111.301 E236.09700
G1 X129.005 Y136.962 E240.33162
G1 X128.111 Y137.080 E240.43691
G1 X103.425 Y112.394 E244.51047
G1 X103.642 Y113.624 E244.65611
G1 X127.216 Y137.198 E248.54630
G1 X126.322 Y137.316 E248.65159
G1 X103.941 Y114.935 E252.34480
G1 X104.240 Y116.247 E252.50178
G1 X125.369 Y137.375 E255.98835
G1 X124.204 Y137.223 E256.12543
G1 X104.539 Y117.559 E259.37042
G1 X104.908 Y118.940 E259.53718
G1 X123.039 Y137.071 E262.52917
G1 X121.874 Y136.918 E262.66624
G1 X105.587 Y120.631 E265.35395
G1 X106.266 Y122.323 F7200.000
G1 X120.433 Y136.489 E267.69175 F1080.000
G1 X118.734 Y135.803 F7200.000
G1 X106.975 Y124.045 E269.63214 F1080.000
G1 X108.601 Y126.683 F7200.000
G1 X116.932 Y135.014 E271.00690 F1080.000
G1 X113.417 Y132.511 F7200.000
G1 X112.696 Y131.790 E271.12591 F1080.000
G1 X118.133 Y116.976 F7200.000
G1 X135.389 Y134.232 E273.97351 F1080.000
G1 X135.980 Y133.811 E274.05822
G1 X120.177 Y118.008 E276.66605
G1 X121.629 Y118.448 E276.84314
G1 X136.571 Y133.389 E279.30880
G1 X137.162 Y132.968 E279.39350
G1 X122.890 Y118.696 E281.74866
G1 X124.012 Y118.806 E281.88028
G1 X137.753 Y132.546 E284.14771
G1 X138.268 Y132.048 E284.23127
G1 X125.048 Y118.828 E286.41283
G1 X125.969 Y118.737 E286.52087
