; generated by Slic3r 1.0.0RC3 on 2014-03-11 at 09:37:44

; layer_height = 0.3
; perimeters = 2
; top_solid_layers = 3
; bottom_solid_layers = 3
; fill_density = 0.1
; perimeter_speed = 60
; infill_speed = 60
; travel_speed = 120
; nozzle_diameter = 0.4
; filament_diameter = 1.75
; extrusion_multiplier = 0.98
; perimeters extrusion width = 0.40mm
; infill extrusion width = 0.42mm
; solid infill extrusion width = 0.42mm
; top infill extrusion width = 0.42mm
; first layer extrusion width = 0.60mm

G21 ; set units to millimeters
M107
M104 S220 ; set temperature
G28 ; home all axes
M106 S255;
G1 Z200 F1200 ; lift nozzle
M109 S220 ; wait for temperature to be reached
G90 ; use absolute coordinates
G92 E0
M82 ; use absolute distances for extrusion
G1 F1800.000 E-1.00000
G92 E0
G1 Z0.300 F7200.000
G1 X128.675 Y75.508 F7200.000
G1 E1.00000 F1800.000
G1 X128.995 Y74.988 E1.04158 F1080.000
G1 X129.355 Y74.488 E1.08353
G1 X130.115 Y73.558 E1.16531
G1 X130.545 Y73.088 E1.20869
G1 X131.015 Y72.648 E1.25253
G1 X131.935 Y71.888 E1.33378
G1 X132.465 Y71.498 E1.37859
G1 X133.025 Y71.158 E1.42320
G1 X134.075 Y70.598 E1.50423
G1 X134.675 Y70.318 E1.54931
G1 X135.305 Y70.098 E1.59475
G1 X136.455 Y69.758 E1.67641
G1 X137.055 Y69.618 E1.71836
G1 X137.665 Y69.528 E1.76035
G1 X138.815 Y69.408 E1.83908
G1 X139.545 Y69.368 E1.88886
G1 X160.115 Y69.538 E3.28957
G1 X160.675 Y69.568 E3.32776
G1 X161.855 Y69.678 E3.40845
G1 X162.515 Y69.778 E3.45391
G1 X163.165 Y69.938 E3.49949
G1 X164.305 Y70.288 E3.58069
G1 X164.885 Y70.498 E3.62269
G1 X165.445 Y70.758 E3.66473
G1 X166.505 Y71.318 E3.74636
G1 X167.085 Y71.668 E3.79249
G1 X167.625 Y72.058 E3.83785
G1 X168.545 Y72.818 E3.91910
G1 X169.015 Y73.258 E3.96294
G1 X169.445 Y73.738 E4.00682
G1 X170.195 Y74.658 E4.08765
G1 X170.575 Y75.168 E4.13096
G1 X170.905 Y75.708 E4.17405
G1 X171.465 Y76.758 E4.25508
G1 X171.725 Y77.328 E4.29774
G1 X171.945 Y77.928 E4.34125
G1 X172.295 Y79.068 E4.42245
G1 X172.455 Y79.688 E4.46605
G1 X172.545 Y80.328 E4.51006
G1 X172.665 Y81.518 E4.59150
G1 X172.695 Y81.948 E4.62085
G1 X173.455 Y103.968 E6.12114
G1 X173.455 Y104.448 E6.15383
G1 X172.535 Y128.888 E7.81918
G1 X172.505 Y129.318 E7.84853
G1 X172.375 Y130.568 E7.93411
G1 X172.285 Y131.178 E7.97609
G1 X172.135 Y131.768 E8.01755
G1 X171.775 Y132.968 E8.10286
G1 X171.555 Y133.588 E8.14765
G1 X171.275 Y134.188 E8.19274
G1 X170.675 Y135.308 E8.27925
G1 X170.355 Y135.848 E8.32200
G1 X169.975 Y136.348 E8.36476
G1 X169.185 Y137.318 E8.44994
G1 X168.755 Y137.798 E8.49382
G1 X168.275 Y138.238 E8.53816
G1 X167.305 Y139.038 E8.62378
G1 X166.775 Y139.428 E8.66858
G1 X166.215 Y139.768 E8.71319
G1 X165.105 Y140.358 E8.79879
G1 X164.535 Y140.628 E8.84174
G1 X163.945 Y140.838 E8.88438
G1 X162.735 Y141.208 E8.97054
G1 X162.095 Y141.368 E9.01546
G1 X161.445 Y141.468 E9.06024
G1 X160.195 Y141.588 E9.14575
G1 X159.535 Y141.618 E9.19073
G1 X139.655 Y141.538 E10.54442
G1 X139.065 Y141.508 E10.58465
G1 X137.805 Y141.388 E10.67083
G1 X137.145 Y141.288 E10.71629
G1 X136.505 Y141.128 E10.76121
G1 X135.295 Y140.758 E10.84736
G1 X134.765 Y140.568 E10.88570
G1 X134.245 Y140.328 E10.92470
G1 X133.085 Y139.738 E11.01332
G1 X132.405 Y139.348 E11.06669
G1 X131.775 Y138.868 E11.12062
G1 X130.845 Y138.068 E11.20416
G1 X130.065 Y137.268 E11.28024
G1 X129.265 Y136.298 E11.36585
G1 X128.865 Y135.758 E11.41161
G1 X128.525 Y135.188 E11.45680
G1 X127.935 Y134.068 E11.54300
G1 X127.675 Y133.508 E11.58504
G1 X127.465 Y132.928 E11.62705
G1 X127.095 Y131.718 E11.71320
G1 X126.935 Y131.078 E11.75812
G1 X126.835 Y130.428 E11.80291
G1 X126.715 Y129.178 E11.88841
G1 X126.685 Y128.528 E11.93272
G1 X126.845 Y82.008 E15.10040
G1 X126.885 Y81.368 E15.14406
G1 X127.005 Y80.178 E15.22550
G1 X127.095 Y79.578 E15.26681
G1 X127.235 Y78.978 E15.30877
G1 X127.575 Y77.828 E15.39042
G1 X127.805 Y77.178 E15.43737
G1 X128.105 Y76.558 E15.48427
G1 X128.635 Y75.581 E15.55994
G1 F1800.000 E14.55994
G92 E0
G1 X156.743 Y124.679 F7200.000
G1 E1.00000 F1800.000
G1 X158.251 Y124.450 E1.10385 F540.000
G1 X159.569 Y124.387 E1.19371
G1 X160.888 Y124.450 E1.28360
G1 X162.393 Y124.677 E1.38726
G1 X162.393 Y132.364 E1.91067
G1 X160.976 Y132.579 E2.00825
G1 X159.569 Y133.634 E2.12798
G1 X158.162 Y132.579 E2.24774
G1 X156.743 Y132.365 E2.34543
G1 X156.743 Y124.762 E2.86308
G1 X156.687 Y124.125 F7200.000
G1 F1800.000 E1.86308
G92 E0
G1 X156.401 Y132.877 F7200.000
G1 E1.00000 F1800.000
G1 X157.940 Y133.109 E1.10599 F540.000
G1 X159.084 Y133.964 E1.20326
G1 X158.945 Y134.238 E1.22421
G1 X157.441 Y133.779 E1.33126
G1 X156.304 Y133.169 E1.41916
G1 X156.374 Y132.956 E1.43446
G1 F1800.000 E0.43446
G92 E0
G1 X160.060 Y133.959 F7200.000
G1 E1.00000 F1800.000
G1 X161.198 Y133.109 E1.09671 F540.000
G1 X162.738 Y132.875 E1.20280
G1 X162.836 Y133.170 E1.22401
G1 X161.696 Y133.779 E1.31205
G1 X160.198 Y134.232 E1.41861
G1 X160.097 Y134.034 E1.43374
G1 F1800.000 E0.43374
G92 E0
G1 X162.950 Y133.023 F7200.000
G1 E1.00000 F1800.000
G1 X162.950 Y124.262 E1.59661 F540.000
G1 X163.496 Y124.708 E1.64463
G1 X164.189 Y125.558 E1.71932
G1 X164.706 Y126.517 E1.79354
G1 X165.018 Y127.560 E1.86764
G1 X165.130 Y128.642 E1.94170
G1 X165.017 Y129.731 E2.01628
G1 X164.707 Y130.765 E2.08973
G1 X164.184 Y131.736 E2.16482
G1 X163.501 Y132.574 E2.23847
G1 X163.015 Y132.971 E2.28119
G1 F1800.000 E1.28119
G92 E0
G1 X161.912 Y124.047 F7200.000
G1 E1.00000 F1800.000
G1 X160.944 Y123.895 E1.06668 F540.000
G1 X159.569 Y123.829 E1.16042
G1 X158.195 Y123.895 E1.25410
G1 X157.219 Y124.045 E1.32135
G1 X157.120 Y123.610 E1.35169
G1 X158.486 Y123.198 E1.44883
G1 X159.569 Y123.092 E1.52293
G1 X160.647 Y123.197 E1.59670
G1 X162.012 Y123.610 E1.69376
G1 X161.930 Y123.966 E1.71861
G1 F1800.000 E0.71861
G92 E0
G1 X156.186 Y124.276 F7200.000
G1 E1.00000 F1800.000
G1 X156.186 Y133.027 E1.59586 F540.000
G1 X155.637 Y132.578 E1.64415
G1 X154.947 Y131.732 E1.71848
G1 X154.432 Y130.767 E1.79296
G1 X154.114 Y129.729 E1.86691
G1 X154.008 Y128.639 E1.94148
G1 X154.113 Y127.562 E2.01517
G1 X154.432 Y126.517 E2.08956
G1 X154.948 Y125.551 E2.16415
G1 X155.626 Y124.720 E2.23720
G1 X156.120 Y124.328 E2.28012
G1 X155.398 Y124.190 F7200.000
G1 X156.182 Y123.547 E2.34914 F540.000
G1 X157.224 Y122.997 E2.42936
G1 X158.377 Y122.649 E2.51139
G1 X159.569 Y122.533 E2.59294
G1 X160.758 Y122.649 E2.67427
G1 X161.909 Y122.996 E2.75616
G1 X162.972 Y123.557 E2.83800
G1 X163.896 Y124.315 E2.91939
G1 X164.651 Y125.243 E3.00082
G1 X165.223 Y126.302 E3.08283
G1 X165.564 Y127.443 E3.16390
G1 X165.690 Y128.642 E3.24601
G1 X165.567 Y129.832 E3.32744
G1 X165.223 Y130.981 E3.40911
G1 X164.653 Y132.040 E3.49101
G1 X163.896 Y132.971 E3.57268
G1 X162.969 Y133.731 E3.65431
G1 X161.910 Y134.296 E3.73605
G1 X160.757 Y134.647 E3.81810
G1 X159.568 Y134.763 E3.89945
G1 X158.376 Y134.647 E3.98101
G1 X157.227 Y134.296 E4.06281
G1 X156.168 Y133.730 E4.14456
G1 X155.237 Y132.971 E4.22639
G1 X154.480 Y132.042 E4.30800
G1 X153.915 Y130.982 E4.38976
G1 X153.564 Y129.836 E4.47136
G1 X153.449 Y128.644 E4.55290
G1 X153.565 Y127.447 E4.63479
G1 X153.915 Y126.302 E4.71633
G1 X154.480 Y125.245 E4.79797
G1 X155.233 Y124.320 E4.87921
G1 X155.333 Y124.242 E4.88781
G1 X155.918 Y124.389 F7200.000
G1 F1800.000 E3.88781
G92 E0
G1 X142.092 Y125.198 F7200.000
G1 E1.00000 F1800.000
G1 X142.092 Y132.571 E1.50200 F540.000
G1 X140.766 Y132.792 E1.59352
G1 X140.424 Y132.816 E1.61690
G1 X139.673 Y132.855 E1.66812
G1 X138.596 Y132.793 E1.74152
G1 X137.936 Y132.688 E1.78705
G1 X137.810 Y132.577 E1.79852
G1 X137.278 Y132.286 E1.83978
G1 X137.278 Y125.133 E2.32687
G1 X138.194 Y123.988 E2.42670
G1 X139.640 Y123.372 E2.53373
G1 X141.302 Y124.003 E2.65473
G1 X142.046 Y125.129 E2.74662
G1 X141.535 Y125.366 F7200.000
G1 X141.535 Y132.099 E3.20509 F540.000
G1 X140.706 Y132.238 E3.26234
G1 X139.674 Y132.297 E3.33270
G1 X138.654 Y132.238 E3.40228
G1 X138.183 Y132.163 E3.43477
G1 X138.131 Y132.118 E3.43946
G1 X137.835 Y131.956 E3.46243
G1 X137.835 Y125.328 E3.91371
G1 X138.541 Y124.446 E3.99069
G1 X139.652 Y123.973 E4.07290
G1 X140.936 Y124.460 E4.16639
G1 X141.489 Y125.296 E4.23465
G1 X142.062 Y125.546 F7200.000
G1 X142.889 Y124.047 F7200.000
G1 X143.623 Y124.604 E4.29739 F540.000
G1 X144.323 Y125.457 E4.37249
G1 X144.837 Y126.419 E4.44675
G1 X145.153 Y127.470 E4.52151
G1 X145.258 Y128.548 E4.59525
G1 X145.154 Y129.631 E4.66934
G1 X144.834 Y130.688 E4.74452
G1 X144.313 Y131.659 E4.81959
G1 X143.638 Y132.479 E4.89188
G1 X142.867 Y133.100 E4.95931
G1 X142.459 Y133.353 E4.99198
G1 X141.809 Y133.699 E5.04214
G1 X140.774 Y134.014 E5.11583
G1 X139.685 Y134.122 E5.19033
G1 X138.600 Y134.014 E5.26457
G1 X137.536 Y133.692 E5.34026
G1 X136.536 Y133.185 E5.41658
G1 X135.742 Y132.495 E5.48822
G1 X135.039 Y131.639 E5.56366
G1 X134.533 Y130.684 E5.63721
G1 X134.216 Y129.639 E5.71157
G1 X134.108 Y128.561 E5.78540
G1 X134.214 Y127.469 E5.86007
G1 X134.530 Y126.422 E5.93456
G1 X135.050 Y125.447 E6.00982
G1 X135.741 Y124.607 E6.08381
G1 X136.573 Y123.918 E6.15740
G1 X137.549 Y123.399 E6.23264
G1 X138.597 Y123.082 E6.30723
G1 X139.559 Y122.988 E6.37306
G1 X139.565 Y122.962 E6.37487
G1 X140.769 Y123.083 E6.45726
G1 X141.814 Y123.398 E6.53158
G1 X142.713 Y123.915 E6.60215
G1 X142.822 Y123.997 E6.61151
G1 X143.224 Y123.602 F7200.000
G1 X144.022 Y124.212 E6.67986 F540.000
G1 X144.787 Y125.143 E6.76193
G1 X145.353 Y126.203 E6.84378
G1 X145.702 Y127.357 E6.92585
G1 X145.818 Y128.551 E7.00751
G1 X145.702 Y129.745 E7.08919
G1 X145.353 Y130.900 E7.17141
G1 X144.783 Y131.964 E7.25355
G1 X144.027 Y132.884 E7.33464
G1 X143.182 Y133.562 E7.40841
G1 X142.730 Y133.839 E7.44452
G1 X142.026 Y134.215 E7.49885
G1 X140.881 Y134.563 E7.58034
G1 X139.685 Y134.682 E7.66220
G1 X138.490 Y134.563 E7.74396
G1 X137.332 Y134.212 E7.82636
G1 X136.226 Y133.653 E7.91075
G1 X135.345 Y132.889 E7.99012
G1 X134.578 Y131.957 E8.07236
G1 X134.016 Y130.899 E8.15390
G1 X133.667 Y129.747 E8.23585
G1 X133.548 Y128.555 E8.31745
G1 X133.666 Y127.357 E8.39944
G1 X134.015 Y126.204 E8.48142
G1 X134.582 Y125.139 E8.56356
G1 X135.345 Y124.213 E8.64530
G1 X136.202 Y123.502 E8.72112
G1 X136.245 Y123.447 E8.72586
G1 X137.335 Y122.882 E8.80950
G1 X138.485 Y122.533 E8.89130
G1 X139.687 Y122.416 E8.97354
G1 X140.880 Y122.534 E9.05514
G1 X142.031 Y122.881 E9.13703
G1 X143.020 Y123.449 E9.21465
G1 X143.157 Y123.552 E9.22638
G1 X143.154 Y124.155 F7200.000
G1 F1800.000 E8.22638
G92 E0
G1 X142.118 Y110.006 F7200.000
G1 E1.00000 F1800.000
G1 X140.712 Y110.103 E1.09593 F540.000
G1 X139.317 Y110.006 E1.19116
G1 X137.969 Y109.708 E1.28517
G1 X137.194 Y109.418 E1.34148
G1 X136.793 Y109.111 E1.37592
G1 X136.793 Y101.473 E1.89596
G1 X137.173 Y101.182 E1.92852
G1 X137.969 Y100.873 E1.98672
G1 X139.316 Y100.584 E2.08054
G1 X140.713 Y100.483 E2.17586
G1 X142.118 Y100.584 E2.27179
G1 X143.460 Y100.873 E2.36529
G1 X144.006 Y101.083 E2.40509
G1 X144.643 Y101.448 E2.45510
G1 X144.643 Y109.140 E2.97889
G1 X143.994 Y109.512 E3.02984
G1 X143.473 Y109.705 E3.06766
G1 X142.199 Y109.988 E3.15650
G1 X141.898 Y110.518 F7200.000
G1 X142.197 Y110.559 F7200.000
G1 X143.115 Y110.359 E3.22047 F540.000
G1 X143.239 Y110.835 E3.25395
G1 X141.984 Y111.216 E3.34323
G1 X140.714 Y111.338 E3.43011
G1 X139.446 Y111.216 E3.51690
G1 X138.192 Y110.834 E3.60613
G1 X138.314 Y110.362 E3.63936
G1 X139.239 Y110.559 E3.70380
G1 X140.711 Y110.661 E3.80424
G1 X142.114 Y110.564 E3.89998
G1 F1800.000 E2.89998
G92 E0
G1 X145.200 Y109.571 F7200.000
G1 E1.00000 F1800.000
G1 X145.200 Y101.125 E1.57516 F1080.000
G1 X144.264 Y100.589 E1.64861
G1 X143.618 Y100.337 E1.69579
G1 X142.197 Y100.031 E1.79478
G1 X140.712 Y99.924 E1.89620
G1 X139.237 Y100.031 E1.99687
G1 X137.810 Y100.338 E2.09625
G1 X136.880 Y100.705 E2.16436
G1 X136.236 Y101.199 E2.21960
G1 X136.236 Y109.571 E2.78968
G1 X135.311 Y108.448 E2.88874
G1 X134.711 Y107.325 E2.97542
G1 X134.341 Y106.109 E3.06197
G1 X134.219 Y104.842 E3.14866
G1 X134.341 Y103.574 E3.23540
G1 X134.712 Y102.353 E3.32228
G1 X135.311 Y101.229 E3.40905
G1 X136.110 Y100.255 E3.49480
G1 X136.915 Y99.717 E3.56075
G1 X139.447 Y98.944 E3.74098
G1 X140.713 Y98.816 E3.82766
G1 X141.984 Y98.944 E3.91460
G1 X144.500 Y99.712 E4.09377
G1 X145.341 Y100.275 E4.16263
G1 X146.119 Y101.223 E4.24619
G1 X146.720 Y102.353 E4.33333
G1 X147.093 Y103.573 E4.42016
G1 X147.215 Y104.842 E4.50698
G1 X147.093 Y106.109 E4.59365
G1 X146.720 Y107.326 E4.68036
G1 X146.119 Y108.449 E4.76706
G1 X145.253 Y109.507 E4.86015
G1 X145.718 Y109.818 F7200.000
G1 X143.405 Y111.366 E5.04970 F540.000
G1 X142.093 Y111.765 E5.14308
G1 X140.714 Y111.898 E5.23747
G1 X139.337 Y111.765 E5.33164
G1 X138.026 Y111.366 E5.42491
G1 X135.718 Y109.818 E5.61419
G1 X134.845 Y108.759 E5.70760
G1 X134.195 Y107.540 E5.80171
G1 X133.792 Y106.218 E5.89581
G1 X133.659 Y104.842 E5.98995
G1 X133.791 Y103.464 E6.08422
G1 X134.195 Y102.139 E6.17850
G1 X134.846 Y100.918 E6.27273
G1 X135.731 Y99.837 E6.36787
G1 X137.597 Y98.592 E6.52063
G1 X137.597 Y98.926 E6.54342
G1 X139.337 Y98.395 E6.66732
G1 X140.713 Y98.257 E6.76148
G1 X142.093 Y98.395 E6.85592
G1 X143.835 Y98.926 E6.97992
G1 X143.835 Y98.599 E7.00223
G1 X145.719 Y99.857 E7.15651
G1 X146.585 Y100.913 E7.24945
G1 X147.237 Y102.139 E7.34406
G1 X147.642 Y103.463 E7.43835
G1 X147.775 Y104.842 E7.53265
G1 X147.642 Y106.218 E7.62679
G1 X147.237 Y107.541 E7.72097
G1 X146.585 Y108.760 E7.81512
G1 X145.771 Y109.753 E7.90253
G1 X145.197 Y109.622 F7200.000
G1 F1800.000 E6.90253
G92 E0
G1 X155.511 Y107.628 F7200.000
G1 E1.00000 F1800.000
G1 X155.511 Y99.904 E1.52593 F540.000
G1 X156.045 Y99.627 E1.56686
G1 X156.799 Y99.339 E1.62184
G1 X158.158 Y99.045 E1.71649
G1 X159.556 Y98.943 E1.81198
G1 X160.953 Y99.045 E1.90734
G1 X162.301 Y99.337 E2.00129
G1 X162.815 Y99.528 E2.03857
G1 X163.527 Y99.907 E2.09350
G1 X163.527 Y107.624 E2.61901
G1 X162.812 Y108.004 E2.67413
G1 X162.299 Y108.197 E2.71143
G1 X160.954 Y108.487 E2.80513
G1 X159.555 Y108.589 E2.90066
G1 X158.157 Y108.487 E2.99612
G1 X156.811 Y108.197 E3.08985
G1 X156.063 Y107.908 E3.14444
G1 X155.586 Y107.665 E3.18092
G1 X154.961 Y107.541 F7200.000
G1 X154.954 Y107.969 F7200.000
G1 X155.836 Y108.418 E3.24829 F1080.000
G1 X156.651 Y108.733 E3.30779
G1 X158.077 Y109.040 E3.40708
G1 X159.552 Y109.147 E3.50781
G1 X161.034 Y109.040 E3.60898
G1 X162.458 Y108.733 E3.70818
G1 X163.035 Y108.515 E3.75018
G1 X164.084 Y107.959 E3.83103
G1 X164.084 Y99.539 E4.40435
G1 X164.952 Y100.597 E4.49757
G1 X165.553 Y101.717 E4.58411
G1 X165.920 Y102.938 E4.67088
G1 X166.049 Y104.206 E4.75770
G1 X165.920 Y105.472 E4.84436
G1 X165.553 Y106.689 E4.93092
G1 X164.962 Y107.799 E5.01658
G1 X164.084 Y108.871 E5.11091
G1 X164.084 Y108.829 E5.11378
G1 X163.405 Y109.310 E5.17041
G1 X160.821 Y110.095 E5.35431
G1 X159.557 Y110.217 E5.44076
G1 X158.289 Y110.090 E5.52755
G1 X155.630 Y109.292 E5.71656
G1 X154.957 Y108.782 E5.77408
G1 X154.159 Y107.811 E5.85968
G1 X153.561 Y106.684 E5.94655
G1 X153.190 Y105.471 E6.03293
G1 X153.068 Y104.206 E6.11942
G1 X153.190 Y102.938 E6.20621
G1 X153.560 Y101.718 E6.29302
G1 X154.159 Y100.596 E6.37963
G1 X154.954 Y99.631 E6.46475
G1 X154.954 Y107.886 E7.02685
G1 F1800.000 E6.02685
G92 E0
G1 X157.219 Y98.677 F7200.000
G1 E1.00000 F1800.000
G1 X157.096 Y98.201 E1.03350 F540.000
G1 X158.290 Y97.840 E1.11845
G1 X159.558 Y97.715 E1.20519
G1 X160.821 Y97.840 E1.29162
G1 X162.017 Y98.200 E1.37667
G1 X161.896 Y98.674 E1.40997
G1 X161.031 Y98.492 E1.47018
G1 X159.556 Y98.385 E1.57088
G1 X158.079 Y98.492 E1.67170
G1 X157.300 Y98.659 E1.72594
G1 X156.872 Y97.686 F7200.000
G1 X158.181 Y97.291 E1.81904 F540.000
G1 X159.557 Y97.155 E1.91323
G1 X160.930 Y97.291 E2.00714
G1 X162.249 Y97.688 E2.10092
G1 X163.059 Y98.185 E2.16564
G1 X164.550 Y99.229 E2.28957
G1 X165.417 Y100.286 E2.38269
G1 X166.071 Y101.503 E2.47674
G1 X166.469 Y102.829 E2.57103
G1 X166.609 Y104.206 E2.66526
G1 X166.469 Y105.581 E2.75936
G1 X166.071 Y106.903 E2.85341
G1 X165.417 Y108.122 E2.94759
G1 X164.549 Y109.182 E3.04087
G1 X162.670 Y110.523 E3.19811
G1 X162.670 Y110.115 E3.22588
G1 X160.930 Y110.644 E3.34969
G1 X159.557 Y110.777 E3.44360
G1 X158.180 Y110.638 E3.53781
G1 X156.443 Y110.117 E3.66135
G1 X156.443 Y110.498 E3.68726
