; generated by Slic3r 1.0.0RC2 on 2014-05-05 at 11:03:54

; layer_height = 0.3
; perimeters = 3
; top_solid_layers = 3
; bottom_solid_layers = 3
; fill_density = 0.20
; perimeter_speed = 60
; infill_speed = 60
; travel_speed = 120
; nozzle_diameter = 0.4
; filament_diameter = 1.75
; extrusion_multiplier = 0.98
; perimeters extrusion width = 0.40mm
; infill extrusion width = 0.42mm
; solid infill extrusion width = 0.42mm
; top infill extrusion width = 0.42mm
; first layer extrusion width = 0.80mm

G21 ; set units to millimeters
M107
M104 S220 ; set temperature
G28 ; home all axes
M106 S255;
G1 Z200 F1200 ; lift nozzle
M109 S220 ; wait for temperature to be reached
G90 ; use absolute coordinates
G92 E0
M82 ; use absolute distances for extrusion
G1 F1800.000 E-1.00000
G92 E0
G1 Z0.400 F7200.000
G1 X148.632 Y42.121 F7200.000
G1 E1.00000 F1800.000
G1 X149.442 Y40.941 E1.16658 F1080.000
G1 X150.492 Y39.951 E1.33455
G1 X151.732 Y39.221 E1.50202
G1 X153.102 Y38.761 E1.67023
G1 X154.532 Y38.611 E1.83758
G1 X163.252 Y38.611 E2.85250
G1 X163.842 Y38.631 E2.92121
G1 X164.432 Y38.711 E2.99051
G1 X191.632 Y43.561 E6.20624
G1 X193.022 Y43.971 E6.37492
G1 X194.292 Y44.661 E6.54314
G1 X195.392 Y45.621 E6.71307
G1 X196.252 Y46.781 E6.88114
G1 X196.842 Y48.111 E7.05048
G1 X201.002 Y61.011 E8.62805
G1 X201.282 Y62.341 E8.78624
G1 X201.292 Y63.701 E8.94454
G1 X197.622 Y102.441 E13.47367
G1 X191.302 Y149.091 E18.95286
G1 X190.962 Y150.481 E19.11941
G1 X190.332 Y151.771 E19.28650
G1 X189.452 Y152.891 E19.45228
G1 X173.302 Y169.371 E22.13787
G1 X172.272 Y170.221 E22.29330
G1 X171.102 Y170.861 E22.44852
G1 X169.832 Y171.251 E22.60315
G1 X168.502 Y171.381 E22.75868
G1 X122.052 Y171.381 E28.16499
G1 X120.772 Y171.261 E28.31462
G1 X119.542 Y170.901 E28.46379
G1 X118.402 Y170.301 E28.61373
G1 X117.392 Y169.511 E28.76297
G1 X116.562 Y168.531 E28.91245
G1 X115.922 Y167.411 E29.06258
G1 X101.482 Y135.131 E33.17843
G1 X101.142 Y134.191 E33.29477
G1 X100.862 Y132.871 E33.45183
G1 X100.852 Y131.511 E33.61012
G1 X101.112 Y130.191 E33.76671
G1 X101.632 Y128.941 E33.92428
G1 X148.581 Y42.215 E45.40245
G1 F1800.000 E44.40245
G92 E0
G1 X170.339 Y74.799 F7200.000
G1 E1.00000 F1800.000
G1 X170.626 Y74.648 E1.03774 F540.000
G1 X170.934 Y74.552 E1.07528
G1 X171.258 Y74.523 E1.11315
G1 X171.580 Y74.552 E1.15078
G1 X171.888 Y74.648 E1.18830
G1 X172.175 Y74.799 E1.22604
G1 X172.425 Y75.010 E1.26413
G1 X172.630 Y75.257 E1.30146
G1 X172.783 Y75.544 E1.33929
G1 X172.878 Y75.849 E1.37651
G1 X172.910 Y76.175 E1.41464
G1 X172.878 Y76.499 E1.45247
G1 X172.783 Y76.806 E1.48998
G1 X172.630 Y77.091 E1.52754
G1 X172.424 Y77.341 E1.56526
G1 X172.175 Y77.546 E1.60283
G1 X171.889 Y77.702 E1.64068
G1 X171.580 Y77.795 E1.67828
G1 X171.258 Y77.827 E1.71593
G1 X170.934 Y77.795 E1.75383
G1 X170.625 Y77.702 E1.79145
G1 X169.633 Y77.160 E1.92297
G1 X169.475 Y77.316 E1.94881
G1 X170.641 Y79.548 E2.24193
G1 X170.720 Y84.102 E2.77209
G1 X167.489 Y84.301 E3.14889
G1 X167.567 Y80.575 E3.58267
G1 X165.978 Y77.584 E3.97688
G1 X168.834 Y76.089 E4.35201
G1 X169.308 Y76.996 E4.47116
G1 X169.537 Y76.951 E4.49837
G1 X169.635 Y75.851 E4.62694
G1 X169.731 Y75.544 E4.66434
G1 X169.884 Y75.257 E4.70217
G1 X170.089 Y75.010 E4.73950
G1 X170.257 Y74.868 E4.76513
G1 X170.328 Y74.475 F7200.000
G1 F1800.000 E3.76513
G92 E0
G1 X166.443 Y79.820 F7200.000
G1 E1.00000 F1800.000
G1 X161.752 Y85.553 E1.86216 F756.000
G1 X150.803 Y76.512 E3.51489
G1 X155.493 Y70.779 E4.37705
G1 X166.360 Y79.752 E6.01731
G1 X166.995 Y80.273 F7200.000
G1 X162.328 Y85.797 F7200.000
G1 X176.524 Y87.106 F7200.000
G1 X190.678 Y88.246 E7.67004 F756.000
G1 X190.082 Y95.648 E8.53434
G1 X175.927 Y94.506 E10.18708
G1 X176.515 Y87.213 E11.03872
G1 X176.581 Y86.394 F7200.000
G1 X129.224 Y139.491 F7200.000
G1 X129.611 Y139.957 E11.10915 F540.000
G1 X129.883 Y140.481 E11.17792
G1 X130.066 Y141.047 E11.24712
G1 X130.127 Y141.667 E11.31966
G1 X130.066 Y142.287 E11.39219
G1 X129.882 Y142.853 E11.46144
G1 X129.617 Y143.365 E11.52854
G1 X129.224 Y143.854 E11.60154
G1 X128.742 Y144.243 E11.67363
G1 X128.223 Y144.515 E11.74188
G1 X127.648 Y144.698 E11.81203
G1 X127.041 Y144.753 E11.88304
G1 X126.431 Y144.698 E11.95435
G1 X125.852 Y144.514 E12.02502
G1 X125.348 Y144.247 E12.09142
G1 X124.855 Y143.861 E12.16432
G1 X124.461 Y143.365 E12.23805
G1 X124.184 Y142.840 E12.30711
G1 X124.012 Y142.266 E12.37689
G1 X123.953 Y141.667 E12.44691
G1 X124.012 Y141.068 E12.51695
G1 X124.184 Y140.494 E12.58672
G1 X124.467 Y139.957 E12.65736
G1 X124.854 Y139.484 E12.72856
G1 X125.332 Y139.095 E12.80029
G1 X125.871 Y138.810 E12.87121
G1 X126.431 Y138.646 E12.93905
G1 X127.041 Y138.577 E13.01054
G1 X127.648 Y138.647 E13.08167
G1 X128.203 Y138.809 E13.14903
G1 X128.758 Y139.099 E13.22184
G1 X129.142 Y139.422 E13.28027
G1 X128.716 Y139.996 F7200.000
G1 X129.012 Y140.354 E13.33430 F540.000
G1 X129.221 Y140.758 E13.38727
G1 X129.363 Y141.194 E13.44062
G1 X129.410 Y141.667 E13.49597
G1 X129.363 Y142.140 E13.55132
G1 X129.221 Y142.577 E13.60471
G1 X129.016 Y142.973 E13.65666
G1 X128.715 Y143.346 E13.71246
G1 X128.348 Y143.643 E13.76738
G1 X127.947 Y143.853 E13.82016
G1 X127.506 Y143.994 E13.87397
G1 X127.040 Y144.036 E13.92839
G1 X126.573 Y143.994 E13.98307
G1 X126.129 Y143.852 E14.03721
G1 X125.738 Y143.646 E14.08877
G1 X125.361 Y143.351 E14.14440
G1 X125.061 Y142.973 E14.20059
G1 X124.848 Y142.569 E14.25378
G1 X124.716 Y142.127 E14.30741
G1 X124.671 Y141.667 E14.36123
G1 X124.716 Y141.207 E14.41505
G1 X124.848 Y140.765 E14.46867
G1 X125.065 Y140.354 E14.52283
G1 X125.361 Y139.992 E14.57726
G1 X125.728 Y139.693 E14.63235
G1 X126.141 Y139.475 E14.68667
G1 X126.573 Y139.349 E14.73900
G1 X127.041 Y139.296 E14.79383
G1 X127.506 Y139.349 E14.84834
G1 X127.935 Y139.475 E14.90038
G1 X128.358 Y139.696 E14.95593
G1 X128.634 Y139.928 E14.99783
G1 X128.207 Y140.502 F7200.000
G1 X128.413 Y140.751 E15.03546 F540.000
G1 X128.560 Y141.034 E15.07263
G1 X128.660 Y141.341 E15.11013
G1 X128.692 Y141.667 E15.14830
G1 X128.660 Y141.993 E15.18646
G1 X128.560 Y142.300 E15.22398
G1 X128.415 Y142.581 E15.26078
G1 X128.207 Y142.839 E15.29939
G1 X127.955 Y143.043 E15.33714
G1 X127.671 Y143.192 E15.37444
G1 X127.364 Y143.289 E15.41193
G1 X127.040 Y143.319 E15.44974
G1 X126.715 Y143.290 E15.48780
G1 X126.407 Y143.191 E15.52541
G1 X126.128 Y143.044 E15.56213
G1 X125.868 Y142.841 E15.60049
G1 X125.662 Y142.581 E15.63915
G1 X125.512 Y142.297 E15.67646
G1 X125.420 Y141.989 E15.71394
G1 X125.388 Y141.667 E15.75155
G1 X125.420 Y141.345 E15.78917
G1 X125.512 Y141.037 E15.82664
G1 X125.663 Y140.751 E15.86430
G1 X125.868 Y140.500 E15.90197
G1 X126.124 Y140.292 E15.94042
G1 X126.411 Y140.140 E15.97814
G1 X126.715 Y140.052 E16.01497
G1 X127.040 Y140.014 E16.05312
G1 X127.364 Y140.052 E16.09101
G1 X127.666 Y140.140 E16.12773
G1 X127.958 Y140.293 E16.16603
G1 X128.125 Y140.433 E16.19140
G1 X128.522 Y140.429 F7200.000
G1 X166.584 Y144.344 F7200.000
G1 X166.679 Y144.033 E16.22932 F540.000
G1 X166.833 Y143.745 E16.26724
G1 X167.040 Y143.498 E16.30477
G1 X167.288 Y143.297 E16.34194
G1 X167.570 Y143.144 E16.37928
G1 X167.880 Y143.045 E16.41721
G1 X168.204 Y143.015 E16.45502
G1 X168.508 Y143.043 E16.49052
G1 X168.834 Y143.141 E16.53013
G1 X169.079 Y143.269 E16.56239
G1 X169.363 Y143.493 E16.60439
G1 X169.577 Y143.749 E16.64328
G1 X169.731 Y144.031 E16.68065
G1 X169.826 Y144.344 E16.71877
G1 X169.858 Y144.665 E16.75626
G1 X169.826 Y144.988 E16.79403
G1 X169.731 Y145.301 E16.83213
G1 X169.577 Y145.582 E16.86943
G1 X169.416 Y145.787 E16.89982
G1 X169.118 Y146.044 E16.94558
G1 X168.825 Y146.195 E16.98397
G1 X168.531 Y146.290 E17.01991
G1 X168.204 Y146.316 E17.05809
G1 X167.882 Y146.290 E17.09569
G1 X167.573 Y146.191 E17.13347
G1 X167.288 Y146.041 E17.17087
G1 X167.038 Y145.833 E17.20881
G1 X166.833 Y145.586 E17.24622
G1 X166.679 Y145.299 E17.28402
G1 X166.584 Y144.988 E17.32196
G1 X166.552 Y144.665 E17.35971
G1 X166.573 Y144.451 E17.38474
G1 X166.346 Y144.121 F7200.000
G1 X165.176 Y144.063 F7200.000
G1 X165.117 Y144.664 E17.45510 F1080.000
G1 X165.176 Y145.269 E17.52576
G1 X165.354 Y145.851 E17.59664
G1 X165.642 Y146.387 E17.66751
G1 X166.023 Y146.847 E17.73697
G1 X166.490 Y147.235 E17.80764
G1 X166.678 Y147.334 E17.83236
G1 X166.678 Y162.848 E19.63798
G1 X163.460 Y162.848 E20.01245
G1 X163.458 Y146.365 E21.93090
G1 X135.894 Y146.364 E25.13901
G1 X127.112 Y146.365 E26.16120
G1 X127.112 Y162.848 E28.07964
G1 X123.886 Y162.848 E28.45504
G1 X123.886 Y144.539 E30.58596
G1 X109.887 Y131.976 E32.77523
G1 X111.605 Y129.530 E33.12314
G1 X113.971 Y131.481 E33.48001
G1 X122.174 Y138.172 E34.71210
G1 X130.135 Y128.812 E36.14225
G1 X137.810 Y119.526 E37.54437
G1 X149.572 Y105.139 E39.70729
G1 X157.472 Y95.584 E41.15031
G1 X164.013 Y87.586 E42.35289
G1 X162.773 Y86.562 E42.54009
G1 X165.926 Y82.707 E43.11972
G1 X166.092 Y82.768 E43.14031
G1 X166.028 Y85.822 E43.49588
G1 X172.172 Y85.443 E44.21231
G1 X172.062 Y79.142 E44.94588
G1 X172.444 Y79.026 E44.99229
G1 X172.977 Y78.735 E45.06302
G1 X173.439 Y78.356 E45.13259
G1 X173.822 Y77.889 E45.20286
G1 X174.106 Y77.361 E45.27261
G1 X174.285 Y76.783 E45.34309
G1 X174.345 Y76.176 E45.41411
G1 X174.285 Y75.563 E45.48570
G1 X173.999 Y74.649 E45.59719
G1 X175.657 Y74.837 E45.79139
G1 X177.341 Y63.217 E47.15797
G1 X182.801 Y63.748 E47.79640
G1 X183.970 Y51.372 E49.24319
G1 X188.465 Y51.816 E49.76882
G1 X187.285 Y64.198 E51.21645
G1 X192.626 Y64.718 E51.84097
G1 X190.532 Y86.801 E54.42276
G1 X175.215 Y85.567 E56.21133
G1 X174.389 Y95.814 E57.40784
G1 X189.563 Y97.037 E59.17962
G1 X189.322 Y99.577 E59.47661
G1 X173.550 Y98.269 E61.31866
G1 X170.350 Y132.628 E65.33493
G1 X184.410 Y133.798 E66.97701
G1 X183.020 Y146.365 E68.44852
G1 X170.777 Y146.365 E69.87341
G1 X171.054 Y145.857 E69.94070
G1 X171.234 Y145.269 E70.01228
G1 X171.293 Y144.664 E70.08301
G1 X171.234 Y144.063 E70.15332
G1 X171.054 Y143.474 E70.22501
G1 X170.772 Y142.957 E70.29356
G1 X170.524 Y142.646 E70.33984
G1 X170.343 Y142.449 E70.37098
G1 X170.005 Y142.174 E70.42167
G1 X169.827 Y142.048 E70.44707
G1 X169.375 Y141.812 E70.50640
G1 X168.781 Y141.633 E70.57864
G1 X168.203 Y141.581 E70.64609
G1 X167.596 Y141.636 E70.71709
G1 X167.005 Y141.824 E70.78922
G1 X166.490 Y142.106 E70.85761
G1 X166.034 Y142.475 E70.92586
G1 X165.644 Y142.940 E70.99649
G1 X165.354 Y143.481 E71.06792
G1 X165.208 Y143.960 E71.12625
G1 X165.880 Y144.203 F7200.000
G1 X165.835 Y144.665 E71.18018 F1080.000
G1 X165.880 Y145.128 E71.23439
G1 X166.016 Y145.575 E71.28880
G1 X166.237 Y145.986 E71.34313
G1 X166.530 Y146.340 E71.39657
G1 X166.889 Y146.638 E71.45087
G1 X167.392 Y146.903 E71.51703
G1 X167.392 Y163.562 E73.45590
G1 X162.746 Y163.562 E73.99661
G1 X162.744 Y147.079 E75.91505
G1 X135.894 Y147.079 E79.04008
G1 X127.826 Y147.079 E79.97914
G1 X127.826 Y163.562 E81.89759
G1 X123.172 Y163.562 E82.43922
G1 X123.172 Y144.858 E84.61617
G1 X108.938 Y132.085 E86.84212
G1 X111.464 Y128.489 E87.35356
G1 X114.437 Y130.939 E87.80196
G1 X122.084 Y137.175 E88.95048
G1 X129.585 Y128.357 E90.29793
G1 X137.258 Y119.073 E91.69983
G1 X149.020 Y104.685 E93.86277
G1 X156.921 Y95.130 E95.30574
G1 X163.011 Y87.684 E96.42538
G1 X161.770 Y86.660 E96.61259
G1 X166.684 Y80.653 E97.51581
G1 X166.850 Y80.714 E97.53640
G1 X166.759 Y85.062 E98.04253
G1 X171.446 Y84.773 E98.58914
G1 X171.352 Y79.367 E99.21846
G1 X170.939 Y78.576 E99.32230
G1 X171.719 Y78.499 E99.41361
G1 X172.167 Y78.364 E99.46798
G1 X172.576 Y78.141 E99.52226
G1 X172.932 Y77.849 E99.57584
G1 X173.226 Y77.490 E99.62983
G1 X173.444 Y77.084 E99.68348
G1 X173.582 Y76.641 E99.73748
G1 X173.627 Y76.175 E99.79191
G1 X173.582 Y75.706 E99.84677
G1 X173.444 Y75.267 E99.90035
G1 X173.226 Y74.857 E99.95439
G1 X172.934 Y74.505 E100.00763
G1 X172.275 Y73.950 E100.10785
G1 X172.364 Y73.745 E100.13386
G1 X175.050 Y74.050 E100.44849
G1 X176.732 Y62.441 E101.81378
G1 X182.158 Y62.968 E102.44821
G1 X183.330 Y50.592 E103.89505
G1 X189.243 Y51.175 E104.58666
G1 X188.064 Y63.556 E106.03421
G1 X193.404 Y64.076 E106.65871
G1 X191.177 Y87.570 E109.40536
G1 X175.869 Y86.337 E111.19278
G1 X175.158 Y95.160 E112.22309
G1 X190.342 Y96.386 E113.99604
G1 X189.967 Y100.348 E114.45914
G1 X174.195 Y99.040 E116.30108
G1 X171.128 Y131.976 E120.15113
G1 X185.200 Y133.148 E121.79466
G1 X183.659 Y147.079 E123.42600
G1 X168.991 Y147.079 E125.13318
G1 X169.950 Y146.263 E125.27974
G1 X170.175 Y145.977 E125.32208
G1 X170.392 Y145.579 E125.37484
G1 X170.530 Y145.128 E125.42968
G1 X170.576 Y144.664 E125.48393
G1 X170.530 Y144.204 E125.53783
G1 X170.392 Y143.752 E125.59274
G1 X170.174 Y143.353 E125.64570
G1 X169.853 Y142.971 E125.70382
G1 X169.453 Y142.659 E125.76285
G1 X169.104 Y142.477 E125.80864
G1 X168.644 Y142.338 E125.86457
G1 X168.204 Y142.298 E125.91605
G1 X167.738 Y142.340 E125.97046
G1 X167.288 Y142.484 E126.02548
G1 X166.889 Y142.702 E126.07835
G1 X166.537 Y142.987 E126.13106
G1 X166.239 Y143.343 E126.18514
G1 X166.016 Y143.757 E126.23981
G1 X165.911 Y144.101 E126.28171
G1 F1800.000 E125.28171
G92 E0
G1 X173.940 Y103.014 F7200.000
G1 X176.462 Y63.511 F7200.000
G1 X173.231 Y64.887 F7200.000
G1 X170.318 Y68.263 F7200.000
G1 X167.318 Y71.263 F7200.000
G1 X164.783 Y76.597 F7200.000
G1 E1.00000 F1800.000
G1 X155.296 Y68.764 E2.43197 F1080.000
G1 X151.230 Y73.734 E3.17936
G1 X151.244 Y60.793 E4.68555
G1 X156.370 Y60.793 E5.28217
G1 X156.370 Y47.149 E6.87020
G1 X161.432 Y47.149 E7.45929
G1 X161.432 Y60.793 E9.04732
G1 X166.490 Y60.793 E9.63603
G1 X166.490 Y73.798 E11.14960
G1 X169.113 Y74.095 E11.45683
G1 X169.153 Y74.310 E11.48222
G1 X164.878 Y76.548 E12.04381
G1 X164.694 Y77.450 F7200.000
G1 X155.394 Y69.771 E13.44747 F1080.000
G1 X150.514 Y75.738 E14.34465
G1 X150.531 Y60.079 E16.16716
G1 X155.656 Y60.079 E16.76369
G1 X155.656 Y46.435 E18.35171
G1 X162.146 Y46.435 E19.10705
G1 X162.146 Y60.079 E20.69508
G1 X167.204 Y60.079 E21.28379
G1 X167.204 Y73.160 E22.80625
G1 X170.718 Y73.558 E23.21783
G1 X170.758 Y73.771 E23.24299
G1 X169.938 Y74.204 E23.35087
G1 X169.580 Y74.505 E23.40534
G1 X169.288 Y74.857 E23.45859
G1 X169.149 Y75.117 E23.49291
G1 X164.789 Y77.400 E24.06576
G1 X167.918 Y72.522 F7200.000
G1 X174.442 Y73.262 E24.82997 F756.000
G1 X176.123 Y61.664 E26.19398
G1 X181.514 Y62.188 E26.82440
G1 X182.688 Y49.812 E28.27129
G1 X190.022 Y50.534 E29.12905
G1 X188.842 Y62.914 E30.57652
G1 X194.182 Y63.434 E31.20100
G1 X190.611 Y101.118 E35.60659
G1 X174.841 Y99.810 E37.44843
G1 X171.906 Y131.324 E41.13225
G1 X185.991 Y132.497 E42.77722
G1 X184.299 Y147.793 E44.56840
G1 X168.106 Y147.793 E46.45305
G1 X168.106 Y164.276 E48.37150
G1 X162.032 Y164.276 E49.07845
G1 X162.030 Y147.793 E50.99690
G1 X128.540 Y147.793 E54.89477
G1 X128.540 Y164.276 E56.81321
G1 X122.458 Y164.276 E57.52109
G1 X122.458 Y145.177 E59.74407
G1 X107.989 Y132.193 E62.00670
G1 X111.323 Y127.447 E62.68167
G1 X114.903 Y130.397 E63.22159
G1 X121.994 Y136.179 E64.28656
G1 X129.075 Y127.852 E65.55878
G1 X136.707 Y118.619 E66.95297
G1 X148.469 Y104.231 E69.11593
G1 X156.369 Y94.677 E70.55885
G1 X162.008 Y87.782 E71.59556
G1 X149.797 Y77.700 E73.43857
G1 X149.818 Y59.365 E75.57257
G1 X154.942 Y59.365 E76.16901
G1 X154.942 Y45.721 E77.75703
G1 X162.860 Y45.721 E78.67860
G1 X162.860 Y59.365 E80.26663
G1 X167.918 Y59.365 E80.85535
G1 X167.918 Y72.415 E82.37424
G1 X167.864 Y73.234 F7200.000
G1 F1800.000 E81.37424
G92 E0
G1 X157.171 Y71.386 F7200.000
G1 X155.824 Y74.165 F7200.000
G1 X159.874 Y80.890 F7200.000
G1 X162.328 Y85.797 F7200.000
G1 X166.910 Y83.292 F7200.000
G1 X165.571 Y84.629 F7200.000
G1 E1.00000 F1800.000
G1 X165.244 Y84.302 E1.05393 F1080.000
G1 X164.789 Y84.859 E1.13789
G1 X165.550 Y85.620 E1.26357
G1 X166.223 Y86.293 F7200.000
G1 X174.043 Y94.113 E2.55389 F1080.000
G1 X173.967 Y95.050 E2.66359
G1 X164.333 Y85.416 E4.25337
G1 X163.878 Y85.973 E4.33733
G1 X175.885 Y97.979 E6.31868
G1 X174.780 Y97.888 E6.44795
G1 X164.565 Y87.672 E8.13368
G1 X164.109 Y88.229 E8.21764
G1 X173.676 Y97.796 E9.79634
G1 X173.072 Y98.204 E9.88145
G1 X163.654 Y88.786 E11.43557
G1 X163.198 Y89.343 E11.51953
G1 X172.986 Y99.131 E13.13458
G1 X172.899 Y100.057 E13.24313
G1 X162.743 Y89.900 E14.91912
