; generated by Slic3r 1.0.0RC3 on 2014-03-11 at 09:54:40

; layer_height = 0.3
; perimeters = 2
; top_solid_layers = 3
; bottom_solid_layers = 3
; fill_density = 0.1
; perimeter_speed = 60
; infill_speed = 60
; travel_speed = 120
; nozzle_diameter = 0.4
; filament_diameter = 1.75
; extrusion_multiplier = 0.98
; perimeters extrusion width = 0.40mm
; infill extrusion width = 0.42mm
; solid infill extrusion width = 0.42mm
; top infill extrusion width = 0.42mm
; first layer extrusion width = 0.60mm

G21 ; set units to millimeters
M107
M104 S220 ; set temperature
G28 ; home all axes
M106 S255;
G1 Z200 F1200 ; lift nozzle
M109 S220 ; wait for temperature to be reached
G90 ; use absolute coordinates
G92 E0
M82 ; use absolute distances for extrusion
G1 F1800.000 E-1.00000
G92 E0
G1 Z0.300 F7200.000
G1 X124.796 Y69.021 F7200.000
G1 E1.00000 F1800.000
G1 X125.126 Y68.461 E1.04426 F1080.000
G1 X125.516 Y67.931 E1.08907
G1 X126.466 Y66.781 E1.19064
G1 X126.886 Y66.321 E1.23305
G1 X127.346 Y65.901 E1.27547
G1 X128.496 Y64.951 E1.37703
G1 X129.036 Y64.561 E1.42239
G1 X129.606 Y64.221 E1.46758
G1 X130.926 Y63.521 E1.56932
G1 X131.496 Y63.251 E1.61227
G1 X132.096 Y63.031 E1.65579
G1 X133.516 Y62.601 E1.75681
G1 X134.126 Y62.451 E1.79959
G1 X134.746 Y62.361 E1.84225
G1 X136.256 Y62.201 E1.94564
G1 X136.946 Y62.171 E1.99267
G1 X162.606 Y62.381 E3.73998
G1 X163.176 Y62.411 E3.77885
G1 X164.656 Y62.551 E3.88007
G1 X165.326 Y62.651 E3.92620
G1 X165.976 Y62.821 E3.97195
G1 X167.396 Y63.261 E4.07317
G1 X167.986 Y63.471 E4.11582
G1 X168.546 Y63.741 E4.15815
G1 X169.856 Y64.441 E4.25929
G1 X170.406 Y64.761 E4.30262
G1 X170.916 Y65.141 E4.34592
G1 X172.066 Y66.081 E4.44706
G1 X172.536 Y66.511 E4.49044
G1 X172.976 Y66.981 E4.53428
G1 X173.926 Y68.131 E4.63585
G1 X174.326 Y68.671 E4.68160
G1 X174.666 Y69.251 E4.72738
G1 X175.356 Y70.561 E4.82820
G1 X175.616 Y71.121 E4.87024
G1 X175.826 Y71.691 E4.91161
G1 X176.266 Y73.121 E5.01348
G1 X176.426 Y73.751 E5.05774
G1 X176.516 Y74.391 E5.10175
G1 X176.666 Y75.871 E5.20304
G1 X176.696 Y76.301 E5.23239
G1 X177.646 Y103.771 E7.10401
G1 X177.646 Y104.251 E7.13670
G1 X176.496 Y134.741 E9.21431
G1 X176.306 Y136.721 E9.34975
G1 X176.216 Y137.341 E9.39241
G1 X176.066 Y137.941 E9.43452
G1 X175.616 Y139.441 E9.54116
G1 X175.386 Y140.081 E9.58747
G1 X175.096 Y140.691 E9.63346
G1 X174.346 Y142.071 E9.74041
G1 X174.036 Y142.591 E9.78163
G1 X173.676 Y143.071 E9.82249
G1 X172.686 Y144.291 E9.92947
G1 X172.246 Y144.791 E9.97482
G1 X171.746 Y145.231 E10.02017
G1 X170.536 Y146.221 E10.12663
G1 X170.036 Y146.601 E10.16939
G1 X169.496 Y146.921 E10.21213
G1 X168.106 Y147.671 E10.31968
G1 X167.506 Y147.961 E10.36506
G1 X166.876 Y148.181 E10.41049
G1 X165.376 Y148.631 E10.51713
G1 X164.776 Y148.781 E10.55924
G1 X164.166 Y148.871 E10.60123
G1 X162.606 Y149.031 E10.70801
G1 X161.906 Y149.071 E10.75575
G1 X137.096 Y148.961 E12.44514
G1 X136.496 Y148.931 E12.48605
G1 X134.936 Y148.781 E12.59276
G1 X134.286 Y148.681 E12.63754
G1 X133.656 Y148.521 E12.68180
G1 X132.146 Y148.061 E12.78929
G1 X131.106 Y147.651 E12.86541
G1 X129.656 Y146.921 E12.97595
G1 X128.946 Y146.501 E13.03212
G1 X128.296 Y146.011 E13.08755
G1 X127.136 Y145.001 E13.19228
G1 X126.396 Y144.231 E13.26500
G1 X125.396 Y143.021 E13.37189
G1 X124.996 Y142.491 E13.41710
G1 X124.656 Y141.921 E13.46229
G1 X123.916 Y140.531 E13.56952
G1 X123.646 Y139.961 E13.61246
G1 X123.436 Y139.361 E13.65575
G1 X122.976 Y137.851 E13.76324
G1 X122.816 Y137.221 E13.80750
G1 X122.716 Y136.571 E13.85228
G1 X122.566 Y135.011 E13.95899
G1 X122.536 Y134.361 E14.00330
G1 X122.736 Y76.311 E17.95608
G1 X122.776 Y75.671 E17.99975
G1 X122.926 Y74.191 E18.10104
G1 X123.016 Y73.571 E18.14370
G1 X123.166 Y72.961 E18.18647
G1 X123.596 Y71.531 E18.28815
G1 X123.816 Y70.921 E18.33231
G1 X124.096 Y70.331 E18.37678
G1 X124.757 Y69.094 E18.47223
G1 F1800.000 E17.47223
G92 E0
G1 X157.930 Y129.135 F7200.000
G1 E1.00000 F1800.000
G1 X160.246 Y128.784 E1.15948 F540.000
G1 X161.939 Y128.703 E1.27491
G1 X163.633 Y128.784 E1.39039
G1 X165.945 Y129.130 E1.54957
G1 X165.945 Y139.555 E2.25943
G1 X163.886 Y139.869 E2.40121
G1 X161.939 Y141.332 E2.56709
G1 X159.990 Y139.868 E2.73302
G1 X157.930 Y139.558 E2.87490
G1 X157.930 Y129.219 E3.57891
G1 X158.487 Y129.615 F7200.000
G1 X160.302 Y129.339 E3.70388 F540.000
G1 X161.939 Y129.260 E3.81549
G1 X163.576 Y129.339 E3.92711
G1 X165.388 Y129.613 E4.05186
G1 X165.388 Y139.077 E4.69628
G1 X163.665 Y139.339 E4.81494
G1 X161.939 Y140.631 E4.96178
G1 X160.212 Y139.339 E5.10865
G1 X158.487 Y139.078 E5.22745
G1 X158.487 Y129.698 E5.86612
G1 X158.431 Y129.060 F7200.000
G1 X157.978 Y128.543 F7200.000
G1 X159.187 Y127.903 E5.95928 F1080.000
G1 X160.546 Y127.493 E6.05589
G1 X161.939 Y127.357 E6.15120
G1 X163.327 Y127.493 E6.24615
G1 X164.676 Y127.899 E6.34210
G1 X165.916 Y128.556 E6.43764
G1 X166.992 Y129.437 E6.53234
G1 X167.881 Y130.529 E6.62824
G1 X168.547 Y131.764 E6.72377
G1 X168.948 Y133.105 E6.81906
G1 X169.092 Y134.497 E6.91439
G1 X168.947 Y135.897 E7.01026
G1 X168.548 Y137.228 E7.10487
G1 X167.876 Y138.475 E7.20129
G1 X166.997 Y139.556 E7.29616
G1 X165.913 Y140.444 E7.39160
G1 X164.675 Y141.105 E7.48718
G1 X163.325 Y141.515 E7.58322
G1 X162.083 Y141.636 E7.66819
G1 X162.072 Y141.663 E7.67021
G1 X161.935 Y141.650 E7.67960
G1 X161.807 Y141.663 E7.68833
G1 X161.797 Y141.637 E7.69022
G1 X160.546 Y141.515 E7.77579
G1 X159.202 Y141.105 E7.87149
G1 X157.960 Y140.441 E7.96737
G1 X156.880 Y139.559 E8.06232
G1 X155.992 Y138.472 E8.15789
G1 X155.331 Y137.231 E8.25366
G1 X154.922 Y135.895 E8.34881
G1 X154.785 Y134.494 E8.44466
G1 X154.921 Y133.106 E8.53959
G1 X155.331 Y131.763 E8.63521
G1 X155.994 Y130.522 E8.73106
G1 X156.869 Y129.449 E8.82536
G1 X157.914 Y128.596 E8.91716
G1 X157.667 Y128.078 F7200.000
G1 X158.985 Y127.382 E9.01863 F540.000
G1 X160.437 Y126.944 E9.12191
G1 X161.939 Y126.798 E9.22467
G1 X163.437 Y126.944 E9.32718
G1 X164.888 Y127.381 E9.43035
G1 X166.226 Y128.089 E9.53345
G1 X167.392 Y129.044 E9.63607
G1 X168.343 Y130.214 E9.73871
G1 X169.064 Y131.549 E9.84203
G1 X169.494 Y132.988 E9.94429
G1 X169.652 Y134.497 E10.04766
G1 X169.496 Y135.998 E10.15039
G1 X169.064 Y137.445 E10.25322
G1 X168.345 Y138.780 E10.35645
G1 X167.392 Y139.952 E10.45935
G1 X166.224 Y140.910 E10.56221
G1 X164.889 Y141.622 E10.66521
G1 X163.437 Y142.064 E10.76859
G1 X161.938 Y142.210 E10.87111
G1 X160.435 Y142.064 E10.97392
G1 X158.988 Y141.622 E11.07698
G1 X157.654 Y140.909 E11.17999
G1 X156.480 Y139.952 E11.28310
G1 X155.526 Y138.781 E11.38596
G1 X154.814 Y137.446 E11.48900
G1 X154.372 Y136.002 E11.59180
G1 X154.226 Y134.499 E11.69462
G1 X154.372 Y132.992 E11.79775
G1 X154.814 Y131.548 E11.90053
G1 X155.526 Y130.216 E12.00343
G1 X156.476 Y129.049 E12.10590
G1 X157.602 Y128.131 E12.20481
G1 X158.157 Y128.343 F7200.000
G1 F1800.000 E11.20481
G92 E0
G1 X139.921 Y130.268 F7200.000
G1 E1.00000 F1800.000
G1 X139.921 Y139.211 E1.60891 F540.000
G1 X138.457 Y139.456 E1.71004
G1 X137.116 Y139.531 E1.80149
G1 X135.794 Y139.456 E1.89161
G1 X135.040 Y139.336 E1.94360
G1 X134.914 Y139.225 E1.95506
G1 X134.340 Y138.911 E1.99962
G1 X134.340 Y130.197 E2.59299
G1 X135.403 Y128.869 E2.70885
G1 X137.079 Y128.155 E2.83292
G1 X139.008 Y128.887 E2.97340
G1 X139.875 Y130.199 E3.08045
G1 X139.364 Y130.436 F7200.000
G1 X139.364 Y138.739 E3.64583 F540.000
G1 X138.396 Y138.901 E3.71270
G1 X137.117 Y138.973 E3.79991
G1 X135.852 Y138.901 E3.88620
G1 X135.287 Y138.812 E3.92515
G1 X135.235 Y138.766 E3.92984
G1 X134.897 Y138.581 E3.95612
G1 X134.897 Y130.393 E4.51367
G1 X135.750 Y129.327 E4.60667
G1 X137.091 Y128.755 E4.70593
G1 X138.642 Y129.344 E4.81890
G1 X139.318 Y130.366 E4.90232
G1 X139.892 Y130.616 F7200.000
G1 F1800.000 E3.90232
G92 E0
G1 X141.202 Y128.556 F7200.000
G1 E1.00000 F1800.000
G1 X142.195 Y129.311 E1.08497 F1080.000
G1 X143.093 Y130.405 E1.18130
G1 X143.753 Y131.642 E1.27682
G1 X144.160 Y132.993 E1.37285
G1 X144.295 Y134.381 E1.46784
G1 X144.161 Y135.774 E1.56314
G1 X143.751 Y137.130 E1.65959
G1 X143.082 Y138.377 E1.75592
G1 X142.210 Y139.437 E1.84945
G1 X141.231 Y140.228 E1.93509
G1 X140.741 Y140.532 E1.97443
G1 X139.862 Y141.001 E2.04221
G1 X138.529 Y141.406 E2.13709
G1 X137.130 Y141.545 E2.23280
G1 X135.735 Y141.406 E2.32827
G1 X134.373 Y140.994 E2.42520
G1 X133.084 Y140.342 E2.52357
G1 X132.062 Y139.453 E2.61581
G1 X131.160 Y138.356 E2.71249
G1 X130.507 Y137.126 E2.80728
G1 X130.100 Y135.782 E2.90292
G1 X129.961 Y134.393 E2.99796
G1 X130.098 Y132.991 E3.09388
G1 X130.505 Y131.645 E3.18966
G1 X131.171 Y130.394 E3.28615
G1 X132.060 Y129.314 E3.38139
G1 X133.147 Y128.415 E3.47748
G1 X134.385 Y127.761 E3.57282
G1 X135.731 Y127.353 E3.66855
G1 X137.137 Y127.216 E3.76475
G1 X138.525 Y127.354 E3.85974
G1 X139.869 Y127.759 E3.95533
G1 X141.025 Y128.423 E4.04610
G1 X141.135 Y128.506 E4.05546
G1 X141.537 Y128.111 F7200.000
G1 X142.593 Y128.919 E4.14603 F540.000
G1 X143.556 Y130.091 E4.24933
G1 X144.270 Y131.426 E4.35245
G1 X144.708 Y132.879 E4.45579
G1 X144.855 Y134.383 E4.55869
G1 X144.709 Y135.887 E4.66159
G1 X144.269 Y137.342 E4.76509
G1 X143.553 Y138.681 E4.86849
G1 X142.598 Y139.842 E4.97080
G1 X141.546 Y140.689 E5.06278
G1 X141.012 Y141.019 E5.10557
G1 X140.079 Y141.517 E5.17752
G1 X138.637 Y141.956 E5.28020
G1 X137.130 Y142.105 E5.38327
G1 X135.625 Y141.956 E5.48625
G1 X134.169 Y141.514 E5.58990
G1 X132.773 Y140.809 E5.69634
G1 X131.665 Y139.847 E5.79630
G1 X130.698 Y138.674 E5.89980
G1 X129.990 Y137.341 E6.00257
G1 X129.551 Y135.890 E6.10580
G1 X129.401 Y134.388 E6.20861
G1 X129.550 Y132.879 E6.31186
G1 X129.990 Y131.427 E6.41512
G1 X130.702 Y130.087 E6.51849
G1 X131.664 Y128.920 E6.62148
G1 X132.727 Y128.040 E6.71544
G1 X132.792 Y127.956 E6.72270
G1 X132.950 Y127.894 E6.73421
G1 X134.172 Y127.243 E6.82848
G1 X135.618 Y126.804 E6.93142
G1 X137.133 Y126.657 E7.03501
G1 X138.635 Y126.805 E7.13782
G1 X140.086 Y127.242 E7.24099
G1 X141.332 Y127.957 E7.33881
G1 X141.470 Y128.060 E7.35054
G1 X141.466 Y128.663 F7200.000
G1 F1800.000 E6.35054
G92 E0
G1 X140.155 Y111.172 F7200.000
G1 E1.00000 F1800.000
G1 X138.412 Y111.292 E1.11895 F540.000
G1 X136.682 Y111.172 E1.23706
G1 X135.011 Y110.803 E1.35360
G1 X134.057 Y110.446 E1.42291
G1 X133.597 Y110.093 E1.46245
G1 X133.597 Y100.633 E2.10660
G1 X134.036 Y100.296 E2.14427
G1 X135.011 Y99.919 E2.21550
G1 X136.681 Y99.560 E2.33180
G1 X138.413 Y99.435 E2.45002
G1 X140.155 Y99.560 E2.56898
G1 X141.819 Y99.918 E2.68491
G1 X142.485 Y100.174 E2.73346
G1 X143.242 Y100.607 E2.79284
G1 X143.242 Y110.122 E3.44074
G1 X142.473 Y110.562 E3.50106
G1 X141.832 Y110.800 E3.54760
G1 X140.237 Y111.154 E3.65890
G1 X139.936 Y111.684 F7200.000
G1 X140.234 Y111.725 F7200.000
G1 X142.015 Y111.330 E3.78306 F540.000
G1 X142.709 Y111.069 E3.83357
G1 X143.406 Y110.670 E3.88824
G1 X143.669 Y111.093 E3.92216
G1 X141.564 Y112.501 E4.09461
G1 X140.041 Y112.964 E4.20300
G1 X138.414 Y113.120 E4.31424
G1 X136.791 Y112.963 E4.42532
G1 X135.271 Y112.501 E4.53350
G1 X133.233 Y111.135 E4.70055
G1 X133.406 Y110.797 E4.72640
G1 X134.851 Y111.338 E4.83143
G1 X136.604 Y111.725 E4.95368
G1 X138.411 Y111.850 E5.07701
G1 X140.151 Y111.730 E5.19578
G1 F1800.000 E4.19578
G92 E0
G1 X143.799 Y111.006 F7200.000
G1 E1.00000 F1800.000
G1 X143.799 Y100.284 E1.73005 F1080.000
G1 X142.744 Y99.680 E1.81287
G1 X141.978 Y99.383 E1.86882
G1 X140.235 Y99.007 E1.99023
G1 X138.412 Y98.876 E2.11467
G1 X136.602 Y99.007 E2.23823
G1 X134.852 Y99.383 E2.36011
G1 X133.743 Y99.819 E2.44125
G1 X133.039 Y100.358 E2.50159
G1 X133.039 Y111.005 E3.22658
G1 X132.509 Y110.649 E3.27008
G1 X131.497 Y109.420 E3.37851
G1 X130.729 Y107.982 E3.48947
G1 X130.255 Y106.425 E3.60031
G1 X130.099 Y104.803 E3.71130
G1 X130.255 Y103.179 E3.82237
G1 X130.730 Y101.617 E3.93357
G1 X131.497 Y100.177 E4.04465
G1 X132.522 Y98.926 E4.15476
G1 X134.043 Y97.912 E4.27925
G1 X134.043 Y98.076 E4.29043
G1 X136.791 Y97.236 E4.48611
G1 X138.413 Y97.073 E4.59710
G1 X140.040 Y97.236 E4.70841
G1 X142.790 Y98.076 E4.90424
G1 X142.790 Y97.916 E4.91512
G1 X144.330 Y98.946 E5.04127
G1 X145.334 Y100.170 E5.14908
G1 X146.104 Y101.617 E5.26063
G1 X146.581 Y103.178 E5.37181
G1 X146.737 Y104.803 E5.48295
G1 X146.581 Y106.425 E5.59391
G1 X146.104 Y107.984 E5.70493
G1 X145.334 Y109.421 E5.81592
G1 X144.329 Y110.649 E5.92401
G1 X143.868 Y110.959 E5.96179
G1 X144.708 Y111.065 F7200.000
G1 X141.804 Y113.010 E6.19977 F540.000
G1 X140.150 Y113.513 E6.31750
G1 X138.414 Y113.679 E6.43625
G1 X136.682 Y113.512 E6.55473
G1 X135.030 Y113.010 E6.67232
G1 X132.131 Y111.066 E6.90997
G1 X131.031 Y109.731 E7.02772
G1 X130.213 Y108.197 E7.14611
G1 X129.705 Y106.534 E7.26449
G1 X129.539 Y104.803 E7.38293
G1 X129.705 Y103.069 E7.50152
G1 X130.213 Y101.403 E7.62014
G1 X131.032 Y99.867 E7.73867
G1 X132.144 Y98.509 E7.85819
G1 X134.600 Y96.869 E8.05928
G1 X134.600 Y97.323 E8.09021
G1 X136.682 Y96.687 E8.23844
G1 X138.413 Y96.513 E8.35690
G1 X140.149 Y96.687 E8.47572
G1 X142.233 Y97.323 E8.62408
G1 X142.233 Y96.876 E8.65452
G1 X144.708 Y98.529 E8.85718
G1 X145.800 Y99.860 E8.97437
G1 X146.621 Y101.403 E9.09339
G1 X147.130 Y103.069 E9.21202
G1 X147.297 Y104.803 E9.33064
G1 X147.130 Y106.534 E9.44907
G1 X146.621 Y108.198 E9.56755
G1 X145.800 Y109.731 E9.68600
G1 X144.761 Y111.001 E9.79769
G1 X144.186 Y110.870 F7200.000
G1 F1800.000 E8.79769
G92 E0
G1 X156.953 Y108.231 F7200.000
G1 E1.00000 F1800.000
G1 X156.953 Y98.686 E1.64993 F540.000
G1 X157.576 Y98.362 E1.69774
G1 X158.507 Y98.008 E1.76561
G1 X160.189 Y97.643 E1.88280
G1 X161.923 Y97.517 E2.00115
G1 X163.655 Y97.643 E2.11938
G1 X165.283 Y97.995 E2.23286
G1 X165.958 Y98.240 E2.28175
G1 X166.800 Y98.688 E2.34669
G1 X166.800 Y108.227 E2.99619
G1 X165.957 Y108.675 E3.06122
G1 X165.323 Y108.915 E3.10740
G1 X163.656 Y109.274 E3.22352
G1 X161.921 Y109.400 E3.34191
G1 X160.188 Y109.274 E3.46023
G1 X158.521 Y108.915 E3.57638
G1 X157.594 Y108.557 E3.64406
G1 X157.027 Y108.268 E3.68735
G1 X156.402 Y108.144 F7200.000
G1 X156.396 Y108.572 F7200.000
G1 X157.367 Y109.066 E3.76152 F1080.000
G1 X158.361 Y109.450 E3.83411
G1 X160.108 Y109.827 E3.95582
G1 X161.918 Y109.959 E4.07937
G1 X163.735 Y109.827 E4.20345
G1 X165.481 Y109.451 E4.32506
G1 X166.183 Y109.185 E4.37615
G1 X167.357 Y108.561 E4.46669
G1 X167.357 Y97.851 E5.19598
G1 X167.125 Y98.230 E5.22624
G1 X166.187 Y97.731 E5.29861
G1 X165.411 Y97.453 E5.35473
G1 X163.732 Y97.090 E5.47169
G1 X161.922 Y96.959 E5.59530
G1 X160.111 Y97.090 E5.71894
G1 X158.322 Y97.478 E5.84356
G1 X156.931 Y98.009 E5.94496
G1 X156.757 Y97.670 E5.97093
G1 X158.781 Y96.316 E6.13680
G1 X160.301 Y95.857 E6.24492
G1 X161.925 Y95.697 E6.35600
G1 X163.543 Y95.857 E6.46669
G1 X165.083 Y96.321 E6.57621
G1 X166.025 Y96.899 E6.65152
G1 X167.357 Y97.831 E6.76221
G1 X167.357 Y97.588 E6.77871
G1 X168.833 Y99.388 E6.93718
G1 X169.603 Y100.822 E7.04802
G1 X170.073 Y102.385 E7.15917
G1 X170.238 Y104.009 E7.27032
G1 X170.073 Y105.631 E7.38129
G1 X169.603 Y107.189 E7.49216
G1 X168.833 Y108.626 E7.60318
G1 X167.821 Y109.862 E7.71193
G1 X166.290 Y110.946 E7.83964
G1 X166.290 Y110.732 E7.85421
G1 X163.543 Y111.567 E8.04976
G1 X161.924 Y111.723 E8.16047
G1 X160.300 Y111.560 E8.27159
G1 X157.555 Y110.736 E8.46677
G1 X157.555 Y111.024 E8.48633
G1 X156.036 Y109.873 E8.61610
G1 X155.010 Y108.626 E8.72603
G1 X154.244 Y107.183 E8.83728
G1 X153.770 Y105.629 E8.94790
G1 X153.614 Y104.010 E9.05868
G1 X153.770 Y102.385 E9.16979
G1 X154.244 Y100.823 E9.28099
G1 X155.011 Y99.386 E9.39188
G1 X156.396 Y97.705 E9.54016
G1 X156.396 Y108.489 E10.27443
G1 X154.545 Y108.937 F7200.000
G1 X153.727 Y107.396 E10.39320 F540.000
G1 X153.220 Y105.739 E10.51124
G1 X153.054 Y104.010 E10.62952
G1 X153.221 Y102.277 E10.74804
G1 X153.727 Y100.608 E10.86678
G1 X154.545 Y99.076 E10.98507
G1 X155.637 Y97.750 E11.10199
G1 X157.466 Y96.522 E11.25203
G1 X158.541 Y95.806 E11.33999
G1 X160.192 Y95.308 E11.45739
G1 X161.924 Y95.137 E11.57592
G1 X163.651 Y95.308 E11.69410
G1 X165.312 Y95.808 E11.81222
G1 X166.334 Y96.435 E11.89383
G1 X168.205 Y97.744 E12.04932
G1 X169.298 Y99.077 E12.16669
G1 X170.121 Y100.608 E12.28504
G1 X170.622 Y102.277 E12.40370
G1 X170.798 Y104.009 E12.52228
