; generated by Slic3r 1.0.0RC3 on 2014-03-11 at 10:51:37

; layer_height = 0.3
; perimeters = 2
; top_solid_layers = 3
; bottom_solid_layers = 3
; fill_density = 0.1
; perimeter_speed = 60
; infill_speed = 60
; travel_speed = 120
; nozzle_diameter = 0.4
; filament_diameter = 1.75
; extrusion_multiplier = 0.98
; perimeters extrusion width = 0.40mm
; infill extrusion width = 0.42mm
; solid infill extrusion width = 0.42mm
; top infill extrusion width = 0.42mm
; first layer extrusion width = 0.60mm

G21 ; set units to millimeters
M107
M104 S220 ; set temperature
G28 ; home all axes
M106 S255;
G1 Z200 F1200 ; lift nozzle
M109 S220 ; wait for temperature to be reached
G90 ; use absolute coordinates
G92 E0
M82 ; use absolute distances for extrusion
G1 F1800.000 E-1.00000
G92 E0
G1 Z0.300 F7200.000
G1 X124.436 Y86.340 F7200.000
G1 E1.00000 F1800.000
G1 X125.256 Y85.350 E1.08753 F1080.000
G1 X126.246 Y84.530 E1.17507
G1 X127.386 Y83.920 E1.26310
G1 X128.616 Y83.550 E1.35057
G1 X129.896 Y83.420 E1.43817
G1 X164.026 Y83.420 E3.76217
G1 X165.466 Y83.580 E3.86082
G1 X166.846 Y84.060 E3.96031
G1 X168.506 Y84.850 E4.08549
G1 X169.286 Y85.280 E4.14614
G1 X170.346 Y86.100 E4.23739
G1 X171.226 Y87.110 E4.32861
G1 X171.886 Y88.270 E4.41949
G1 X172.286 Y89.550 E4.51080
G1 X172.426 Y90.880 E4.60187
G1 X172.416 Y114.980 E6.24289
G1 X172.266 Y116.370 E6.33809
G1 X171.826 Y117.690 E6.43283
G1 X171.116 Y118.890 E6.52778
G1 X170.166 Y119.920 E6.62319
G1 X169.026 Y120.720 E6.71802
G1 X159.746 Y125.850 E7.44004
G1 X158.216 Y126.460 E7.55220
G1 X156.576 Y126.670 E7.66478
G1 X136.096 Y126.670 E9.05931
G1 X134.676 Y126.510 E9.15662
G1 X133.316 Y126.050 E9.25438
G1 X132.096 Y125.300 E9.35189
G1 X131.056 Y124.310 E9.44966
G1 X130.266 Y123.120 E9.54692
G1 X129.756 Y121.780 E9.64455
G1 X123.566 Y98.260 E11.30062
G1 X123.406 Y97.440 E11.35751
G1 X123.346 Y96.600 E11.41485
G1 X123.336 Y89.990 E11.86494
G1 X123.466 Y88.710 E11.95255
G1 X123.836 Y87.480 E12.04001
G1 X124.397 Y86.414 E12.12204
G1 F1800.000 E11.12204
G92 E0
G1 X130.816 Y95.981 F7200.000
G1 E1.00000 F1800.000
G1 X133.584 Y95.981 E1.18852 F1080.000
G1 X133.584 Y95.961 E1.18987
G1 X135.987 Y96.013 E1.35355
G1 X155.908 Y96.013 E2.70998
G1 X155.908 Y90.838 E3.06236
G1 X156.687 Y90.837 E3.11543
G1 X156.687 Y98.916 E3.66553
G1 X160.292 Y98.916 E3.91097
G1 X160.292 Y99.983 E3.98360
G1 X163.959 Y99.983 E4.23331
G1 X163.959 Y90.896 E4.85204
G1 X165.011 Y91.398 E4.93139
G1 X165.001 Y114.477 E6.50286
G1 X156.358 Y119.254 E7.17531
G1 X153.955 Y119.254 E7.33897
G1 X153.955 Y112.653 E7.78843
G1 X138.455 Y112.653 E8.84384
G1 X138.455 Y119.254 E9.29330
G1 X136.957 Y119.254 E9.39529
G1 X136.957 Y103.045 E10.49900
G1 X135.049 Y99.072 E10.79913
G1 X130.766 Y96.141 E11.15250
G1 X130.791 Y96.061 E11.15824
G1 X130.370 Y96.545 F7200.000
G1 X130.207 Y96.434 E11.17162 F540.000
G1 X130.196 Y90.282 E11.59050
G1 X130.928 Y90.282 E11.64034
G1 X130.928 Y95.424 E11.99043
G1 X133.027 Y95.424 E12.13340
G1 X133.027 Y90.282 E12.48349
G1 X134.209 Y90.281 E12.56397
G1 X134.209 Y95.417 E12.91371
G1 X136.400 Y95.455 E13.06292
G1 X136.400 Y90.281 E13.41526
G1 X137.449 Y90.282 E13.48666
G1 X137.449 Y95.456 E13.83896
G1 X139.647 Y95.456 E13.98865
G1 X139.647 Y90.282 E14.34095
G1 X140.711 Y90.282 E14.41339
G1 X140.711 Y95.456 E14.76569
G1 X143.024 Y95.456 E14.92319
G1 X143.024 Y90.282 E15.27549
G1 X144.057 Y90.282 E15.34584
G1 X144.057 Y95.456 E15.69814
G1 X146.149 Y95.456 E15.84058
G1 X146.149 Y90.282 E16.19288
G1 X147.136 Y90.282 E16.26010
G1 X147.136 Y95.456 E16.61240
G1 X149.133 Y95.456 E16.74837
G1 X149.133 Y90.282 E17.10067
G1 X150.105 Y90.282 E17.16685
G1 X150.105 Y95.456 E17.51915
G1 X152.197 Y95.456 E17.66160
G1 X152.197 Y90.282 E18.01390
G1 X153.188 Y90.282 E18.08137
G1 X153.188 Y95.456 E18.43367
G1 X155.351 Y95.456 E18.58095
G1 X155.351 Y90.282 E18.93328
G1 X157.249 Y90.283 E19.06253
G1 X157.244 Y98.359 E19.61248
G1 X159.858 Y98.359 E19.79045
G1 X159.863 Y90.282 E20.34040
G1 X160.853 Y90.282 E20.40787
G1 X160.849 Y99.426 E21.03046
G1 X163.402 Y99.426 E21.20430
G1 X163.404 Y90.282 E21.82688
G1 X163.967 Y90.282 E21.86519
G1 X165.568 Y91.047 E21.98598
G1 X165.559 Y114.805 E23.60374
G1 X156.502 Y119.811 E24.30839
G1 X149.376 Y119.811 E24.79361
G1 X149.376 Y118.363 E24.89220
G1 X153.398 Y118.363 E25.16604
G1 X153.398 Y113.210 E25.51691
G1 X139.012 Y113.210 E26.49645
G1 X139.012 Y118.363 E26.84731
G1 X143.750 Y118.363 E27.16989
G1 X143.750 Y119.811 E27.26848
G1 X136.400 Y119.811 E27.76891
G1 X136.400 Y103.172 E28.90192
G1 X134.611 Y99.448 E29.18326
G1 X130.439 Y96.592 E29.52754
G1 X130.385 Y96.349 F7200.000
G1 F1800.000 E28.52754
G92 E0
G1 X161.294 Y90.122 F7200.000
G1 E1.00000 F1800.000
G1 X161.603 Y90.432 E1.02976 F540.000
G1 X162.653 Y90.433 E1.10132
G1 X162.966 Y90.121 E1.13135
G1 X162.653 Y90.433 F7200.000
G1 X162.963 Y90.850 E1.16673 F540.000
G1 X161.603 Y90.432 F7200.000
G1 X161.302 Y90.679 E1.19323 F540.000
G1 X159.420 Y90.850 F7200.000
G1 X159.113 Y90.436 E1.22831 F540.000
G1 X159.439 Y90.121 F7200.000
G1 X159.113 Y90.436 E1.25916 F540.000
G1 X158.863 Y90.437 E1.27618
G1 X157.996 Y90.435 E1.33518
G1 X157.593 Y90.122 E1.36994
G1 X157.996 Y90.435 F7200.000
G1 X157.578 Y90.850 E1.41011 F540.000
G1 F1800.000 E0.41011
G92 E0
G1 X154.912 Y90.850 F7200.000
G1 E1.00000 F1800.000
G1 X154.604 Y90.437 E1.03508 F540.000
G1 X154.996 Y90.122 F7200.000
G1 X154.604 Y90.437 E1.06938 F540.000
G1 X154.076 Y90.443 E1.10531
G1 X153.518 Y90.015 E1.15318
G1 X153.933 Y90.426 F7200.000
G1 X153.573 Y90.743 E1.18583 F540.000
G1 X151.887 Y90.122 F7200.000
G1 X151.445 Y90.430 E1.22253 F540.000
G1 X150.849 Y90.431 E1.26312
G1 X150.455 Y90.743 E1.29739
G1 X150.849 Y90.431 F7200.000
G1 X150.445 Y90.015 E1.33690 F540.000
G1 X151.445 Y90.430 F7200.000
G1 X151.758 Y90.850 E1.37255 F540.000
G1 F1800.000 E0.37255
G92 E0
G1 X148.823 Y90.122 F7200.000
G1 E1.00000 F1800.000
G1 X148.381 Y90.430 E1.03670 F540.000
G1 X147.885 Y90.435 E1.07051
G1 X147.568 Y90.015 E1.10634
G1 X147.885 Y90.435 F7200.000
G1 X147.438 Y90.743 E1.14330 F540.000
G1 X148.381 Y90.430 F7200.000
G1 X148.694 Y90.850 E1.17896 F540.000
G1 F1800.000 E0.17896
G92 E0
G1 X145.710 Y90.850 F7200.000
G1 E1.00000 F1800.000
G1 X145.401 Y90.437 E1.03514 F540.000
G1 X145.799 Y90.122 F7200.000
G1 X145.401 Y90.437 E1.06970 F540.000
G1 X144.805 Y90.429 E1.11033
G1 X144.407 Y90.743 F7200.000
G1 X144.805 Y90.429 E1.14488 F540.000
G1 X144.496 Y90.015 E1.18003
G1 X142.604 Y90.122 F7200.000
G1 X142.276 Y90.436 E1.21096 F540.000
G1 X141.461 Y90.437 E1.26647
G1 X141.032 Y90.743 F7200.000
G1 X141.461 Y90.437 E1.30237 F540.000
G1 X141.051 Y90.015 E1.34246
G1 X142.276 Y90.436 F7200.000
G1 X142.585 Y90.850 E1.37761 F540.000
G1 F1800.000 E0.37761
G92 E0
G1 X139.208 Y90.850 F7200.000
G1 E1.00000 F1800.000
G1 X138.901 Y90.439 E1.03497 F540.000
G1 X139.244 Y90.122 F7200.000
G1 X138.901 Y90.439 E1.06680 F540.000
G1 X138.195 Y90.427 E1.11486
G1 X137.852 Y90.743 F7200.000
G1 X138.195 Y90.427 E1.14668 F540.000
G1 X137.888 Y90.015 E1.18165
G1 X136.053 Y90.120 F7200.000
G1 X135.651 Y90.435 E1.21641 F540.000
G1 X134.951 Y90.430 E1.26413
G1 X134.561 Y90.014 E1.30296
G1 X134.951 Y90.430 F7200.000
G1 X134.608 Y90.743 E1.33453 F540.000
G1 X135.651 Y90.435 F7200.000
G1 X135.961 Y90.850 E1.36976 F540.000
G1 F1800.000 E0.36976
G92 E0
G1 X132.674 Y90.122 F7200.000
G1 E1.00000 F1800.000
G1 X132.280 Y90.437 E1.03435 F540.000
G1 X131.675 Y90.428 E1.07556
G1 X131.281 Y90.743 F7200.000
G1 X131.675 Y90.428 E1.10992 F540.000
G1 X131.367 Y90.015 E1.14501
G1 X132.280 Y90.437 F7200.000
G1 X132.588 Y90.850 E1.18011 F540.000
G1 F1800.000 E0.18011
G92 E0
G1 X132.205 Y96.375 F7200.000
G1 E1.00000 F1800.000
G1 X133.073 Y97.243 E1.08521 F1080.000
G1 F1800.000 E0.08521
G92 E0
G1 X136.025 Y100.195 F7200.000
G1 E1.00000 F1800.000
G1 X147.811 Y111.981 E2.15694 F1080.000
G1 X148.614 Y111.981 E2.21268
G1 X133.008 Y96.375 E3.74460
G1 X133.811 Y96.375 E3.80034
G1 X149.417 Y111.981 E5.33226
G1 X150.220 Y111.981 E5.38800
G1 X134.617 Y96.377 E6.91969
G1 X135.437 Y96.395 E6.97667
G1 X151.024 Y111.981 E8.50663
G1 X151.827 Y111.981 E8.56237
G1 X136.252 Y96.406 E10.09118
G1 X137.055 Y96.406 E10.14693
G1 X152.630 Y111.981 E11.67573
G1 X153.433 Y111.981 E11.73147
G1 X137.858 Y96.407 E13.26028
G1 X138.661 Y96.407 E13.31602
G1 X159.181 Y116.926 E15.33021
G1 X158.663 Y117.212 E15.37123
G1 X154.627 Y113.175 E15.76743
G1 X154.627 Y113.978 E15.82317
G1 X158.146 Y117.498 E16.16860
G1 X157.629 Y117.783 E16.20962
G1 X154.627 Y114.782 E16.50429
G1 X154.627 Y115.585 E16.56003
G1 X157.112 Y118.069 E16.80393
G1 X156.595 Y118.355 E16.84494
G1 X154.627 Y116.388 E17.03807
G1 X154.627 Y117.191 E17.09381
G1 X156.018 Y118.582 E17.23035
G1 X155.215 Y118.582 E17.28609
G1 X154.627 Y117.994 E17.34379
G1 F1800.000 E16.34379
G92 E0
G1 X159.698 Y116.640 F7200.000
G1 E1.00000 F1800.000
G1 X139.465 Y96.407 E2.98612 F1080.000
G1 X140.268 Y96.407 E3.04187
G1 X160.215 Y116.354 E4.99992
G1 X160.732 Y116.068 E5.04094
G1 X141.071 Y96.407 E6.97093
G1 X141.874 Y96.407 E7.02668
G1 X161.249 Y115.782 E8.92860
G1 X161.767 Y115.496 E8.96962
G1 X142.677 Y96.407 E10.84348
G1 X143.480 Y96.407 E10.89923
G1 X162.284 Y115.211 E12.74502
G1 X162.801 Y114.925 E12.78604
G1 X144.283 Y96.407 E14.60377
G1 X145.086 Y96.407 E14.65952
G1 X163.318 Y114.639 E16.44918
G1 X163.835 Y114.353 E16.49020
G1 X145.889 Y96.407 E18.25180
G1 X146.693 Y96.407 E18.30754
G1 X164.329 Y114.043 E20.03875
G1 X164.329 Y113.241 E20.09446
G1 X147.496 Y96.407 E21.74688
G1 X148.299 Y96.407 E21.80262
G1 X164.608 Y112.717 E23.40358
G1 X164.609 Y111.914 E23.45930
G1 X149.102 Y96.407 E24.98146
G1 X149.905 Y96.407 E25.03721
G1 X164.609 Y111.111 E26.48056
G1 X164.609 Y110.308 E26.53628
G1 X150.708 Y96.407 E27.90083
G1 X151.511 Y96.407 E27.95658
G1 X164.610 Y109.505 E29.24233
G1 X164.610 Y108.703 E29.29805
G1 X152.314 Y96.407 E30.50499
G1 X153.117 Y96.407 E30.56074
G1 X164.610 Y107.900 E31.68888
G1 X164.611 Y107.097 E31.74460
G1 X153.921 Y96.407 E32.79394
G1 X154.724 Y96.407 E32.84968
G1 X156.293 Y97.977 E33.00378
G1 X156.293 Y97.174 E33.05952
G1 X155.527 Y96.407 E33.13478
G1 F1800.000 E32.13478
G92 E0
G1 X157.626 Y99.310 F7200.000
G1 E1.00000 F1800.000
G1 X164.611 Y106.294 E1.68560 F1080.000
G1 X164.611 Y105.492 E1.74132
G1 X158.429 Y99.310 E2.34812
G1 X159.233 Y99.310 E2.40386
G1 X164.611 Y104.689 E2.93186
G1 X164.612 Y103.886 E2.98758
G1 X161.102 Y100.377 E3.33208
G1 X161.905 Y100.377 E3.38782
G1 X164.612 Y103.083 E3.65352
G1 X164.612 Y102.281 E3.70924
G1 X162.708 Y100.377 E3.89614
G1 X163.511 Y100.377 E3.95188
G1 X164.613 Y101.478 E4.05998
G1 X164.613 Y100.675 E4.11570
G1 X164.593 Y100.655 E4.11766
G1 F1800.000 E3.11766
G92 E0
G1 X136.768 Y101.740 F7200.000
G1 E1.00000 F1800.000
G1 X147.008 Y111.981 E2.00522 F1080.000
G1 X146.205 Y111.981 E2.06097
G1 X137.351 Y103.127 E2.93007
G1 X137.351 Y103.930 E2.98581
G1 X145.402 Y111.981 E3.77608
G1 X144.599 Y111.981 E3.83182
G1 X137.351 Y104.733 E4.54326
G1 X137.351 Y105.536 E4.59900
G1 X143.796 Y111.981 E5.23161
G1 X142.993 Y111.981 E5.28735
G1 X137.351 Y106.339 E5.84113
G1 X137.351 Y107.143 E5.89687
G1 X142.190 Y111.981 E6.37182
G1 X141.387 Y111.981 E6.42756
G1 X137.351 Y107.946 E6.82367
G1 X137.351 Y108.749 E6.87942
G1 X140.584 Y111.981 E7.19670
G1 X139.780 Y111.981 E7.25244
G1 X137.351 Y109.552 E7.49090
G1 X137.351 Y110.355 E7.54664
G1 X138.977 Y111.981 E7.70627
G1 X138.174 Y111.981 E7.76201
G1 X137.351 Y111.158 E7.84280
G1 X137.351 Y111.961 E7.89854
G1 X137.371 Y111.981 E7.90051
G1 X137.867 Y112.665 F7200.000
G1 X137.887 Y112.685 E7.90244 F360.000
G1 X137.526 Y113.117 E7.94100 F360.000
G1 X137.887 Y113.478 E7.97595 F360.000
G1 X137.526 Y113.909 E8.01451 F360.000
G1 X137.887 Y114.270 E8.04946 F360.000
G1 X137.526 Y114.702 E8.08802 F360.000
G1 X137.887 Y115.063 E8.12297 F360.000
G1 X137.526 Y115.495 E8.16153 F360.000
G1 X137.887 Y115.856 E8.19648 F360.000
G1 X137.526 Y116.288 E8.23504 F360.000
G1 X137.887 Y116.648 E8.26999 F360.000
G1 X137.526 Y117.080 E8.30855 F360.000
G1 X137.887 Y117.441 E8.34350 F360.000
G1 X137.526 Y117.873 E8.38206 F360.000
G1 X137.887 Y118.234 E8.41701 F360.000
G1 X137.526 Y118.666 E8.45557 F360.000
G1 X137.546 Y118.686 E8.45751 F360.000
G1 X139.024 Y119.223 F7200.000
G1 X139.618 Y118.932 E8.50819 F360.000
G1 X139.929 Y119.243 E8.54184 F360.000
G1 X140.504 Y118.932 E8.59186 F360.000
G1 X140.815 Y119.243 E8.62552 F360.000
G1 X141.390 Y118.932 E8.67554 F360.000
G1 X141.701 Y119.243 E8.70919 F360.000
G1 X142.275 Y118.932 E8.75921 F360.000
G1 X142.586 Y119.243 E8.79287 F360.000
G1 X143.161 Y118.932 E8.84288 F360.000
G1 X143.181 Y118.952 E8.84505 F360.000
G1 F1800.000 E7.84505
G92 E0
G1 X139.044 Y119.243 F7200.000
G1 E1.00000 F1800.000
G1 X139.024 Y119.223 E1.00217 F360.000
G1 F1800.000 E0.00217
G92 E0
G1 X149.945 Y119.223 F7200.000
G1 E1.00000 F1800.000
G1 X150.582 Y118.932 E1.05619 F360.000
G1 X150.893 Y119.243 E1.09146 F360.000
G1 X151.510 Y118.932 E1.14690 F360.000
G1 X151.821 Y119.243 E1.18217 F360.000
G1 X152.438 Y118.932 E1.23761 F360.000
G1 X152.749 Y119.243 E1.27288 F360.000
G1 X153.366 Y118.932 E1.32832 F360.000
G1 X153.386 Y118.952 E1.33059 F360.000
G1 F1800.000 E0.33059
G92 E0
G1 X149.965 Y119.243 F7200.000
G1 E1.00000 F1800.000
G1 X149.945 Y119.223 E1.00227 F360.000
G1 F1800.000 E0.00227
G92 E0
G1 X160.267 Y98.528 F7200.000
G1 E1.00000 F1800.000
G1 X160.247 Y98.508 E1.00097 F360.000
G1 X160.460 Y98.324 E1.01066 F360.000
G1 X160.247 Y98.110 E1.02105 F360.000
G1 X160.460 Y97.926 E1.03074 F360.000
G1 X160.247 Y97.712 E1.04113 F360.000
G1 X160.460 Y97.529 E1.05082 F360.000
G1 X160.247 Y97.315 E1.06121 F360.000
G1 X160.460 Y97.131 E1.07090 F360.000
G1 X160.247 Y96.917 E1.08129 F360.000
G1 X160.460 Y96.733 E1.09098 F360.000
G1 X160.247 Y96.520 E1.10137 F360.000
G1 X160.460 Y96.336 E1.11106 F360.000
G1 X160.247 Y96.122 E1.12145 F360.000
G1 X160.460 Y95.938 E1.13114 F360.000
G1 X160.247 Y95.724 E1.14153 F360.000
G1 X160.460 Y95.541 E1.15122 F360.000
G1 X160.247 Y95.327 E1.16161 F360.000
G1 X160.460 Y95.143 E1.17130 F360.000
G1 X160.247 Y94.929 E1.18169 F360.000
G1 X160.460 Y94.745 E1.19138 F360.000
G1 X160.247 Y94.532 E1.20177 F360.000
G1 X160.460 Y94.348 E1.21146 F360.000
G1 X160.247 Y94.134 E1.22186 F360.000
G1 X160.460 Y93.950 E1.23154 F360.000
G1 X160.247 Y93.736 E1.24194 F360.000
G1 X160.460 Y93.553 E1.25162 F360.000
G1 X160.247 Y93.339 E1.26202 F360.000
G1 X160.460 Y93.155 E1.27171 F360.000
G1 X160.247 Y92.941 E1.28210 F360.000
G1 X160.460 Y92.757 E1.29179 F360.000
G1 X160.247 Y92.544 E1.30218 F360.000
G1 X160.460 Y92.360 E1.31187 F360.000
G1 X160.247 Y92.146 E1.32226 F360.000
G1 X160.460 Y91.962 E1.33195 F360.000
G1 X160.247 Y91.748 E1.34234 F360.000
G1 X160.460 Y91.565 E1.35203 F360.000
G1 X160.247 Y91.351 E1.36242 F360.000
G1 X160.460 Y91.167 E1.37211 F360.000
G1 X160.342 Y91.049 E1.37784 F360.000
G1 X160.444 Y90.753 E1.38860 F360.000
G1 X160.362 Y90.671 E1.39258 F360.000
G1 F1800.000 E0.39258
G92 E0
G1 X164.348 Y91.783 F7200.000
G1 E1.00000 F1800.000
G1 X164.591 Y91.628 E1.00990 F360.000
G1 X164.622 Y91.660 E1.01141 F360.000
G1 X164.348 Y91.783 F7200.000
G1 X164.622 Y92.057 E1.02474 F360.000
G1 X164.348 Y92.180 E1.03508 F360.000
G1 X164.622 Y92.455 E1.04841 F360.000
G1 X164.348 Y92.578 E1.05874 F360.000
G1 X164.622 Y92.852 E1.07208 F360.000
G1 X164.348 Y92.975 E1.08241 F360.000
G1 X164.622 Y93.250 E1.09574 F360.000
G1 X164.348 Y93.373 E1.10608 F360.000
G1 X164.622 Y93.647 E1.11941 F360.000
G1 X164.348 Y93.771 E1.12974 F360.000
G1 X164.622 Y94.045 E1.14307 F360.000
G1 X164.348 Y94.168 E1.15341 F360.000
G1 X164.622 Y94.442 E1.16674 F360.000
G1 X164.348 Y94.566 E1.17707 F360.000
G1 X164.622 Y94.840 E1.19041 F360.000
G1 X164.348 Y94.963 E1.20074 F360.000
G1 X164.622 Y95.238 E1.21407 F360.000
G1 X164.348 Y95.361 E1.22440 F360.000
G1 X164.622 Y95.635 E1.23774 F360.000
G1 X164.348 Y95.758 E1.24807 F360.000
G1 X164.622 Y96.033 E1.26140 F360.000
G1 X164.348 Y96.156 E1.27174 F360.000
G1 X164.622 Y96.430 E1.28507 F360.000
G1 X164.348 Y96.553 E1.29540 F360.000
G1 X164.622 Y96.828 E1.30874 F360.000
G1 X164.348 Y96.951 E1.31907 F360.000
