; generated by Slic3r 1.0.0RC2 on 2014-05-18 at 09:11:45

; layer_height = 0.3
; perimeters = 3
; top_solid_layers = 3
; bottom_solid_layers = 3
; fill_density = 0.1
; perimeter_speed = 60
; infill_speed = 60
; travel_speed = 120
; nozzle_diameter = 0.4
; filament_diameter = 1.75
; extrusion_multiplier = 0.98
; perimeters extrusion width = 0.40mm
; infill extrusion width = 0.42mm
; solid infill extrusion width = 0.42mm
; top infill extrusion width = 0.42mm
; first layer extrusion width = 0.80mm

G21 ; set units to millimeters
M107
M104 S220 ; set temperature
G28 ; home all axes
M106 S255;
G1 Z200 F1200 ; lift nozzle
M109 S220 ; wait for temperature to be reached
G90 ; use absolute coordinates
G92 E0
M82 ; use absolute distances for extrusion
G1 F1800.000 E-1.00000
G92 E0
G1 Z0.400 F7200.000
G1 X106.813 Y75.785 F7200.000
G1 E1.00000 F1800.000
G1 X109.963 Y71.585 E1.61105 F1080.000
G1 X114.923 Y65.545 E2.52070
G1 X115.463 Y64.965 E2.61294
G1 X119.113 Y61.455 E3.20232
G1 X120.263 Y60.565 E3.37157
G1 X121.593 Y59.945 E3.54236
G1 X123.013 Y59.625 E3.71178
G1 X124.473 Y59.615 E3.88171
G1 X125.903 Y59.935 E4.05226
G1 X160.153 Y71.445 E8.25770
G1 X160.833 Y71.715 E8.34285
G1 X171.943 Y76.855 E9.76763
G1 X173.173 Y77.595 E9.93470
G1 X174.223 Y78.575 E10.10187
G1 X175.033 Y79.755 E10.26845
G1 X197.973 Y122.285 E15.89268
G1 X198.533 Y123.675 E16.06709
G1 X198.773 Y125.155 E16.24160
G1 X198.673 Y126.645 E16.41541
G1 X197.223 Y134.825 E17.38232
G1 X196.943 Y135.885 E17.50993
G1 X196.493 Y136.885 E17.63756
G1 X191.813 Y145.405 E18.76895
G1 X191.093 Y146.475 E18.91906
G1 X190.173 Y147.375 E19.06886
G1 X189.103 Y148.095 E19.21896
G1 X187.913 Y148.585 E19.36875
G1 X186.653 Y148.855 E19.51873
G1 X152.983 Y152.505 E23.46054
G1 X152.233 Y152.535 E23.54790
G1 X142.513 Y152.495 E24.67922
G1 X141.423 Y152.405 E24.80651
G1 X140.373 Y152.135 E24.93270
G1 X132.513 Y149.445 E25.89962
G1 X131.153 Y148.805 E26.07456
G1 X129.973 Y147.885 E26.24871
G1 X129.033 Y146.725 E26.42248
G1 X102.933 Y106.065 E32.04599
G1 X102.293 Y104.775 E32.21359
G1 X101.933 Y103.385 E32.38071
G1 X101.883 Y101.955 E32.54725
G1 X102.763 Y89.745 E33.97206
G1 X102.833 Y89.165 E34.04005
G1 X102.953 Y88.595 E34.10785
G1 X105.493 Y78.475 E35.32225
G1 X105.833 Y77.455 E35.44739
G1 X106.333 Y76.515 E35.57131
G1 X106.753 Y75.874 E35.66053
G1 F1800.000 E34.66053
G92 E0
G1 X110.161 Y78.357 F7200.000
G1 E1.00000 F1800.000
G1 X113.204 Y74.284 E1.59172 F1080.000
G1 X118.311 Y68.068 E2.52813
G1 X118.617 Y67.799 E2.57546
G1 X118.756 Y67.703 E2.59516
G1 X122.646 Y63.902 E3.22820
G1 X124.394 Y63.729 E3.43258
G1 X131.410 Y68.299 E4.40715
G1 X131.399 Y71.021 E4.72396
G1 X127.734 Y73.374 E5.23087
G1 X123.790 Y76.734 E5.83394
G1 X123.658 Y77.016 E5.87013
G1 X123.634 Y80.250 E6.24662
G1 X123.608 Y80.493 E6.27505
G1 X121.835 Y89.105 E7.29836
G1 X121.955 Y89.467 E7.34277
G1 X152.182 Y116.499 E12.06247
G1 X152.312 Y116.573 E12.07994
G1 X157.369 Y118.198 E12.69815
G1 X157.981 Y117.637 E12.79476
G1 X151.312 Y88.361 E16.28944
G1 X151.053 Y88.081 E16.33386
G1 X142.660 Y85.463 E17.35723
G1 X142.434 Y85.367 E17.38577
G1 X139.593 Y83.821 E17.76225
G1 X139.282 Y83.799 E17.79847
G1 X134.432 Y85.622 E18.40152
G1 X130.600 Y87.689 E18.90831
G1 X128.214 Y86.380 E19.22509
G1 X127.613 Y78.028 E20.19962
G1 X128.610 Y76.583 E20.40405
G1 X133.821 Y75.021 E21.03718
G1 X133.972 Y74.946 E21.05685
G1 X134.355 Y74.809 E21.10419
G1 X142.324 Y73.341 E22.04730
G1 X147.306 Y72.661 E22.63248
G1 X148.017 Y72.623 E22.71542
G1 X148.398 Y72.664 E22.76002
G1 X158.790 Y75.423 E24.01142
G1 X159.035 Y75.517 E24.04197
G1 X159.703 Y75.855 E24.12904
G1 X170.874 Y81.004 E25.56074
G1 X171.667 Y82.321 E25.73964
G1 X171.041 Y93.843 E27.08262
G1 X171.116 Y94.087 E27.11241
G1 X194.503 Y124.549 E31.58225
G1 X194.616 Y126.033 E31.75547
G1 X191.873 Y131.023 E32.41816
G1 X192.035 Y131.588 E32.48668
G1 X192.731 Y131.978 E32.57951
G1 X193.300 Y133.957 E32.81925
G1 X187.667 Y144.213 E34.18110
G1 X185.881 Y144.852 E34.40187
G1 X178.012 Y141.691 E35.38885
G1 X177.237 Y139.637 E35.64443
G1 X178.936 Y136.264 E36.08406
G1 X178.578 Y135.606 E36.17121
G1 X171.984 Y134.904 E36.94301
G1 X171.496 Y135.456 E37.02878
G1 X172.798 Y141.053 E37.69758
G1 X170.205 Y143.011 E38.07568
G1 X159.516 Y137.091 E39.49784
G1 X158.829 Y135.614 E39.68740
G1 X159.156 Y133.959 E39.88382
G1 X158.477 Y133.417 E39.98482
G1 X157.646 Y133.787 E40.09073
G1 X153.380 Y129.936 E40.75961
G1 X152.660 Y130.096 E40.84539
G1 X150.080 Y136.205 E41.61728
G1 X150.482 Y136.837 E41.70444
G1 X154.258 Y136.984 E42.14423
G1 X155.679 Y138.658 E42.39988
G1 X154.630 Y147.075 E43.38709
G1 X153.206 Y148.328 E43.60780
G1 X141.506 Y148.287 E44.96960
G1 X140.049 Y146.830 E45.20937
G1 X140.046 Y146.034 E45.30208
G1 X139.630 Y145.618 E45.37061
G1 X133.937 Y145.600 E46.03317
G1 X132.694 Y144.783 E46.20638
G1 X117.371 Y109.568 E50.67626
G1 X117.193 Y109.383 E50.70604
G1 X106.810 Y104.349 E52.04911
G1 X106.043 Y103.017 E52.22800
G1 X106.949 Y90.751 E53.65961
G1 X106.977 Y90.003 E53.74667
G1 X107.014 Y89.743 E53.77721
G1 X109.634 Y79.314 E55.02878
G1 X109.783 Y78.961 E55.07340
G1 X110.101 Y78.445 E55.14391
G1 X110.698 Y78.837 F7200.000
G1 X113.761 Y74.731 E55.74014 F1080.000
G1 X118.826 Y68.566 E56.66883
G1 X119.045 Y68.374 E56.70264
G1 X119.200 Y68.268 E56.72456
G1 X122.966 Y64.588 E57.33739
G1 X124.214 Y64.465 E57.48338
G1 X130.694 Y68.686 E58.38349
G1 X130.687 Y70.630 E58.60979
G1 X127.308 Y72.799 E59.07709
G1 X123.078 Y76.402 E59.72380
G1 X122.947 Y76.684 E59.76000
G1 X122.920 Y80.210 E60.17042
G1 X122.901 Y80.383 E60.19073
G1 X121.053 Y89.363 E61.25780
G1 X121.173 Y89.726 E61.30220
G1 X151.819 Y117.132 E66.08739
G1 X151.949 Y117.207 E66.10486
G1 X158.344 Y119.261 E66.88659
G1 X158.956 Y118.700 E66.98320
G1 X151.917 Y87.802 E70.67158
G1 X151.658 Y87.522 E70.71600
G1 X142.906 Y84.791 E71.78313
G1 X142.744 Y84.723 E71.80351
G1 X139.647 Y83.037 E72.21394
G1 X139.337 Y83.016 E72.25016
G1 X134.136 Y84.971 E72.89688
G1 X130.602 Y86.876 E73.36406
G1 X128.898 Y85.941 E73.59033
G1 X128.343 Y78.227 E74.49041
G1 X129.055 Y77.195 E74.63643
G1 X134.100 Y75.683 E75.24936
G1 X134.268 Y75.599 E75.27127
G1 X134.542 Y75.501 E75.30509
G1 X142.388 Y74.054 E76.23368
G1 X147.387 Y73.371 E76.82088
G1 X147.996 Y73.339 E76.89190
G1 X148.268 Y73.368 E76.92376
G1 X158.571 Y76.104 E78.16442
G1 X158.746 Y76.170 E78.18624
G1 X159.392 Y76.498 E78.27050
G1 X170.375 Y81.561 E79.67820
G1 X170.942 Y82.501 E79.80598
G1 X170.313 Y94.068 E81.15418
G1 X170.389 Y94.312 E81.18396
G1 X193.807 Y124.815 E85.65983
G1 X193.888 Y125.875 E85.78356
G1 X190.906 Y131.300 E86.50404
G1 X191.068 Y131.866 E86.57256
G1 X192.126 Y132.457 E86.71369
G1 X192.532 Y133.872 E86.88493
G1 X187.172 Y143.632 E88.18100
G1 X185.896 Y144.088 E88.33868
G1 X178.570 Y141.145 E89.25761
G1 X178.016 Y139.678 E89.44018
G1 X180.039 Y135.663 E89.96347
G1 X179.680 Y135.005 E90.05063
G1 X171.061 Y134.088 E91.05951
G1 X170.573 Y134.640 E91.14528
G1 X171.997 Y140.763 E91.87696
G1 X170.145 Y142.161 E92.14704
G1 X160.065 Y136.579 E93.48810
G1 X159.575 Y135.524 E93.62350
G1 X160.122 Y132.747 E93.95293
G1 X159.444 Y132.206 E94.05393
G1 X157.780 Y132.946 E94.26591
G1 X153.113 Y128.733 E94.99768
G1 X152.393 Y128.893 E95.08346
G1 X149.020 Y136.879 E96.09246
G1 X149.422 Y137.511 E96.17962
G1 X153.916 Y137.685 E96.70309
G1 X154.932 Y138.881 E96.88570
G1 X153.955 Y146.718 E97.80485
G1 X152.938 Y147.613 E97.96250
G1 X141.803 Y147.574 E99.25851
G1 X140.762 Y146.533 E99.42978
G1 X140.758 Y145.322 E99.57079
G1 X140.341 Y144.906 E99.63932
G1 X134.152 Y144.887 E100.35970
G1 X133.264 Y144.303 E100.48341
G1 X117.920 Y109.040 E104.95932
G1 X117.743 Y108.856 E104.98909
G1 X107.319 Y103.802 E106.33737
G1 X106.771 Y102.851 E106.46515
G1 X107.662 Y90.790 E107.87276
G1 X107.689 Y90.066 E107.95701
G1 X107.715 Y89.881 E107.97883
G1 X110.313 Y79.541 E109.21965
G1 X110.419 Y79.289 E109.25153
G1 X110.642 Y78.928 E109.30084
G1 X111.297 Y79.225 F7200.000
G1 X114.318 Y75.178 E109.88863 F1080.000
G1 X119.341 Y69.064 E110.80959
G1 X119.644 Y68.832 E110.85395
G1 X123.285 Y65.274 E111.44658
G1 X124.034 Y65.200 E111.53417
G1 X129.978 Y69.072 E112.35982
G1 X129.974 Y70.238 E112.49560
G1 X126.882 Y72.223 E112.92329
G1 X122.367 Y76.070 E113.61366
G1 X122.235 Y76.352 E113.64985
G1 X122.195 Y80.274 E114.10634
G1 X120.271 Y89.622 E115.21716
G1 X120.391 Y89.984 E115.26157
G1 X151.456 Y117.766 E120.11224
G1 X151.586 Y117.840 E120.12971
G1 X159.319 Y120.325 E121.07497
G1 X159.930 Y119.764 E121.17157
G1 X152.522 Y87.243 E125.05365
G1 X152.263 Y86.962 E125.09807
G1 X143.152 Y84.120 E126.20896
G1 X139.702 Y82.254 E126.66550
G1 X139.391 Y82.232 E126.70172
G1 X133.839 Y84.320 E127.39211
G1 X130.605 Y86.063 E127.81969
G1 X129.582 Y85.502 E127.95545
G1 X129.073 Y78.426 E128.78106
G1 X129.501 Y77.807 E128.86868
G1 X134.379 Y76.345 E129.46142
G1 X134.728 Y76.193 E129.50578
G1 X142.509 Y74.758 E130.42663
G1 X147.467 Y74.081 E131.00908
G1 X147.974 Y74.055 E131.06817
G1 X148.138 Y74.073 E131.08728
G1 X158.351 Y76.784 E132.31721
G1 X159.080 Y77.141 E132.41169
G1 X169.877 Y82.118 E133.79538
G1 X170.217 Y82.682 E133.87205
G1 X169.586 Y94.293 E135.22547
G1 X169.661 Y94.537 E135.25525
G1 X193.111 Y125.082 E139.73714
G1 X193.159 Y125.718 E139.81138
G1 X189.938 Y131.577 E140.58966
G1 X190.100 Y132.143 E140.65818
G1 X191.521 Y132.937 E140.84759
G1 X191.764 Y133.786 E140.95034
G1 X186.676 Y143.051 E142.18062
G1 X185.911 Y143.325 E142.27523
G1 X179.127 Y140.600 E143.12611
G1 X178.795 Y139.719 E143.23565
G1 X181.141 Y135.062 E143.84262
G1 X180.783 Y134.405 E143.92977
G1 X170.138 Y133.271 E145.17574
G1 X169.650 Y133.823 E145.26151
G1 X171.196 Y140.472 E146.05608
G1 X170.085 Y141.311 E146.21812
G1 X160.615 Y136.067 E147.47809
G1 X160.320 Y135.434 E147.55933
G1 X161.781 Y128.028 E148.43790
G1 X161.779 Y127.878 E148.45536
G1 X160.455 Y122.066 E149.14917
G1 X159.186 Y122.209 E149.29777
G1 X159.186 Y131.539 E150.38374
G1 X157.914 Y132.105 E150.54578
G1 X152.846 Y127.530 E151.34045
G1 X152.126 Y127.690 E151.42623
G1 X147.961 Y137.552 E152.67234
G1 X148.362 Y138.184 E152.75949
G1 X153.575 Y138.387 E153.36664
G1 X154.184 Y139.104 E153.47621
G1 X153.280 Y146.361 E154.32730
G1 X152.670 Y146.898 E154.42190
G1 X142.100 Y146.861 E155.65212
G1 X141.475 Y146.236 E155.75488
G1 X141.469 Y144.610 E155.94420
G1 X141.053 Y144.194 E156.01273
G1 X134.367 Y144.173 E156.79092
G1 X133.834 Y143.823 E156.86515
G1 X118.469 Y108.513 E161.34707
G1 X118.292 Y108.328 E161.37685
G1 X107.828 Y103.255 E162.73033
G1 X107.499 Y102.685 E162.80700
G1 X108.376 Y90.829 E164.19061
G1 X108.417 Y90.019 E164.28508
G1 X110.992 Y79.768 E165.51517
G1 X111.056 Y79.617 E165.53429
G1 X111.241 Y79.316 E165.57538
G1 F1800.000 E164.57538
G92 E0
G1 X123.514 Y63.752 F7200.000
G1 X131.893 Y69.210 F7200.000
G1 X129.804 Y78.625 F7200.000
G1 E1.00000 F1800.000
G1 X129.946 Y78.419 E1.02920 F1080.000
G1 X134.658 Y77.007 E1.60175
G1 X134.915 Y76.884 E1.63486
G1 X142.630 Y75.462 E2.54799
G1 X147.548 Y74.791 E3.12567
G1 X147.953 Y74.771 E3.17284
G1 X158.132 Y77.465 E4.39833
G1 X158.769 Y77.784 E4.48130
G1 X169.379 Y82.674 E5.84100
G1 X169.492 Y82.862 E5.86655
G1 X168.858 Y94.518 E7.22518
G1 X168.934 Y94.763 E7.25496
G1 X192.415 Y125.348 E11.74288
G1 X192.431 Y125.560 E11.76762
G1 X188.971 Y131.855 E12.60370
G1 X189.133 Y132.421 E12.67222
G1 X190.916 Y133.417 E12.90993
G1 X190.997 Y133.700 E12.94417
G1 X186.181 Y142.470 E14.10867
G1 X185.926 Y142.561 E14.14021
G1 X179.684 Y140.054 E14.92304
G1 X179.574 Y139.760 E14.95955
G1 X182.244 Y134.461 E15.65019
G1 X181.885 Y133.804 E15.73734
G1 X169.215 Y132.455 E17.22039
G1 X168.727 Y133.007 E17.30617
G1 X170.395 Y140.182 E18.16361
G1 X170.025 Y140.462 E18.21763
G1 X161.164 Y135.555 E19.39650
G1 X161.066 Y135.344 E19.42358
G1 X162.511 Y128.018 E20.29273
G1 X162.509 Y127.868 E20.31020
G1 X153.127 Y86.683 E25.22642
G1 X152.868 Y86.403 E25.27084
G1 X143.398 Y83.449 E26.42548
G1 X139.756 Y81.470 E26.90786
G1 X139.446 Y81.449 E26.94407
G1 X133.542 Y83.668 E27.67813
G1 X130.608 Y85.250 E28.06611
G1 X130.267 Y85.063 E28.11136
G1 X129.811 Y78.732 E28.85005
G1 F1800.000 E27.85005
G92 E0
G1 X126.456 Y71.648 F7200.000
G1 E1.00000 F1800.000
G1 X121.655 Y75.738 E1.73401 F1080.000
G1 X121.524 Y76.020 E1.77021
G1 X121.488 Y80.164 E2.25254
G1 X119.489 Y89.880 E3.40713
G1 X119.608 Y90.242 E3.45153
G1 X151.093 Y118.399 E8.36769
G1 X151.224 Y118.474 E8.38515
G1 X158.335 Y120.759 E9.25453
G1 X158.472 Y120.947 E9.28162
G1 X158.472 Y131.075 E10.46046
G1 X158.048 Y131.264 E10.51447
G1 X152.579 Y126.327 E11.37203
G1 X151.859 Y126.486 E11.45781
G1 X146.901 Y138.226 E12.94102
G1 X147.303 Y138.858 E13.02818
G1 X153.234 Y139.088 E13.71901
G1 X153.437 Y139.327 E13.75553
G1 X152.605 Y146.004 E14.53858
G1 X152.401 Y146.183 E14.57011
G1 X142.397 Y146.148 E15.73455
G1 X142.188 Y145.939 E15.76880
G1 X142.181 Y143.898 E16.00642
G1 X141.764 Y143.482 E16.07495
G1 X134.582 Y143.460 E16.91095
G1 X134.404 Y143.343 E16.93569
G1 X119.019 Y107.986 E21.42364
G1 X118.842 Y107.801 E21.45341
G1 X108.337 Y102.708 E22.81210
G1 X108.228 Y102.518 E22.83766
G1 X109.089 Y90.868 E24.19726
G1 X109.119 Y90.156 E24.28024
G1 X111.693 Y79.945 E25.50589
G1 X111.906 Y79.600 E25.55307
G1 X114.875 Y75.625 E26.13057
G1 X119.856 Y69.562 E27.04380
G1 X120.088 Y69.397 E27.07691
G1 X123.605 Y65.960 E27.64933
G1 X123.855 Y65.935 E27.67853
G1 X129.263 Y69.458 E28.42972
G1 X129.261 Y69.847 E28.47498
G1 X126.544 Y71.588 E28.85061
G1 X126.125 Y70.957 F7200.000
G1 X126.022 Y71.023 E28.86485 F756.000
G1 X120.770 Y75.497 E29.66786
G1 X120.735 Y80.067 E30.19974
G1 X118.615 Y90.370 E31.42404
G1 X150.766 Y119.122 E36.44416
G1 X157.715 Y121.355 E37.29371
G1 X157.715 Y129.943 E38.29332
G1 X151.823 Y124.625 E39.21707
G1 X145.522 Y139.546 E41.10226
G1 X152.612 Y139.822 E41.92817
G1 X151.914 Y145.424 E42.58521
G1 X142.944 Y145.392 E43.62928
G1 X142.934 Y142.728 E43.93937
G1 X134.952 Y142.704 E44.86839
G1 X119.546 Y107.299 E49.36235
G1 X109.011 Y102.194 E50.72489
G1 X109.845 Y90.903 E52.04254
G1 X109.868 Y90.282 E52.11495
G1 X112.385 Y80.265 E53.31703
G1 X112.528 Y80.033 E53.34881
G1 X115.466 Y76.099 E53.92027
G1 X120.381 Y70.116 E54.82147
G1 X120.530 Y70.023 E54.84193
G1 X123.815 Y66.813 E55.37648
G1 X128.167 Y69.649 E55.98103
G1 X126.216 Y70.899 E56.25081
G1 X126.017 Y70.901 F7200.000
G1 X125.740 Y70.356 F7200.000
G1 X125.596 Y70.448 E56.27070 F1080.000
G1 X120.059 Y75.165 E57.11736
G1 X120.022 Y79.991 E57.67909
G1 X117.833 Y90.628 E58.94307
G1 X150.403 Y119.755 E64.02867
G1 X157.001 Y121.875 E64.83528
G1 X157.001 Y128.336 E65.58729
G1 X151.556 Y123.422 E66.44095
G1 X144.462 Y140.219 E68.56321
G1 X151.807 Y140.506 E69.41878
G1 X151.284 Y144.707 E69.91162
G1 X143.655 Y144.681 E70.79951
G1 X143.645 Y142.016 E71.10963
G1 X135.420 Y141.991 E72.06691
G1 X120.093 Y106.768 E76.53789
G1 X109.759 Y101.763 E77.87432
G1 X110.559 Y90.943 E79.13708
G1 X110.579 Y90.383 E79.20229
G1 X113.052 Y80.544 E80.38311
G1 X116.023 Y76.545 E80.96290
G1 X120.859 Y70.660 E81.84951
G1 X120.974 Y70.588 E81.86530
G1 X123.905 Y67.724 E82.34222
G1 X126.851 Y69.644 E82.75151
G1 X125.830 Y70.298 E82.89264
G1 X125.484 Y69.605 F7200.000
G1 X119.347 Y74.833 E83.83096 F1080.000
G1 X119.308 Y79.916 E84.42254
G1 X117.050 Y90.887 E85.72619
G1 X150.040 Y120.389 E90.87728
G1 X156.287 Y122.396 E91.64096
G1 X156.287 Y126.730 E92.14536
G1 X151.289 Y122.219 E92.92893
G1 X143.230 Y141.301 E95.33984
G1 X135.889 Y141.278 E96.19426
G1 X120.641 Y106.236 E100.64226
G1 X110.507 Y101.332 E101.95258
G1 X111.272 Y90.982 E103.16046
G1 X111.290 Y90.484 E103.21845
G1 X113.718 Y80.826 E104.37758
G1 X116.581 Y76.992 E104.93444
G1 X121.337 Y71.203 E105.80647
G1 X121.418 Y71.152 E105.81760
G1 X123.995 Y68.635 E106.23688
G1 X125.394 Y69.547 E106.43130
G1 F1800.000 E105.43130
G92 E0
G1 X144.355 Y140.930 F7200.000
G1 E1.00000 F1800.000
G1 X151.002 Y141.189 E1.77427 F540.000
G1 X150.653 Y143.991 E2.10289
G1 X144.366 Y143.969 E2.83460
G1 X144.355 Y141.037 E3.17587
G1 X142.935 Y127.224 F7200.000
G1 X134.289 Y127.198 E4.18218 F540.000
G1 X134.289 Y118.470 E5.19803
G1 X142.935 Y118.496 E6.20434
