; generated by Slic3r 1.0.0RC2 on 2014-05-18 at 09:19:12

; layer_height = 0.3
; perimeters = 4
; top_solid_layers = 3
; bottom_solid_layers = 3
; fill_density = 0.1
; perimeter_speed = 60
; infill_speed = 60
; travel_speed = 120
; nozzle_diameter = 0.4
; filament_diameter = 1.75
; extrusion_multiplier = 0.98
; perimeters extrusion width = 0.40mm
; infill extrusion width = 0.42mm
; solid infill extrusion width = 0.42mm
; top infill extrusion width = 0.42mm
; first layer extrusion width = 0.80mm

G21 ; set units to millimeters
M107
M104 S220 ; set temperature
G28 ; home all axes
M106 S255;
G1 Z200 F1200 ; lift nozzle
M109 S220 ; wait for temperature to be reached
G90 ; use absolute coordinates
G92 E0
M82 ; use absolute distances for extrusion
G1 F1800.000 E-1.00000
G92 E0
G1 Z0.400 F7200.000
G1 X125.540 Y90.938 F7200.000
G1 E1.00000 F1800.000
G1 X129.060 Y86.088 E1.69749 F1080.000
G1 X129.790 Y85.237 E1.82790
G1 X130.330 Y84.708 E1.91597
G1 X131.080 Y84.068 E2.03072
G1 X135.930 Y80.538 E2.72890
G1 X136.770 Y80.017 E2.84388
G1 X137.440 Y79.668 E2.93187
G1 X138.490 Y79.228 E3.06437
G1 X144.190 Y77.388 E3.76150
G1 X145.260 Y77.138 E3.88939
G1 X146.000 Y77.028 E3.97647
G1 X146.990 Y76.958 E4.09198
G1 X152.990 Y76.958 E4.79032
G1 X153.960 Y77.028 E4.90351
G1 X154.710 Y77.138 E4.99174
G1 X155.810 Y77.388 E5.12303
G1 X161.500 Y79.228 E5.81906
G1 X162.540 Y79.668 E5.95049
G1 X163.210 Y80.017 E6.03847
G1 X164.050 Y80.538 E6.15346
G1 X168.910 Y84.068 E6.85257
G1 X169.710 Y84.748 E6.97478
G1 X170.240 Y85.278 E7.06202
G1 X170.920 Y86.078 E7.18422
G1 X174.450 Y90.928 E7.88240
G1 X175.010 Y91.838 E8.00676
G1 X175.350 Y92.508 E8.09421
G1 X175.750 Y93.478 E8.21633
G1 X177.600 Y99.178 E8.91382
G1 X177.850 Y100.278 E9.04511
G1 X177.960 Y101.028 E9.13334
G1 X178.030 Y101.998 E9.24653
G1 X178.030 Y107.988 E9.94371
G1 X177.960 Y108.978 E10.05922
G1 X177.850 Y109.718 E10.14630
G1 X177.600 Y110.798 E10.27532
G1 X175.750 Y116.507 E10.97392
G1 X175.350 Y117.477 E11.09604
G1 X175.010 Y118.148 E11.18349
G1 X174.440 Y119.068 E11.30945
G1 X170.910 Y123.908 E12.00669
G1 X170.280 Y124.648 E12.11980
G1 X169.750 Y125.188 E12.20787
G1 X168.910 Y125.918 E12.33739
G1 X164.050 Y129.447 E13.03651
G1 X163.070 Y130.037 E13.16965
G1 X162.400 Y130.368 E13.25658
G1 X161.520 Y130.727 E13.36724
G1 X155.830 Y132.588 E14.06398
G1 X154.800 Y132.838 E14.18735
G1 X154.050 Y132.958 E14.27575
G1 X152.990 Y133.037 E14.39947
G1 X146.990 Y133.037 E15.09781
G1 X145.920 Y132.958 E15.22270
G1 X145.180 Y132.838 E15.30995
G1 X144.170 Y132.588 E15.43105
G1 X138.470 Y130.727 E16.12890
G1 X137.580 Y130.368 E16.24064
G1 X136.910 Y130.037 E16.32757
G1 X135.930 Y129.447 E16.46071
G1 X131.080 Y125.918 E17.15889
G1 X130.280 Y125.238 E17.28109
G1 X129.740 Y124.698 E17.36997
G1 X129.060 Y123.898 E17.49218
G1 X125.540 Y119.058 E18.18873
G1 X124.980 Y118.148 E18.31309
G1 X124.640 Y117.477 E18.40054
G1 X124.240 Y116.507 E18.52266
G1 X122.390 Y110.798 E19.22126
G1 X122.140 Y109.718 E19.35028
G1 X122.030 Y108.978 E19.43736
G1 X121.960 Y107.988 E19.55287
G1 X121.960 Y101.998 E20.25005
G1 X122.030 Y101.028 E20.36324
G1 X122.140 Y100.278 E20.45147
G1 X122.390 Y99.178 E20.58276
G1 X124.240 Y93.478 E21.28025
G1 X124.640 Y92.508 E21.40237
G1 X124.980 Y91.838 E21.48982
G1 X125.483 Y91.028 E21.60072
G1 F1800.000 E20.60072
G92 E0
G1 X147.637 Y91.558 F7200.000
G1 E1.00000 F1800.000
G1 X147.813 Y90.687 E1.10344 F540.000
G1 X148.301 Y89.950 E1.20627
G1 X149.039 Y89.455 E1.30971
G1 X149.910 Y89.285 E1.41298
G1 X150.781 Y89.455 E1.51625
G1 X151.519 Y89.950 E1.61970
G1 X152.007 Y90.687 E1.72252
G1 X152.183 Y91.558 E1.82596
G1 X152.006 Y92.423 E1.92880
G1 X151.519 Y93.160 E2.03159
G1 X150.781 Y93.655 E2.13504
G1 X149.910 Y93.825 E2.23831
G1 X149.039 Y93.655 E2.34158
G1 X148.301 Y93.160 E2.44503
G1 X147.814 Y92.423 E2.54782
G1 X147.658 Y91.663 E2.63819
G1 X147.043 Y91.161 F7200.000
G1 X138.444 Y103.470 F7200.000
G1 X138.931 Y104.207 E2.74098 F540.000
G1 X139.108 Y105.072 E2.84382
G1 X138.932 Y105.943 E2.94726
G1 X138.444 Y106.680 E3.05008
G1 X137.706 Y107.175 E3.15353
G1 X136.835 Y107.345 E3.25680
G1 X135.964 Y107.174 E3.36016
G1 X135.231 Y106.680 E3.46299
G1 X134.739 Y105.944 E3.56604
G1 X134.562 Y105.072 E3.66962
G1 X134.739 Y104.205 E3.77260
G1 X135.231 Y103.470 E3.87562
G1 X135.964 Y102.976 E3.97844
G1 X136.835 Y102.805 E4.08181
G1 X137.706 Y102.975 E4.18507
G1 X138.355 Y103.410 E4.27605
G1 X139.145 Y103.333 F7200.000
G1 F1800.000 E3.27605
G92 E0
G1 X161.067 Y105.072 F7200.000
G1 E1.00000 F1800.000
G1 X161.238 Y104.207 E1.10270 F540.000
G1 X161.732 Y103.469 E1.20598
G1 X162.469 Y102.976 E1.30925
G1 X163.335 Y102.805 E1.41195
G1 X164.206 Y102.975 E1.51525
G1 X164.943 Y103.469 E1.61856
G1 X165.437 Y104.207 E1.72184
G1 X165.608 Y105.072 E1.82453
G1 X165.437 Y105.943 E1.92784
G1 X164.943 Y106.681 E2.03115
G1 X164.206 Y107.175 E2.13445
G1 X163.335 Y107.345 E2.23776
G1 X162.469 Y107.174 E2.34045
G1 X161.732 Y106.681 E2.44373
G1 X161.238 Y105.943 E2.54704
G1 X161.088 Y105.177 E2.63788
G1 X160.474 Y104.676 F7200.000
G1 X159.768 Y103.449 F7200.000
G1 X159.768 Y106.546 E2.99829 F756.000
G1 X158.809 Y109.486 E3.35827
G1 X156.985 Y111.988 E3.71869
G1 X154.483 Y113.802 E4.07832
G1 X151.543 Y114.756 E4.43810
G1 X148.452 Y114.756 E4.79789
G1 X145.507 Y113.802 E5.15817
G1 X143.122 Y112.073 E5.50107
G1 X143.004 Y111.987 E5.51799
G1 X141.191 Y109.486 E5.87762
G1 X140.232 Y106.545 E6.23764
G1 X140.232 Y103.449 E6.59797
G1 X141.190 Y100.505 E6.95842
G1 X143.004 Y98.007 E7.31767
G1 X145.390 Y96.273 E7.66096
G1 X145.507 Y96.188 E7.67780
G1 X148.451 Y95.229 E8.03819
G1 X151.543 Y95.229 E8.39807
G1 X154.484 Y96.188 E8.75802
G1 X156.985 Y98.007 E9.11794
G1 X158.809 Y100.504 E9.47797
G1 X159.735 Y103.347 E9.82594
G1 X160.421 Y103.739 F7200.000
G1 F1800.000 E8.82594
G92 E0
G1 X165.625 Y95.926 F7200.000
G1 X158.624 Y99.233 F7200.000
G1 X156.444 Y101.335 F7200.000
G1 X145.806 Y111.055 F7200.000
G1 X143.211 Y112.878 F7200.000
G1 X151.519 Y116.710 F7200.000
G1 E1.00000 F1800.000
G1 X152.007 Y117.447 E1.10282 F540.000
G1 X152.183 Y118.318 E1.20626
G1 X152.006 Y119.183 E1.30910
G1 X151.519 Y119.920 E1.41189
G1 X150.781 Y120.415 E1.51534
G1 X149.910 Y120.585 E1.61861
G1 X149.039 Y120.415 E1.72188
G1 X148.301 Y119.920 E1.82533
G1 X147.814 Y119.183 E1.92812
G1 X147.637 Y118.318 E2.03096
G1 X147.813 Y117.447 E2.13440
G1 X148.301 Y116.710 E2.23722
G1 X149.039 Y116.215 E2.34067
G1 X149.910 Y116.045 E2.44394
G1 X150.781 Y116.215 E2.54721
G1 X151.430 Y116.650 E2.63819
G1 X152.220 Y116.573 F7200.000
G1 X155.850 Y120.556 F7200.000
G1 X151.371 Y121.597 F7200.000
G1 X147.820 Y121.317 F7200.000
G1 X147.434 Y122.498 E2.78273 F540.000
G1 X147.026 Y122.434 E2.83077
G1 X147.016 Y120.779 E3.02339
G1 X147.731 Y121.258 E3.12350
G1 X145.634 Y119.220 F7200.000
G1 X144.983 Y119.220 E3.19935 F540.000
G1 X143.166 Y118.614 E3.42221
G1 X141.100 Y117.172 E3.71549
G1 X140.711 Y116.881 E3.77206
G1 X139.070 Y115.568 E4.01665
G1 X137.836 Y113.924 E4.25590
G1 X136.308 Y111.730 E4.56714
G1 X135.806 Y110.088 E4.76694
G1 X135.505 Y109.268 E4.86859
G1 X136.835 Y109.528 E5.02627
G1 X138.824 Y109.139 E5.26213
G1 X139.259 Y110.472 E5.42540
G1 X141.469 Y113.520 E5.86355
G1 X144.523 Y115.735 E6.30271
G1 X146.049 Y116.230 E6.48943
G1 X145.797 Y116.613 E6.54281
G1 X145.450 Y118.319 E6.74547
G1 X145.613 Y119.115 E6.84001
G1 X146.257 Y118.699 F7200.000
G1 X146.470 Y119.740 E6.96369 F1080.000
G1 X147.041 Y120.605 E7.08426
G1 X145.328 Y120.088 E7.29248
G1 X144.987 Y119.934 E7.33604
G1 X144.867 Y119.934 E7.35003
G1 X143.232 Y119.389 E7.55060
G1 X142.139 Y120.873 E7.76505
G1 X141.775 Y120.687 E7.81264
G1 X142.341 Y118.909 E8.02977
G1 X140.682 Y117.751 E8.26526
G1 X139.168 Y116.561 E8.48940
G1 X137.587 Y117.690 E8.71546
G1 X137.306 Y117.412 E8.76146
G1 X138.389 Y115.851 E8.98265
G1 X137.258 Y114.342 E9.20217
G1 X136.081 Y112.654 E9.44167
G1 X134.303 Y113.216 E9.65876
G1 X134.120 Y112.862 E9.70514
G1 X135.572 Y111.767 E9.91680
G1 X135.129 Y110.315 E10.09349
G1 X134.971 Y109.884 E10.14690
G1 X134.411 Y108.042 E10.37100
G1 X134.547 Y107.942 E10.39066
G1 X135.405 Y108.520 E10.51109
G1 X136.835 Y108.801 E10.68073
G1 X138.262 Y108.521 E10.84996
G1 X139.174 Y107.910 E10.97773
G1 X139.903 Y110.144 E11.25114
G1 X141.981 Y113.009 E11.66312
G1 X144.851 Y115.091 E12.07584
G1 X147.163 Y115.840 E12.35871
G1 X146.469 Y116.891 E12.50528
G1 X146.179 Y118.319 E12.67487
G1 X146.235 Y118.594 E12.70762
G1 X134.384 Y107.982 F7200.000
G1 X132.542 Y107.971 E12.92199 F540.000
G1 X132.478 Y107.570 E12.96930
G1 X133.809 Y107.123 E13.13270
G1 X134.325 Y107.893 E13.24057
G1 X134.716 Y107.194 F7200.000
G1 X135.684 Y107.847 E13.37656 F1080.000
G1 X136.835 Y108.073 E13.51306
G1 X137.984 Y107.848 E13.64931
G1 X138.961 Y107.194 E13.78616
G1 X139.450 Y106.454 E13.88941
G1 X140.547 Y109.815 E14.30089
G1 X142.493 Y112.498 E14.68670
G1 X145.179 Y114.447 E15.07296
G1 X148.696 Y115.586 E15.50320
G1 X147.784 Y116.196 E15.63088
G1 X147.141 Y117.169 E15.76658
G1 X146.908 Y118.318 E15.90310
G1 X147.142 Y119.462 E16.03896
G1 X147.784 Y120.434 E16.17456
G1 X148.667 Y121.025 E16.29819
G1 X148.037 Y122.953 E16.53431
G1 X147.719 Y123.587 E16.61683
G1 X147.290 Y124.260 E16.70967
G1 X146.861 Y124.825 E16.79232
G1 X146.612 Y124.145 E16.87661
G1 X146.423 Y123.392 E16.96691
G1 X146.314 Y122.679 E17.05091
G1 X146.304 Y121.128 E17.23139
G1 X145.112 Y120.769 E17.37630
G1 X144.818 Y120.648 E17.41326
G1 X144.751 Y120.648 E17.42111
G1 X143.499 Y120.231 E17.57471
G1 X142.580 Y121.478 E17.75497
G1 X142.083 Y121.983 E17.83747
G1 X141.484 Y122.473 E17.92759
G1 X140.889 Y122.876 E18.01123
G1 X140.865 Y122.159 E18.09477
G1 X140.914 Y121.381 E18.18546
G1 X141.027 Y120.682 E18.26792
G1 X141.501 Y119.194 E18.44970
G1 X140.263 Y118.330 E18.62532
G1 X139.143 Y117.456 E18.79069
G1 X137.860 Y118.373 E18.97423
G1 X137.222 Y118.698 E19.05764
G1 X136.496 Y118.993 E19.14878
G1 X135.801 Y119.192 E19.23289
G1 X136.004 Y118.498 E19.31708
G1 X136.293 Y117.779 E19.40728
G1 X136.626 Y117.139 E19.49112
G1 X137.509 Y115.867 E19.67137
G1 X136.679 Y114.761 E19.83236
G1 X135.796 Y113.493 E20.01217
G1 X134.308 Y113.963 E20.19376
G1 X133.608 Y114.088 E20.27648
G1 X132.829 Y114.128 E20.36731
G1 X132.118 Y114.112 E20.45004
G1 X132.527 Y113.516 E20.53413
G1 X133.019 Y112.914 E20.62463
G1 X133.529 Y112.413 E20.70785
G1 X134.743 Y111.498 E20.88485
G1 X134.452 Y110.543 E21.00107
G1 X134.291 Y110.104 E21.05541
G1 X133.864 Y108.693 E21.22697
G1 X132.317 Y108.684 E21.40705
G1 X131.612 Y108.571 E21.49020
G1 X130.851 Y108.376 E21.58165
G1 X130.174 Y108.135 E21.66525
G1 X130.747 Y107.694 E21.74941
G1 X131.398 Y107.275 E21.83943
G1 X132.033 Y106.966 E21.92167
G1 X133.511 Y106.470 E22.10314
G1 X133.501 Y105.777 E22.18380
G1 X133.721 Y105.708 E22.21067
G1 X134.656 Y107.105 E22.40627
G1 X135.473 Y100.888 F7200.000
G1 X136.410 Y98.078 E22.75108 F540.000
G1 X137.989 Y95.888 E23.06535
G1 X139.113 Y94.278 E23.29388
G1 X139.192 Y94.334 E23.30513
G1 X140.920 Y92.952 E23.56265
G1 X143.142 Y91.408 E23.87755
G1 X145.655 Y90.551 E24.18661
G1 X145.450 Y91.559 E24.30637
G1 X145.798 Y93.259 E24.50828
G1 X146.114 Y93.737 E24.57503
G1 X144.524 Y94.255 E24.76967
G1 X141.469 Y96.475 E25.20913
G1 X139.258 Y99.520 E25.64715
G1 X138.775 Y101.002 E25.82853
G1 X136.835 Y100.622 E26.05865
G1 X135.578 Y100.868 E26.20772
G1 X135.405 Y101.630 F7200.000
G1 X134.280 Y102.388 E26.36561 F1080.000
G1 X134.317 Y102.268 E26.38031
G1 X133.897 Y102.895 E26.46821
G1 X132.479 Y102.429 E26.64202
G1 X132.540 Y102.027 E26.68929
G1 X134.398 Y102.004 E26.90548
G1 X134.943 Y100.219 E27.12272
G1 X135.600 Y98.249 E27.36449
G1 X134.109 Y97.125 E27.58185
G1 X134.292 Y96.770 E27.62823
G1 X136.066 Y97.331 E27.84478
G1 X137.417 Y95.461 E28.11333
G1 X138.365 Y94.102 E28.30625
G1 X137.313 Y92.596 E28.52006
G1 X137.596 Y92.316 E28.56639
G1 X139.167 Y93.439 E28.79122
G1 X140.486 Y92.385 E28.98769
G1 X142.345 Y91.091 E29.25132
G1 X141.766 Y89.284 E29.47217
G1 X142.119 Y89.100 E29.51857
G1 X143.266 Y90.609 E29.73921
G1 X144.848 Y90.061 E29.93407
G1 X146.590 Y89.535 E30.14583
G1 X146.179 Y91.559 E30.38621
G1 X146.470 Y92.980 E30.55510
G1 X147.227 Y94.126 E30.71492
G1 X144.852 Y94.899 E31.00567
G1 X141.981 Y96.986 E31.41869
G1 X139.902 Y99.848 E31.83045
G1 X139.132 Y102.212 E32.11977
G1 X138.262 Y101.629 E32.24171
G1 X136.835 Y101.349 E32.41092
G1 X135.510 Y101.609 E32.56810
G1 X135.684 Y102.303 F7200.000
G1 X134.716 Y102.956 E32.70409 F1080.000
G1 X133.723 Y104.440 E32.91187
G1 X133.498 Y104.369 E32.93922
G1 X133.516 Y103.522 E33.03785
G1 X132.035 Y103.035 E33.21931
G1 X131.402 Y102.718 E33.30168
G1 X130.745 Y102.295 E33.39267
G1 X130.171 Y101.857 E33.47669
G1 X130.854 Y101.618 E33.56087
G1 X131.609 Y101.416 E33.65181
G1 X132.311 Y101.316 E33.73440
G1 X133.867 Y101.297 E33.91556
G1 X134.262 Y100.004 E34.07290
G1 X134.760 Y98.510 E34.25617
G1 X133.527 Y97.580 E34.43590
G1 X133.018 Y97.084 E34.51870
G1 X132.526 Y96.482 E34.60913
G1 X132.114 Y95.886 E34.69344
G1 X132.826 Y95.863 E34.77627
G1 X133.609 Y95.916 E34.86763
G1 X134.317 Y96.030 E34.95114
G1 X135.786 Y96.494 E35.13043
G1 X137.494 Y94.102 E35.47252
G1 X136.626 Y92.860 E35.64890
G1 X136.295 Y92.220 E35.73276
G1 X136.004 Y91.488 E35.82442
G1 X135.802 Y90.804 E35.90742
G1 X136.499 Y91.008 E35.99192
G1 X137.221 Y91.292 E36.08228
G1 X137.855 Y91.624 E36.16555
G1 X139.143 Y92.544 E36.34977
G1 X140.052 Y91.818 E36.48518
G1 X141.503 Y90.804 E36.69118
G1 X141.027 Y89.318 E36.87290
G1 X140.914 Y88.614 E36.95581
G1 X140.865 Y87.836 E37.04660
G1 X140.888 Y87.118 E37.13014
G1 X141.482 Y87.520 E37.21355
G1 X142.080 Y88.014 E37.30377
G1 X142.584 Y88.531 E37.38792
G1 X143.522 Y89.765 E37.56824
G1 X144.728 Y89.347 E37.71682
G1 X146.304 Y88.874 E37.90835
G1 X146.314 Y87.315 E38.08980
G1 X146.423 Y86.594 E38.17469
G1 X146.612 Y85.854 E38.26354
G1 X146.856 Y85.174 E38.34771
G1 X147.294 Y85.746 E38.43158
G1 X147.722 Y86.402 E38.52273
G1 X148.035 Y87.029 E38.60430
G1 X148.626 Y88.873 E38.82961
G1 X147.784 Y89.436 E38.94753
G1 X147.141 Y90.409 E39.08322
G1 X146.908 Y91.558 E39.21974
G1 X147.142 Y92.702 E39.35560
G1 X147.784 Y93.674 E39.49120
G1 X148.810 Y94.361 E39.63489
G1 X145.179 Y95.544 E40.07933
G1 X142.493 Y97.496 E40.46590
G1 X140.546 Y100.176 E40.85141
G1 X139.417 Y103.645 E41.27604
G1 X138.961 Y102.956 E41.37221
G1 X137.984 Y102.302 E41.50907
G1 X136.835 Y102.077 E41.64530
G1 X135.789 Y102.282 E41.76934
G1 F1800.000 E40.76934
G92 E0
G1 X140.602 Y100.374 F7200.000
G1 X143.147 Y102.248 F7200.000
G1 X156.444 Y101.335 F7200.000
G1 X158.624 Y99.233 F7200.000
G1 X163.334 Y102.193 F7200.000
G1 X165.682 Y102.005 F7200.000
G1 E1.00000 F1800.000
G1 X167.461 Y102.027 E1.20708 F540.000
G1 X167.523 Y102.427 E1.25417
G1 X166.247 Y102.849 E1.41059
G1 X165.742 Y102.094 E1.51638
G1 X164.510 Y100.852 F7200.000
G1 X163.333 Y100.621 E1.65590 F540.000
G1 X161.634 Y100.957 E1.85752
G1 X161.286 Y101.189 E1.90627
G1 X160.742 Y99.519 E2.11073
G1 X158.516 Y96.470 E2.55010
G1 X155.470 Y94.257 E2.98831
G1 X153.737 Y93.691 E3.20053
G1 X154.023 Y93.259 E3.26083
G1 X154.370 Y91.559 E3.46273
G1 X154.155 Y90.499 E3.58861
G1 X154.919 Y90.736 E3.68170
G1 X156.933 Y91.446 E3.93027
G1 X158.829 Y92.774 E4.19973
G1 X160.802 Y94.273 E4.48813
G1 X162.080 Y95.972 E4.73551
G1 X162.165 Y96.143 E4.75783
G1 X162.306 Y96.284 E4.78097
G1 X163.616 Y98.170 E5.04825
G1 X164.476 Y100.750 E5.36478
G1 X165.115 Y100.412 F7200.000
G1 X165.678 Y102.242 E5.58759 F1080.000
G1 X164.762 Y101.629 E5.71587
G1 X163.334 Y101.349 E5.88522
G1 X161.912 Y101.630 E6.05387
G1 X160.899 Y102.308 E6.19580
G1 X160.098 Y99.848 E6.49696
G1 X158.005 Y96.982 E6.90988
G1 X155.141 Y94.901 E7.32199
G1 X152.624 Y94.079 E7.63018
G1 X153.351 Y92.980 E7.78349
G1 X153.641 Y91.559 E7.95237
G1 X153.351 Y90.131 E8.12197
G1 X152.829 Y89.341 E8.23209
G1 X155.143 Y90.058 E8.51399
G1 X156.731 Y90.617 E8.70996
G1 X157.883 Y89.085 E8.93312
G1 X158.234 Y89.264 E8.97890
G1 X157.671 Y91.091 E9.20145
G1 X159.250 Y92.198 E9.42580
G1 X160.853 Y93.415 E9.66008
G1 X162.391 Y92.325 E9.87952
G1 X162.673 Y92.607 E9.92598
G1 X161.592 Y94.136 E10.14395
G1 X162.689 Y95.594 E10.35631
