; generated by Slic3r 1.0.0RC2 on 2014-05-19 at 16:44:30

; layer_height = 0.3
; perimeters = 2
; top_solid_layers = 3
; bottom_solid_layers = 3
; fill_density = 0.1
; perimeter_speed = 60
; infill_speed = 60
; travel_speed = 120
; nozzle_diameter = 0.4
; filament_diameter = 1.75
; extrusion_multiplier = 0.98
; perimeters extrusion width = 0.40mm
; infill extrusion width = 0.42mm
; solid infill extrusion width = 0.42mm
; top infill extrusion width = 0.42mm
; first layer extrusion width = 0.80mm

G21 ; set units to millimeters
M107
M104 S220 ; set temperature
G28 ; home all axes
M106 S255;
G1 Z200 F1200 ; lift nozzle
M109 S220 ; wait for temperature to be reached
G90 ; use absolute coordinates
G92 E0
M82 ; use absolute distances for extrusion
G1 F1800.000 E-1.00000
G92 E0
G1 Z0.400 F7200.000
G1 X98.966 Y81.460 F7200.000
G1 E1.00000 F1800.000
G1 X115.406 Y63.020 E3.87534 F1080.000
G1 X116.706 Y61.900 E4.07506
G1 X118.246 Y61.140 E4.27494
G1 X126.376 Y58.360 E5.27498
G1 X127.446 Y58.090 E5.40342
G1 X128.546 Y58.000 E5.53188
G1 X171.446 Y58.000 E10.52500
G1 X172.546 Y58.090 E10.65346
G1 X173.616 Y58.360 E10.78190
G1 X181.746 Y61.140 E11.78194
G1 X183.286 Y61.900 E11.98182
G1 X184.586 Y63.020 E12.18153
G1 X201.026 Y81.460 E15.05688
G1 X201.946 Y82.780 E15.24414
G1 X202.526 Y84.290 E15.43241
G1 X202.726 Y85.890 E15.62008
G1 X202.846 Y105.000 E17.84434
G1 X202.726 Y106.320 E17.99861
G1 X202.346 Y107.590 E18.15290
G1 X201.716 Y108.770 E18.30859
G1 X190.896 Y124.980 E20.57695
G1 X190.066 Y126.000 E20.73001
G1 X189.046 Y126.830 E20.88307
G1 X172.836 Y137.650 E23.15143
G1 X171.736 Y138.250 E23.29727
G1 X170.536 Y138.630 E23.44377
G1 X163.666 Y140.130 E24.26221
G1 X162.646 Y140.270 E24.38204
G1 X154.156 Y140.790 E25.37204
G1 X153.766 Y140.800 E25.41745
G1 X145.796 Y140.810 E26.34508
G1 X137.306 Y140.290 E27.33508
G1 X136.256 Y140.140 E27.45853
G1 X129.426 Y138.620 E28.27292
G1 X128.246 Y138.240 E28.41720
G1 X127.156 Y137.650 E28.56146
G1 X110.946 Y126.830 E30.82983
G1 X109.926 Y126.000 E30.98289
G1 X109.096 Y124.980 E31.13594
G1 X98.276 Y108.770 E33.40431
G1 X97.646 Y107.590 E33.56000
G1 X97.266 Y106.320 E33.71429
G1 X97.146 Y105.000 E33.86856
G1 X97.266 Y85.890 E36.09281
G1 X97.466 Y84.290 E36.28048
G1 X98.046 Y82.780 E36.46875
G1 X98.904 Y81.548 E36.64355
G1 F1800.000 E35.64355
G92 E0
G1 X133.826 Y85.870 F7200.000
G1 E1.00000 F1800.000
G1 X134.054 Y84.723 E1.13607 F1080.000
G1 X134.703 Y83.751 E1.27214
G1 X135.675 Y83.101 E1.40821
G1 X136.822 Y82.873 E1.54427
G1 X137.969 Y83.101 E1.68034
G1 X138.941 Y83.751 E1.81641
G1 X139.741 Y84.949 E1.98411
G1 X140.337 Y81.937 E2.34141
G1 X142.600 Y78.533 E2.81721
G1 X145.988 Y76.256 E3.29233
G1 X149.117 Y75.630 E3.66370
G1 X147.787 Y74.742 E3.84992
G1 X147.137 Y73.770 E3.98599
G1 X146.909 Y72.623 E4.12206
G1 X147.137 Y71.476 E4.25813
G1 X147.787 Y70.504 E4.39420
G1 X148.759 Y69.855 E4.53026
G1 X149.905 Y69.627 E4.66634
G1 X151.052 Y69.855 E4.80240
G1 X152.024 Y70.504 E4.93847
G1 X152.673 Y71.476 E5.07454
G1 X152.901 Y72.623 E5.21061
G1 X152.673 Y73.770 E5.34668
G1 X152.024 Y74.742 E5.48274
G1 X150.731 Y75.605 E5.66370
G1 X153.986 Y76.256 E6.05000
G1 X157.374 Y78.533 E6.52512
G1 X159.637 Y81.937 E7.00092
G1 X160.270 Y85.138 E7.38063
G1 X161.197 Y83.751 E7.57476
G1 X162.169 Y83.101 E7.71083
G1 X163.315 Y82.873 E7.84690
G1 X164.462 Y83.101 E7.98297
G1 X165.434 Y83.751 E8.11903
G1 X166.084 Y84.723 E8.25510
G1 X166.312 Y85.870 E8.39117
G1 X166.084 Y87.016 E8.52724
G1 X165.434 Y87.988 E8.66331
G1 X164.462 Y88.638 E8.79938
G1 X163.315 Y88.866 E8.93545
G1 X162.169 Y88.638 E9.07151
G1 X161.197 Y87.988 E9.20758
G1 X160.295 Y86.639 E9.39646
G1 X159.637 Y89.966 E9.79121
G1 X157.374 Y93.371 E10.26701
G1 X153.986 Y95.647 E10.74213
G1 X150.638 Y96.317 E11.13951
G1 X152.024 Y97.243 E11.33353
G1 X152.673 Y98.215 E11.46960
G1 X152.901 Y99.362 E11.60566
G1 X152.673 Y100.508 E11.74173
G1 X152.024 Y101.480 E11.87780
G1 X151.052 Y102.130 E12.01387
G1 X149.905 Y102.358 E12.14994
G1 X148.759 Y102.130 E12.28601
G1 X147.787 Y101.480 E12.42208
G1 X147.137 Y100.508 E12.55815
G1 X146.909 Y99.362 E12.69422
G1 X147.137 Y98.215 E12.83028
G1 X147.787 Y97.243 E12.96635
G1 X149.210 Y96.292 E13.16564
G1 X145.988 Y95.647 E13.54808
G1 X142.600 Y93.371 E14.02320
G1 X140.337 Y89.966 E14.49901
G1 X139.716 Y86.828 E14.87135
G1 X138.941 Y87.988 E15.03379
G1 X137.969 Y88.638 E15.16986
G1 X136.822 Y88.866 E15.30593
G1 X135.675 Y88.638 E15.44200
G1 X134.703 Y87.988 E15.57807
G1 X134.054 Y87.016 E15.71414
G1 X133.847 Y85.975 E15.83774
G1 F1800.000 E14.83774
G92 E0
G1 X161.047 Y85.870 F7200.000
G1 E1.00000 F1800.000
G1 X161.220 Y85.002 E1.10300 F540.000
G1 X161.712 Y84.266 E1.20600
G1 X162.447 Y83.774 E1.30900
G1 X163.315 Y83.601 E1.41200
G1 X164.183 Y83.774 E1.51500
G1 X164.919 Y84.266 E1.61801
G1 X165.411 Y85.002 E1.72101
G1 X165.583 Y85.870 E1.82401
G1 X165.411 Y86.738 E1.92701
G1 X164.919 Y87.473 E2.03001
G1 X164.183 Y87.965 E2.13301
G1 X163.315 Y88.138 E2.23601
G1 X162.447 Y87.965 E2.33901
G1 X161.712 Y87.473 E2.44202
G1 X161.220 Y86.738 E2.54502
G1 X161.068 Y85.975 E2.63555
G1 X160.453 Y85.473 F7200.000
G1 X160.812 Y65.710 F7200.000
G1 X151.509 Y74.227 F7200.000
G1 X150.773 Y74.718 E2.73855 F540.000
G1 X149.905 Y74.891 E2.84155
G1 X149.037 Y74.718 E2.94455
G1 X148.301 Y74.227 E3.04756
G1 X147.810 Y73.491 E3.15056
G1 X147.637 Y72.623 E3.25356
G1 X147.810 Y71.755 E3.35656
G1 X148.301 Y71.019 E3.45956
G1 X149.037 Y70.527 E3.56256
G1 X149.905 Y70.355 E3.66556
G1 X150.773 Y70.527 E3.76857
G1 X151.509 Y71.019 E3.87157
G1 X152.001 Y71.755 E3.97457
G1 X152.173 Y72.623 E4.07757
G1 X152.001 Y73.491 E4.18057
G1 X151.569 Y74.138 E4.27110
G1 X151.648 Y74.927 F7200.000
G1 X149.987 Y76.185 F7200.000
G1 X153.706 Y76.929 E4.71252 F756.000
G1 X156.858 Y79.046 E5.15451
G1 X158.964 Y82.215 E5.59731
G1 X159.703 Y85.952 E6.04068
G1 X158.964 Y89.689 E6.48405
G1 X156.858 Y92.857 E6.92685
G1 X153.706 Y94.975 E7.36884
G1 X149.987 Y95.719 E7.81026
G1 X146.268 Y94.975 E8.25168
G1 X143.116 Y92.857 E8.69367
G1 X141.010 Y89.689 E9.13647
G1 X140.271 Y85.952 E9.57984
G1 X141.010 Y82.215 E10.02321
G1 X143.116 Y79.046 E10.46601
G1 X146.268 Y76.929 E10.90800
G1 X149.882 Y76.206 E11.33695
G1 X150.384 Y75.591 F7200.000
G1 X152.119 Y75.999 F7200.000
G1 X160.812 Y65.710 F7200.000
G1 X150.812 Y65.710 F7200.000
G1 X138.426 Y84.266 F7200.000
G1 X138.917 Y85.002 E11.43995 F540.000
G1 X139.090 Y85.870 E11.54295
G1 X138.917 Y86.738 E11.64595
G1 X138.426 Y87.473 E11.74895
G1 X137.690 Y87.965 E11.85195
G1 X136.822 Y88.138 E11.95496
G1 X135.954 Y87.965 E12.05796
G1 X135.218 Y87.473 E12.16096
G1 X134.727 Y86.738 E12.26396
G1 X134.554 Y85.870 E12.36696
G1 X134.727 Y85.002 E12.46996
G1 X135.218 Y84.266 E12.57296
G1 X135.954 Y83.774 E12.67596
G1 X136.822 Y83.601 E12.77897
G1 X137.690 Y83.774 E12.88197
G1 X138.337 Y84.206 E12.97250
G1 X139.126 Y84.126 F7200.000
G1 X130.812 Y65.710 F7200.000
G1 X114.510 Y75.623 F7200.000
G1 X148.301 Y97.758 F7200.000
G1 X149.037 Y97.266 E13.07550 F540.000
G1 X149.905 Y97.093 E13.17850
G1 X150.773 Y97.266 E13.28150
G1 X151.509 Y97.758 E13.38450
G1 X152.001 Y98.494 E13.48750
G1 X152.173 Y99.362 E13.59050
G1 X152.001 Y100.230 E13.69351
G1 X151.509 Y100.965 E13.79651
G1 X150.773 Y101.457 E13.89951
G1 X149.905 Y101.630 E14.00251
G1 X149.037 Y101.457 E14.10551
G1 X148.301 Y100.965 E14.20851
G1 X147.810 Y100.230 E14.31151
G1 X147.637 Y99.362 E14.41451
G1 X147.810 Y98.494 E14.51752
G1 X148.242 Y97.847 E14.60805
G1 X148.162 Y97.057 F7200.000
G1 X146.643 Y121.601 F7200.000
G1 X145.098 Y121.605 E14.78786 F1080.000
G1 X145.098 Y132.932 E16.10627
G1 X138.664 Y132.535 E16.85660
G1 X131.324 Y131.030 E17.72865
G1 X115.486 Y120.447 E19.94569
G1 X104.972 Y104.712 E22.14832
G1 X105.090 Y86.360 E24.28427
G1 X121.053 Y68.455 E27.07628
G1 X128.732 Y65.824 E28.02094
G1 X171.265 Y65.824 E32.97144
G1 X178.942 Y68.455 E33.91599
G1 X194.910 Y86.360 E36.70833
G1 X195.028 Y104.712 E38.84427
G1 X184.514 Y120.447 E41.04690
G1 X168.678 Y131.028 E43.26368
G1 X161.274 Y132.519 E44.14274
G1 X154.863 Y132.915 E44.89024
G1 X154.863 Y121.582 E46.20925
G1 X146.750 Y121.601 E47.15356
G1 X146.645 Y122.315 F7200.000
G1 X145.812 Y122.317 E47.25045 F756.000
G1 X145.812 Y133.692 E48.57434
G1 X138.121 Y133.217 E49.47128
G1 X138.121 Y133.153 E49.47877
G1 X131.043 Y131.701 E50.31963
G1 X114.971 Y120.962 E52.56947
G1 X104.256 Y104.926 E54.81414
G1 X104.377 Y86.086 E57.00696
G1 X120.645 Y67.840 E59.85213
G1 X128.613 Y65.110 E60.83242
G1 X171.384 Y65.110 E65.81061
G1 X179.351 Y67.840 E66.79077
G1 X195.623 Y86.086 E69.63626
G1 X195.744 Y104.926 E71.82908
G1 X185.029 Y120.962 E74.07375
G1 X168.957 Y131.701 E76.32350
G1 X161.837 Y133.134 E77.16886
G1 X161.837 Y133.199 E77.17650
G1 X154.149 Y133.674 E78.07295
G1 X154.149 Y122.298 E79.39706
G1 X146.752 Y122.315 E80.25805
G1 X146.286 Y121.698 F7200.000
G1 X154.534 Y121.101 F7200.000
G1 X112.361 Y78.928 E87.25141 F1080.000
G1 X111.882 Y79.466 E87.33591
G1 X153.519 Y121.103 E94.24047
G1 X152.504 Y121.106 E94.35950
G1 X111.402 Y80.004 E101.17525
G1 X110.923 Y80.542 E101.25976
G1 X151.489 Y121.108 E107.98671
G1 X150.474 Y121.110 E108.10574
G1 X110.443 Y81.080 E114.74388
G1 X109.963 Y81.618 E114.82839
G1 X149.458 Y121.113 E121.37773
G1 X148.443 Y121.115 E121.49676
G1 X109.484 Y82.156 E127.95730
G1 X109.004 Y82.694 E128.04181
G1 X147.428 Y121.118 E134.41354
G1 X146.413 Y121.120 E134.53257
G1 X108.525 Y83.232 E140.81551
G1 X108.045 Y83.769 E140.90001
G1 X145.398 Y121.122 E147.09414
G1 X144.616 Y121.358 E147.18988
G1 X107.566 Y84.307 E153.33391
G1 X107.086 Y84.845 E153.41842
G1 X144.616 Y122.376 E159.64197
G1 X144.616 Y123.393 E159.76128
G1 X106.606 Y85.383 E166.06437
G1 X106.127 Y85.921 E166.14887
G1 X144.616 Y124.411 E172.53148
G1 X144.616 Y125.428 E172.65079
G1 X105.647 Y86.459 E179.11293
G1 X105.565 Y87.394 E179.22302
G1 X144.616 Y126.446 E185.69880
G1 X144.616 Y127.463 E185.81811
G1 X105.558 Y88.405 E192.29496
G1 X105.552 Y89.416 E192.41351
G1 X144.616 Y128.481 E198.89144
G1 X144.616 Y129.498 E199.01075
G1 X105.546 Y90.427 E205.48976
G1 X105.539 Y91.438 E205.60831
G1 X144.616 Y130.516 E212.08839
G1 X144.616 Y131.533 E212.20770
G1 X105.533 Y92.449 E218.68886
G1 X105.526 Y93.460 E218.80741
G1 X144.477 Y132.411 E225.26654
G1 X143.393 Y132.344 E225.39394
G1 X105.520 Y94.471 E231.67432
G1 X105.513 Y95.482 E231.79287
G1 X142.308 Y132.277 E237.89449
G1 X141.224 Y132.211 E238.02189
G1 X105.507 Y96.493 E243.94475
G1 X105.500 Y97.504 E244.06330
G1 X140.139 Y132.144 E249.80741
G1 X139.055 Y132.077 E249.93481
G1 X105.494 Y98.515 E255.50016
G1 X105.487 Y99.526 E255.61871
G1 X137.834 Y131.873 E260.98267
G1 X136.554 Y131.610 E261.13589
G1 X105.481 Y100.537 E266.28865
G1 X105.474 Y101.548 E266.40720
G1 X135.273 Y131.348 E271.34875
G1 X133.993 Y131.085 E271.50198
G1 X105.468 Y102.559 E276.23234
G1 X105.461 Y103.570 E276.35089
G1 X132.713 Y130.823 E280.87005
G1 X131.322 Y130.448 E281.03904
G1 X105.484 Y104.611 E285.32357
G1 X107.533 Y107.678 F7200.000
G1 X128.255 Y128.400 E288.75984 F1080.000
G1 X125.189 Y126.351 F7200.000
G1 X109.582 Y110.744 E291.34786 F1080.000
G1 X111.631 Y113.810 F7200.000
G1 X122.122 Y124.302 E293.08762 F1080.000
G1 X119.056 Y122.253 F7200.000
G1 X113.680 Y116.877 E293.97912 F1080.000
G1 X115.729 Y119.943 F7200.000
G1 X115.990 Y120.204 E294.02236 F1080.000
G1 X135.818 Y89.157 F7200.000
G1 X146.516 Y99.855 E295.79637 F1080.000
G1 X146.521 Y98.843 E295.91510
G1 X137.000 Y89.322 E297.49395
G1 X137.849 Y89.153 E297.59541
G1 X146.699 Y98.003 E299.06306
G1 X147.107 Y97.393 E299.14908
G1 X145.818 Y96.104 E299.36282
G1 X147.090 Y96.359 E299.51491
G1 X147.551 Y96.821 E299.59149
G1 X152.295 Y96.477 F7200.000
G1 X179.222 Y123.404 E304.05671 F1080.000
G1 X163.912 Y131.496 F7200.000
G1 X155.345 Y122.930 E305.47728 F1080.000
G1 X155.345 Y123.947 E305.59659
G1 X163.065 Y131.667 E306.87670
G1 X162.218 Y131.837 E306.97802
G1 X155.345 Y124.965 E308.11767
G1 X155.345 Y125.982 E308.23698
G1 X161.371 Y132.008 E309.23618
G1 X160.433 Y132.088 E309.34648
G1 X155.345 Y127.000 E310.19025
G1 X155.345 Y128.017 E310.30956
G1 X159.475 Y132.147 E310.99441
G1 X158.517 Y132.206 E311.10699
G1 X155.345 Y129.035 E311.63293
G1 X155.345 Y130.052 E311.75224
G1 X157.558 Y132.265 E312.11926
G1 X156.600 Y132.325 E312.23185
G1 X155.345 Y131.070 E312.43996
G1 X155.345 Y132.087 E312.55927
G1 X155.642 Y132.384 E312.60847
G1 X155.345 Y121.912 F7200.000
G1 X164.759 Y131.326 E314.16950 F1080.000
G1 X165.606 Y131.155 E314.27081
G1 X112.841 Y78.390 E323.02067
G1 X113.320 Y77.852 E323.10517
G1 X166.453 Y130.985 E331.91596
G1 X167.300 Y130.814 E332.01727
G1 X113.800 Y77.314 E340.88899
G1 X114.280 Y76.776 E340.97349
G1 X168.147 Y130.644 E349.90615
G1 X168.853 Y130.332 E349.99662
G1 X114.759 Y76.239 E358.96678
G1 X115.239 Y75.701 E359.05129
G1 X169.463 Y129.924 E368.04307
G1 X170.073 Y129.517 E368.12909
G1 X115.718 Y75.163 E377.14249
G1 X116.198 Y74.625 E377.22700
G1 X170.683 Y129.109 E386.26202
G1 X171.293 Y128.702 E386.34803
G1 X116.678 Y74.087 E395.40468
G1 X117.157 Y73.549 E395.48918
G1 X171.902 Y128.294 E404.56744
G1 X172.512 Y127.887 E404.65346
G1 X117.637 Y73.011 E413.75333
G1 X118.116 Y72.473 E413.83784
G1 X173.122 Y127.479 E422.95933
G1 X173.732 Y127.072 E423.04535
G1 X149.412 Y102.751 E427.07840
G1 X150.424 Y102.746 E427.19712
G1 X174.342 Y126.664 E431.16341
G1 X174.952 Y126.256 E431.24943
G1 X151.263 Y102.568 E435.17767
G1 X151.873 Y102.160 E435.26368
G1 X175.562 Y125.849 E439.19192
G1 X176.172 Y125.441 E439.27794
G1 X152.446 Y101.715 E443.21235
G1 X152.854 Y101.105 E443.29836
G1 X176.782 Y125.034 E447.26633
G1 X177.392 Y124.626 E447.35235
G1 X153.183 Y100.417 E451.36690
G1 X153.352 Y99.568 E451.46837
G1 X178.002 Y124.219 E455.55607
G1 X178.612 Y123.811 E455.64209
G1 X153.202 Y98.401 E459.85581
G1 X153.143 Y96.307 F7200.000
G1 X179.832 Y122.996 E464.28156 F1080.000
G1 X180.442 Y122.588 E464.36758
G1 X153.991 Y96.138 E468.75387
G1 X154.651 Y95.781 E468.84191
G1 X181.052 Y122.181 E473.21981
G1 X181.662 Y121.773 E473.30583
G1 X155.260 Y95.372 E477.68395
G1 X155.869 Y94.963 E477.76993
G1 X182.272 Y121.366 E482.14827
G1 X182.882 Y120.958 E482.23429
G1 X156.477 Y94.554 E486.61285
G1 X157.086 Y94.145 E486.69883
G1 X183.491 Y120.551 E491.07761
G1 X184.086 Y120.128 E491.16317
G1 X157.694 Y93.736 E495.53968
G1 X158.110 Y93.134 E495.62544
G1 X184.531 Y119.555 E500.00671
G1 X184.938 Y118.945 E500.09273
G1 X158.516 Y92.523 E504.47422
G1 X158.922 Y91.912 E504.56028
G1 X185.346 Y118.335 E508.94199
G1 X185.753 Y117.725 E509.02801
G1 X159.329 Y91.300 E513.40994
G1 X159.735 Y90.689 E513.49600
G1 X186.161 Y117.115 E517.87814
G1 X186.568 Y116.505 E517.96416
G1 X160.112 Y90.048 E522.35140
G1 X160.280 Y89.199 E522.45293
G1 X186.976 Y115.895 E526.87989
G1 X187.384 Y115.285 E526.96590
G1 X160.448 Y88.350 E531.43257
G1 X162.264 Y89.148 F7200.000
G1 X187.791 Y114.675 E535.66573 F1080.000
G1 X188.199 Y114.065 E535.75174
G1 X163.461 Y89.328 E539.85387
G1 X164.310 Y89.159 E539.95534
G1 X188.606 Y113.455 E543.98431
G1 X189.014 Y112.845 E544.07033
G1 X165.016 Y88.847 E548.04988
G1 X165.626 Y88.440 E548.13590
G1 X189.421 Y112.236 E552.08189
G1 X189.829 Y111.626 E552.16790
G1 X166.085 Y87.882 E556.10532
G1 X166.492 Y87.272 E556.19133
G1 X190.236 Y111.016 E560.12875
G1 X190.644 Y110.406 E560.21476
G1 X166.688 Y86.449 E564.18739
G1 X166.723 Y85.467 E564.30264
G1 X191.052 Y109.796 E568.33701
G1 X191.459 Y109.186 E568.42303
G1 X148.579 Y66.306 E575.53371
G1 X149.596 Y66.306 E575.65302
G1 X191.867 Y108.576 E582.66256
G1 X192.274 Y107.966 E582.74858
G1 X150.614 Y66.306 E589.65697
G1 X151.631 Y66.306 E589.77628
G1 X192.682 Y107.356 E596.58353
G1 X193.089 Y106.746 E596.66955
G1 X152.649 Y66.306 E603.37565
G1 X153.666 Y66.306 E603.49496
G1 X193.497 Y106.136 E610.09991
G1 X193.904 Y105.526 E610.18593
G1 X154.684 Y66.306 E616.68974
G1 X155.701 Y66.306 E616.80905
G1 X194.312 Y104.916 E623.21171
G1 X194.543 Y104.129 E623.30787
G1 X156.719 Y66.306 E629.58003
G1 X157.736 Y66.306 E629.69934
G1 X194.536 Y103.105 E635.80169
G1 X194.529 Y102.081 E635.92177
G1 X158.754 Y66.306 E641.85430
G1 X159.772 Y66.306 E641.97361
