; generated by Slic3r 1.0.0RC3 on 2014-02-26 at 11:12:33

; layer_height = 0.2
; perimeters = 3
; top_solid_layers = 3
; bottom_solid_layers = 3
; fill_density = 0.20
; perimeter_speed = 60
; infill_speed = 60
; travel_speed = 120
; nozzle_diameter = 0.4
; filament_diameter = 1.75
; extrusion_multiplier = 0.98
; perimeters extrusion width = 0.40mm
; infill extrusion width = 0.67mm
; solid infill extrusion width = 0.67mm
; top infill extrusion width = 0.67mm
; first layer extrusion width = 0.60mm

G21 ; set units to millimeters
M107
M104 S220 ; set temperature
G28 ; home all axes
M106 S255;
G1 Z200 F1200 ; lift nozzle
M109 S220 ; wait for temperature to be reached
G90 ; use absolute coordinates
G92 E0
M82 ; use absolute distances for extrusion
G1 F1800.000 E-1.00000
G92 E0
G1 Z0.300 F7200.000
G1 X126.651 Y88.017 F7200.000
G1 E1.00000 F1800.000
G1 X127.321 Y87.237 E1.07002 F1080.000
G1 X132.251 Y82.297 E1.54524
G1 X133.031 Y81.627 E1.61526
G1 X133.901 Y81.087 E1.68498
G1 X140.111 Y77.907 E2.16005
G1 X141.071 Y77.517 E2.23061
G1 X142.081 Y77.267 E2.30146
G1 X148.971 Y76.177 E2.77645
G1 X149.991 Y76.097 E2.84612
G1 X151.011 Y76.177 E2.91579
G1 X157.901 Y77.267 E3.39078
G1 X158.911 Y77.517 E3.46163
G1 X159.871 Y77.907 E3.53218
G1 X166.081 Y81.087 E4.00725
G1 X166.951 Y81.627 E4.07698
G1 X167.731 Y82.297 E4.14699
G1 X172.661 Y87.237 E4.62222
G1 X173.331 Y88.017 E4.69224
G1 X173.871 Y88.897 E4.76254
G1 X177.031 Y95.127 E5.23821
G1 X177.421 Y96.077 E5.30813
G1 X177.661 Y97.077 E5.37816
G1 X178.751 Y103.987 E5.85450
G1 X178.831 Y105.007 E5.92416
G1 X178.751 Y106.027 E5.99383
G1 X177.661 Y112.927 E6.46949
G1 X177.421 Y113.927 E6.53952
G1 X177.031 Y114.877 E6.60945
G1 X173.871 Y121.107 E7.08511
G1 X173.331 Y121.987 E7.15542
G1 X172.661 Y122.767 E7.22543
G1 X167.731 Y127.707 E7.70066
G1 X166.951 Y128.377 E7.77068
G1 X166.081 Y128.917 E7.84040
G1 X159.871 Y132.097 E8.31547
G1 X158.911 Y132.487 E8.38603
G1 X157.901 Y132.737 E8.45688
G1 X151.011 Y133.827 E8.93187
G1 X149.991 Y133.907 E9.00153
G1 X148.971 Y133.827 E9.07120
G1 X142.081 Y132.737 E9.54619
G1 X141.071 Y132.487 E9.61704
G1 X140.111 Y132.097 E9.68760
G1 X133.901 Y128.917 E10.16267
G1 X133.031 Y128.377 E10.23239
G1 X132.251 Y127.707 E10.30241
G1 X127.321 Y122.767 E10.77764
G1 X126.651 Y121.987 E10.84765
G1 X126.111 Y121.107 E10.91796
G1 X122.951 Y114.877 E11.39362
G1 X122.561 Y113.927 E11.46355
G1 X122.321 Y112.927 E11.53357
G1 X121.231 Y106.027 E12.00924
G1 X121.151 Y105.007 E12.07891
G1 X121.231 Y103.987 E12.14857
G1 X122.321 Y97.077 E12.62491
G1 X122.561 Y96.077 E12.69494
G1 X122.951 Y95.127 E12.76486
G1 X126.111 Y88.897 E13.24053
G1 X126.608 Y88.088 E13.30514
G1 F1800.000 E12.30514
G92 E0
G1 X135.805 Y94.696 F7200.000
G1 E1.00000 F1800.000
G1 X139.685 Y90.815 E1.37370 F1080.000
G1 X144.575 Y88.324 E1.74740
G1 X149.996 Y87.463 E2.12116
G1 X155.417 Y88.324 E2.49486
G1 X160.307 Y90.815 E2.86857
G1 X164.187 Y94.696 E3.24226
G1 X166.678 Y99.585 E3.61590
G1 X167.540 Y105.007 E3.98968
G1 X166.679 Y110.427 E4.36342
G1 X164.187 Y115.317 E4.73713
G1 X160.307 Y119.198 E5.11082
G1 X155.415 Y121.691 E5.48467
G1 X149.996 Y122.550 E5.85823
G1 X144.578 Y121.691 E6.23181
G1 X139.685 Y119.198 E6.60568
G1 X135.805 Y115.317 E6.97938
G1 X133.313 Y110.427 E7.35308
G1 X132.453 Y105.007 E7.72682
G1 X133.313 Y99.587 E8.10049
G1 X135.767 Y94.771 E8.46855
G1 X136.261 Y95.028 F7200.000
G1 X140.017 Y91.272 E8.83023 F1080.000
G1 X144.750 Y88.860 E9.19192
G1 X149.996 Y88.028 E9.55364
G1 X155.242 Y88.860 E9.91533
G1 X159.975 Y91.272 E10.27701
G1 X163.731 Y95.028 E10.63870
G1 X166.142 Y99.760 E11.00035
G1 X166.975 Y105.007 E11.36208
G1 X166.142 Y110.253 E11.72379
G1 X163.731 Y114.986 E12.08548
G1 X159.975 Y118.742 E12.44716
G1 X155.241 Y121.154 E12.80893
G1 X149.996 Y121.985 E13.17053
G1 X144.751 Y121.154 E13.53215
G1 X140.017 Y118.742 E13.89393
G1 X136.261 Y114.986 E14.25562
G1 X133.850 Y110.253 E14.61730
G1 X133.018 Y105.007 E14.97902
G1 X133.849 Y99.761 E15.34068
G1 X136.223 Y95.102 E15.69670
G1 X136.717 Y95.359 F7200.000
G1 X140.348 Y91.728 E16.04637 F540.000
G1 X144.924 Y89.397 E16.39604
G1 X149.996 Y88.592 E16.74574
G1 X155.068 Y89.397 E17.09540
G1 X159.644 Y91.728 E17.44508
G1 X163.275 Y95.359 E17.79474
G1 X165.606 Y99.935 E18.14440
G1 X166.410 Y105.007 E18.49408
G1 X165.606 Y110.079 E18.84377
G1 X163.275 Y114.654 E19.19345
G1 X159.644 Y118.285 E19.54311
G1 X155.068 Y120.617 E19.89281
G1 X149.996 Y121.420 E20.24244
G1 X144.924 Y120.617 E20.59209
G1 X140.348 Y118.285 E20.94180
G1 X136.717 Y114.654 E21.29147
G1 X134.386 Y110.079 E21.64114
G1 X133.582 Y105.007 E21.99082
G1 X134.386 Y99.935 E22.34048
G1 X136.679 Y95.434 E22.68447
G1 X136.518 Y94.839 F7200.000
G1 F1800.000 E21.68447
G92 E0
G1 X133.128 Y92.712 F7200.000
G1 E1.00000 F1800.000
G1 X137.741 Y88.085 E1.44489 F1080.000
G1 X143.555 Y85.115 E1.88943
G1 X149.996 Y84.091 E2.33355
G1 X156.437 Y85.115 E2.77760
G1 X162.251 Y88.085 E3.22217
G1 X166.864 Y92.712 E3.66706
G1 X169.827 Y98.543 E4.11247
G1 X170.848 Y105.007 E4.55802
G1 X169.827 Y111.470 E5.00359
G1 X166.864 Y117.302 E5.44899
G1 X162.251 Y121.928 E5.89388
G1 X156.439 Y124.898 E6.33826
G1 X149.996 Y125.921 E6.78250
G1 X143.553 Y124.898 E7.22675
G1 X137.741 Y121.928 E7.67112
G1 X133.128 Y117.302 E8.11601
G1 X130.165 Y111.471 E8.56134
G1 X129.144 Y105.007 E9.00698
G1 X130.165 Y98.543 E9.45259
G1 X133.090 Y92.786 E9.89224
G1 X132.671 Y92.381 F7200.000
G1 X137.409 Y87.629 E10.34914 F1080.000
G1 X143.379 Y84.579 E10.80565
G1 X143.494 Y84.560 E10.81355
G1 X149.996 Y83.527 E11.26188
G1 X156.540 Y84.567 E11.71301
G1 X156.613 Y84.579 E11.71806
G1 X162.583 Y87.629 E12.17458
G1 X167.321 Y92.381 E12.63148
G1 X170.363 Y98.369 E13.08882
G1 X171.412 Y105.007 E13.54642
G1 X170.363 Y111.645 E14.00404
G1 X167.321 Y117.633 E14.46137
G1 X162.583 Y122.384 E14.91828
G1 X156.614 Y125.434 E15.37468
G1 X156.542 Y125.446 E15.37967
G1 X149.996 Y126.485 E15.83098
G1 X143.378 Y125.434 E16.28729
G1 X137.409 Y122.384 E16.74368
G1 X132.671 Y117.633 E17.20059
G1 X129.629 Y111.645 E17.65788
G1 X129.617 Y111.571 E17.66299
G1 X128.580 Y105.007 E18.11554
G1 X129.629 Y98.368 E18.57317
G1 X132.633 Y92.455 E19.02478
G1 X132.184 Y92.110 F7200.000
G1 X132.214 Y92.050 E19.02940 F540.000
G1 X137.077 Y87.174 E19.49832
G1 X143.204 Y84.043 E19.96686
G1 X143.364 Y84.017 E19.97786
G1 X149.996 Y82.963 E20.43514
G1 X156.788 Y84.043 E20.90338
G1 X162.915 Y87.173 E21.37192
G1 X167.778 Y92.050 E21.84084
G1 X170.900 Y98.195 E22.31019
G1 X171.976 Y105.007 E22.77976
G1 X170.900 Y111.819 E23.24935
G1 X167.778 Y117.964 E23.71870
G1 X162.915 Y122.840 E24.18762
G1 X156.788 Y125.971 E24.65613
G1 X149.996 Y127.049 E25.12440
G1 X143.204 Y125.971 E25.59269
G1 X137.077 Y122.840 E26.06119
G1 X132.214 Y117.964 E26.53011
G1 X129.092 Y111.819 E26.99945
G1 X128.016 Y105.007 E27.46905
G1 X129.092 Y98.195 E27.93862
G1 X132.146 Y92.185 E28.39765
G1 X132.252 Y92.107 F7200.000
G1 F1800.000 E27.39765
G92 E0
G1 X132.866 Y110.125 F7200.000
G1 E1.00000 F1800.000
G1 X129.880 Y107.139 E1.29005 F1080.000
G1 X129.731 Y106.195 E1.35566
G1 X132.717 Y109.181 E1.64563
G1 X132.567 Y108.236 E1.71130
G1 X129.582 Y105.252 E2.00119
G1 X129.623 Y104.499 E2.05298
G1 X132.417 Y107.292 E2.32427
G1 X132.267 Y106.347 E2.38995
G1 X129.732 Y103.812 E2.63616
G1 X129.840 Y103.126 E2.68387
G1 X132.117 Y105.403 E2.90499
G1 X132.117 Y104.609 E2.95954
G1 X129.949 Y102.440 E3.17015
G1 X130.057 Y101.754 E3.21786
G1 X132.226 Y103.923 E3.42852
G1 X132.335 Y103.237 E3.47621
G1 X130.165 Y101.068 E3.68691
G1 X130.274 Y100.381 E3.73462
G1 X132.444 Y102.551 E3.94537
G1 X132.552 Y101.866 E3.99305
G1 X130.382 Y99.695 E4.20384
G1 X130.490 Y99.009 E4.25155
G1 X132.661 Y101.180 E4.46239
G1 X132.770 Y100.494 E4.51007
G1 X130.678 Y98.402 E4.71322
G1 X130.946 Y97.876 E4.75381
G1 X132.879 Y99.808 E4.94153
G1 X133.067 Y99.202 E4.98514
G1 X131.214 Y97.349 E5.16512
G1 X131.481 Y96.822 E5.20571
G1 X133.335 Y98.675 E5.38574
G1 X133.603 Y98.149 E5.42632
G1 X131.749 Y96.295 E5.60640
G1 X132.017 Y95.768 E5.64699
G1 X133.872 Y97.623 E5.82712
G1 X134.140 Y97.096 E5.86769
G1 X132.285 Y95.241 E6.04787
G1 X132.552 Y94.714 E6.08845
G1 X134.408 Y96.570 E6.26868
G1 X134.676 Y96.044 E6.30925
G1 X132.820 Y94.187 E6.48953
G1 X133.088 Y93.660 E6.53012
G1 X134.944 Y95.517 E6.71045
G1 X135.213 Y94.991 E6.75102
G1 X133.355 Y93.134 E6.93139
G1 X133.707 Y92.691 E6.97023
G1 X135.481 Y94.464 E7.14249
G1 X135.877 Y94.066 E7.18108
G1 X134.104 Y92.293 E7.35328
G1 X134.502 Y91.896 E7.39187
G1 X136.275 Y93.669 E7.56407
G1 X136.672 Y93.272 E7.60265
G1 X134.899 Y91.499 E7.77485
G1 X135.296 Y91.102 E7.81344
G1 X137.069 Y92.875 E7.98564
G1 X137.467 Y92.477 E8.02423
G1 X135.694 Y90.704 E8.19643
G1 X136.091 Y90.307 E8.23501
G1 X137.864 Y92.080 E8.40721
G1 X138.261 Y91.683 E8.44580
G1 X136.488 Y89.910 E8.61800
G1 X136.885 Y89.512 E8.65658
G1 X138.658 Y91.285 E8.82878
G1 X139.056 Y90.888 E8.86737
G1 X137.283 Y89.115 E9.03957
G1 X137.680 Y88.718 E9.07816
G1 X139.454 Y90.491 E9.25042
G1 X139.980 Y90.223 E9.29099
G1 X138.101 Y88.344 E9.47352
G1 X138.627 Y88.075 E9.51408
G1 X140.506 Y89.955 E9.69666
G1 X141.033 Y89.687 E9.73723
G1 X139.152 Y87.806 E9.91986
G1 X139.678 Y87.538 E9.96041
G1 X141.559 Y89.419 E10.14309
G1 X142.086 Y89.150 E10.18366
G1 X140.204 Y87.269 E10.36639
G1 X140.730 Y87.000 E10.40694
G1 X142.612 Y88.882 E10.58972
G1 X143.138 Y88.614 E10.63029
G1 X141.256 Y86.732 E10.81311
G1 X141.782 Y86.463 E10.85367
G1 X143.665 Y88.346 E11.03654
G1 X144.191 Y88.078 E11.07711
G1 X142.308 Y86.194 E11.26004
G1 X142.834 Y85.926 E11.30059
G1 X144.798 Y87.890 E11.49136
G1 X145.484 Y87.781 E11.53904
G1 X143.359 Y85.657 E11.74534
G1 X143.948 Y85.451 E11.78817
G1 X146.169 Y87.672 E12.00387
G1 X146.855 Y87.563 E12.05155
G1 X144.634 Y85.342 E12.26726
G1 X145.320 Y85.233 E12.31494
G1 X147.541 Y87.454 E12.53065
G1 X148.226 Y87.345 E12.57833
G1 X146.005 Y85.124 E12.79403
G1 X146.691 Y85.015 E12.84171
G1 X148.912 Y87.236 E13.05742
G1 X149.598 Y87.127 E13.10510
G1 X147.377 Y84.906 E13.32081
G1 X148.062 Y84.798 E13.36849
G1 X150.394 Y87.129 E13.59496
G1 X151.338 Y87.279 E13.66061
G1 X148.748 Y84.689 E13.91218
G1 X149.434 Y84.580 E13.95986
G1 X152.282 Y87.428 E14.23655
G1 X153.227 Y87.578 E14.30220
G1 X150.166 Y84.517 E14.59948
G1 X151.110 Y84.667 E14.66517
G1 X154.171 Y87.728 E14.96241
G1 X155.115 Y87.877 E15.02806
G1 X152.055 Y84.817 E15.32526
G1 X153.000 Y84.967 E15.39095
G1 X156.431 Y88.399 E15.72420
G1 X158.051 Y89.224 F7200.000
G1 X153.944 Y85.117 E16.12306 F1080.000
G1 X154.889 Y85.267 E16.18874
G1 X159.671 Y90.050 E16.65319
G1 F1800.000 E15.65319
G92 E0
G1 X160.362 Y87.563 F7200.000
G1 E1.00000 F1800.000
G1 X167.363 Y94.563 E1.67994 F1080.000
G1 X168.184 Y96.179 F7200.000
G1 X158.738 Y86.732 E2.59740 F1080.000
G1 X157.113 Y85.902 F7200.000
G1 X169.005 Y97.794 E3.75238 F1080.000
G1 X169.516 Y99.100 F7200.000
G1 X155.833 Y85.417 E5.08130 F1080.000
G1 F1800.000 E4.08130
G92 E0
G1 X161.987 Y88.393 F7200.000
G1 E1.00000 F1800.000
G1 X166.543 Y92.948 E1.44242 F1080.000
G1 F1800.000 E0.44242
G92 E0
G1 X164.953 Y95.332 F7200.000
G1 E1.00000 F1800.000
G1 X169.665 Y100.044 E1.45766 F1080.000
G1 X169.814 Y100.988 E1.52327
G1 X165.779 Y96.952 E1.91523
G1 X166.604 Y98.572 F7200.000
G1 X169.964 Y101.931 E2.24150 F1080.000
G1 X170.113 Y102.875 E2.30711
G1 X167.125 Y99.888 E2.59724
G1 X167.275 Y100.832 E2.66293
G1 X170.262 Y103.819 E2.95296
G1 X170.411 Y104.762 E3.01856
G1 X167.425 Y101.777 E3.30849
G1 X167.576 Y102.722 E3.37418
G1 X170.369 Y105.515 E3.64549
G1 X170.261 Y106.201 E3.69320
G1 X167.726 Y103.666 E3.93940
G1 X167.876 Y104.611 E4.00509
G1 X170.152 Y106.887 E4.22619
G1 X170.044 Y107.574 E4.27390
G1 X167.875 Y105.405 E4.48452
G1 X167.766 Y106.091 E4.53220
G1 X169.935 Y108.260 E4.74286
G1 X169.827 Y108.946 E4.79057
G1 X167.657 Y106.776 E5.00129
G1 X167.549 Y107.462 E5.04897
G1 X169.719 Y109.632 E5.25973
G1 X169.610 Y110.318 E5.30744
G1 X167.440 Y108.148 E5.51825
G1 X167.331 Y108.834 E5.56593
G1 X169.502 Y111.005 E5.77680
G1 X169.314 Y111.611 E5.82040
G1 X167.222 Y109.519 E6.02357
G1 X167.113 Y110.205 E6.07125
G1 X169.046 Y112.138 E6.25899
G1 X168.778 Y112.665 E6.29957
G1 X166.925 Y110.812 E6.47956
G1 X166.657 Y111.338 E6.52013
G1 X168.511 Y113.192 E6.70017
G1 X168.243 Y113.719 E6.74075
G1 X166.389 Y111.864 E6.92084
G1 X166.121 Y112.391 E6.96141
G1 X167.975 Y114.246 E7.14154
G1 X167.708 Y114.772 E7.18213
G1 X165.852 Y112.917 E7.36231
G1 X165.584 Y113.444 E7.40288
G1 X167.440 Y115.299 E7.58312
G1 X167.172 Y115.826 E7.62370
G1 X165.316 Y113.970 E7.80398
G1 X165.048 Y114.496 E7.84455
G1 X166.904 Y116.353 E8.02488
G1 X166.637 Y116.880 E8.06547
G1 X164.780 Y115.023 E8.24585
G1 X164.511 Y115.549 E8.28642
G1 X166.285 Y117.323 E8.45869
G1 X165.888 Y117.720 E8.49727
G1 X164.115 Y115.947 E8.66947
G1 X163.717 Y116.344 E8.70806
G1 X165.490 Y118.117 E8.88026
G1 X165.093 Y118.515 E8.91885
G1 X163.320 Y116.742 E9.09105
G1 X162.923 Y117.139 E9.12963
G1 X164.696 Y118.912 E9.30184
G1 X164.299 Y119.309 E9.34042
G1 X162.526 Y117.536 E9.51262
G1 X162.128 Y117.933 E9.55121
G1 X163.901 Y119.707 E9.72341
G1 X163.504 Y120.104 E9.76200
G1 X161.731 Y118.331 E9.93420
G1 X161.334 Y118.728 E9.97279
G1 X163.107 Y120.501 E10.14499
G1 X162.709 Y120.898 E10.18357
G1 X160.936 Y119.125 E10.35578
G1 X160.538 Y119.522 E10.39436
G1 X162.312 Y121.296 E10.56663
G1 X161.891 Y121.670 E10.60528
G1 X160.012 Y119.790 E10.78781
G1 X159.486 Y120.058 E10.82839
G1 X161.366 Y121.938 E11.01097
G1 X160.840 Y122.207 E11.05152
G1 X158.959 Y120.327 E11.23415
G1 X158.433 Y120.595 E11.27472
G1 X160.314 Y122.476 E11.45740
G1 X159.788 Y122.744 E11.49796
G1 X157.907 Y120.863 E11.68068
G1 X157.380 Y121.131 E11.72126
G1 X159.262 Y123.013 E11.90403
G1 X158.736 Y123.282 E11.94459
G1 X156.854 Y121.399 E12.12741
G1 X156.327 Y121.668 E12.16798
G1 X158.210 Y123.551 E12.35086
G1 X157.684 Y123.819 E12.39141
G1 X155.801 Y121.936 E12.57434
G1 X155.195 Y122.124 E12.61793
G1 X157.159 Y124.088 E12.80865
G1 X156.633 Y124.357 E12.84921
G1 X154.509 Y122.233 E13.05547
G1 X153.823 Y122.342 E13.10316
G1 X156.043 Y124.562 E13.31879
G1 X155.358 Y124.671 E13.36647
G1 X153.137 Y122.450 E13.58211
G1 X152.451 Y122.559 E13.62980
G1 X154.672 Y124.780 E13.84546
G1 X153.986 Y124.889 E13.89314
G1 X151.766 Y122.668 E14.10882
G1 X151.080 Y122.777 E14.15651
G1 X153.301 Y124.998 E14.37221
G1 X152.615 Y125.106 E14.41988
G1 X150.394 Y122.885 E14.63560
G1 X149.599 Y122.885 E14.69016
G1 X151.929 Y125.215 E14.91644
G1 X151.244 Y125.324 E14.96412
G1 X148.655 Y122.736 E15.21552
G1 X147.711 Y122.586 E15.28117
G1 X150.558 Y125.433 E15.55768
G1 X149.825 Y125.495 E15.60816
G1 X146.767 Y122.437 E15.90524
G1 X145.822 Y122.287 E15.97090
G1 X148.881 Y125.345 E16.26794
G1 X147.936 Y125.195 E16.33362
G1 X144.878 Y122.137 E16.63062
G1 X143.561 Y121.615 F7200.000
G1 X146.992 Y125.045 E16.96376 F1080.000
G1 X146.047 Y124.895 E17.02945
G1 X141.941 Y120.790 E17.42819
G1 X140.321 Y119.964 F7200.000
G1 X145.102 Y124.745 E17.89252 F1080.000
G1 X144.158 Y124.595 F7200.000
G1 X130.476 Y110.913 E19.22131 F1080.000
G1 X130.327 Y109.970 E19.28691
G1 X135.039 Y114.681 E19.74451
G1 X134.213 Y113.061 F7200.000
G1 X130.178 Y109.026 E20.13641 F1080.000
G1 X130.029 Y108.083 E20.20202
G1 X133.388 Y111.441 E20.52822
G1 F1800.000 E19.52822
G92 E0
G1 X130.987 Y112.219 F7200.000
G1 E1.00000 F1800.000
G1 X142.880 Y124.111 E2.15500 F1080.000
G1 X141.255 Y123.281 F7200.000
G1 X131.808 Y113.835 E3.07247 F1080.000
G1 X132.629 Y115.450 F7200.000
G1 X139.630 Y122.451 E3.75244 F1080.000
G1 X138.005 Y121.621 F7200.000
G1 X133.450 Y117.065 E4.19489 F1080.000
M106 S255
G1 F1800.000 E3.19489
G92 E0
G1 Z0.500 F7200.000
G1 X136.144 Y115.071 F7200.000
G1 E1.00000 F1800.000
G1 X133.712 Y110.298 E1.17461 F3412.586
G1 X132.873 Y105.006 E1.34924
G1 X133.712 Y99.716 E1.52383
G1 X136.144 Y94.943 E1.69846
G1 X139.932 Y91.155 E1.87306
G1 X144.705 Y88.723 E2.04768
G1 X149.997 Y87.882 E2.22233
G1 X155.287 Y88.723 E2.39693
G1 X160.060 Y91.155 E2.57154
G1 X163.848 Y94.943 E2.74615
G1 X166.280 Y99.715 E2.92073
G1 X167.120 Y105.006 E3.09536
G1 X166.280 Y110.298 E3.27000
G1 X163.848 Y115.071 E3.44461
