; generated by Slic3r 1.0.0RC3 on 2014-02-26 at 11:13:44

; layer_height = 0.2
; perimeters = 3
; top_solid_layers = 3
; bottom_solid_layers = 3
; fill_density = 0.20
; perimeter_speed = 60
; infill_speed = 60
; travel_speed = 120
; nozzle_diameter = 0.4
; filament_diameter = 1.75
; extrusion_multiplier = 0.98
; perimeters extrusion width = 0.40mm
; infill extrusion width = 0.67mm
; solid infill extrusion width = 0.67mm
; top infill extrusion width = 0.67mm
; first layer extrusion width = 0.60mm

G21 ; set units to millimeters
M107
M104 S220 ; set temperature
G28 ; home all axes
M106 S255;
G1 Z200 F1200 ; lift nozzle
M109 S220 ; wait for temperature to be reached
G90 ; use absolute coordinates
G92 E0
M82 ; use absolute distances for extrusion
G1 F1800.000 E-1.00000
G92 E0
G1 Z0.300 F7200.000
G1 X138.778 Y48.394 F7200.000
G1 E1.00000 F1800.000
G1 X139.558 Y47.174 E1.09860 F1080.000
G1 X140.598 Y46.164 E1.19732
G1 X141.828 Y45.404 E1.29577
G1 X143.198 Y44.924 E1.39461
G1 X144.638 Y44.764 E1.49327
G1 X175.418 Y44.764 E3.58915
G1 X176.678 Y44.894 E3.67541
G1 X177.898 Y45.254 E3.76202
G1 X179.018 Y45.844 E3.84822
G1 X180.008 Y46.644 E3.93489
G1 X180.828 Y47.614 E4.02138
G1 X181.438 Y48.724 E4.10762
G1 X181.828 Y49.934 E4.19419
G1 X185.598 Y67.274 E5.40249
G1 X185.708 Y67.964 E5.45007
G1 X185.748 Y68.664 E5.49781
G1 X185.738 Y143.694 E10.60678
G1 X185.508 Y145.404 E10.72427
G1 X184.848 Y146.994 E10.84149
G1 X181.088 Y153.454 E11.35046
G1 X180.308 Y154.514 E11.44007
G1 X179.348 Y155.404 E11.52921
G1 X178.218 Y156.084 E11.61901
G1 X176.978 Y156.524 E11.70860
G1 X142.148 Y165.044 E14.15019
G1 X141.368 Y165.184 E14.20415
G1 X140.588 Y165.234 E14.25737
G1 X120.118 Y165.234 E15.65122
G1 X118.798 Y165.094 E15.74161
G1 X117.538 Y164.704 E15.83142
G1 X116.388 Y164.064 E15.92103
G1 X115.378 Y163.204 E16.01136
G1 X114.568 Y162.164 E16.10112
G1 X113.978 Y160.974 E16.19156
G1 X111.628 Y154.714 E16.64687
G1 X111.318 Y153.584 E16.72666
G1 X111.208 Y152.414 E16.80668
G1 X111.208 Y107.674 E19.85313
G1 X111.288 Y106.664 E19.92212
G1 X111.528 Y105.674 E19.99148
G1 X113.888 Y98.304 E20.51842
G1 X114.268 Y97.374 E20.58683
G1 X138.741 Y48.469 E24.31058
G1 F1800.000 E23.31058
G92 E0
G1 X135.018 Y103.758 F7200.000
G1 E1.00000 F1800.000
G1 X135.389 Y103.796 E1.02541 F540.000
G1 X135.744 Y103.907 E1.05079
G1 X136.070 Y104.088 E1.07613
G1 X136.353 Y104.328 E1.10140
G1 X136.582 Y104.619 E1.12661
G1 X136.752 Y104.947 E1.15177
G1 X136.855 Y105.301 E1.17689
G1 X136.890 Y105.668 E1.20199
G1 X136.855 Y106.035 E1.22709
G1 X136.752 Y106.389 E1.25221
G1 X136.582 Y106.717 E1.27736
G1 X136.353 Y107.008 E1.30258
G1 X136.070 Y107.248 E1.32785
G1 X135.744 Y107.428 E1.35319
G1 X135.389 Y107.540 E1.37857
G1 X135.018 Y107.578 E1.40397
G1 X134.646 Y107.540 E1.42938
G1 X134.291 Y107.428 E1.45477
G1 X133.965 Y107.248 E1.48010
G1 X133.683 Y107.008 E1.50538
G1 X133.453 Y106.717 E1.53059
G1 X133.284 Y106.389 E1.55575
G1 X133.180 Y106.035 E1.58087
G1 X133.145 Y105.668 E1.60597
G1 X133.180 Y105.301 E1.63106
G1 X133.284 Y104.947 E1.65618
G1 X133.453 Y104.619 E1.68134
G1 X133.683 Y104.328 E1.70656
G1 X133.965 Y104.088 E1.73183
G1 X134.291 Y103.907 E1.75716
G1 X134.646 Y103.796 E1.78254
G1 X134.935 Y103.766 E1.80226
G1 X135.018 Y104.318 F7200.000
G1 X135.276 Y104.344 E1.81994 F540.000
G1 X135.524 Y104.422 E1.83763
G1 X135.751 Y104.548 E1.85534
G1 X135.950 Y104.717 E1.87310
G1 X136.112 Y104.922 E1.89089
G1 X136.232 Y105.155 E1.90873
G1 X136.306 Y105.407 E1.92659
G1 X136.331 Y105.668 E1.94447
G1 X136.306 Y105.929 E1.96235
G1 X136.232 Y106.181 E1.98022
G1 X136.112 Y106.414 E1.99805
G1 X135.950 Y106.619 E2.01585
G1 X135.751 Y106.788 E2.03360
G1 X135.524 Y106.914 E2.05132
G1 X135.276 Y106.992 E2.06901
G1 X135.018 Y107.018 E2.08668
G1 X134.759 Y106.992 E2.10436
G1 X134.512 Y106.914 E2.12205
G1 X134.284 Y106.788 E2.13976
G1 X134.085 Y106.619 E2.15752
G1 X133.923 Y106.414 E2.17531
G1 X133.803 Y106.181 E2.19315
G1 X133.729 Y105.929 E2.21101
G1 X133.705 Y105.668 E2.22889
G1 X133.729 Y105.406 E2.24678
G1 X133.803 Y105.155 E2.26464
G1 X133.923 Y104.922 E2.28247
G1 X134.085 Y104.717 E2.30027
G1 X134.284 Y104.548 E2.31802
G1 X134.512 Y104.422 E2.33574
G1 X134.759 Y104.344 E2.35343
G1 X134.935 Y104.326 E2.36541
G1 X135.155 Y104.097 F7200.000
G1 F1800.000 E1.36541
G92 E0
G1 X127.966 Y105.131 F7200.000
G1 E1.00000 F1800.000
G1 X128.011 Y105.605 E1.03241 F540.000
G1 X127.966 Y106.078 E1.06482
G1 X127.832 Y106.536 E1.09728
G1 X127.613 Y106.961 E1.12985
G1 X127.315 Y107.338 E1.16257
G1 X126.947 Y107.651 E1.19545
G1 X126.522 Y107.886 E1.22849
G1 X125.572 Y108.185 E1.29631
G1 X124.622 Y107.886 E1.36412
G1 X124.198 Y107.651 E1.39716
G1 X123.830 Y107.338 E1.43004
G1 X123.532 Y106.961 E1.46276
G1 X123.312 Y106.536 E1.49533
G1 X123.179 Y106.078 E1.52780
G1 X123.134 Y105.604 E1.56020
G1 X123.179 Y105.131 E1.59261
G1 X123.312 Y104.673 E1.62507
G1 X123.532 Y104.248 E1.65764
G1 X123.830 Y103.871 E1.69036
G1 X124.198 Y103.558 E1.72325
G1 X124.622 Y103.323 E1.75628
G1 X125.087 Y103.177 E1.78945
G1 X125.572 Y103.128 E1.82268
G1 X126.058 Y103.177 E1.85591
G1 X126.522 Y103.323 E1.88907
G1 X126.947 Y103.558 E1.92211
G1 X127.315 Y103.871 E1.95499
G1 X127.613 Y104.248 E1.98771
G1 X127.832 Y104.673 E2.02028
G1 X127.942 Y105.051 E2.04705
G1 X127.416 Y105.236 F7200.000
G1 X127.451 Y105.605 E2.07224 F540.000
G1 X127.416 Y105.973 E2.09743
G1 X127.312 Y106.328 E2.12264
G1 X127.142 Y106.658 E2.14789
G1 X126.912 Y106.949 E2.17319
G1 X126.628 Y107.190 E2.19855
G1 X126.302 Y107.371 E2.22397
G1 X125.945 Y107.483 E2.24944
G1 X125.572 Y107.521 E2.27494
G1 X125.200 Y107.483 E2.30043
G1 X124.843 Y107.371 E2.32590
G1 X124.516 Y107.190 E2.35132
G1 X124.233 Y106.949 E2.37669
G1 X124.002 Y106.658 E2.40199
G1 X123.832 Y106.328 E2.42724
G1 X123.728 Y105.973 E2.45244
G1 X123.693 Y105.604 E2.47763
G1 X123.728 Y105.236 E2.50282
G1 X123.832 Y104.881 E2.52803
G1 X124.002 Y104.551 E2.55328
G1 X124.233 Y104.260 E2.57858
G1 X124.516 Y104.019 E2.60394
G1 X124.843 Y103.838 E2.62936
G1 X125.200 Y103.726 E2.65483
G1 X125.572 Y103.688 E2.68033
G1 X125.945 Y103.726 E2.70582
G1 X126.302 Y103.838 E2.73129
G1 X126.628 Y104.019 E2.75672
G1 X126.912 Y104.260 E2.78208
G1 X127.142 Y104.551 E2.80738
G1 X127.312 Y104.881 E2.83263
G1 X127.393 Y105.156 E2.85215
G1 X126.867 Y105.342 F7200.000
G1 X126.892 Y105.605 E2.87012 F540.000
G1 X126.867 Y105.867 E2.88809
G1 X126.793 Y106.120 E2.90604
G1 X126.672 Y106.354 E2.92397
G1 X126.509 Y106.560 E2.94185
G1 X126.309 Y106.730 E2.95969
G1 X126.081 Y106.857 E2.97750
G1 X125.832 Y106.935 E2.99527
G1 X125.572 Y106.962 E3.01303
G1 X125.313 Y106.935 E3.03080
G1 X125.064 Y106.857 E3.04857
G1 X124.835 Y106.730 E3.06638
G1 X124.635 Y106.560 E3.08422
G1 X124.472 Y106.354 E3.10210
G1 X124.352 Y106.120 E3.12003
G1 X124.278 Y105.867 E3.13798
G1 X124.253 Y105.605 E3.15595
G1 X124.278 Y105.342 E3.17392
G1 X124.352 Y105.089 E3.19188
G1 X124.472 Y104.855 E3.20980
G1 X124.635 Y104.649 E3.22769
G1 X124.835 Y104.479 E3.24553
G1 X125.064 Y104.352 E3.26333
G1 X125.313 Y104.274 E3.28111
G1 X125.572 Y104.248 E3.29887
G1 X125.832 Y104.274 E3.31663
G1 X126.081 Y104.352 E3.33441
G1 X126.309 Y104.479 E3.35221
G1 X126.509 Y104.649 E3.37006
G1 X126.672 Y104.855 E3.38794
G1 X126.793 Y105.089 E3.40587
G1 X126.843 Y105.262 E3.41813
G1 X127.113 Y105.436 F7200.000
G1 F1800.000 E2.41813
G92 E0
G1 X143.232 Y101.017 F7200.000
G1 E1.00000 F1800.000
G1 X143.232 Y71.418 E3.01552 F1080.000
G1 X148.447 Y71.418 E3.37061
G1 X147.315 Y70.454 E3.47187
G1 X146.871 Y69.894 E3.52050
G1 X146.544 Y69.260 E3.56908
G1 X146.344 Y68.576 E3.61763
G1 X146.277 Y67.866 E3.66617
G1 X146.344 Y67.157 E3.71470
G1 X146.544 Y66.472 E3.76327
G1 X146.871 Y65.838 E3.81185
G1 X147.315 Y65.278 E3.86048
G1 X147.859 Y64.815 E3.90916
G1 X148.485 Y64.468 E3.95789
G1 X149.169 Y64.253 E4.00667
G1 X149.882 Y64.180 E4.05547
G1 X150.594 Y64.253 E4.10427
G1 X151.278 Y64.468 E4.15305
G1 X151.904 Y64.815 E4.20179
G1 X152.448 Y65.278 E4.25047
G1 X152.892 Y65.838 E4.29910
G1 X153.219 Y66.472 E4.34768
G1 X153.419 Y67.157 E4.39623
G1 X153.486 Y67.866 E4.44477
G1 X153.419 Y68.576 E4.49331
G1 X153.219 Y69.260 E4.54187
G1 X152.892 Y69.894 E4.59044
G1 X152.448 Y70.454 E4.63908
G1 X151.316 Y71.418 E4.74033
G1 X168.019 Y71.418 E5.87773
G1 X166.930 Y70.491 E5.97511
G1 X166.491 Y69.937 E6.02325
G1 X166.168 Y69.309 E6.07134
G1 X165.970 Y68.632 E6.11939
G1 X165.903 Y67.930 E6.16743
G1 X165.970 Y67.227 E6.21547
G1 X166.168 Y66.550 E6.26354
G1 X166.491 Y65.922 E6.31162
G1 X166.930 Y65.368 E6.35977
G1 X167.470 Y64.909 E6.40797
G1 X168.089 Y64.566 E6.45622
G1 X168.766 Y64.353 E6.50451
G1 X169.472 Y64.281 E6.55283
G1 X170.178 Y64.353 E6.60116
G1 X170.855 Y64.566 E6.64945
G1 X171.474 Y64.909 E6.69770
G1 X172.013 Y65.368 E6.74590
G1 X172.452 Y65.922 E6.79404
G1 X172.776 Y66.550 E6.84213
G1 X172.974 Y67.227 E6.89018
G1 X173.041 Y67.929 E6.93822
G1 X172.974 Y68.632 E6.98628
G1 X172.776 Y69.309 E7.03433
G1 X172.452 Y69.937 E7.08242
G1 X172.013 Y70.491 E7.13056
G1 X170.924 Y71.418 E7.22794
G1 X176.801 Y71.418 E7.62808
G1 X176.839 Y140.912 E12.36012
G1 X170.928 Y140.912 E12.76267
G1 X170.874 Y141.121 E12.77734
G1 X171.491 Y141.463 E12.82538
G1 X172.035 Y141.926 E12.87406
G1 X172.478 Y142.486 E12.92268
G1 X172.805 Y143.120 E12.97126
G1 X173.006 Y143.804 E13.01982
G1 X173.073 Y144.514 E13.06836
G1 X173.006 Y145.224 E13.11689
G1 X172.805 Y145.908 E13.16545
G1 X172.478 Y146.542 E13.21403
G1 X172.035 Y147.102 E13.26266
G1 X171.491 Y147.565 E13.31135
G1 X170.865 Y147.912 E13.36007
G1 X170.181 Y148.127 E13.40885
G1 X169.468 Y148.200 E13.45766
G1 X168.755 Y148.127 E13.50646
G1 X168.072 Y147.912 E13.55524
G1 X167.446 Y147.565 E13.60397
G1 X166.901 Y147.102 E13.65265
G1 X166.458 Y146.542 E13.70128
G1 X166.131 Y145.908 E13.74987
G1 X165.931 Y145.224 E13.79842
G1 X165.863 Y144.514 E13.84695
G1 X165.931 Y143.804 E13.89550
G1 X166.131 Y143.120 E13.94404
G1 X166.458 Y142.486 E13.99264
G1 X166.901 Y141.926 E14.04126
G1 X167.446 Y141.463 E14.08994
G1 X168.063 Y141.121 E14.13798
G1 X168.009 Y140.912 E14.15265
G1 X151.375 Y140.912 E15.28527
G1 X151.321 Y141.121 E15.29994
G1 X151.880 Y141.430 E15.34344
G1 X152.419 Y141.889 E15.39164
G1 X152.858 Y142.443 E15.43977
G1 X153.182 Y143.071 E15.48787
G1 X153.380 Y143.748 E15.53592
G1 X153.447 Y144.450 E15.58396
G1 X153.380 Y145.153 E15.63200
G1 X153.182 Y145.830 E15.68006
G1 X152.858 Y146.458 E15.72815
G1 X152.419 Y147.012 E15.77630
G1 X151.880 Y147.471 E15.82449
G1 X151.260 Y147.814 E15.87274
G1 X150.584 Y148.027 E15.92103
G1 X149.878 Y148.099 E15.96936
G1 X149.172 Y148.027 E16.01768
G1 X148.495 Y147.814 E16.06599
G1 X147.875 Y147.471 E16.11423
G1 X147.336 Y147.012 E16.16243
G1 X146.897 Y146.458 E16.21057
G1 X146.574 Y145.830 E16.25866
G1 X146.375 Y145.153 E16.30672
G1 X146.309 Y144.450 E16.35477
G1 X146.375 Y143.748 E16.40280
G1 X146.574 Y143.071 E16.45086
G1 X146.897 Y142.443 E16.49895
G1 X147.336 Y141.889 E16.54709
G1 X147.875 Y141.430 E16.59528
G1 X148.434 Y141.121 E16.63878
G1 X148.380 Y140.912 E16.65345
G1 X143.232 Y140.912 E17.00404
G1 X143.232 Y101.101 E19.71486
G1 F1800.000 E18.71486
G92 E0
G1 X167.788 Y70.490 F7200.000
G1 E1.00000 F1800.000
G1 X167.333 Y70.102 E1.04068 F540.000
G1 X166.962 Y69.634 E1.08140
G1 X166.687 Y69.101 E1.12217
G1 X166.519 Y68.526 E1.16297
G1 X166.462 Y67.930 E1.20379
G1 X166.519 Y67.333 E1.24461
G1 X166.687 Y66.758 E1.28542
G1 X166.962 Y66.225 E1.32618
G1 X167.333 Y65.757 E1.36691
G1 X167.788 Y65.369 E1.40759
G1 X168.310 Y65.080 E1.44822
G1 X168.879 Y64.901 E1.48882
G1 X169.472 Y64.841 E1.52941
G1 X170.065 Y64.901 E1.57000
G1 X170.634 Y65.080 E1.61061
G1 X171.156 Y65.370 E1.65124
G1 X171.611 Y65.757 E1.69191
G1 X171.982 Y66.226 E1.73264
G1 X172.256 Y66.758 E1.77341
G1 X172.425 Y67.333 E1.81420
G1 X172.481 Y67.930 E1.85503
G1 X172.425 Y68.526 E1.89586
G1 X172.256 Y69.102 E1.93666
G1 X171.982 Y69.634 E1.97742
G1 X171.611 Y70.103 E2.01815
G1 X171.156 Y70.490 E2.05882
G1 X170.634 Y70.779 E2.09946
G1 X170.065 Y70.958 E2.14006
G1 X169.472 Y71.018 E2.18066
G1 X168.879 Y70.958 E2.22124
G1 X168.310 Y70.779 E2.26184
G1 X167.861 Y70.530 E2.29679
G1 X168.107 Y70.029 F7200.000
G1 X167.736 Y69.714 E2.32995 F540.000
G1 X167.432 Y69.330 E2.36325
G1 X167.207 Y68.894 E2.39669
G1 X167.069 Y68.421 E2.43024
G1 X167.022 Y67.930 E2.46385
G1 X167.069 Y67.438 E2.49745
G1 X167.207 Y66.965 E2.53100
G1 X167.432 Y66.529 E2.56444
G1 X167.736 Y66.145 E2.59775
G1 X168.107 Y65.830 E2.63091
G1 X168.531 Y65.595 E2.66392
G1 X168.992 Y65.450 E2.69683
G1 X169.472 Y65.401 E2.72969
G1 X169.952 Y65.450 E2.76255
G1 X170.413 Y65.595 E2.79546
G1 X170.837 Y65.830 E2.82847
G1 X171.208 Y66.145 E2.86163
G1 X171.512 Y66.529 E2.89493
G1 X171.737 Y66.965 E2.92838
G1 X171.875 Y67.438 E2.96192
G1 X171.922 Y67.930 E2.99553
G1 X171.875 Y68.421 E3.02914
G1 X171.737 Y68.894 E3.06268
G1 X171.512 Y69.330 E3.09613
G1 X171.208 Y69.714 E3.12943
G1 X170.837 Y70.029 E3.16259
G1 X170.413 Y70.264 E3.19561
G1 X169.952 Y70.409 E3.22852
G1 X169.472 Y70.458 E3.26138
G1 X168.992 Y70.409 E3.29423
G1 X168.531 Y70.264 E3.32714
G1 X168.180 Y70.070 E3.35447
G1 X167.660 Y70.223 F7200.000
G1 F1800.000 E2.35447
G92 E0
G1 X152.869 Y68.470 F7200.000
G1 E1.00000 F1800.000
G1 X152.699 Y69.052 E1.04130 F540.000
G1 X152.421 Y69.591 E1.08255
G1 X152.046 Y70.065 E1.12377
G1 X151.585 Y70.457 E1.16493
G1 X151.057 Y70.750 E1.20604
G1 X150.481 Y70.931 E1.24713
G1 X149.881 Y70.992 E1.28820
G1 X149.281 Y70.931 E1.32927
G1 X148.706 Y70.750 E1.37035
G1 X148.178 Y70.457 E1.41147
G1 X147.717 Y70.065 E1.45263
G1 X147.342 Y69.591 E1.49384
G1 X147.064 Y69.052 E1.53510
G1 X146.894 Y68.470 E1.57640
G1 X146.836 Y67.866 E1.61772
G1 X146.893 Y67.262 E1.65904
G1 X147.064 Y66.680 E1.70034
G1 X147.342 Y66.141 E1.74160
G1 X147.717 Y65.667 E1.78281
G1 X148.178 Y65.275 E1.82397
G1 X148.706 Y64.983 E1.86509
G1 X149.281 Y64.802 E1.90617
G1 X149.881 Y64.740 E1.94724
G1 X150.481 Y64.802 E1.98831
G1 X151.057 Y64.983 E2.02940
G1 X151.585 Y65.275 E2.07052
G1 X152.046 Y65.667 E2.11168
G1 X152.421 Y66.141 E2.15289
G1 X152.699 Y66.680 E2.19415
G1 X152.869 Y67.262 E2.23544
G1 X152.927 Y67.866 E2.27676
G1 X152.877 Y68.387 E2.31239
G1 X152.323 Y68.328 F7200.000
G1 X152.179 Y68.845 E2.34889 F540.000
G1 X151.951 Y69.287 E2.38282
G1 X151.643 Y69.677 E2.41662
G1 X151.267 Y69.997 E2.45026
G1 X150.836 Y70.235 E2.48376
G1 X150.368 Y70.382 E2.51715
G1 X149.881 Y70.432 E2.55049
G1 X149.394 Y70.382 E2.58382
G1 X148.927 Y70.235 E2.61721
G1 X148.496 Y69.997 E2.65072
G1 X148.120 Y69.677 E2.68436
G1 X147.812 Y69.287 E2.71815
G1 X147.583 Y68.845 E2.75209
G1 X147.443 Y68.365 E2.78613
G1 X147.396 Y67.866 E2.82023
G1 X147.443 Y67.368 E2.85433
G1 X147.584 Y66.888 E2.88838
G1 X147.812 Y66.445 E2.92231
G1 X148.120 Y66.056 E2.95611
G1 X148.496 Y65.736 E2.98975
G1 X148.927 Y65.497 E3.02325
G1 X149.394 Y65.350 E3.05664
G1 X149.881 Y65.300 E3.08998
G1 X150.368 Y65.350 E3.12331
G1 X150.836 Y65.497 E3.15670
G1 X151.267 Y65.736 E3.19021
G1 X151.643 Y66.056 E3.22385
G1 X151.951 Y66.445 E3.25764
G1 X152.179 Y66.888 E3.29158
G1 X152.320 Y67.368 E3.32562
G1 X152.367 Y67.866 E3.35972
G1 X152.331 Y68.245 E3.38564
G1 X152.720 Y68.688 F7200.000
G1 F1800.000 E2.38564
G92 E0
G1 X154.707 Y71.975 F7200.000
G1 E1.00000 F1800.000
G1 X176.244 Y71.975 E2.46650 F1080.000
G1 X176.282 Y140.355 E7.12266
G1 X143.789 Y140.355 E9.33521
G1 X143.789 Y71.975 E13.99138
G1 X154.624 Y71.975 E14.72910
G1 X154.707 Y72.532 F7200.000
G1 X175.687 Y72.532 E16.15768 F540.000
G1 X175.725 Y139.798 E20.73798
G1 X144.346 Y139.798 E22.87464
G1 X144.346 Y72.532 E27.45494
G1 X154.624 Y72.532 E28.15473
G1 X154.986 Y72.049 F7200.000
G1 F1800.000 E27.15473
G92 E0
G1 X149.878 Y141.362 F7200.000
G1 E1.00000 F1800.000
G1 X150.471 Y141.422 E1.04059 F540.000
G1 X151.040 Y141.601 E1.08119
G1 X151.562 Y141.891 E1.12183
G1 X152.017 Y142.278 E1.16250
G1 X152.388 Y142.746 E1.20322
G1 X152.662 Y143.279 E1.24399
G1 X152.831 Y143.854 E1.28479
G1 X152.887 Y144.451 E1.32561
G1 X152.831 Y145.047 E1.36644
G1 X152.662 Y145.623 E1.40724
G1 X152.388 Y146.155 E1.44801
G1 X152.017 Y146.624 E1.48873
G1 X151.562 Y147.011 E1.52941
