; generated by Slic3r 1.0.0RC3 on 2014-03-11 at 20:25:18

; layer_height = 0.3
; perimeters = 2
; top_solid_layers = 3
; bottom_solid_layers = 3
; fill_density = 0.1
; perimeter_speed = 60
; infill_speed = 60
; travel_speed = 120
; nozzle_diameter = 0.4
; filament_diameter = 1.75
; extrusion_multiplier = 0.98
; perimeters extrusion width = 0.40mm
; infill extrusion width = 0.42mm
; solid infill extrusion width = 0.42mm
; top infill extrusion width = 0.42mm
; first layer extrusion width = 0.60mm

G21 ; set units to millimeters
M107
M104 S220 ; set temperature
G28 ; home all axes
M106 S255;
G1 Z200 F1200 ; lift nozzle
M109 S220 ; wait for temperature to be reached
G90 ; use absolute coordinates
G92 E0
M82 ; use absolute distances for extrusion
G1 F1800.000 E-1.00000
G92 E0
G1 Z0.300 F7200.000
G1 X94.248 Y81.270 F7200.000
G1 E1.00000 F1800.000
G1 X119.918 Y51.950 E3.65352 F1080.000
G1 X120.938 Y51.010 E3.74797
G1 X122.138 Y50.300 E3.84291
G1 X123.458 Y49.860 E3.93765
G1 X124.848 Y49.710 E4.03285
G1 X184.048 Y49.710 E8.06392
G1 X185.348 Y49.840 E8.15288
G1 X186.598 Y50.230 E8.24204
G1 X187.748 Y50.860 E8.33133
G1 X188.748 Y51.700 E8.42026
G1 X189.558 Y52.720 E8.50895
G1 X190.158 Y53.880 E8.59788
G1 X203.438 Y87.870 E11.08272
G1 X203.608 Y88.360 E11.11803
G1 X206.218 Y96.970 E11.73065
G1 X206.368 Y97.590 E11.77409
G1 X206.468 Y98.230 E11.81820
G1 X207.348 Y107.180 E12.43056
G1 X207.378 Y107.820 E12.47419
G1 X207.348 Y108.460 E12.51782
G1 X206.468 Y117.420 E13.13086
G1 X206.368 Y118.060 E13.17497
G1 X206.218 Y118.680 E13.21840
G1 X203.608 Y127.290 E13.83102
G1 X203.388 Y127.900 E13.87518
G1 X203.108 Y128.490 E13.91965
G1 X198.858 Y136.420 E14.53228
G1 X198.528 Y136.970 E14.57595
G1 X198.148 Y137.480 E14.61926
G1 X192.328 Y144.570 E15.24386
G1 X191.898 Y145.050 E15.28774
G1 X191.418 Y145.480 E15.33162
G1 X184.588 Y151.090 E15.93347
G1 X184.068 Y151.480 E15.97773
G1 X183.508 Y151.810 E16.02199
G1 X175.598 Y156.010 E16.63181
G1 X175.018 Y156.280 E16.67538
G1 X174.418 Y156.500 E16.71889
G1 X165.768 Y159.120 E17.33432
G1 X165.148 Y159.270 E17.37775
G1 X164.518 Y159.360 E17.42109
G1 X155.568 Y160.250 E18.03352
G1 X154.918 Y160.290 E18.07786
G1 X154.268 Y160.250 E18.12221
G1 X145.308 Y159.360 E18.73532
G1 X144.678 Y159.270 E18.77865
G1 X144.048 Y159.110 E18.82291
G1 X135.288 Y156.450 E19.44629
G1 X134.688 Y156.240 E19.48958
G1 X134.108 Y155.970 E19.53314
G1 X126.308 Y151.810 E20.13508
G1 X125.748 Y151.470 E20.17969
G1 X125.218 Y151.070 E20.22490
G1 X118.278 Y145.330 E20.83815
G1 X117.808 Y144.910 E20.88107
G1 X117.388 Y144.440 E20.92399
G1 X111.678 Y137.480 E21.53700
G1 X111.298 Y136.960 E21.58085
G1 X110.968 Y136.410 E21.62453
G1 X106.728 Y128.480 E22.23684
G1 X106.378 Y127.720 E22.29381
G1 X93.048 Y92.590 E24.85232
G1 X92.728 Y91.440 E24.93360
G1 X92.618 Y90.260 E25.01430
G1 X92.618 Y85.590 E25.33229
G1 X92.808 Y84.030 E25.43930
G1 X93.358 Y82.570 E25.54553
G1 X94.201 Y81.339 E25.64712
G1 F1800.000 E24.64712
G92 E0
G1 X132.856 Y98.689 F7200.000
G1 E1.00000 F1800.000
G1 X135.063 Y94.560 E1.31878 F1080.000
G1 X138.033 Y90.941 E1.63756
G1 X141.652 Y87.971 E1.95633
G1 X145.780 Y85.764 E2.27511
G1 X150.261 Y84.405 E2.59390
G1 X154.920 Y83.946 E2.91268
G1 X159.579 Y84.405 E3.23147
G1 X164.059 Y85.764 E3.55024
G1 X168.187 Y87.971 E3.86902
G1 X171.806 Y90.941 E4.18780
G1 X174.776 Y94.560 E4.50658
G1 X176.983 Y98.689 E4.82536
G1 X178.341 Y103.164 E5.14382
G1 X178.801 Y107.828 E5.46292
G1 X178.341 Y112.492 E5.78203
G1 X176.983 Y116.967 E6.10046
G1 X174.776 Y121.095 E6.41924
G1 X171.806 Y124.714 E6.73802
G1 X168.187 Y127.684 E7.05680
G1 X164.059 Y129.891 E7.37557
G1 X159.578 Y131.250 E7.69441
G1 X159.393 Y131.267 E7.70708
G1 X150.442 Y131.268 E8.31654
G1 X150.262 Y131.251 E8.32883
G1 X145.781 Y129.891 E8.64773
G1 X141.651 Y127.684 E8.96655
G1 X138.040 Y124.720 E9.28471
G1 X135.063 Y121.095 E9.60405
G1 X132.856 Y116.967 E9.92283
G1 X131.497 Y112.487 E10.24156
G1 X131.038 Y107.828 E10.56038
G1 X131.497 Y103.168 E10.87919
G1 X132.832 Y98.769 E11.19225
G1 X133.373 Y98.903 F7200.000
G1 X135.528 Y94.871 E11.50356 F540.000
G1 X138.429 Y91.337 E11.81486
G1 X141.963 Y88.437 E12.12617
G1 X145.995 Y86.281 E12.43747
G1 X150.370 Y84.954 E12.74878
G1 X154.920 Y84.506 E13.06010
G1 X159.470 Y84.954 E13.37141
G1 X163.844 Y86.281 E13.68271
G1 X167.876 Y88.437 E13.99402
G1 X171.410 Y91.337 E14.30533
G1 X174.311 Y94.871 E14.61663
G1 X176.466 Y98.903 E14.92794
G1 X177.793 Y103.276 E15.23914
G1 X178.242 Y107.828 E15.55057
G1 X177.793 Y112.379 E15.86198
G1 X176.466 Y116.752 E16.17317
G1 X174.311 Y120.784 E16.48447
G1 X171.410 Y124.319 E16.79578
G1 X167.876 Y127.219 E17.10709
G1 X163.844 Y129.374 E17.41839
G1 X159.469 Y130.701 E17.72972
G1 X150.468 Y130.710 E18.34266
G1 X150.370 Y130.701 E18.34930
G1 X145.995 Y129.374 E18.66065
G1 X141.963 Y127.219 E18.97197
G1 X138.432 Y124.321 E19.28294
G1 X135.528 Y120.784 E19.59456
G1 X133.373 Y116.752 E19.90587
G1 X132.046 Y112.378 E20.21715
G1 X131.598 Y107.828 E20.52847
G1 X132.046 Y103.278 E20.83979
G1 X133.349 Y98.983 E21.14540
G1 X133.049 Y98.450 F7200.000
G1 F1800.000 E20.14540
G92 E0
G1 X125.708 Y86.454 F7200.000
G1 E1.00000 F1800.000
G1 X125.708 Y57.127 E2.99695 F1080.000
G1 X183.351 Y57.127 E6.92203
G1 X186.572 Y75.739 E8.20817
G1 X192.370 Y82.804 E8.83055
G1 X196.532 Y90.591 E9.43178
G1 X199.095 Y99.041 E10.03301
G1 X199.961 Y107.828 E10.63424
G1 X199.095 Y116.615 E11.23547
G1 X196.532 Y125.064 E11.83670
G1 X192.370 Y132.851 E12.43794
G1 X186.664 Y139.801 E13.05026
G1 X180.019 Y145.255 E13.63559
G1 X172.196 Y149.428 E14.23936
G1 X163.707 Y152.003 E14.84340
G1 X154.920 Y152.869 E15.44463
G1 X146.140 Y152.004 E16.04535
G1 X137.522 Y149.389 E16.65856
G1 X129.950 Y145.342 E17.24321
G1 X129.892 Y145.275 E17.24927
G1 X123.071 Y139.677 E17.85013
G1 X117.469 Y132.851 E18.45137
G1 X113.307 Y125.064 E19.05260
G1 X110.744 Y116.615 E19.65383
G1 X109.878 Y107.828 E20.25506
G1 X110.798 Y98.495 E20.89363
G1 X100.035 Y89.850 E21.83359
G1 X100.035 Y86.454 E22.06487
G1 X125.624 Y86.454 E23.80730
G1 X125.151 Y85.897 F7200.000
G1 X125.151 Y56.570 E25.80425 F540.000
G1 X183.820 Y56.570 E29.79920
G1 X187.095 Y75.499 E31.10727
G1 X192.836 Y82.493 E31.72338
G1 X197.049 Y90.377 E32.33208
G1 X199.644 Y98.931 E32.94078
G1 X200.521 Y107.828 E33.54948
G1 X199.644 Y116.724 E34.15819
G1 X197.049 Y125.278 E34.76689
G1 X192.835 Y133.162 E35.37559
G1 X187.055 Y140.201 E35.99582
G1 X180.289 Y145.754 E36.59178
G1 X180.201 Y145.781 E36.59807
G1 X172.410 Y149.946 E37.19962
G1 X163.816 Y152.552 E37.81112
G1 X154.920 Y153.429 E38.41982
G1 X146.026 Y152.553 E39.02834
G1 X137.313 Y149.909 E39.64837
G1 X129.597 Y145.785 E40.24409
G1 X129.502 Y145.675 E40.25394
G1 X122.675 Y140.072 E40.85534
G1 X117.004 Y133.162 E41.46404
G1 X112.790 Y125.278 E42.07275
G1 X110.195 Y116.724 E42.68145
G1 X109.319 Y107.828 E43.29015
G1 X110.214 Y98.740 E43.91192
G1 X99.478 Y90.118 E44.84954
G1 X99.478 Y85.897 E45.13693
G1 X125.067 Y85.897 E46.87937
G1 X125.708 Y85.897 F7200.000
G1 F1800.000 E45.87937
G92 E0
G1 X111.169 Y98.741 F7200.000
G1 E1.00000 F1800.000
G1 X163.947 Y151.519 E6.10011 F1080.000
G1 X163.287 Y151.649 E6.14610
G1 X111.098 Y99.460 E11.18925
G1 X111.027 Y100.180 E11.23866
G1 X162.567 Y151.720 E16.21911
G1 X161.848 Y151.791 E16.26852
G1 X110.956 Y100.900 E21.18627
G1 X110.886 Y101.619 E21.23569
G1 X161.128 Y151.862 E26.09074
G1 X160.408 Y151.933 E26.14016
G1 X110.815 Y102.339 E30.93251
G1 X110.744 Y103.059 E30.98193
G1 X159.689 Y152.003 E35.71159
G1 X158.969 Y152.074 E35.76101
G1 X110.673 Y103.778 E40.42797
G1 X110.602 Y104.498 E40.47739
G1 X158.249 Y152.145 E45.08166
G1 X157.529 Y152.216 E45.13107
G1 X110.531 Y105.218 E49.67265
G1 X110.460 Y105.937 E49.72207
G1 X156.810 Y152.287 E54.20095
G1 X156.090 Y152.358 E54.25036
G1 X110.389 Y106.657 E58.66654
G1 X110.318 Y107.377 E58.71596
G1 X155.370 Y152.429 E63.06945
G1 X154.592 Y152.441 E63.12264
G1 X110.306 Y108.155 E67.40208
G1 X110.393 Y109.032 E67.46229
G1 X153.715 Y152.354 E71.64864
G1 X152.838 Y152.268 E71.70886
G1 X110.479 Y109.909 E75.80212
G1 X110.565 Y110.786 E75.86233
G1 X151.961 Y152.182 E79.86250
G1 X151.084 Y152.095 E79.92271
G1 X110.652 Y111.663 E83.82980
G1 X110.738 Y112.540 E83.89001
G1 X150.207 Y152.009 E87.70401
G1 X149.330 Y151.923 E87.76422
G1 X110.825 Y113.417 E91.48513
G1 X110.911 Y114.294 E91.54534
G1 X148.453 Y151.836 E95.17316
G1 X147.576 Y151.750 E95.23337
G1 X110.997 Y115.171 E98.76811
G1 X111.084 Y116.048 E98.82832
G1 X146.699 Y151.664 E102.26996
G1 X145.706 Y151.461 E102.33922
G1 X111.284 Y117.039 E105.66555
G1 X111.628 Y118.173 E105.74658
G1 X144.571 Y151.117 E108.92997
G1 X143.436 Y150.772 E109.01101
G1 X111.972 Y119.308 E112.05147
G1 X112.317 Y120.443 E112.13250
G1 X142.301 Y150.428 E115.03001
G1 X141.167 Y150.083 E115.11105
G1 X112.661 Y121.578 E117.86563
G1 X113.005 Y122.713 E117.94666
G1 X140.032 Y149.739 E120.55829
G1 X138.897 Y149.395 E120.63933
G1 X113.349 Y123.847 E123.10803
G1 X113.728 Y125.017 E123.19202
G1 X137.762 Y149.050 E125.51443
G1 X136.107 Y148.186 F7200.000
G1 X114.636 Y126.715 E127.58922 F1080.000
G1 X115.544 Y128.414 F7200.000
G1 X134.408 Y147.278 E129.41216 F1080.000
G1 X132.710 Y146.370 F7200.000
G1 X116.452 Y130.112 E130.98326 F1080.000
G1 X117.359 Y131.810 F7200.000
G1 X131.012 Y145.463 E132.30252 F1080.000
G1 F1800.000 E131.30252
G92 E0
G1 X127.838 Y143.080 F7200.000
G1 E1.00000 F1800.000
G1 X119.667 Y134.909 E1.78959 F1080.000
G1 F1800.000 E0.78959
G92 E0
G1 X123.285 Y139.317 F7200.000
G1 E1.00000 F1800.000
G1 X123.430 Y139.462 E1.01394 F1080.000
G1 F1800.000 E0.01394
G92 E0
G1 X140.320 Y127.101 F7200.000
G1 E1.00000 F1800.000
G1 X164.554 Y151.335 E3.34179 F1080.000
G1 X165.161 Y151.151 E3.38510
G1 X142.702 Y128.692 E5.55536
G1 X144.400 Y129.600 F7200.000
G1 X165.767 Y150.967 E7.62011 F1080.000
G1 X166.374 Y150.783 E7.66342
G1 X145.943 Y130.352 E9.63772
G1 X147.078 Y130.696 E9.71875
G1 X166.980 Y150.599 E11.64200
G1 X167.587 Y150.415 E11.68532
G1 X148.212 Y131.040 E13.55753
G1 X149.347 Y131.385 E13.63856
G1 X168.193 Y150.231 E15.45972
G1 X168.800 Y150.047 E15.50303
G1 X150.414 Y131.660 E17.27977
G1 X151.205 Y131.661 E17.33385
G1 X169.407 Y149.863 E19.09271
G1 X170.013 Y149.679 E19.13603
G1 X151.996 Y131.661 E20.87711
G1 X152.786 Y131.661 E20.93113
G1 X170.620 Y149.495 E22.65444
G1 X171.226 Y149.311 E22.69775
G1 X153.577 Y131.661 E24.40328
G1 X154.367 Y131.661 E24.45730
G1 X171.833 Y149.127 E26.14505
G1 X172.380 Y148.884 E26.18597
G1 X155.158 Y131.661 E27.85021
G1 X155.949 Y131.661 E27.90423
G1 X172.896 Y148.609 E29.54188
G1 X173.411 Y148.334 E29.58181
G1 X156.739 Y131.661 E31.19289
G1 X157.530 Y131.661 E31.24691
G1 X173.927 Y148.058 E32.83141
G1 X174.442 Y147.783 E32.87134
G1 X158.320 Y131.661 E34.42926
G1 X159.111 Y131.661 E34.48328
G1 X174.958 Y147.508 E36.01462
G1 X175.473 Y147.233 E36.05455
G1 X159.827 Y131.586 E37.56655
G1 X160.433 Y131.402 E37.60986
G1 X175.989 Y146.958 E39.11306
G1 X176.504 Y146.683 E39.15298
G1 X161.040 Y131.218 E40.64739
G1 X161.646 Y131.034 E40.69070
G1 X177.020 Y146.408 E42.17630
G1 X177.536 Y146.133 E42.21623
G1 X162.253 Y130.850 E43.69303
G1 X162.859 Y130.666 E43.73634
G1 X178.051 Y145.858 E45.20435
G1 X178.567 Y145.583 E45.24428
G1 X163.466 Y130.482 E46.70349
G1 X164.073 Y130.298 E46.74680
G1 X179.082 Y145.308 E48.19721
G1 X179.598 Y145.033 E48.23713
G1 X164.608 Y130.044 E49.68557
G1 X165.124 Y129.768 E49.72549
G1 X180.064 Y144.708 E51.16918
G1 X180.498 Y144.352 E51.20756
G1 X165.639 Y129.493 E52.64342
G1 X166.154 Y129.218 E52.68334
G1 X180.932 Y143.996 E54.11137
G1 X181.366 Y143.639 E54.14975
G1 X166.669 Y128.942 E55.56996
G1 X167.184 Y128.667 E55.60988
G1 X181.800 Y143.283 E57.02226
G1 X182.235 Y142.927 E57.06065
G1 X167.700 Y128.392 E58.46520
G1 X168.215 Y128.116 E58.50512
G1 X182.669 Y142.570 E59.90185
G1 X183.103 Y142.214 E59.94024
G1 X168.679 Y127.790 E61.33405
G1 X169.114 Y127.434 E61.37243
G1 X183.537 Y141.858 E62.76624
G1 X183.972 Y141.501 E62.80463
G1 X169.548 Y127.077 E64.19844
G1 X169.982 Y126.721 E64.23682
G1 X184.406 Y141.145 E65.63063
G1 X184.840 Y140.788 E65.66902
G1 X170.416 Y126.365 E67.06283
G1 X170.850 Y126.008 E67.10121
G1 X185.274 Y140.432 E68.49502
G1 X185.708 Y140.076 E68.53341
G1 X171.285 Y125.652 E69.92722
G1 X171.719 Y125.296 E69.96560
G1 X186.143 Y139.719 E71.35942
G1 X186.542 Y139.328 E71.39761
G1 X172.141 Y124.927 E72.78925
G1 X172.497 Y124.493 E72.82763
G1 X186.899 Y138.894 E74.21927
G1 X187.255 Y138.460 E74.25765
G1 X172.854 Y124.059 E75.64930
G1 X173.210 Y123.625 E75.68768
G1 X187.612 Y138.026 E77.07934
G1 X187.968 Y137.592 E77.11772
G1 X173.566 Y123.190 E78.50939
G1 X173.923 Y122.756 E78.54777
G1 X188.325 Y137.158 E79.93945
G1 X188.681 Y136.724 E79.97783
G1 X174.279 Y122.322 E81.36951
G1 X174.636 Y121.888 E81.40789
G1 X189.037 Y136.290 E82.79959
G1 X189.394 Y135.855 E82.83797
G1 X174.992 Y121.453 E84.22967
G1 X175.293 Y120.964 E84.26893
G1 X189.750 Y135.421 E85.66598
G1 X190.107 Y134.987 E85.70436
G1 X175.568 Y120.449 E87.10924
G1 X175.844 Y119.934 E87.14915
G1 X190.463 Y134.553 E88.56187
G1 X190.820 Y134.119 E88.60025
G1 X176.119 Y119.418 E90.02079
G1 X176.395 Y118.903 E90.06071
G1 X191.176 Y133.685 E91.48909
G1 X191.533 Y133.251 E91.52747
G1 X176.670 Y118.388 E92.96368
G1 X176.945 Y117.873 E93.00360
G1 X191.889 Y132.816 E94.44764
G1 X192.199 Y132.336 E94.48672
G1 X177.221 Y117.358 E95.93411
G1 X177.447 Y116.794 E95.97564
G1 X192.474 Y131.821 E97.42775
G1 X192.750 Y131.305 E97.46767
G1 X177.631 Y116.187 E98.92861
G1 X177.815 Y115.580 E98.97192
G1 X193.025 Y130.790 E100.44169
G1 X193.300 Y130.275 E100.48161
G1 X177.999 Y114.974 E101.96021
G1 X178.183 Y114.367 E102.00352
G1 X193.576 Y129.760 E103.49095
G1 X193.851 Y129.245 E103.53087
G1 X178.367 Y113.761 E105.02713
G1 X178.551 Y113.154 E105.07044
G1 X194.127 Y128.729 E106.57553
G1 X194.402 Y128.214 E106.61545
G1 X178.731 Y112.544 E108.12975
G1 X178.802 Y111.824 E108.17915
G1 X194.677 Y127.699 E109.71319
G1 X194.953 Y127.184 E109.75311
G1 X178.873 Y111.105 E111.30690
G1 X178.944 Y110.385 E111.35630
G1 X195.228 Y126.669 E112.92983
G1 X195.503 Y126.154 E112.96974
G1 X179.016 Y109.666 E114.56301
G1 X179.087 Y108.946 E114.61242
G1 X195.779 Y125.638 E116.22543
G1 X196.054 Y125.123 E116.26534
G1 X179.158 Y108.227 E117.89810
G1 X179.158 Y107.437 E117.95206
G1 X196.276 Y124.554 E119.60613
G1 X196.460 Y123.947 E119.64944
G1 X179.072 Y106.560 E121.32966
G1 X178.985 Y105.682 E121.38989
G1 X196.644 Y123.341 E123.09626
G1 X196.828 Y122.734 E123.13957
G1 X178.899 Y104.805 E124.87210
G1 X178.812 Y103.928 E124.93233
G1 X197.012 Y122.128 E126.69100
G1 X197.196 Y121.521 E126.73431
G1 X178.715 Y103.040 E128.52017
G1 X178.370 Y101.905 E128.60120
G1 X197.380 Y120.914 E130.43810
G1 X197.564 Y120.308 E130.48141
G1 X178.026 Y100.771 E132.36936
G1 X177.682 Y99.636 E132.45039
G1 X197.748 Y119.701 E134.38938
G1 X197.932 Y119.095 E134.43269
G1 X177.320 Y98.483 E136.42447
G1 X176.412 Y96.784 F7200.000
G1 X198.116 Y118.488 E138.52176 F1080.000
G1 X198.300 Y117.882 E138.56507
G1 X175.504 Y95.086 E140.76786
G1 F1800.000 E139.76786
G92 E0
G1 X173.077 Y91.868 F7200.000
G1 E1.00000 F1800.000
G1 X198.484 Y117.275 E3.45514 F1080.000
G1 X198.668 Y116.668 E3.49845
G1 X139.520 Y57.521 E9.21404
G1 X140.311 Y57.521 E9.26806
G1 X198.763 Y115.973 E14.91647
G1 X198.834 Y115.253 E14.96588
G1 X141.101 Y57.521 E20.54474
G1 X141.892 Y57.521 E20.59876
G1 X198.905 Y114.534 E26.10808
G1 X198.976 Y113.814 E26.15749
G1 X142.682 Y57.521 E31.59726
G1 X143.473 Y57.521 E31.65128
G1 X199.046 Y113.094 E37.02150
G1 X199.117 Y112.375 E37.07092
G1 X144.263 Y57.521 E42.37160
G1 X145.054 Y57.521 E42.42562
G1 X199.188 Y111.655 E47.65675
G1 X199.259 Y110.935 E47.70616
G1 X145.845 Y57.521 E52.86775
G1 X146.635 Y57.521 E52.92177
G1 X199.330 Y110.216 E58.01381
G1 X199.401 Y109.496 E58.06322
G1 X147.426 Y57.521 E63.08572
G1 X148.216 Y57.521 E63.13974
G1 X199.472 Y108.776 E68.09269
G1 X199.543 Y108.057 E68.14210
G1 X149.007 Y57.521 E73.02551
G1 X149.797 Y57.521 E73.07952
G1 X199.506 Y107.230 E77.88302
G1 X199.420 Y106.353 E77.94323
G1 X150.588 Y57.521 E82.66199
G1 X151.379 Y57.521 E82.71601
