; generated by Slic3r 1.0.0RC3 on 2014-03-11 at 20:29:29

; layer_height = 0.3
; perimeters = 2
; top_solid_layers = 3
; bottom_solid_layers = 3
; fill_density = 0.1
; perimeter_speed = 60
; infill_speed = 60
; travel_speed = 120
; nozzle_diameter = 0.4
; filament_diameter = 1.75
; extrusion_multiplier = 0.98
; perimeters extrusion width = 0.40mm
; infill extrusion width = 0.42mm
; solid infill extrusion width = 0.42mm
; top infill extrusion width = 0.42mm
; first layer extrusion width = 0.60mm

G21 ; set units to millimeters
M107
M104 S220 ; set temperature
G28 ; home all axes
M106 S255;
G1 Z200 F1200 ; lift nozzle
M109 S220 ; wait for temperature to be reached
G90 ; use absolute coordinates
G92 E0
M82 ; use absolute distances for extrusion
G1 F1800.000 E-1.00000
G92 E0
G1 Z0.300 F7200.000
G1 X140.780 Y75.812 F7200.000
G1 E1.00000 F1800.000
G1 X141.590 Y74.792 E1.08869 F1080.000
G1 X142.590 Y73.942 E1.17806
G1 X143.740 Y73.312 E1.26734
G1 X145.000 Y72.922 E1.35716
G1 X146.300 Y72.792 E1.44612
G1 X153.690 Y72.792 E1.94932
G1 X154.990 Y72.922 E2.03828
G1 X156.250 Y73.312 E2.12809
G1 X157.400 Y73.942 E2.21738
G1 X158.400 Y74.792 E2.30675
G1 X159.210 Y75.812 E2.39544
G1 X159.800 Y76.982 E2.48466
G1 X166.140 Y93.342 E3.67938
G1 X166.480 Y94.502 E3.76169
G1 X166.590 Y95.712 E3.84442
G1 X166.590 Y115.652 E5.20218
G1 X166.460 Y116.952 E5.29115
G1 X166.070 Y118.202 E5.38031
G1 X159.730 Y133.192 E6.48855
G1 X159.120 Y134.322 E6.57599
G1 X158.300 Y135.302 E6.66300
G1 X157.310 Y136.112 E6.75010
G1 X156.180 Y136.702 E6.83690
G1 X154.960 Y137.072 E6.92371
G1 X153.690 Y137.202 E7.01064
G1 X146.300 Y137.202 E7.51384
G1 X145.030 Y137.072 E7.60077
G1 X143.800 Y136.702 E7.68823
G1 X142.680 Y136.102 E7.77475
G1 X141.680 Y135.302 E7.86195
G1 X140.870 Y134.312 E7.94905
G1 X140.260 Y133.192 E8.03589
G1 X133.930 Y118.202 E9.14387
G1 X133.540 Y116.952 E9.23304
G1 X133.410 Y115.652 E9.32200
G1 X133.410 Y95.712 E10.67976
G1 X133.520 Y94.512 E10.76181
G1 X133.850 Y93.342 E10.84459
G1 X140.180 Y76.982 E12.03906
G1 X140.742 Y75.886 E12.12290
G1 F1800.000 E11.12290
G92 E0
G1 X149.283 Y95.535 F7200.000
G1 E1.00000 F1800.000
G1 X149.980 Y95.396 E1.04840 F1080.000
G1 X150.499 Y95.500 E1.08441
G1 X150.677 Y95.535 E1.09680
G1 X151.268 Y95.930 E1.14519
G1 X151.663 Y96.521 E1.19360
G1 X151.802 Y97.218 E1.24199
G1 X151.663 Y97.915 E1.29039
G1 X151.256 Y98.525 E1.34031
G1 X151.468 Y98.934 E1.37169
G1 X152.557 Y99.204 E1.44807
G1 X154.707 Y100.641 E1.62418
G1 X156.156 Y102.809 E1.80172
G1 X156.664 Y105.366 E1.97927
G1 X156.156 Y107.924 E2.15681
G1 X154.707 Y110.092 E2.33435
G1 X152.539 Y111.540 E2.51189
G1 X150.441 Y111.958 E2.65757
G1 X151.268 Y112.510 E2.72532
G1 X151.663 Y113.101 E2.77372
G1 X151.802 Y113.798 E2.82212
G1 X151.663 Y114.496 E2.87051
G1 X151.268 Y115.087 E2.91891
G1 X150.677 Y115.482 E2.96732
G1 X149.980 Y115.620 E3.01571
G1 X149.283 Y115.482 E3.06411
G1 X148.692 Y115.087 E3.11252
G1 X148.297 Y114.496 E3.16092
G1 X148.158 Y113.798 E3.20932
G1 X148.297 Y113.101 E3.25771
G1 X148.692 Y112.510 E3.30611
G1 X149.520 Y111.957 E3.37394
G1 X147.425 Y111.540 E3.51940
G1 X145.257 Y110.092 E3.69694
G1 X143.808 Y107.924 E3.87448
G1 X143.300 Y105.366 E4.05202
G1 X143.808 Y102.809 E4.22956
G1 X145.257 Y100.641 E4.40711
G1 X147.407 Y99.204 E4.58322
G1 X148.496 Y98.934 E4.65960
G1 X148.706 Y98.528 E4.69071
G1 X148.297 Y97.915 E4.74092
G1 X148.158 Y97.218 E4.78932
G1 X148.297 Y96.521 E4.83772
G1 X148.692 Y95.930 E4.88611
G1 X149.213 Y95.582 E4.92883
G1 X149.500 Y96.060 F7200.000
G1 X149.980 Y95.964 E4.96214 F540.000
G1 X150.460 Y96.060 E4.99545
G1 X150.866 Y96.332 E5.02875
G1 X151.138 Y96.738 E5.06206
G1 X151.234 Y97.218 E5.09537
G1 X151.138 Y97.698 E5.12868
G1 X150.866 Y98.105 E5.16199
G1 X150.534 Y98.327 E5.18920
G1 X151.090 Y99.414 E5.27233
G1 X152.328 Y99.722 E5.35922
G1 X154.305 Y101.043 E5.52117
G1 X155.631 Y103.027 E5.68362
G1 X156.096 Y105.366 E5.84607
G1 X155.631 Y107.706 E6.00852
G1 X154.305 Y109.690 E6.17097
G1 X152.322 Y111.015 E6.33342
G1 X149.982 Y111.481 E6.49587
G1 X147.642 Y111.015 E6.65832
G1 X145.658 Y109.690 E6.82077
G1 X144.333 Y107.706 E6.98322
G1 X143.868 Y105.366 E7.14567
G1 X144.333 Y103.027 E7.30812
G1 X145.658 Y101.043 E7.47057
G1 X147.636 Y99.722 E7.63252
G1 X148.874 Y99.414 E7.71941
G1 X149.429 Y98.329 E7.80238
G1 X149.093 Y98.105 E7.82984
G1 X148.822 Y97.698 E7.86315
G1 X148.726 Y97.218 E7.89646
G1 X148.822 Y96.738 E7.92977
G1 X149.093 Y96.332 E7.96308
G1 X149.431 Y96.106 E7.99070
G1 X149.596 Y95.580 F7200.000
G1 F1800.000 E6.99070
G92 E0
G1 X149.980 Y112.545 F7200.000
G1 E1.00000 F1800.000
G1 X150.460 Y112.640 E1.03331 F540.000
G1 X150.866 Y112.912 E1.06662
G1 X151.138 Y113.319 E1.09993
G1 X151.234 Y113.799 E1.13323
G1 X151.138 Y114.278 E1.16654
G1 X150.866 Y114.685 E1.19985
G1 X150.460 Y114.957 E1.23316
G1 X149.980 Y115.052 E1.26647
G1 X149.500 Y114.957 E1.29978
G1 X149.093 Y114.685 E1.33309
G1 X148.822 Y114.278 E1.36640
G1 X148.726 Y113.799 E1.39971
G1 X148.822 Y113.319 E1.43301
G1 X149.093 Y112.912 E1.46632
G1 X149.500 Y112.640 E1.49963
G1 X149.898 Y112.561 E1.52725
G1 X150.252 Y112.138 F7200.000
G1 F1800.000 E0.52725
G92 E0
G1 X159.173 Y115.036 F7200.000
G1 E1.00000 F1800.000
G1 X159.173 Y115.360 E1.02207 F1080.000
G1 X153.312 Y122.833 E1.66875
G1 X152.889 Y129.791 E2.14339
G1 X147.111 Y129.791 E2.53678
G1 X146.688 Y122.833 E3.01141
G1 X140.827 Y115.360 E3.65810
G1 X140.827 Y95.992 E4.97692
G1 X146.690 Y87.831 E5.66117
G1 X147.115 Y80.209 E6.18099
G1 X152.885 Y80.209 E6.57382
G1 X153.310 Y87.831 E7.09364
G1 X159.173 Y95.992 E7.77789
G1 X159.173 Y114.953 E9.06896
G1 X159.730 Y115.036 F7200.000
G1 X159.730 Y115.553 E9.10412 F540.000
G1 X153.858 Y123.041 E9.75209
G1 X153.413 Y130.348 E10.25059
G1 X146.587 Y130.348 E10.71537
G1 X146.142 Y123.041 E11.21387
G1 X140.270 Y115.553 E11.86184
G1 X140.270 Y95.813 E13.20598
G1 X146.143 Y87.638 E13.89138
G1 X146.589 Y79.652 E14.43602
G1 X153.411 Y79.652 E14.90060
G1 X153.857 Y87.638 E15.44524
G1 X159.730 Y95.813 E16.13065
G1 X159.730 Y114.953 E17.43393
G1 X159.283 Y115.294 F7200.000
G1 F1800.000 E16.43393
G92 E0
G1 X149.937 Y116.013 F7200.000
G1 E1.00000 F1800.000
G1 X154.546 Y120.622 E1.44561 F1080.000
G1 X154.894 Y120.179 E1.48412
G1 X150.611 Y115.896 E1.89818
G1 X151.147 Y115.641 E1.93875
G1 X155.241 Y119.736 E2.33460
G1 X155.589 Y119.292 E2.37311
G1 X151.598 Y115.302 E2.75894
G1 X151.915 Y114.827 E2.79792
G1 X155.936 Y118.849 E3.18673
G1 X156.284 Y118.406 E3.22525
G1 X152.116 Y114.237 E3.62824
G1 X152.137 Y113.468 E3.68086
G1 X156.632 Y117.962 E4.11538
G1 X156.979 Y117.519 E4.15389
G1 X151.591 Y112.130 E4.67487
G1 X152.250 Y111.999 E4.72086
G1 X157.327 Y117.076 E5.21167
G1 X157.675 Y116.633 E5.25018
G1 X152.849 Y111.807 E5.71673
G1 X153.323 Y111.490 E5.75572
G1 X158.022 Y116.189 E6.21004
G1 X158.370 Y115.746 E6.24855
G1 X153.797 Y111.173 E6.69064
G1 X154.271 Y110.856 E6.72963
G1 X158.718 Y115.303 E7.15949
G1 X158.779 Y114.573 E7.20953
G1 X154.746 Y110.540 E7.59951
G1 X155.144 Y110.147 E7.63774
G1 X158.779 Y113.782 E7.98921
G1 X158.779 Y112.991 E8.04328
G1 X155.461 Y109.673 E8.36412
G1 X155.778 Y109.199 E8.40311
G1 X158.779 Y112.200 E8.69332
G1 X158.779 Y111.409 E8.74739
G1 X156.094 Y108.724 E9.00697
G1 X156.411 Y108.250 E9.04595
G1 X158.779 Y110.618 E9.27490
G1 X158.779 Y109.827 E9.32898
G1 X156.610 Y107.658 E9.53870
G1 X156.741 Y106.999 E9.58468
G1 X158.779 Y109.037 E9.78172
G1 X158.779 Y108.246 E9.83579
G1 X156.873 Y106.339 E10.02014
G1 X157.004 Y105.679 E10.06612
G1 X158.779 Y107.455 E10.23778
G1 X158.779 Y106.664 E10.29185
G1 X156.963 Y104.847 E10.46750
G1 X156.766 Y103.860 E10.53632
G1 X158.779 Y105.873 E10.73094
G1 X158.779 Y105.082 E10.78502
G1 X156.570 Y102.872 E10.99863
G1 F1800.000 E9.99863
G92 E0
G1 X152.476 Y98.779 F7200.000
G1 E1.00000 F1800.000
G1 X151.927 Y98.229 E1.05311 F1080.000
G1 X152.121 Y97.632 E1.09602
G1 X158.779 Y104.291 E1.73977
G1 X158.779 Y103.500 E1.79384
G1 X152.130 Y96.850 E2.43670
G1 F1800.000 E1.43670
G92 E0
G1 X148.155 Y98.413 F7200.000
G1 E1.00000 F1800.000
G1 X143.161 Y93.418 E1.48286 F1080.000
G1 X142.830 Y93.879 E1.52161
G1 X147.682 Y98.730 E1.99067
G1 X147.098 Y98.937 E2.03302
G1 X142.500 Y94.339 E2.47760
G1 X142.169 Y94.799 E2.51635
G1 X146.624 Y99.254 E2.94705
G1 X146.150 Y99.571 E2.98604
G1 X141.838 Y95.259 E3.40288
G1 X141.508 Y95.720 E3.44162
G1 X145.676 Y99.888 E3.84459
G1 X145.202 Y100.205 E3.88357
G1 X141.221 Y96.224 E4.26844
G1 X141.221 Y97.015 E4.32252
G1 X144.809 Y100.603 E4.66942
G1 X144.492 Y101.077 E4.70840
G1 X141.221 Y97.806 E5.02467
G1 X141.221 Y98.597 E5.07875
G1 X144.175 Y101.551 E5.36439
G1 X143.858 Y102.025 E5.40337
G1 X141.221 Y99.388 E5.65838
G1 X141.221 Y100.178 E5.71246
G1 X143.542 Y102.499 E5.93684
G1 X143.349 Y103.098 E5.97982
G1 X141.221 Y100.969 E6.18561
G1 X141.221 Y101.760 E6.23968
G1 X143.218 Y103.758 E6.43278
G1 X143.087 Y104.417 E6.47876
G1 X141.221 Y102.551 E6.65917
G1 X141.221 Y103.342 E6.71325
G1 X142.955 Y105.077 E6.88097
G1 X143.008 Y105.921 E6.93876
G1 X141.221 Y104.133 E7.11158
G1 X141.221 Y104.924 E7.16565
G1 X143.205 Y106.908 E7.35746
G1 X143.401 Y107.896 E7.42628
G1 X141.221 Y105.715 E7.63707
G1 X141.221 Y106.506 E7.69115
G1 X147.882 Y113.168 E8.33517
G1 X147.765 Y113.842 E8.38194
G1 X141.221 Y107.297 E9.01467
G1 X141.221 Y108.088 E9.06874
G1 X154.198 Y121.066 E10.32341
G1 X153.851 Y121.509 E10.36192
G1 X141.221 Y108.879 E11.58298
G1 X141.221 Y109.670 E11.63705
G1 X153.503 Y121.952 E12.82450
G1 X153.155 Y122.396 E12.86301
G1 X141.221 Y110.461 E14.01684
G1 X141.221 Y111.252 E14.07091
G1 X152.911 Y122.942 E15.20115
G1 X152.866 Y123.688 E15.25221
G1 X141.221 Y112.043 E16.37806
G1 X141.221 Y112.834 E16.43213
G1 X152.820 Y124.434 E17.55358
G1 X152.775 Y125.179 E17.60465
G1 X141.221 Y113.625 E18.72171
G1 X141.221 Y114.416 E18.77578
G1 X152.730 Y125.925 E19.88846
G1 X152.684 Y126.670 E19.93952
G1 X141.221 Y115.207 E21.04781
G1 F1800.000 E20.04781
G92 E0
G1 X144.032 Y118.809 F7200.000
G1 E1.00000 F1800.000
G1 X152.639 Y127.416 E1.83206 F1080.000
G1 X152.593 Y128.161 E1.88313
G1 X146.908 Y122.476 E2.43283
G1 X147.122 Y123.481 E2.50308
G1 X152.548 Y128.907 E3.02769
G1 X152.247 Y129.397 E3.06700
G1 X147.173 Y124.323 E3.55758
G1 X147.224 Y125.165 E3.61526
G1 X151.456 Y129.397 E4.02440
G1 X150.665 Y129.397 E4.07848
G1 X147.276 Y126.007 E4.40619
G1 X147.327 Y126.850 E4.46388
G1 X149.874 Y129.397 E4.71016
G1 X149.083 Y129.397 E4.76424
G1 X147.378 Y127.692 E4.92909
G1 X147.429 Y128.534 E4.98678
G1 X148.292 Y129.397 E5.07021
G1 X147.481 Y129.376 E5.12571
G1 X147.501 Y129.397 E5.12771
G1 F1800.000 E4.12771
G92 E0
G1 X148.137 Y112.632 F7200.000
G1 E1.00000 F1800.000
G1 X147.453 Y111.947 E1.06615 F1080.000
G1 X148.454 Y112.157 E1.13607
G1 F1800.000 E0.13607
G92 E0
G1 X147.758 Y97.224 F7200.000
G1 E1.00000 F1800.000
G1 X143.492 Y92.958 E1.41244 F1080.000
G1 X143.822 Y92.498 E1.45119
G1 X147.887 Y96.562 E1.84415
G1 X148.149 Y96.033 E1.88451
G1 X144.153 Y92.037 E2.27083
G1 X144.484 Y91.577 E2.30957
G1 X148.495 Y95.588 E2.69734
G1 X148.969 Y95.271 E2.73632
G1 X144.815 Y91.117 E3.13796
G1 X145.145 Y90.657 E3.17670
G1 X149.566 Y95.077 E3.60408
G1 X150.348 Y95.068 E3.65753
G1 X145.476 Y90.196 E4.12852
G1 X145.807 Y89.736 E4.16726
G1 X158.779 Y102.709 E5.42147
G1 X158.779 Y101.918 E5.47554
G1 X146.137 Y89.276 E6.69777
G1 X146.468 Y88.816 E6.73651
G1 X158.779 Y101.127 E7.92677
G1 X158.779 Y100.336 E7.98085
G1 X146.799 Y88.355 E9.13913
G1 X147.084 Y87.849 E9.17883
G1 X158.779 Y99.545 E10.30957
G1 X158.779 Y98.754 E10.36364
G1 X147.125 Y87.100 E11.49033
G1 X147.167 Y86.351 E11.54163
G1 X158.779 Y97.963 E12.66428
G1 X158.779 Y97.172 E12.71835
G1 X147.209 Y85.602 E13.83697
G1 X147.251 Y84.853 E13.88826
G1 X158.779 Y96.381 E15.00283
G1 F1800.000 E14.00283
G92 E0
G1 X157.430 Y94.241 F7200.000
G1 E1.00000 F1800.000
G1 X147.293 Y84.104 E1.98006 F1080.000
G1 X147.334 Y83.354 E2.03136
G1 X155.411 Y91.431 E2.81222
G1 F1800.000 E1.81222
G92 E0
G1 X153.393 Y88.622 F7200.000
G1 E1.00000 F1800.000
G1 X147.376 Y82.605 E1.58166 F1080.000
G1 X147.418 Y81.856 E1.63295
G1 X152.887 Y87.325 E2.16170
G1 X152.840 Y86.487 E2.21905
G1 X147.460 Y81.107 E2.73924
G1 X147.747 Y80.603 E2.77889
G1 X152.794 Y85.650 E3.26680
G1 X152.747 Y84.812 E3.32416
G1 X148.538 Y80.603 E3.73109
G1 X149.329 Y80.603 E3.78516
G1 X152.700 Y83.974 E4.11110
G1 X152.653 Y83.137 E4.16846
G1 X150.120 Y80.603 E4.41341
G1 X150.911 Y80.603 E4.46748
G1 X152.607 Y82.299 E4.63145
G1 X152.560 Y81.461 E4.68880
G1 X151.702 Y80.603 E4.77178
G1 X152.493 Y80.603 E4.82585
G1 X152.513 Y80.623 E4.82784
M106 S255
G1 F1800.000 E3.82784
G92 E0
G1 Z0.600 F7200.000
G1 X149.980 Y95.659 F7200.000
G1 E1.00000 F1800.000
G1 X150.577 Y95.777 E1.02975 F3494.105
G1 X151.083 Y96.115 E1.05950
G1 X151.421 Y96.621 E1.08926
G1 X151.539 Y97.218 E1.11901
G1 X151.421 Y97.815 E1.14876
G1 X151.083 Y98.321 E1.17851
G1 X150.924 Y98.427 E1.18787
G1 X151.293 Y99.155 E1.22780
G1 X152.451 Y99.443 E1.28612
G1 X154.522 Y100.827 E1.40788
G1 X155.914 Y102.910 E1.53036
G1 X156.402 Y105.366 E1.65284
G1 X155.914 Y107.823 E1.77532
G1 X154.522 Y109.906 E1.89780
G1 X152.439 Y111.298 E2.02028
G1 X149.982 Y111.787 E2.14276
G1 X147.525 Y111.298 E2.26524
G1 X145.442 Y109.906 E2.38772
G1 X144.050 Y107.823 E2.51020
G1 X143.562 Y105.366 E2.63267
G1 X144.050 Y102.910 E2.75515
G1 X145.442 Y100.827 E2.87763
G1 X147.513 Y99.443 E2.99940
G1 X148.671 Y99.155 E3.05772
G1 X149.039 Y98.429 E3.09753
G1 X148.877 Y98.321 E3.10708
G1 X148.539 Y97.815 E3.13683
G1 X148.420 Y97.218 E3.16658
G1 X148.539 Y96.621 E3.19633
G1 X148.877 Y96.115 E3.22608
G1 X149.383 Y95.777 E3.25584
G1 X149.921 Y95.670 E3.28265
G1 X149.980 Y96.066 F7200.000
G1 X150.421 Y96.154 E3.30463 F1747.053
G1 X150.794 Y96.404 E3.32660
G1 X151.044 Y96.777 E3.34857
G1 X151.132 Y97.218 E3.37054
G1 X151.044 Y97.659 E3.39251
G1 X150.794 Y98.033 E3.41448
G1 X150.095 Y98.500 E3.45559
G1 X150.572 Y98.618 E3.47959
G1 X151.022 Y99.500 E3.52799
G1 X152.287 Y99.814 E3.59174
G1 X154.233 Y101.115 E3.70620
G1 X155.537 Y103.066 E3.82090
G1 X155.994 Y105.366 E3.93560
G1 X155.537 Y107.667 E4.05030
G1 X154.233 Y109.618 E4.16500
G1 X152.283 Y110.921 E4.27969
G1 X149.982 Y111.379 E4.39439
G1 X147.681 Y110.921 E4.50909
G1 X145.731 Y109.618 E4.62379
G1 X144.427 Y107.667 E4.73849
G1 X143.969 Y105.366 E4.85319
G1 X144.427 Y103.066 E4.96789
G1 X145.731 Y101.115 E5.08259
G1 X147.677 Y99.814 E5.19705
G1 X148.942 Y99.500 E5.26079
G1 X149.388 Y98.626 E5.30877
G1 X149.834 Y98.479 E5.33172
G1 X149.165 Y98.033 E5.37105
G1 X148.916 Y97.659 E5.39302
G1 X148.828 Y97.218 E5.41499
G1 X148.916 Y96.777 E5.43696
G1 X149.165 Y96.404 E5.45894
G1 X149.539 Y96.154 E5.48091
G1 X149.921 Y96.078 E5.49995
G1 X150.202 Y95.734 F7200.000
G1 F1800.000 E4.49995
G92 E0
G1 X149.980 Y112.239 F7200.000
G1 E1.00000 F1800.000
G1 X150.577 Y112.358 E1.02975 F1747.053
G1 X151.083 Y112.696 E1.05951
G1 X151.421 Y113.202 E1.08926
G1 X151.539 Y113.799 E1.11901
G1 X151.421 Y114.395 E1.14876
G1 X151.083 Y114.901 E1.17851
G1 X150.577 Y115.239 E1.20826
G1 X149.980 Y115.358 E1.23801
G1 X149.383 Y115.239 E1.26777
G1 X148.877 Y114.901 E1.29752
G1 X148.539 Y114.395 E1.32727
G1 X148.420 Y113.799 E1.35702
G1 X148.539 Y113.202 E1.38677
G1 X148.877 Y112.696 E1.41652
G1 X149.383 Y112.358 E1.44628
G1 X149.921 Y112.251 E1.47310
G1 X149.980 Y112.647 F7200.000
G1 X150.421 Y112.734 E1.49507 F1747.053
G1 X150.794 Y112.984 E1.51704
G1 X151.044 Y113.358 E1.53901
G1 X151.132 Y113.799 E1.56098
G1 X151.044 Y114.239 E1.58295
G1 X150.794 Y114.613 E1.60493
G1 X150.421 Y114.863 E1.62690
G1 X149.980 Y114.950 E1.64887
G1 X149.539 Y114.863 E1.67084
G1 X149.165 Y114.613 E1.69281
G1 X148.916 Y114.239 E1.71478
G1 X148.828 Y113.799 E1.73676
G1 X148.916 Y113.358 E1.75873
G1 X149.165 Y112.984 E1.78070
G1 X149.539 Y112.734 E1.80267
G1 X149.921 Y112.658 E1.82171
G1 X150.202 Y112.314 F7200.000
G1 F1800.000 E0.82171
G92 E0
G1 X159.430 Y113.796 F7200.000
G1 E1.00000 F1800.000
G1 X159.430 Y115.449 E1.08082 F3494.105
G1 X153.564 Y122.929 E1.54558
G1 X153.131 Y130.048 E1.89429
G1 X146.869 Y130.048 E2.20042
G1 X146.436 Y122.929 E2.54913
G1 X140.570 Y115.449 E3.01389
