; generated by Slic3r 1.0.0RC2 on 2014-05-20 at 20:28:07

; layer_height = 0.3
; perimeters = 2
; top_solid_layers = 3
; bottom_solid_layers = 3
; fill_density = 0.1
; perimeter_speed = 60
; infill_speed = 60
; travel_speed = 120
; nozzle_diameter = 0.4
; filament_diameter = 1.75
; extrusion_multiplier = 0.98
; perimeters extrusion width = 0.40mm
; infill extrusion width = 0.42mm
; solid infill extrusion width = 0.42mm
; top infill extrusion width = 0.42mm
; first layer extrusion width = 0.80mm

G21 ; set units to millimeters
M107
M104 S220 ; set temperature
G28 ; home all axes
M106 S255;
G1 Z200 F1200 ; lift nozzle
M109 S220 ; wait for temperature to be reached
G90 ; use absolute coordinates
G92 E0
M82 ; use absolute distances for extrusion
G1 F1800.000 E-1.00000
G92 E0
G1 Z0.400 F7200.000
G1 X71.668 Y55.693 F7200.000
G1 E1.00000 F1800.000
G1 X72.488 Y54.683 E1.15142 F1080.000
G1 X73.488 Y53.863 E1.30194
G1 X74.618 Y53.233 E1.45252
G1 X75.858 Y52.843 E1.60381
G1 X94.178 Y48.933 E3.78409
G1 X95.318 Y48.793 E3.91778
G1 X105.128 Y48.033 E5.06298
G1 X166.018 Y45.033 E12.15856
G1 X225.538 Y45.033 E19.08608
G1 X226.868 Y45.163 E19.24162
G1 X228.148 Y45.553 E19.39736
G1 X229.328 Y46.193 E19.55360
G1 X230.348 Y47.063 E19.70963
G1 X231.178 Y48.103 E19.86450
G1 X231.788 Y49.303 E20.02118
G1 X245.078 Y83.293 E24.26892
G1 X245.258 Y83.783 E24.32968
G1 X247.868 Y92.393 E25.37683
G1 X248.028 Y93.033 E25.45361
G1 X248.118 Y93.683 E25.52999
G1 X248.998 Y102.633 E26.57670
G1 X249.028 Y103.293 E26.65359
G1 X248.998 Y103.953 E26.73049
G1 X248.118 Y112.913 E27.77836
G1 X248.028 Y113.563 E27.85474
G1 X247.868 Y114.203 E27.93152
G1 X245.258 Y122.813 E28.97867
G1 X245.028 Y123.433 E29.05563
G1 X244.748 Y124.033 E29.13270
G1 X240.498 Y131.963 E30.17987
G1 X240.158 Y132.523 E30.25612
G1 X239.768 Y133.053 E30.33271
G1 X233.908 Y140.193 E31.40778
G1 X233.468 Y140.683 E31.48443
G1 X232.978 Y141.123 E31.56108
G1 X226.198 Y146.693 E32.58235
G1 X225.658 Y147.093 E32.66057
G1 X225.078 Y147.433 E32.73882
G1 X217.168 Y151.623 E33.78065
G1 X216.588 Y151.903 E33.85561
G1 X215.968 Y152.123 E33.93218
G1 X207.308 Y154.743 E34.98523
G1 X206.678 Y154.903 E35.06089
G1 X206.028 Y154.993 E35.13726
G1 X197.078 Y155.883 E36.18409
G1 X104.028 Y164.933 E47.06527
G1 X103.378 Y164.963 E47.14100
G1 X102.718 Y164.933 E47.21790
G1 X94.918 Y164.163 E48.13015
G1 X93.628 Y163.913 E48.28309
G1 X92.418 Y163.403 E48.43592
G1 X91.318 Y162.673 E48.58958
G1 X70.838 Y145.883 E51.67190
G1 X70.348 Y145.443 E51.74855
G1 X69.908 Y144.943 E51.82607
G1 X64.918 Y138.853 E52.74243
G1 X53.228 Y124.443 E54.90210
G1 X52.508 Y123.353 E55.05414
G1 X52.008 Y122.143 E55.20652
G1 X51.758 Y120.863 E55.35832
G1 X50.998 Y113.063 E56.27046
G1 X50.968 Y112.413 E56.34619
G1 X50.998 Y111.763 E56.42192
G1 X51.758 Y103.953 E57.33522
G1 X51.928 Y102.973 E57.45099
G1 X52.238 Y102.023 E57.56730
G1 X71.058 Y56.833 E63.26485
G1 X71.617 Y55.787 E63.40287
G1 F1800.000 E62.40287
G92 E0
G1 X174.117 Y94.063 F7200.000
G1 E1.00000 F1800.000
G1 X176.348 Y89.889 E1.55078 F1080.000
G1 X179.350 Y86.231 E2.10156
G1 X183.008 Y83.229 E2.65234
G1 X187.182 Y80.998 E3.20311
G1 X191.710 Y79.625 E3.75391
G1 X196.420 Y79.161 E4.30470
G1 X201.129 Y79.625 E4.85549
G1 X205.658 Y80.998 E5.40626
G1 X209.831 Y83.229 E5.95704
G1 X213.489 Y86.231 E6.50782
G1 X216.491 Y89.889 E7.05860
G1 X218.722 Y94.063 E7.60938
G1 X220.094 Y98.585 E8.15946
G1 X220.560 Y103.301 E8.71096
G1 X220.094 Y108.016 E9.26247
G1 X218.722 Y112.538 E9.81248
G1 X216.491 Y116.712 E10.36326
G1 X213.489 Y120.370 E10.91404
G1 X209.831 Y123.372 E11.46482
G1 X205.657 Y125.603 E12.01560
G1 X201.128 Y126.977 E12.56650
G1 X200.885 Y126.999 E12.59486
G1 X191.948 Y126.999 E13.63511
G1 X191.712 Y126.977 E13.66262
G1 X187.182 Y125.603 E14.21367
G1 X183.008 Y123.371 E14.76455
G1 X179.359 Y120.377 E15.31395
G1 X176.348 Y116.712 E15.86598
G1 X174.117 Y112.538 E16.41676
G1 X172.744 Y108.011 E16.96742
G1 X172.280 Y103.301 E17.51829
G1 X172.744 Y98.591 E18.06915
G1 X174.086 Y94.165 E18.60740
G1 X174.780 Y94.337 F7200.000
G1 X176.945 Y90.288 E19.14181 F756.000
G1 X179.858 Y86.739 E19.67622
G1 X183.407 Y83.826 E20.21062
G1 X187.456 Y81.661 E20.74503
G1 X191.850 Y80.328 E21.27944
G1 X196.420 Y79.878 E21.81387
G1 X200.989 Y80.328 E22.34828
G1 X205.383 Y81.661 E22.88268
G1 X209.432 Y83.826 E23.41708
G1 X212.982 Y86.739 E23.95149
G1 X215.894 Y90.288 E24.48590
G1 X218.059 Y94.337 E25.02031
G1 X219.391 Y98.729 E25.55446
G1 X219.842 Y103.301 E26.08915
G1 X219.391 Y107.872 E26.62380
G1 X218.059 Y112.264 E27.15793
G1 X215.894 Y116.313 E27.69234
G1 X212.981 Y119.862 E28.22674
G1 X209.432 Y122.775 E28.76115
G1 X205.383 Y124.940 E29.29556
G1 X200.989 Y126.273 E29.83000
G1 X191.981 Y126.285 E30.87846
G1 X191.851 Y126.273 E30.89360
G1 X187.456 Y124.940 E31.42811
G1 X183.407 Y122.775 E31.96254
G1 X179.863 Y119.866 E32.49618
G1 X176.945 Y116.313 E33.03130
G1 X174.780 Y112.264 E33.56571
G1 X173.448 Y107.870 E34.10008
G1 X172.998 Y103.301 E34.63450
G1 X173.448 Y98.731 E35.16895
G1 X174.749 Y94.440 E35.69086
G1 X174.364 Y93.757 F7200.000
G1 X167.465 Y82.184 F7200.000
G1 X167.465 Y52.857 E39.10423 F1080.000
G1 X224.635 Y52.857 E45.75824
G1 X227.830 Y71.322 E47.93934
G1 X233.655 Y78.420 E49.00811
G1 X237.794 Y86.163 E50.02989
G1 X240.342 Y94.564 E51.05168
G1 X241.203 Y103.300 E52.07347
G1 X240.342 Y112.037 E53.09525
G1 X237.794 Y120.438 E54.11704
G1 X233.655 Y128.180 E55.13883
G1 X227.946 Y135.133 E56.18594
G1 X221.398 Y140.507 E57.17176
G1 X213.610 Y144.659 E58.19901
G1 X205.156 Y147.223 E59.22722
G1 X196.420 Y148.083 E60.24900
G1 X187.693 Y147.224 E61.26963
G1 X179.068 Y144.606 E62.31868
G1 X171.610 Y140.620 E63.30298
G1 X171.530 Y140.528 E63.31713
G1 X164.753 Y134.967 E64.33746
G1 X159.184 Y128.180 E65.35925
G1 X155.046 Y120.438 E66.38104
G1 X152.497 Y112.037 E67.40282
G1 X151.637 Y103.300 E68.42461
G1 X152.567 Y93.854 E69.52936
G1 X141.792 Y85.200 E71.13788
G1 X141.792 Y82.184 E71.48893
G1 X167.358 Y82.184 E74.46453
G1 X166.751 Y81.470 F7200.000
G1 X166.751 Y52.143 E77.87790 F756.000
G1 X225.236 Y52.143 E84.68500
G1 X228.501 Y71.015 E86.91415
G1 X234.252 Y78.022 E87.96917
G1 X238.457 Y85.888 E89.00733
G1 X241.046 Y94.424 E90.04549
G1 X241.920 Y103.300 E91.08365
G1 X241.046 Y112.177 E92.12181
G1 X238.457 Y120.713 E93.15997
G1 X234.252 Y128.579 E94.19813
G1 X228.447 Y135.646 E95.26254
G1 X221.745 Y141.146 E96.27166
G1 X221.627 Y141.183 E96.28601
G1 X213.884 Y145.322 E97.30787
G1 X205.296 Y147.927 E98.35239
G1 X196.420 Y148.801 E99.39055
G1 X187.546 Y147.927 E100.42830
G1 X178.799 Y145.272 E101.49226
G1 X171.157 Y141.188 E102.50083
G1 X171.030 Y141.042 E102.52329
G1 X164.246 Y135.474 E103.54479
G1 X158.587 Y128.579 E104.58295
G1 X154.383 Y120.713 E105.62111
G1 X151.793 Y112.177 E106.65927
G1 X150.919 Y103.300 E107.69743
G1 X151.818 Y94.169 E108.76538
G1 X141.078 Y85.542 E110.36875
G1 X141.078 Y81.470 E110.84278
G1 X166.644 Y81.470 E113.81837
G1 X167.465 Y81.470 F7200.000
G1 X153.033 Y94.043 F7200.000
G1 X175.918 Y116.928 E117.61029 F1080.000
G1 X174.750 Y114.744 F7200.000
G1 X142.672 Y82.666 E122.92548 F1080.000
G1 X143.688 Y82.666 E123.04460
G1 X173.637 Y112.614 E128.00689
G1 X173.194 Y111.155 E128.18557
G1 X144.705 Y82.666 E132.90606
G1 X145.722 Y82.666 E133.02518
G1 X172.752 Y109.695 E137.50385
G1 X172.309 Y108.236 E137.68253
G1 X146.738 Y82.666 E141.91939
G1 X147.755 Y82.666 E142.03851
G1 X172.168 Y107.079 E146.08357
G1 X172.057 Y105.951 E146.21635
G1 X148.772 Y82.666 E150.07455
G1 X149.789 Y82.666 E150.19366
G1 X171.946 Y104.823 E153.86499
G1 X171.835 Y103.695 E153.99777
G1 X150.805 Y82.666 E157.48222
G1 X151.822 Y82.666 E157.60134
G1 X171.855 Y102.699 E160.92071
G1 X171.946 Y101.773 E161.02967
G1 X152.839 Y82.666 E164.19569
G1 X153.855 Y82.666 E164.31480
G1 X172.037 Y100.848 E167.32745
G1 X172.128 Y99.922 E167.43642
G1 X154.872 Y82.666 E170.29571
G1 X155.889 Y82.666 E170.41482
G1 X172.220 Y98.997 E173.12075
G1 X172.378 Y98.138 E173.22303
G1 X156.905 Y82.666 E175.78671
G1 X157.922 Y82.666 E175.90582
G1 X172.614 Y97.358 E178.34025
G1 X172.851 Y96.578 E178.43576
G1 X158.939 Y82.666 E180.74094
G1 X159.955 Y82.666 E180.86006
G1 X173.088 Y95.798 E183.03599
G1 X173.324 Y95.018 E183.13149
G1 X160.972 Y82.666 E185.17817
G1 X161.989 Y82.666 E185.29729
G1 X173.561 Y94.238 E187.21471
G1 X173.861 Y93.521 E187.30575
G1 X163.005 Y82.666 E189.10440
G1 X164.022 Y82.666 E189.22352
G1 X174.215 Y92.858 E190.91239
G1 X174.569 Y92.196 E191.00041
G1 X165.039 Y82.666 E192.57950
G1 X166.055 Y82.666 E192.69862
G1 X174.923 Y91.533 E194.16793
G1 X175.277 Y90.871 E194.25595
G1 X167.072 Y82.666 E195.61548
G1 X167.947 Y82.524 E195.71930
G1 X175.631 Y90.208 E196.99259
G1 X175.997 Y89.557 E197.08007
G1 X167.947 Y81.507 E198.41398
G1 X167.947 Y80.490 E198.53310
G1 X176.455 Y88.999 E199.94295
G1 X176.914 Y88.441 E200.02758
G1 X167.947 Y79.473 E201.51336
G1 X167.947 Y78.457 E201.63248
G1 X177.372 Y87.882 E203.19420
G1 X177.830 Y87.324 E203.27883
G1 X167.947 Y77.440 E204.91648
G1 X167.947 Y76.423 E205.03560
G1 X178.289 Y86.765 E206.74918
G1 X178.747 Y86.207 E206.83382
G1 X167.947 Y75.407 E208.62333
G1 X167.947 Y74.390 E208.74245
G1 X179.248 Y85.692 E210.61503
G1 X179.807 Y85.233 E210.69967
G1 X167.947 Y73.373 E212.66478
G1 X167.947 Y72.357 E212.78390
G1 X180.365 Y84.775 E214.84154
G1 X180.923 Y84.317 E214.92618
G1 X167.947 Y71.340 E217.07634
G1 X167.947 Y70.323 E217.19546
G1 X181.482 Y83.858 E219.43814
G1 X182.040 Y83.400 E219.52278
G1 X167.947 Y69.307 E221.85799
G1 X167.947 Y68.290 E221.97711
G1 X182.599 Y82.942 E224.40484
G1 X183.235 Y82.562 E224.49170
G1 X167.947 Y67.273 E227.02487
G1 X167.947 Y66.257 E227.14399
G1 X183.898 Y82.207 E229.78694
G1 X184.560 Y81.853 E229.87496
G1 X167.947 Y65.240 E232.62769
G1 X167.947 Y64.223 E232.74681
G1 X185.223 Y81.499 E235.60931
G1 X185.885 Y81.145 E235.69733
G1 X167.947 Y63.207 E238.66962
G1 X167.947 Y62.190 E238.78874
G1 X186.548 Y80.791 E241.87080
G1 X187.248 Y80.475 E241.96085
G1 X167.947 Y61.173 E245.15898
G1 X167.947 Y60.157 E245.27810
G1 X188.028 Y80.238 E248.60548
G1 X188.808 Y80.001 E248.70098
G1 X167.947 Y59.140 E252.15762
G1 X167.947 Y58.123 E252.27673
G1 X189.588 Y79.765 E255.86262
G1 X190.368 Y79.528 E255.95812
G1 X167.947 Y57.106 E259.67325
G1 X167.947 Y56.090 E259.79237
G1 X191.148 Y79.292 E263.63675
G1 X191.987 Y79.113 E263.73718
G1 X167.947 Y55.073 E267.72048
G1 X167.947 Y54.056 E267.83960
G1 X192.912 Y79.022 E271.97625
G1 X193.838 Y78.931 E272.08521
G1 X168.246 Y53.339 E276.32570
G1 X169.262 Y53.339 E276.44481
G1 X194.763 Y78.840 E280.67019
G1 X195.689 Y78.749 E280.77916
G1 X170.279 Y53.339 E284.98943
G1 X171.296 Y53.339 E285.10855
G1 X196.657 Y78.700 E289.31077
G1 X197.785 Y78.811 E289.44354
G1 X172.312 Y53.339 E293.66417
G1 X173.329 Y53.339 E293.78329
G1 X198.913 Y78.922 E298.02232
G1 X200.040 Y79.033 E298.15509
G1 X174.346 Y53.339 E302.41253
G1 X175.362 Y53.339 E302.53165
G1 X201.168 Y79.144 E306.80749
G1 X202.611 Y79.571 E306.98380
G1 X176.379 Y53.339 E311.33029
G1 X177.396 Y53.339 E311.44941
G1 X204.071 Y80.013 E315.86926
G1 X205.530 Y80.456 E316.04794
G1 X178.412 Y53.339 E320.54115
G1 X179.429 Y53.339 E320.66026
G1 X207.559 Y81.468 E325.32117
G1 X209.743 Y82.636 F7200.000
G1 X180.446 Y53.339 E330.17552 F1080.000
G1 X181.462 Y53.339 E330.29464
G1 X239.885 Y111.761 E339.97489
G1 X239.677 Y112.570 E340.07272
G1 X217.084 Y89.977 E343.81617
G1 X218.252 Y92.161 F7200.000
G1 X239.440 Y113.350 E347.32699 F1080.000
G1 X239.204 Y114.130 E347.42249
G1 X219.264 Y94.190 E350.72640
G1 X219.707 Y95.649 E350.90507
G1 X238.967 Y114.910 E354.09642
G1 X238.730 Y115.690 E354.19192
G1 X220.149 Y97.109 E357.27071
G1 X220.574 Y98.551 E357.44683
G1 X238.494 Y116.470 E360.41596
G1 X238.257 Y117.250 E360.51147
G1 X220.686 Y99.679 E363.42292
G1 X220.797 Y100.807 E363.55575
G1 X238.021 Y118.030 E366.40951
G1 X237.784 Y118.810 E366.50502
G1 X220.909 Y101.935 E369.30110
G1 X221.020 Y103.063 E369.43393
G1 X237.547 Y119.590 E372.17233
G1 X237.293 Y120.353 E372.26649
G1 X220.972 Y104.031 E374.97083
G1 X220.880 Y104.957 E375.07976
G1 X236.939 Y121.015 E377.74058
G1 X236.585 Y121.678 E377.82860
G1 X220.789 Y105.882 E380.44590
G1 X220.697 Y106.807 E380.55483
G1 X236.231 Y122.340 E383.12861
G1 X235.876 Y123.003 E383.21662
G1 X220.606 Y107.732 E385.74688
G1 X220.429 Y108.572 E385.84740
G1 X235.522 Y123.665 E388.34835
G1 X235.168 Y124.328 E388.43637
G1 X220.192 Y109.352 E390.91785
G1 X219.955 Y110.132 E391.01335
G1 X234.814 Y124.990 E393.47536
G1 X234.460 Y125.653 E393.56338
G1 X219.719 Y110.912 E396.00592
G1 X219.482 Y111.692 E396.10142
G1 X234.106 Y126.316 E398.52449
G1 X233.752 Y126.978 E398.61251
G1 X219.245 Y112.472 E401.01610
G1 X218.929 Y113.172 E401.10615
G1 X233.397 Y127.641 E403.50346
G1 X232.982 Y128.242 E403.58907
G1 X218.575 Y113.835 E405.97617
G1 X218.221 Y114.497 E406.06419
G1 X232.523 Y128.800 E408.43400
G1 X232.065 Y129.358 E408.51864
G1 X217.867 Y115.160 E410.87117
G1 X217.513 Y115.822 E410.95919
G1 X231.606 Y129.916 E413.29444
G1 X231.148 Y130.475 E413.37908
G1 X217.158 Y116.485 E415.69705
G1 X216.778 Y117.121 E415.78391
G1 X230.690 Y131.033 E418.08895
G1 X230.231 Y131.591 E418.17358
G1 X216.320 Y117.680 E420.47859
G1 X215.862 Y118.238 E420.56323
G1 X229.773 Y132.149 E422.86822
G1 X229.314 Y132.708 E422.95285
G1 X215.403 Y118.797 E425.25782
G1 X214.945 Y119.355 E425.34245
G1 X228.856 Y133.266 E427.64739
G1 X228.397 Y133.824 E427.73202
G1 X214.487 Y119.913 E430.03694
G1 X214.028 Y120.472 E430.12157
G1 X227.939 Y134.382 E432.42646
G1 X227.442 Y134.902 E432.51071
G1 X213.513 Y120.973 E434.81857
G1 X212.955 Y121.431 E434.90321
G1 X226.895 Y135.372 E437.21308
G1 X226.337 Y135.830 E437.29771
G1 X212.396 Y121.890 E439.60758
G1 X211.838 Y122.348 E439.69222
G1 X225.778 Y136.289 E442.00209
G1 X225.220 Y136.747 E442.08672
G1 X211.279 Y122.806 E444.39659
G1 X210.721 Y123.265 E444.48123
G1 X224.662 Y137.205 E446.79110
G1 X224.103 Y137.663 E446.87573
G1 X210.163 Y123.723 E449.18560
G1 X209.512 Y124.089 E449.27307
G1 X223.545 Y138.122 E451.59826
G1 X222.986 Y138.580 E451.68289
G1 X208.849 Y124.443 E454.02533
G1 X208.187 Y124.797 E454.11335
G1 X222.428 Y139.038 E456.47304
G1 X221.870 Y139.497 E456.55768
G1 X207.524 Y125.151 E458.93462
G1 X206.862 Y125.505 E459.02264
G1 X221.311 Y139.955 E461.41684
G1 X220.682 Y140.342 E461.50341
G1 X206.199 Y125.859 E463.90316
G1 X205.482 Y126.159 E463.99420
G1 X220.019 Y140.696 E466.40285
G1 X219.356 Y141.049 E466.49090
G1 X204.702 Y126.396 E468.91891
G1 X203.922 Y126.632 E469.01442
G1 X218.693 Y141.403 E471.46181
G1 X218.030 Y141.757 E471.54986
G1 X203.142 Y126.869 E474.01662
G1 X202.362 Y127.106 E474.11212
G1 X217.366 Y142.110 E476.59826
G1 X216.703 Y142.464 E476.68630
G1 X201.582 Y127.342 E479.19181
G1 X200.704 Y127.481 E479.29597
G1 X216.040 Y142.817 E481.83711
G1 X215.377 Y143.171 E481.92516
G1 X199.687 Y127.481 E484.52488
G1 X198.670 Y127.481 E484.64400
G1 X214.714 Y143.524 E487.30229
G1 X214.051 Y143.878 E487.39034
G1 X197.654 Y127.481 E490.10722
G1 X196.637 Y127.481 E490.22633
G1 X213.381 Y144.225 E493.00069
G1 X212.601 Y144.461 E493.09620
G1 X195.620 Y127.481 E495.90976
G1 X194.604 Y127.481 E496.02888
G1 X211.821 Y144.698 E498.88164
G1 X211.041 Y144.935 E498.97715
G1 X193.587 Y127.481 E501.86912
G1 X192.570 Y127.481 E501.98824
G1 X210.261 Y145.171 E504.91941
G1 X209.481 Y145.408 E505.01492
G1 X191.484 Y127.411 E507.99685
G1 X190.025 Y126.968 E508.17553
G1 X208.700 Y145.644 E511.27001
G1 X207.920 Y145.881 E511.36552
G1 X188.565 Y126.526 E514.57257
G1 X187.106 Y126.083 E514.75125
G1 X207.140 Y146.118 E518.07085
G1 X206.360 Y146.354 E518.16636
G1 X184.976 Y124.970 E521.70961
G1 X182.792 Y123.802 F7200.000
G1 X205.580 Y146.591 E525.48549 F1080.000
G1 X204.751 Y146.779 E525.58507
G1 X152.941 Y94.969 E534.16965
G1 X152.850 Y95.894 E534.27861
G1 X203.826 Y146.870 E542.72494
G1 X202.900 Y146.961 E542.83390
G1 X152.759 Y96.820 E551.14198
G1 X152.668 Y97.745 E551.25094
G1 X201.975 Y147.052 E559.42077
G1 X201.049 Y147.143 E559.52973
G1 X152.577 Y98.671 E567.56131
G1 X152.486 Y99.596 E567.67027
G1 X200.124 Y147.234 E575.56360
