; generated by Slic3r 1.0.0RC2 on 2014-05-20 at 20:36:46

; layer_height = 0.3
; perimeters = 4
; top_solid_layers = 3
; bottom_solid_layers = 3
; fill_density = 0.1
; perimeter_speed = 60
; infill_speed = 60
; travel_speed = 120
; nozzle_diameter = 0.4
; filament_diameter = 1.75
; extrusion_multiplier = 0.98
; perimeters extrusion width = 0.40mm
; infill extrusion width = 0.42mm
; solid infill extrusion width = 0.42mm
; top infill extrusion width = 0.42mm
; first layer extrusion width = 0.80mm

G21 ; set units to millimeters
M107
M104 S220 ; set temperature
G28 ; home all axes
M106 S255;
G1 Z200 F1200 ; lift nozzle
M109 S220 ; wait for temperature to be reached
G90 ; use absolute coordinates
G92 E0
M82 ; use absolute distances for extrusion
G1 F1800.000 E-1.00000
G92 E0
G1 Z0.400 F7200.000
G1 X87.750 Y67.962 F7200.000
G1 E1.00000 F1800.000
G1 X88.590 Y66.952 E1.15290 F1080.000
G1 X89.610 Y66.112 E1.30669
G1 X93.030 Y63.832 E1.78509
G1 X94.110 Y63.242 E1.92833
G1 X95.290 Y62.872 E2.07226
G1 X95.540 Y62.812 E2.10218
G1 X99.480 Y62.032 E2.56966
G1 X100.250 Y61.932 E2.66003
G1 X101.040 Y61.912 E2.75201
G1 X178.510 Y64.912 E11.77549
G1 X178.950 Y64.942 E11.82682
G1 X180.390 Y65.092 E11.99533
G1 X181.080 Y65.202 E12.07665
G1 X181.760 Y65.382 E12.15852
G1 X194.280 Y69.442 E13.69043
G1 X194.930 Y69.692 E13.77148
G1 X195.540 Y70.002 E13.85112
G1 X196.800 Y70.722 E14.02003
G1 X197.400 Y71.112 E14.10332
G1 X197.960 Y71.552 E14.18621
G1 X207.750 Y80.342 E15.71756
G1 X208.250 Y80.842 E15.79986
G1 X208.690 Y81.392 E15.88184
G1 X209.540 Y82.562 E16.05016
G1 X209.920 Y83.152 E16.13184
G1 X210.240 Y83.772 E16.21304
G1 X215.600 Y95.772 E17.74272
G1 X215.850 Y96.432 E17.82486
G1 X216.040 Y97.112 E17.90704
G1 X216.340 Y98.522 E18.07482
G1 X216.450 Y99.222 E18.15729
G1 X216.480 Y99.932 E18.24000
G1 X216.470 Y113.072 E19.76937
G1 X216.440 Y113.742 E19.84742
G1 X216.340 Y114.412 E19.92627
G1 X216.050 Y115.822 E20.09381
G1 X215.860 Y116.532 E20.17936
G1 X215.600 Y117.212 E20.26409
G1 X210.240 Y129.222 E21.79483
G1 X209.920 Y129.842 E21.87603
G1 X209.540 Y130.432 E21.95771
G1 X208.690 Y131.602 E22.12603
G1 X208.250 Y132.152 E22.20801
G1 X207.750 Y132.652 E22.29031
G1 X197.960 Y141.442 E23.82166
G1 X197.420 Y141.872 E23.90200
G1 X196.840 Y142.252 E23.98271
G1 X195.580 Y142.982 E24.15219
G1 X194.940 Y143.302 E24.23548
G1 X194.280 Y143.562 E24.31804
G1 X181.760 Y147.612 E25.84958
G1 X181.080 Y147.792 E25.93146
G1 X180.390 Y147.902 E26.01278
G1 X178.950 Y148.052 E26.18129
G1 X178.330 Y148.082 E26.25353
G1 X177.710 Y148.062 E26.32573
G1 X106.050 Y142.302 E34.69313
G1 X105.090 Y142.162 E34.80605
G1 X104.170 Y141.872 E34.91832
G1 X87.810 Y135.542 E36.96002
G1 X86.610 Y134.932 E37.11670
G1 X85.560 Y134.102 E37.27248
G1 X84.690 Y133.082 E37.42851
G1 X84.050 Y131.902 E37.58475
G1 X83.650 Y130.622 E37.74084
G1 X83.520 Y129.282 E37.89753
G1 X83.530 Y79.152 E43.73216
G1 X83.560 Y78.492 E43.80905
G1 X83.650 Y77.842 E43.88543
G1 X84.450 Y73.812 E44.36363
G1 X84.840 Y72.552 E44.51715
G1 X85.460 Y71.382 E44.67126
G1 X87.690 Y68.051 E45.13784
G1 F1800.000 E44.13784
G92 E0
G1 X140.306 Y76.250 F7200.000
G1 E1.00000 F1800.000
G1 X140.609 Y74.710 E1.18266 F540.000
G1 X141.236 Y73.768 E1.31433
G1 X142.175 Y73.137 E1.44601
G1 X142.854 Y73.001 E1.52666
G1 X142.854 Y72.830 E1.54656
G1 X144.394 Y73.133 E1.72922
G1 X145.336 Y73.759 E1.86091
G1 X145.967 Y74.699 E1.99257
G1 X146.190 Y75.808 E2.12424
G1 X145.972 Y76.918 E2.25592
G1 X145.345 Y77.860 E2.38760
G1 X144.406 Y78.490 E2.51927
G1 X143.297 Y78.713 E2.65094
G1 X142.187 Y78.495 E2.78261
G1 X141.244 Y77.868 E2.91429
G1 X140.614 Y76.929 E3.04596
G1 X140.477 Y76.250 E3.12661
G1 X140.414 Y76.250 E3.13404
G1 X139.598 Y76.158 F7200.000
G1 X126.824 Y75.808 F7200.000
G1 X126.605 Y76.918 E3.26572 F540.000
G1 X125.979 Y77.860 E3.39739
G1 X125.040 Y78.490 E3.52907
G1 X123.931 Y78.713 E3.66074
G1 X122.820 Y78.495 E3.79241
G1 X121.878 Y77.868 E3.92409
G1 X121.248 Y76.929 E4.05576
G1 X121.025 Y75.820 E4.18744
G1 X121.243 Y74.710 E4.31911
G1 X121.870 Y73.768 E4.45078
G1 X122.809 Y73.137 E4.58246
G1 X123.488 Y73.001 E4.66310
G1 X123.488 Y72.830 E4.68301
G1 X125.028 Y73.133 E4.86567
G1 X125.970 Y73.759 E4.99735
G1 X126.601 Y74.699 E5.12902
G1 X126.803 Y75.703 E5.24822
G1 X127.418 Y76.203 F7200.000
G1 X124.669 Y88.846 F7200.000
G1 X125.346 Y89.296 E5.34286 F1080.000
G1 X125.799 Y89.972 E5.43749
G1 X125.959 Y90.769 E5.53213
G1 X125.918 Y90.979 E5.55709
G1 X129.459 Y93.334 E6.05201
G1 X131.173 Y95.888 E6.41008
G1 X131.780 Y98.905 E6.76817
G1 X131.186 Y101.923 E7.12624
G1 X129.482 Y104.485 E7.48432
G1 X126.928 Y106.200 E7.84240
G1 X125.809 Y106.425 E7.97525
G1 X125.995 Y107.349 E8.08498
G1 X125.838 Y108.147 E8.17962
G1 X125.387 Y108.824 E8.27425
G1 X124.712 Y109.277 E8.36888
G1 X123.915 Y109.437 E8.46351
G1 X123.117 Y109.280 E8.55814
G1 X122.922 Y109.150 E8.58542
G1 X122.440 Y108.830 E8.65277
G1 X121.987 Y108.155 E8.74740
G1 X121.827 Y107.358 E8.84204
G1 X122.009 Y106.432 E8.95186
G1 X120.893 Y106.212 E9.08424
G1 X118.331 Y104.509 E9.44232
G1 X116.617 Y101.954 E9.80039
G1 X116.010 Y98.938 E10.15847
G1 X116.604 Y95.919 E10.51655
G1 X118.308 Y93.358 E10.87463
G1 X120.862 Y91.643 E11.23271
G1 X121.923 Y91.430 E11.35866
G1 X121.792 Y90.778 E11.43608
G1 X121.949 Y89.980 E11.53071
G1 X122.399 Y89.303 E11.62534
G1 X123.074 Y88.850 E11.71999
G1 X123.871 Y88.689 E11.81462
G1 X124.564 Y88.825 E11.89678
G1 X124.392 Y89.519 F7200.000
G1 X124.832 Y89.812 E11.95834 F756.000
G1 X125.127 Y90.252 E12.01990
G1 X125.231 Y90.770 E12.08147
G1 X125.129 Y91.289 E12.14304
G1 X124.705 Y91.927 E12.23218
G1 X126.092 Y92.200 E12.39674
G1 X126.092 Y91.953 E12.42549
G1 X128.945 Y93.850 E12.82422
G1 X130.501 Y96.169 E13.14923
G1 X131.052 Y98.906 E13.47424
G1 X130.513 Y101.646 E13.79925
G1 X128.966 Y103.971 E14.12426
G1 X126.648 Y105.528 E14.44927
G1 X124.567 Y105.946 E14.69626
G1 X125.162 Y106.832 E14.82046
G1 X125.266 Y107.350 E14.88202
G1 X125.164 Y107.870 E14.94359
G1 X124.871 Y108.310 E15.00516
G1 X124.432 Y108.605 E15.06672
G1 X123.914 Y108.709 E15.12828
G1 X123.395 Y108.607 E15.18985
G1 X123.318 Y108.556 E15.20059
G1 X122.954 Y108.314 E15.25141
G1 X122.659 Y107.875 E15.31297
G1 X122.555 Y107.356 E15.37454
G1 X122.657 Y106.837 E15.43610
G1 X123.249 Y105.948 E15.56042
G1 X121.170 Y105.539 E15.80697
G1 X118.845 Y103.993 E16.13198
G1 X117.289 Y101.674 E16.45699
G1 X116.738 Y98.937 E16.78200
G1 X117.277 Y96.197 E17.10701
G1 X118.824 Y93.871 E17.43202
G1 X121.142 Y92.315 E17.75703
G1 X123.052 Y91.931 E17.98372
G1 X122.624 Y91.294 E18.07297
G1 X122.520 Y90.776 E18.13453
G1 X122.622 Y90.257 E18.19609
G1 X122.915 Y89.817 E18.25765
G1 X123.354 Y89.522 E18.31923
G1 X123.873 Y89.417 E18.38079
G1 X124.287 Y89.499 E18.42988
G1 X124.831 Y89.225 F7200.000
G1 X133.077 Y99.708 F7200.000
G1 X133.597 Y99.759 E18.49068 F540.000
G1 X133.597 Y108.344 E19.48990
G1 X133.230 Y108.604 E19.54232
G1 X127.203 Y108.604 E20.24373
G1 X127.400 Y107.603 E20.36255
G1 X130.514 Y105.513 E20.79905
G1 X132.533 Y102.478 E21.22327
G1 X133.057 Y99.813 E21.53931
G1 F1800.000 E20.53931
G92 E0
G1 X120.422 Y107.614 F7200.000
G1 E1.00000 F1800.000
G1 X120.621 Y108.604 E1.11755 F540.000
G1 X114.982 Y108.604 E1.77386
G1 X114.614 Y108.344 E1.82628
G1 X114.614 Y101.913 E2.57479
G1 X114.826 Y101.849 E2.60050
G1 X117.304 Y105.541 E3.11802
G1 X120.332 Y107.555 E3.54138
G1 X114.828 Y96.010 F7200.000
G1 X114.614 Y95.945 E3.56739 F1080.000
G1 X114.614 Y73.429 E6.18801
G1 X119.312 Y73.429 E6.73474
G1 X118.840 Y75.825 E7.01887
G1 X119.232 Y77.769 E7.24975
G1 X120.337 Y79.416 E7.48061
G1 X121.989 Y80.515 E7.71150
G1 X123.935 Y80.898 E7.94238
G1 X125.880 Y80.507 E8.17323
G1 X127.527 Y79.401 E8.40413
G1 X128.625 Y77.749 E8.63500
G1 X129.008 Y75.803 E8.86589
G1 X128.531 Y73.429 E9.14769
G1 X138.678 Y73.429 E10.32867
G1 X137.701 Y78.392 E10.91738
G1 X139.016 Y78.392 E11.07035
G1 X139.703 Y79.416 E11.21390
G1 X141.355 Y80.515 E11.44478
G1 X143.301 Y80.898 E11.67565
G1 X145.246 Y80.507 E11.90652
G1 X147.311 Y79.121 E12.19601
G1 X147.311 Y80.476 E12.35374
G1 X144.807 Y85.594 E13.01691
G1 X133.597 Y85.594 E14.32163
G1 X133.597 Y98.081 E15.77496
G1 X133.081 Y98.132 E15.83530
G1 X132.518 Y95.328 E16.16816
G1 X130.486 Y92.302 E16.59237
G1 X127.298 Y90.182 E17.03798
G1 X127.143 Y89.411 E17.12946
G1 X126.374 Y88.265 E17.29021
G1 X125.223 Y87.500 E17.45099
G1 X123.868 Y87.233 E17.61175
G1 X122.514 Y87.505 E17.77251
G1 X121.367 Y88.275 E17.93331
G1 X120.602 Y89.425 E18.09406
G1 X120.450 Y90.200 E18.18590
G1 X117.276 Y92.330 E18.63084
G1 X114.888 Y95.921 E19.13275
G1 X115.931 Y95.642 F7200.000
G1 X115.282 Y98.940 E19.52390 F1080.000
G1 X115.945 Y102.234 E19.91504
G1 X117.818 Y105.025 E20.30618
G1 X120.616 Y106.886 E20.69733
G1 X121.171 Y106.995 E20.76313
G1 X121.099 Y107.359 E20.80636
G1 X121.315 Y108.435 E20.93407
G1 X121.908 Y109.319 E21.05793
G1 X114.755 Y109.319 E21.89054
G1 X114.005 Y108.788 E21.99749
G1 X113.900 Y108.629 E22.01957
G1 X113.900 Y72.715 E26.19959
G1 X120.854 Y72.715 E27.00900
G1 X119.897 Y74.156 E27.21033
G1 X119.569 Y75.823 E27.40813
G1 X119.904 Y77.489 E27.60595
G1 X120.851 Y78.900 E27.80375
G1 X122.266 Y79.842 E28.00156
G1 X123.934 Y80.170 E28.19937
G1 X125.600 Y79.835 E28.39717
G1 X127.011 Y78.887 E28.59499
G1 X127.952 Y77.472 E28.79280
G1 X128.280 Y75.805 E28.99061
G1 X127.945 Y74.138 E29.18842
G1 X126.990 Y72.715 E29.38793
G1 X140.220 Y72.715 E30.92786
G1 X139.263 Y74.156 E31.12919
G1 X138.570 Y77.678 E31.54704
G1 X139.397 Y77.678 E31.64327
G1 X140.217 Y78.900 E31.81460
G1 X141.632 Y79.842 E32.01241
G1 X143.300 Y80.170 E32.21022
G1 X144.966 Y79.835 E32.40802
G1 X146.377 Y78.887 E32.60583
G1 X147.318 Y77.472 E32.80365
G1 X147.505 Y76.520 E32.91655
G1 X148.025 Y76.571 E32.97735
G1 X148.025 Y80.641 E33.45106
G1 X145.253 Y86.308 E34.18534
G1 X134.311 Y86.308 E35.45881
G1 X134.311 Y108.629 E38.05677
G1 X134.207 Y108.788 E38.07885
G1 X133.457 Y109.319 E38.18579
G1 X125.916 Y109.319 E39.06350
G1 X126.511 Y108.424 E39.18856
G1 X126.723 Y107.347 E39.31626
G1 X126.650 Y106.984 E39.35940
G1 X127.208 Y106.872 E39.42568
G1 X129.998 Y104.999 E39.81683
G1 X131.859 Y102.201 E40.20798
G1 X132.508 Y98.903 E40.59912
G1 X131.845 Y95.608 E40.99027
G1 X129.972 Y92.818 E41.38141
G1 X126.657 Y90.613 E41.84491
G1 X126.471 Y89.691 E41.95428
G1 X125.860 Y88.781 E42.08197
G1 X124.946 Y88.173 E42.20968
G1 X123.870 Y87.961 E42.33737
G1 X122.794 Y88.177 E42.46507
G1 X121.883 Y88.789 E42.59280
G1 X121.275 Y89.702 E42.72048
G1 X121.044 Y90.878 E42.85991
G1 X120.582 Y90.971 E42.91479
G1 X117.792 Y92.844 E43.30594
G1 X115.990 Y95.553 E43.68461
G1 X134.652 Y71.887 F7200.000
G1 X144.652 Y71.887 F7200.000
G1 X147.509 Y75.124 F7200.000
G1 X147.311 Y74.139 E43.80165 F540.000
G1 X146.356 Y72.715 E44.00116
G1 X148.025 Y72.715 E44.19546
G1 X148.025 Y75.073 E44.46988
G1 X147.616 Y75.114 E44.51776
G1 X146.918 Y75.806 F7200.000
G1 X146.639 Y74.419 E44.68249 F1080.000
G1 X145.850 Y73.243 E44.84723
G1 X144.304 Y72.215 E45.06335
G1 X144.369 Y72.001 E45.08935
G1 X148.739 Y72.001 E45.59806
G1 X148.739 Y80.806 E46.62291
G1 X145.699 Y87.022 E47.42830
G1 X135.026 Y87.022 E48.67052
G1 X135.026 Y108.844 E51.21034
G1 X134.729 Y109.293 E51.27299
G1 X133.684 Y110.033 E51.42197
G1 X114.527 Y110.033 E53.65164
G1 X113.483 Y109.293 E53.80062
G1 X113.186 Y108.844 E53.86327
G1 X113.186 Y72.001 E58.15140
G1 X122.842 Y72.001 E59.27521
G1 X122.906 Y72.212 E59.30092
G1 X121.354 Y73.254 E59.51851
G1 X120.570 Y74.433 E59.68324
G1 X120.297 Y75.822 E59.84798
G1 X120.576 Y77.209 E60.01273
G1 X121.365 Y78.384 E60.17746
G1 X122.543 Y79.168 E60.34221
G1 X123.932 Y79.442 E60.50695
G1 X125.320 Y79.162 E60.67168
G1 X126.495 Y78.374 E60.83643
G1 X127.279 Y77.195 E61.00117
G1 X127.552 Y75.806 E61.16592
G1 X127.273 Y74.419 E61.33066
G1 X126.484 Y73.243 E61.49539
G1 X124.938 Y72.215 E61.71151
G1 X125.003 Y72.001 E61.73752
G1 X142.208 Y72.001 E63.74001
G1 X142.272 Y72.212 E63.76571
G1 X140.720 Y73.254 E63.98330
G1 X139.936 Y74.433 E64.14804
G1 X139.438 Y76.964 E64.44830
G1 X139.893 Y76.964 E64.50119
G1 X139.942 Y77.209 E64.53030
G1 X140.731 Y78.384 E64.69504
G1 X141.909 Y79.168 E64.85979
G1 X143.298 Y79.442 E65.02452
G1 X144.686 Y79.162 E65.18926
G1 X145.861 Y78.374 E65.35400
G1 X146.645 Y77.195 E65.51876
G1 X146.897 Y75.911 E65.67103
G1 X149.454 Y71.287 F7200.000
G1 X149.454 Y80.972 E66.79824 F756.000
G1 X146.144 Y87.736 E67.67475
G1 X135.740 Y87.736 E68.88572
G1 X135.740 Y109.059 E71.36740
G1 X135.251 Y109.798 E71.47061
G1 X133.912 Y110.747 E71.66163
G1 X114.300 Y110.747 E73.94421
G1 X112.961 Y109.798 E74.13522
G1 X112.472 Y109.059 E74.23843
G1 X112.472 Y71.287 E78.63467
G1 X149.346 Y71.287 E82.92649
G1 X149.096 Y71.905 F7200.000
G1 X134.652 Y71.887 F7200.000
G1 X132.667 Y103.690 F7200.000
G1 X132.760 Y103.783 E82.94237 F1080.000
G1 X132.760 Y104.834 E83.06955
G1 X132.029 Y104.103 E83.19465
G1 X131.609 Y104.734 E83.28638
G1 X132.760 Y105.884 E83.48333
G1 X132.760 Y106.935 E83.61051
G1 X131.190 Y105.365 E83.87930
G1 X130.725 Y105.950 E83.96981
G1 X132.760 Y107.985 E84.31824
G1 X131.848 Y108.124 E84.42991
G1 X130.096 Y106.372 E84.72981
G1 X129.467 Y106.794 E84.82147
G1 X130.797 Y108.124 E85.04913
G1 X129.747 Y108.124 E85.17631
G1 X128.839 Y107.216 E85.33174
G1 X128.696 Y108.124 E85.44299
G1 X128.210 Y107.638 E85.52617
G1 X127.608 Y108.087 E85.61705
G1 X127.646 Y108.124 E85.62341
G1 X123.988 Y110.147 F7200.000
G1 X120.197 Y108.087 F7200.000
G1 X120.069 Y107.958 E85.64462 F1080.000
G1 X115.168 Y108.122 F7200.000
G1 X115.096 Y108.051 E85.65644 F1080.000
G1 X115.096 Y107.038 E85.77469
G1 X116.181 Y108.122 E85.95375
G1 X117.194 Y108.122 E86.07200
G1 X115.096 Y106.025 E86.41829
G1 X115.096 Y105.012 E86.53654
G1 X118.207 Y108.122 E87.05005
G1 X119.220 Y108.122 E87.16831
G1 X115.096 Y103.999 E87.84906
G1 X115.158 Y94.644 F7200.000
G1 X115.096 Y94.582 E87.85918 F1080.000
G1 X115.562 Y94.037 E87.94267
G1 X115.096 Y93.572 E88.01928
G1 X115.965 Y93.430 E88.12180
G1 X115.096 Y92.561 E88.26490
G1 X115.096 Y91.551 E88.38259
G1 X116.369 Y92.823 E88.59217
G1 X116.773 Y92.216 E88.67706
G1 X115.096 Y90.540 E88.95312
G1 X115.096 Y89.530 E89.07081
G1 X117.300 Y91.733 E89.43376
G1 X117.905 Y91.327 E89.51858
G1 X115.096 Y88.519 E89.98111
G1 X115.096 Y87.508 E90.09881
G1 X118.509 Y90.921 E90.66094
G1 X119.114 Y90.516 E90.74575
G1 X115.096 Y86.498 E91.40747
G1 X115.096 Y85.487 E91.52517
G1 X119.719 Y90.110 E92.28648
G1 X120.100 Y89.480 E92.37217
G1 X115.096 Y84.477 E93.19627
G1 X115.096 Y83.466 E93.31396
G1 X120.436 Y88.805 E94.19332
G1 X120.839 Y88.198 E94.27821
G1 X115.096 Y82.455 E95.22405
G1 X115.096 Y81.445 E95.34174
G1 X121.354 Y87.703 E96.37245
G1 X121.959 Y87.297 E96.45727
G1 X115.096 Y80.434 E97.58758
G1 X115.096 Y79.424 E97.70527
G1 X122.657 Y86.985 E98.95057
G1 X123.499 Y86.816 E99.05052
G1 X115.096 Y78.413 E100.43439
G1 X115.096 Y77.403 E100.55208
G1 X124.574 Y86.881 E102.11311
G1 X126.423 Y87.718 F7200.000
G1 X115.096 Y76.392 E103.97855 F1080.000
G1 X115.096 Y75.381 E104.09625
G1 X132.758 Y93.043 E107.00514
G1 X132.758 Y92.033 E107.12284
G1 X121.483 Y80.757 E108.97989
G1 X122.927 Y81.191 E109.15547
G1 X132.758 Y91.022 E110.77469
G1 X132.758 Y90.012 E110.89238
G1 X124.103 Y81.356 E112.31797
G1 X124.944 Y81.187 E112.41792
G1 X132.758 Y89.001 E113.70494
G1 X132.758 Y87.990 E113.82263
G1 X125.785 Y81.017 E114.97108
G1 X126.470 Y80.691 E115.05937
G1 X132.758 Y86.980 E116.09509
G1 X132.758 Y85.969 E116.21278
G1 X127.074 Y80.285 E117.14891
G1 X127.679 Y79.880 E117.23372
G1 X132.758 Y84.959 E118.07024
G1 X133.565 Y84.755 E118.16716
G1 X128.148 Y79.338 E119.05935
G1 X128.552 Y78.731 E119.14424
G1 X134.576 Y84.755 E120.13639
G1 X135.586 Y84.755 E120.25408
G1 X128.955 Y78.124 E121.34620
G1 X129.195 Y77.353 E121.44024
G1 X136.597 Y84.755 E122.65937
G1 X137.607 Y84.755 E122.77706
G1 X129.361 Y76.508 E124.13527
G1 X129.458 Y75.595 E124.24223
G1 X138.618 Y84.755 E125.75085
G1 X139.629 Y84.755 E125.86855
G1 X129.204 Y74.330 E127.58551
G1 X129.796 Y73.911 E127.66995
G1 X140.639 Y84.755 E129.45586
G1 X141.650 Y84.755 E129.57355
G1 X130.806 Y73.911 E131.35946
G1 X131.817 Y73.911 E131.47715
