; generated by Slic3r 1.0.0RC3 on 2014-03-03 at 10:55:40

; layer_height = 0.2
; perimeters = 3
; top_solid_layers = 3
; bottom_solid_layers = 3
; fill_density = 0.20
; perimeter_speed = 60
; infill_speed = 60
; travel_speed = 120
; nozzle_diameter = 0.4
; filament_diameter = 1.75
; extrusion_multiplier = 0.98
; perimeters extrusion width = 0.40mm
; infill extrusion width = 0.67mm
; solid infill extrusion width = 0.67mm
; top infill extrusion width = 0.67mm
; first layer extrusion width = 0.60mm

G21 ; set units to millimeters
M107
M104 S220 ; set temperature
G28 ; home all axes
M106 S255;
G1 Z200 F1200 ; lift nozzle
M109 S220 ; wait for temperature to be reached
G90 ; use absolute coordinates
G92 E0
M82 ; use absolute distances for extrusion
G1 F1800.000 E-1.00000
G92 E0
G1 Z0.300 F7200.000
G1 X119.504 Y94.342 F7200.000
G1 E1.00000 F1800.000
G1 X119.814 Y93.952 E1.03392 F1080.000
G1 X120.524 Y93.132 E1.10778
G1 X120.984 Y92.652 E1.15305
G1 X121.654 Y92.002 E1.21661
G1 X122.014 Y91.682 E1.24941
G1 X122.824 Y91.022 E1.32056
G1 X123.694 Y90.392 E1.39370
G1 X124.254 Y90.032 E1.43903
G1 X125.144 Y89.522 E1.50888
G1 X125.534 Y89.322 E1.53872
G1 X126.444 Y88.882 E1.60755
G1 X127.064 Y88.622 E1.65333
G1 X128.454 Y88.142 E1.75346
G1 X129.494 Y87.862 E1.82680
G1 X130.144 Y87.722 E1.87207
G1 X131.294 Y87.532 E1.95144
G1 X159.984 Y83.582 E3.92344
G1 X161.814 Y83.452 E4.04836
G1 X162.574 Y83.442 E4.10012
G1 X163.944 Y83.492 E4.19347
G1 X165.144 Y83.602 E4.27552
G1 X166.364 Y83.782 E4.35949
G1 X167.814 Y84.102 E4.46060
G1 X169.094 Y84.472 E4.55133
G1 X169.484 Y84.602 E4.57932
G1 X170.634 Y85.032 E4.66292
G1 X171.624 Y85.472 E4.73669
G1 X172.834 Y86.072 E4.82866
G1 X173.734 Y86.592 E4.89943
G1 X175.044 Y87.462 E5.00652
G1 X175.664 Y87.912 E5.05868
G1 X176.074 Y88.232 E5.09410
G1 X177.024 Y89.062 E5.17999
G1 X177.884 Y89.892 E5.26138
G1 X178.824 Y90.892 E5.35483
G1 X179.644 Y91.912 E5.44395
G1 X180.254 Y92.752 E5.51463
G1 X180.874 Y93.702 E5.59188
G1 X181.504 Y94.802 E5.67820
G1 X182.144 Y96.092 E5.77625
G1 X182.344 Y96.552 E5.81041
G1 X182.784 Y97.672 E5.89234
G1 X183.074 Y98.522 E5.95350
G1 X183.384 Y99.642 E6.03263
G1 X183.474 Y99.992 E6.05724
G1 X183.734 Y101.232 E6.14351
G1 X183.954 Y102.752 E6.24809
G1 X184.014 Y103.512 E6.30000
G1 X184.064 Y104.642 E6.37702
G1 X184.064 Y105.182 E6.41379
G1 X184.004 Y106.552 E6.50716
G1 X183.874 Y107.872 E6.59748
G1 X183.664 Y109.142 E6.68513
G1 X183.474 Y110.012 E6.74577
G1 X183.194 Y111.062 E6.81976
G1 X182.594 Y112.842 E6.94767
G1 X182.304 Y113.542 E6.99926
G1 X181.764 Y114.682 E7.08516
G1 X181.184 Y115.762 E7.16863
G1 X180.484 Y116.892 E7.25914
G1 X179.394 Y118.402 E7.38595
G1 X178.824 Y119.092 E7.44689
G1 X177.754 Y120.232 E7.55335
G1 X176.754 Y121.172 E7.64681
G1 X175.744 Y122.012 E7.73626
G1 X174.694 Y122.782 E7.82492
G1 X173.734 Y123.402 E7.90273
G1 X172.954 Y123.852 E7.96405
G1 X171.334 Y124.662 E8.08738
G1 X170.324 Y125.082 E8.16186
G1 X169.024 Y125.542 E8.25576
G1 X168.154 Y125.792 E8.31740
G1 X167.014 Y126.072 E8.39733
G1 X166.554 Y126.172 E8.42939
G1 X165.534 Y126.342 E8.49980
G1 X163.984 Y126.502 E8.60590
G1 X162.734 Y126.552 E8.69109
G1 X161.834 Y126.542 E8.75237
G1 X160.134 Y126.422 E8.86842
G1 X131.294 Y122.452 E10.85072
G1 X130.144 Y122.262 E10.93009
G1 X129.494 Y122.122 E10.97537
G1 X128.454 Y121.842 E11.04870
G1 X127.064 Y121.372 E11.14862
G1 X126.444 Y121.112 E11.19440
G1 X125.144 Y120.472 E11.29306
G1 X124.254 Y119.962 E11.36291
G1 X123.694 Y119.602 E11.40824
G1 X122.594 Y118.782 E11.50166
G1 X122.074 Y118.362 E11.54718
G1 X121.654 Y117.992 E11.58529
G1 X120.934 Y117.292 E11.65367
G1 X120.244 Y116.542 E11.72306
G1 X119.504 Y115.642 E11.80240
G1 X118.914 Y114.812 E11.87174
G1 X118.554 Y114.252 E11.91707
G1 X118.044 Y113.362 E11.98692
G1 X117.844 Y112.972 E12.01676
G1 X117.424 Y112.092 E12.08316
G1 X117.004 Y111.072 E12.15827
G1 X116.634 Y109.962 E12.23794
G1 X116.464 Y109.322 E12.28303
G1 X116.184 Y107.962 E12.37758
G1 X116.034 Y106.912 E12.44981
G1 X115.954 Y105.862 E12.52151
G1 X115.934 Y104.792 E12.59438
G1 X115.974 Y103.752 E12.66525
G1 X116.084 Y102.682 E12.73849
G1 X116.254 Y101.622 E12.81159
G1 X116.464 Y100.672 E12.87784
G1 X116.784 Y99.552 E12.95716
G1 X117.144 Y98.542 E13.03017
G1 X117.404 Y97.922 E13.07595
G1 X118.044 Y96.622 E13.17461
G1 X118.554 Y95.732 E13.24446
G1 X118.914 Y95.172 E13.28979
G1 X119.455 Y94.409 E13.35344
G1 F1800.000 E12.35344
G92 E0
G1 X150.000 Y101.425 F7200.000
G1 E1.00000 F1800.000
G1 X150.405 Y100.222 E1.08644 F540.000
G1 X150.905 Y99.108 E1.16959
G1 X151.507 Y98.045 E1.25274
G1 X152.206 Y97.044 E1.33588
G1 X152.995 Y96.112 E1.41902
G1 X153.868 Y95.259 E1.50215
G1 X154.817 Y94.491 E1.58527
G1 X155.834 Y93.816 E1.66839
G1 X156.909 Y93.238 E1.75151
G1 X158.034 Y92.764 E1.83462
G1 X159.198 Y92.398 E1.91772
G1 X160.391 Y92.142 E2.00083
G1 X161.603 Y91.999 E2.08393
G1 X162.824 Y91.970 E2.16703
G1 X164.041 Y92.056 E2.25013
G1 X165.245 Y92.256 E2.33323
G1 X166.425 Y92.567 E2.41634
G1 X167.571 Y92.988 E2.49945
G1 X168.672 Y93.514 E2.58256
G1 X169.715 Y94.139 E2.66530
G1 X170.679 Y94.794 E2.74468
G1 X171.618 Y95.679 E2.83254
G1 X172.447 Y96.569 E2.91539
G1 X173.192 Y97.536 E2.99853
G1 X173.843 Y98.569 E3.08167
G1 X174.395 Y99.659 E3.16482
G1 X174.824 Y100.750 E3.24468
G1 X175.181 Y101.968 E3.33111
G1 X175.408 Y103.168 E3.41427
G1 X175.522 Y104.384 E3.49743
G1 X175.522 Y105.605 E3.58059
G1 X175.408 Y106.822 E3.66376
G1 X175.181 Y108.021 E3.74691
G1 X174.842 Y109.195 E3.83007
G1 X174.395 Y110.331 E3.91322
G1 X173.843 Y111.421 E3.99637
G1 X173.192 Y112.453 E4.07951
G1 X172.447 Y113.421 E4.16265
G1 X171.615 Y114.314 E4.24579
G1 X170.703 Y115.126 E4.32891
G1 X169.719 Y115.848 E4.41203
G1 X168.672 Y116.475 E4.49515
G1 X167.571 Y117.002 E4.57826
G1 X166.425 Y117.422 E4.66137
G1 X165.245 Y117.734 E4.74448
G1 X164.089 Y117.926 E4.82428
G1 X162.824 Y118.019 E4.91067
G1 X161.603 Y117.991 E4.99377
G1 X160.391 Y117.848 E5.07687
G1 X159.198 Y117.592 E5.15998
G1 X158.034 Y117.226 E5.24308
G1 X156.909 Y116.752 E5.32619
G1 X155.834 Y116.174 E5.40931
G1 X154.817 Y115.499 E5.49243
G1 X153.868 Y114.731 E5.57555
G1 X152.995 Y113.877 E5.65868
G1 X152.206 Y112.946 E5.74182
G1 X151.507 Y111.945 E5.82495
G1 X150.905 Y110.882 E5.90810
G1 X150.405 Y109.768 E5.99125
G1 X150.012 Y108.612 E6.07441
G1 X149.728 Y107.424 E6.15757
G1 X149.557 Y106.215 E6.24072
G1 X149.500 Y104.995 E6.32389
G1 X149.557 Y103.775 E6.40704
G1 X149.728 Y102.566 E6.49020
G1 X149.981 Y101.506 E6.56437
G1 X149.620 Y101.018 F7200.000
G1 X149.476 Y101.223 F7200.000
G1 X149.180 Y102.462 E6.65108 F1080.000
G1 X149.002 Y103.723 E6.73780
G1 X148.942 Y104.995 E6.82451
G1 X149.002 Y106.267 E6.91123
G1 X149.180 Y107.528 E6.99794
G1 X149.500 Y108.837 E7.08971
G1 X149.886 Y109.972 E7.17135
G1 X150.407 Y111.134 E7.25806
G1 X151.035 Y112.242 E7.34477
G1 X151.764 Y113.286 E7.43146
G1 X152.587 Y114.257 E7.51816
G1 X153.497 Y115.148 E7.60485
G1 X154.487 Y115.948 E7.69154
G1 X155.547 Y116.653 E7.77821
G1 X156.669 Y117.255 E7.86489
G1 X157.842 Y117.749 E7.95156
G1 X159.056 Y118.131 E8.03823
G1 X160.374 Y118.407 E8.12996
G1 X161.564 Y118.547 E8.21155
G1 X162.837 Y118.577 E8.29821
G1 X164.106 Y118.487 E8.38487
G1 X165.362 Y118.279 E8.47153
G1 X166.593 Y117.954 E8.55820
G1 X167.787 Y117.516 E8.64487
G1 X168.936 Y116.967 E8.73155
G1 X170.028 Y116.313 E8.81823
G1 X171.054 Y115.559 E8.90491
G1 X172.005 Y114.713 E8.99159
G1 X172.873 Y113.782 E9.07829
G1 X173.650 Y112.773 E9.16499
G1 X174.328 Y111.695 E9.25169
G1 X174.903 Y110.559 E9.33839
G1 X175.370 Y109.374 E9.42511
G1 X175.723 Y108.151 E9.51182
G1 X175.960 Y106.900 E9.59853
G1 X176.080 Y105.632 E9.68526
G1 X176.080 Y104.358 E9.77197
G1 X175.960 Y103.090 E9.85869
G1 X175.702 Y101.767 E9.95046
G1 X175.370 Y100.616 E10.03209
G1 X174.903 Y99.431 E10.11881
G1 X174.328 Y98.294 E10.20551
G1 X173.650 Y97.217 E10.29221
G1 X172.873 Y96.208 E10.37891
G1 X171.513 Y94.748 E10.51478
G1 X171.876 Y94.390 E10.54949
G1 X172.552 Y95.036 E10.61319
G1 X172.830 Y95.331 E10.64076
G1 X172.853 Y95.313 E10.64278
G1 X173.772 Y96.431 E10.74133
G1 X174.539 Y97.497 E10.83074
G1 X174.524 Y97.507 E10.83197
G1 X175.180 Y98.684 E10.92368
G1 X175.168 Y98.691 E10.92461
G1 X175.413 Y99.198 E10.96296
G1 X175.621 Y99.699 E10.99989
G1 X175.642 Y99.692 E11.00135
G1 X176.150 Y101.179 E11.10835
G1 X176.129 Y101.187 E11.10986
G1 X176.267 Y101.700 E11.14604
G1 X176.421 Y102.421 E11.19625
G1 X176.550 Y103.258 E11.25386
G1 X176.629 Y104.100 E11.31147
G1 X176.658 Y105.054 E11.37650
G1 X176.629 Y105.900 E11.43411
G1 X176.563 Y106.634 E11.48432
G1 X176.440 Y107.472 E11.54193
G1 X176.267 Y108.300 E11.59954
G1 X176.045 Y109.116 E11.65717
G1 X175.737 Y110.020 E11.72219
G1 X175.413 Y110.802 E11.77980
G1 X175.093 Y111.466 E11.83001
G1 X174.628 Y112.300 E11.89503
G1 X174.170 Y113.011 E11.95265
G1 X173.670 Y113.694 E12.01026
G1 X173.130 Y114.346 E12.06788
G1 X172.628 Y114.886 E12.11808
G1 X171.938 Y115.546 E12.18310
G1 X171.376 Y116.023 E12.23331
G1 X171.002 Y116.306 E12.26523
G1 X171.016 Y116.328 E12.26699
G1 X169.657 Y117.226 E12.37788
G1 X169.645 Y117.208 E12.37932
G1 X169.169 Y117.479 E12.41660
G1 X168.737 Y117.695 E12.44954
G1 X168.743 Y117.713 E12.45080
G1 X167.265 Y118.344 E12.56026
G1 X167.254 Y118.320 E12.56212
G1 X166.834 Y118.467 E12.59241
G1 X166.021 Y118.701 E12.65002
G1 X165.195 Y118.886 E12.70764
G1 X164.360 Y119.021 E12.76525
G1 X163.518 Y119.106 E12.82287
G1 X162.782 Y119.139 E12.87308
G1 X162.333 Y119.136 E12.90364
G1 X162.330 Y119.163 E12.90548
G1 X160.720 Y119.042 E13.01546
G1 X160.721 Y119.023 E13.01676
G1 X160.145 Y118.942 E13.05632
G1 X159.422 Y118.799 E13.10652
G1 X158.498 Y118.559 E13.17155
G1 X157.796 Y118.331 E13.22175
G1 X157.008 Y118.025 E13.27937
G1 X156.141 Y117.624 E13.34439
G1 X155.398 Y117.220 E13.40200
G1 X154.770 Y116.832 E13.45221
G1 X154.077 Y116.348 E13.50983
G1 X153.330 Y115.753 E13.57486
G1 X152.703 Y115.184 E13.63246
G1 X152.112 Y114.579 E13.69008
G1 X151.558 Y113.940 E13.74769
G1 X151.107 Y113.356 E13.79790
G1 X150.627 Y112.659 E13.85551
G1 X150.137 Y111.839 E13.92054
G1 X149.751 Y111.087 E13.97815
G1 X149.409 Y110.313 E14.03577
G1 X149.150 Y109.622 E14.08598
G1 X148.898 Y108.815 E14.14359
G1 X148.671 Y107.887 E14.20862
G1 X148.540 Y107.162 E14.25882
G1 X148.436 Y106.322 E14.31644
G1 X148.382 Y105.477 E14.37405
G1 X148.378 Y104.631 E14.43167
G1 X148.436 Y103.678 E14.49669
G1 X148.540 Y102.838 E14.55430
G1 X148.671 Y102.113 E14.60451
G1 X148.869 Y101.290 E14.66213
G1 X149.115 Y100.481 E14.71974
G1 X149.451 Y99.587 E14.78476
G1 X149.751 Y98.913 E14.83497
G1 X150.137 Y98.161 E14.89258
G1 X150.569 Y97.432 E14.95020
G1 X150.852 Y97.011 E14.98483
G1 X150.834 Y96.996 E14.98643
G1 X151.812 Y95.732 E15.09524
G1 X151.829 Y95.744 E15.09671
G1 X152.186 Y95.341 E15.13337
G1 X152.579 Y94.943 E15.17147
G1 X152.570 Y94.932 E15.17242
G1 X153.577 Y94.025 E15.26474
G1 X153.567 Y94.010 E15.26592
G1 X154.638 Y93.250 E15.35535
G1 X155.835 Y92.510 E15.45117
G1 X155.850 Y92.533 E15.45305
G1 X155.871 Y92.521 E15.45472
G1 X155.863 Y92.502 E15.45618
G1 X156.973 Y91.987 E15.53954
G1 X156.966 Y91.966 E15.54105
G1 X158.228 Y91.496 E15.63274
G1 X158.240 Y91.525 E15.63487
G1 X158.339 Y91.492 E15.64197
G1 X158.336 Y91.480 E15.64287
G1 X159.526 Y91.170 E15.72657
G1 X159.647 Y91.156 E15.73490
G1 X159.643 Y91.123 E15.73718
G1 X160.199 Y91.048 E15.77536
G1 X160.800 Y90.929 E15.81712
G1 X160.808 Y90.965 E15.81963
G1 X160.917 Y90.943 E15.82721
G1 X162.094 Y90.855 E15.90760
G1 X162.095 Y90.868 E15.90847
G1 X162.340 Y90.864 E15.92514
G1 X162.341 Y90.841 E15.92671
G1 X163.515 Y90.871 E16.00666
G1 X163.515 Y90.893 E16.00816
G1 X164.694 Y91.014 E16.08883
G1 X164.692 Y91.031 E16.08998
G1 X164.954 Y91.074 E16.10805
G1 X164.958 Y91.057 E16.10927
G1 X166.107 Y91.319 E16.18949
G1 X166.114 Y91.299 E16.19089
G1 X167.261 Y91.658 E16.27277
G1 X167.255 Y91.681 E16.27437
G1 X167.461 Y91.755 E16.28924
G1 X167.467 Y91.742 E16.29020
G1 X168.606 Y92.239 E16.37488
G1 X168.627 Y92.204 E16.37767
G1 X169.218 Y92.545 E16.42412
G1 X169.737 Y92.805 E16.46368
G1 X169.722 Y92.836 E16.46605
G1 X170.849 Y93.561 E16.55731
G1 X170.572 Y94.002 E16.59279
G1 X168.936 Y93.023 E16.72262
G1 X167.787 Y92.474 E16.80929
G1 X166.592 Y92.035 E16.89596
G1 X165.362 Y91.711 E16.98263
G1 X164.106 Y91.502 E17.06930
G1 X162.837 Y91.413 E17.15596
G1 X161.564 Y91.443 E17.24262
G1 X160.300 Y91.592 E17.32929
G1 X159.056 Y91.859 E17.41595
G1 X157.842 Y92.241 E17.50262
G1 X156.669 Y92.735 E17.58929
G1 X155.547 Y93.337 E17.67597
G1 X154.487 Y94.042 E17.76265
G1 X153.497 Y94.842 E17.84933
G1 X152.587 Y95.732 E17.93602
G1 X151.764 Y96.704 E18.02272
G1 X151.035 Y97.748 E18.10942
G1 X150.407 Y98.856 E18.19613
G1 X149.886 Y100.018 E18.28284
G1 X149.503 Y101.144 E18.36386
G1 X148.363 Y101.029 F7200.000
G1 X148.585 Y100.309 E18.41520 F540.000
G1 X148.891 Y99.484 E18.47508
G1 X149.300 Y98.566 E18.54351
G1 X149.708 Y97.787 E18.60339
G1 X150.162 Y97.034 E18.66328
G1 X150.661 Y96.309 E18.72316
G1 X151.122 Y95.713 E18.77451
G1 X151.783 Y94.956 E18.84293
G1 X152.403 Y94.332 E18.90282
G1 X152.963 Y93.828 E18.95416
G1 X153.749 Y93.201 E19.02258
G1 X154.470 Y92.698 E19.08247
G1 X155.220 Y92.239 E19.14235
G1 X155.884 Y91.882 E19.19370
G1 X156.681 Y91.508 E19.25358
G1 X157.616 Y91.141 E19.32201
G1 X158.454 Y90.873 E19.38189
G1 X159.306 Y90.656 E19.44178
G1 X160.046 Y90.510 E19.49312
G1 X160.917 Y90.388 E19.55300
G1 X161.793 Y90.319 E19.61289
G1 X162.673 Y90.302 E19.67277
G1 X163.677 Y90.347 E19.74120
G1 X164.427 Y90.426 E19.79254
G1 X165.295 Y90.566 E19.85243
G1 X166.274 Y90.790 E19.92085
G1 X167.118 Y91.040 E19.98074
G1 X167.944 Y91.340 E20.04062
G1 X168.638 Y91.636 E20.09197
G1 X169.426 Y92.026 E20.15185
G1 X170.296 Y92.529 E20.22027
G1 X171.028 Y93.017 E20.28016
G1 X171.631 Y93.469 E20.33151
G1 X172.398 Y94.118 E20.39993
G1 X173.031 Y94.729 E20.45982
G1 X173.626 Y95.376 E20.51970
G1 X174.182 Y96.058 E20.57958
G1 X174.696 Y96.772 E20.63947
G1 X175.102 Y97.407 E20.69081
G1 X175.533 Y98.173 E20.75070
G1 X175.969 Y99.079 E20.81912
G1 X176.299 Y99.894 E20.87901
G1 X176.580 Y100.727 E20.93889
G1 X176.781 Y101.454 E20.99024
G1 X176.967 Y102.314 E21.05012
G1 X177.117 Y103.307 E21.11855
G1 X177.185 Y104.058 E21.16988
G1 X177.215 Y104.937 E21.22977
G1 X177.185 Y105.942 E21.29820
G1 X177.102 Y106.817 E21.35808
G1 X176.967 Y107.686 E21.41797
G1 X176.781 Y108.546 E21.47785
G1 X176.580 Y109.273 E21.52920
G1 X176.255 Y110.224 E21.59762
G1 X175.918 Y111.036 E21.65751
G1 X175.591 Y111.715 E21.70885
G1 X175.166 Y112.485 E21.76873
G1 X174.696 Y113.228 E21.82862
G1 X174.105 Y114.041 E21.89704
G1 X173.544 Y114.718 E21.95693
G1 X173.031 Y115.271 E22.00827
G1 X172.305 Y115.965 E22.07669
G1 X171.631 Y116.531 E22.13658
G1 X171.028 Y116.983 E22.18792
G1 X170.296 Y117.471 E22.24781
G1 X169.536 Y117.914 E22.30769
G1 X168.638 Y118.364 E22.37612
G1 X167.944 Y118.660 E22.42746
G1 X167.118 Y118.960 E22.48735
G1 X166.274 Y119.210 E22.54723
G1 X165.418 Y119.410 E22.60712
G1 X164.427 Y119.574 E22.67554
G1 X163.677 Y119.653 E22.72688
G1 X162.798 Y119.696 E22.78677
G1 X161.919 Y119.687 E22.84665
G1 X161.042 Y119.625 E22.90654
G1 X160.046 Y119.490 E22.97496
G1 X159.184 Y119.316 E23.03485
G1 X158.454 Y119.127 E23.08619
G1 X157.498 Y118.816 E23.15461
G1 X156.681 Y118.492 E23.21450
G1 X155.884 Y118.118 E23.27439
G1 X155.112 Y117.698 E23.33427
G1 X154.470 Y117.302 E23.38561
G1 X153.649 Y116.723 E23.45404
G1 X152.963 Y116.172 E23.51393
G1 X152.403 Y115.668 E23.56527
G1 X151.698 Y114.952 E23.63369
G1 X151.122 Y114.287 E23.69358
G1 X150.661 Y113.691 E23.74492
G1 X150.162 Y112.966 E23.80480
G1 X149.708 Y112.213 E23.86469
G1 X149.245 Y111.321 E23.93311
G1 X148.891 Y110.516 E23.99300
G1 X148.585 Y109.691 E24.05288
G1 X148.363 Y108.971 E24.10422
G1 X148.151 Y108.117 E24.16411
G1 X147.971 Y107.129 E24.23254
G1 X147.870 Y106.255 E24.29242
G1 X147.825 Y105.502 E24.34376
G1 X147.821 Y104.623 E24.40365
G1 X147.870 Y103.745 E24.46354
G1 X147.990 Y102.747 E24.53196
G1 X148.151 Y101.883 E24.59184
G1 X148.341 Y101.110 E24.64604
G1 X148.904 Y100.895 F7200.000
G1 F1800.000 E23.64604
G92 E0
G1 X140.700 Y103.101 F7200.000
