; generated by Slic3r 1.0.0RC2 on 2014-05-17 at 12:35:12

; layer_height = 0.3
; perimeters = 2
; top_solid_layers = 3
; bottom_solid_layers = 3
; fill_density = 0.1
; perimeter_speed = 60
; infill_speed = 60
; travel_speed = 120
; nozzle_diameter = 0.4
; filament_diameter = 1.75
; extrusion_multiplier = 0.98
; perimeters extrusion width = 0.40mm
; infill extrusion width = 0.42mm
; solid infill extrusion width = 0.42mm
; top infill extrusion width = 0.42mm
; first layer extrusion width = 0.80mm

G21 ; set units to millimeters
M107
M104 S220 ; set temperature
G28 ; home all axes
M106 S255;
G1 Z200 F1200 ; lift nozzle
M109 S220 ; wait for temperature to be reached
G90 ; use absolute coordinates
G92 E0
M82 ; use absolute distances for extrusion
G1 F1800.000 E-1.00000
G92 E0
G1 Z0.400 F7200.000
G1 X121.890 Y94.210 F7200.000
G1 E1.00000 F1800.000
G1 X122.880 Y93.020 E1.18017 F1080.000
G1 X123.340 Y92.540 E1.25755
G1 X124.020 Y91.880 E1.36784
G1 X125.210 Y90.890 E1.54801
G1 X126.090 Y90.260 E1.67397
G1 X126.960 Y89.710 E1.79377
G1 X127.540 Y89.380 E1.87144
G1 X128.540 Y88.880 E2.00157
G1 X129.480 Y88.480 E2.12047
G1 X130.500 Y88.110 E2.24675
G1 X130.990 Y87.960 E2.30640
G1 X131.940 Y87.720 E2.42044
G1 X132.990 Y87.500 E2.54530
G1 X133.650 Y87.400 E2.62300
G1 X134.820 Y87.280 E2.75989
G1 X135.870 Y87.250 E2.88215
G1 X164.190 Y87.250 E6.17831
G1 X165.260 Y87.290 E6.30293
G1 X166.350 Y87.400 E6.43044
G1 X167.370 Y87.570 E6.55080
G1 X168.360 Y87.790 E6.66883
G1 X169.490 Y88.110 E6.80553
G1 X170.120 Y88.330 E6.88319
G1 X171.450 Y88.880 E7.05071
G1 X172.450 Y89.380 E7.18084
G1 X173.030 Y89.710 E7.25850
G1 X173.900 Y90.260 E7.37830
G1 X174.780 Y90.890 E7.50426
G1 X175.970 Y91.880 E7.68443
G1 X176.450 Y92.340 E7.76181
G1 X177.110 Y93.020 E7.87211
G1 X178.100 Y94.210 E8.05227
G1 X178.730 Y95.090 E8.17824
G1 X179.280 Y95.960 E8.29804
G1 X179.610 Y96.540 E8.37570
G1 X180.110 Y97.540 E8.50583
G1 X180.510 Y98.480 E8.62473
G1 X180.690 Y98.960 E8.68440
G1 X180.900 Y99.590 E8.76169
G1 X181.170 Y100.530 E8.87552
G1 X181.490 Y101.990 E9.04948
G1 X181.640 Y103.060 E9.17524
G1 X181.700 Y103.730 E9.25353
G1 X181.740 Y105.190 E9.42352
G1 X181.700 Y106.260 E9.54815
G1 X181.590 Y107.350 E9.67566
G1 X181.490 Y108.000 E9.75220
G1 X181.280 Y109.030 E9.87455
G1 X180.900 Y110.400 E10.04002
G1 X180.510 Y111.510 E10.17696
G1 X180.110 Y112.450 E10.29586
G1 X179.610 Y113.450 E10.42599
G1 X179.280 Y114.030 E10.50365
G1 X178.730 Y114.900 E10.62345
G1 X178.100 Y115.780 E10.74942
G1 X177.110 Y116.970 E10.92958
G1 X176.650 Y117.450 E11.00696
G1 X175.970 Y118.110 E11.11726
G1 X174.780 Y119.100 E11.29742
G1 X173.900 Y119.730 E11.42339
G1 X173.030 Y120.280 E11.54319
G1 X172.050 Y120.820 E11.67342
G1 X171.450 Y121.110 E11.75098
G1 X170.510 Y121.510 E11.86988
G1 X169.400 Y121.900 E12.00682
G1 X168.460 Y122.170 E12.12065
G1 X167.370 Y122.420 E12.25081
G1 X166.350 Y122.590 E12.37116
G1 X165.260 Y122.700 E12.49867
G1 X164.190 Y122.740 E12.62329
G1 X135.790 Y122.740 E15.92877
G1 X134.730 Y122.700 E16.05223
G1 X133.650 Y122.590 E16.17858
G1 X132.990 Y122.490 E16.25627
G1 X131.530 Y122.170 E16.43024
G1 X130.590 Y121.900 E16.54407
G1 X129.480 Y121.510 E16.68100
G1 X128.540 Y121.110 E16.79990
G1 X127.540 Y120.610 E16.93003
G1 X126.650 Y120.090 E17.05000
G1 X125.740 Y119.490 E17.17687
G1 X124.910 Y118.860 E17.29815
G1 X124.020 Y118.110 E17.43361
G1 X123.340 Y117.450 E17.54390
G1 X122.880 Y116.970 E17.62128
G1 X122.560 Y116.600 E17.67822
G1 X121.890 Y115.780 E17.80147
G1 X121.260 Y114.900 E17.92743
G1 X120.710 Y114.030 E18.04723
G1 X120.170 Y113.050 E18.17746
G1 X119.880 Y112.450 E18.25502
G1 X119.480 Y111.510 E18.37392
G1 X119.110 Y110.490 E18.50021
G1 X118.790 Y109.360 E18.63690
G1 X118.570 Y108.370 E18.75494
G1 X118.400 Y107.350 E18.87529
G1 X118.290 Y106.260 E19.00280
G1 X118.250 Y105.190 E19.12743
G1 X118.270 Y104.130 E19.25082
G1 X118.350 Y103.060 E19.37571
G1 X118.500 Y101.990 E19.50146
G1 X118.790 Y100.630 E19.66331
G1 X118.960 Y99.990 E19.74038
G1 X119.330 Y98.870 E19.87767
G1 X119.740 Y97.860 E20.00454
G1 X120.170 Y96.940 E20.12274
G1 X120.710 Y95.960 E20.25297
G1 X121.260 Y95.090 E20.37277
G1 X121.827 Y94.296 E20.48626
G1 F1800.000 E19.48626
G92 E0
G1 X157.093 Y103.249 F7200.000
G1 E1.00000 F1800.000
G1 X157.302 Y102.566 E1.08314 F1080.000
G1 X157.620 Y101.827 E1.17676
G1 X157.971 Y101.200 E1.26040
G1 X158.378 Y100.623 E1.34253
G1 X158.698 Y100.240 E1.40070
G1 X159.200 Y99.732 E1.48383
G1 X159.825 Y99.225 E1.57744
G1 X160.427 Y98.834 E1.66107
G1 X161.141 Y98.472 E1.75420
G1 X161.811 Y98.218 E1.83760
G1 X162.495 Y98.036 E1.91997
G1 X162.987 Y97.946 E1.97813
G1 X163.702 Y97.880 E2.06177
G1 X164.408 Y97.887 E2.14390
G1 X164.906 Y97.932 E2.20207
G1 X165.609 Y98.058 E2.28523
G1 X166.381 Y98.284 E2.37883
G1 X167.045 Y98.557 E2.46246
G1 X167.667 Y98.891 E2.54464
G1 X168.086 Y99.163 E2.60275
G1 X168.651 Y99.600 E2.68592
G1 X169.229 Y100.159 E2.77953
G1 X169.691 Y100.710 E2.86317
G1 X170.086 Y101.295 E2.94529
G1 X170.331 Y101.730 E3.00345
G1 X170.627 Y102.380 E3.08660
G1 X170.880 Y103.144 E3.18023
G1 X171.032 Y103.846 E3.26386
G1 X171.117 Y104.642 E3.35697
G1 X171.117 Y105.358 E3.44036
G1 X171.045 Y106.062 E3.52274
G1 X170.954 Y106.554 E3.58090
G1 X170.763 Y107.246 E3.66455
G1 X170.468 Y107.990 E3.75765
G1 X170.135 Y108.625 E3.84104
G1 X169.744 Y109.215 E3.92344
G1 X169.436 Y109.608 E3.98160
G1 X168.944 Y110.132 E4.06524
G1 X168.338 Y110.654 E4.15836
G1 X167.748 Y111.061 E4.24173
G1 X167.128 Y111.401 E4.32414
G1 X166.672 Y111.606 E4.38229
G1 X165.993 Y111.842 E4.46591
G1 X165.214 Y112.022 E4.55904
G1 X164.502 Y112.108 E4.64243
G1 X163.795 Y112.122 E4.72480
G1 X163.296 Y112.091 E4.78300
G1 X162.585 Y111.984 E4.86662
G1 X161.811 Y111.782 E4.95972
G1 X161.141 Y111.528 E5.04312
G1 X160.426 Y111.165 E5.13648
G1 X159.825 Y110.775 E5.21988
G1 X159.501 Y110.527 E5.26732
G1 X158.910 Y109.988 E5.36041
G1 X158.435 Y109.451 E5.44383
G1 X157.970 Y108.798 E5.53718
G1 X157.620 Y108.173 E5.62057
G1 X157.303 Y107.436 E5.71394
G1 X157.093 Y106.751 E5.79733
G1 X156.988 Y106.262 E5.85550
G1 X156.896 Y105.561 E5.93787
G1 X156.876 Y104.844 E6.02126
G1 X156.938 Y104.045 E6.11463
G1 X157.068 Y103.353 E6.19653
G1 X157.766 Y103.502 F7200.000
G1 X157.883 Y103.081 E6.24736 F540.000
G1 X158.106 Y102.476 E6.32242
G1 X158.391 Y101.894 E6.39784
G1 X158.774 Y101.285 E6.48163
G1 X159.226 Y100.720 E6.56579
G1 X159.681 Y100.260 E6.64111
G1 X160.180 Y99.851 E6.71627
G1 X160.540 Y99.603 E6.76709
G1 X161.099 Y99.282 E6.84216
G1 X161.762 Y98.992 E6.92631
G1 X162.379 Y98.796 E7.00164
G1 X163.011 Y98.666 E7.07680
G1 X163.444 Y98.613 E7.12761
G1 X164.089 Y98.589 E7.20268
G1 X164.736 Y98.631 E7.27811
G1 X165.447 Y98.753 E7.36217
G1 X166.139 Y98.956 E7.44605
G1 X166.739 Y99.202 E7.52156
G1 X167.306 Y99.508 E7.59654
G1 X167.673 Y99.745 E7.64736
G1 X168.184 Y100.141 E7.72269
G1 X168.703 Y100.642 E7.80658
G1 X169.120 Y101.139 E7.88210
G1 X169.480 Y101.673 E7.95706
G1 X169.694 Y102.054 E8.00788
G1 X169.963 Y102.643 E8.08321
G1 X170.189 Y103.327 E8.16711
G1 X170.327 Y103.961 E8.24262
G1 X170.404 Y104.676 E8.32633
G1 X170.404 Y105.324 E8.40175
G1 X170.337 Y105.965 E8.47680
G1 X170.258 Y106.395 E8.52763
G1 X170.085 Y107.020 E8.60315
G1 X169.821 Y107.689 E8.68684
G1 X169.520 Y108.263 E8.76227
G1 X169.163 Y108.800 E8.83733
G1 X168.893 Y109.143 E8.88816
G1 X168.449 Y109.617 E8.96367
G1 X167.904 Y110.086 E9.04738
G1 X167.371 Y110.454 E9.12279
G1 X166.805 Y110.764 E9.19786
G1 X166.407 Y110.943 E9.24868
G1 X165.794 Y111.156 E9.32419
G1 X165.094 Y111.318 E9.40790
G1 X164.450 Y111.396 E9.48333
G1 X163.805 Y111.408 E9.55838
G1 X163.370 Y111.380 E9.60922
G1 X162.728 Y111.284 E9.68472
G1 X162.032 Y111.102 E9.76842
G1 X161.426 Y110.873 E9.84385
G1 X160.784 Y110.547 E9.92765
G1 X160.241 Y110.194 E10.00307
G1 X159.953 Y109.973 E10.04525
G1 X159.422 Y109.489 E10.12895
G1 X158.992 Y109.004 E10.20439
G1 X158.575 Y108.417 E10.28818
G1 X158.258 Y107.852 E10.36360
G1 X157.974 Y107.190 E10.44740
G1 X157.784 Y106.571 E10.52282
G1 X157.692 Y106.144 E10.57365
G1 X157.608 Y105.504 E10.64870
G1 X157.590 Y104.857 E10.72413
G1 X157.646 Y104.139 E10.80792
G1 X157.743 Y103.607 E10.87089
G1 X157.451 Y103.199 F7200.000
G1 X154.381 Y102.562 F7200.000
G1 X154.524 Y102.047 E10.93307 F1080.000
G1 X154.720 Y101.481 E11.00284
G1 X154.949 Y100.927 E11.07262
G1 X155.212 Y100.388 E11.14241
G1 X155.506 Y99.865 E11.21218
G1 X155.832 Y99.362 E11.28197
G1 X156.187 Y98.879 E11.35175
G1 X156.571 Y98.418 E11.42153
G1 X156.982 Y97.982 E11.49131
G1 X157.418 Y97.571 E11.56109
G1 X157.879 Y97.187 E11.63088
G1 X158.362 Y96.832 E11.70066
G1 X158.865 Y96.506 E11.77044
G1 X159.388 Y96.212 E11.84022
G1 X159.927 Y95.949 E11.90999
G1 X160.481 Y95.720 E11.97978
G1 X161.047 Y95.524 E12.04956
G1 X161.625 Y95.363 E12.11933
G1 X162.211 Y95.237 E12.18911
G1 X162.804 Y95.147 E12.25891
G1 X163.401 Y95.093 E12.32869
G1 X164.065 Y95.077 E12.40606
G1 X164.599 Y95.093 E12.46822
G1 X165.196 Y95.147 E12.53800
G1 X165.789 Y95.237 E12.60780
G1 X166.375 Y95.363 E12.67758
G1 X166.953 Y95.524 E12.74736
G1 X167.520 Y95.720 E12.81713
G1 X168.073 Y95.949 E12.88692
G1 X168.612 Y96.212 E12.95670
G1 X169.135 Y96.506 E13.02648
G1 X169.638 Y96.832 E13.09626
G1 X170.121 Y97.187 E13.16604
G1 X170.582 Y97.571 E13.23582
G1 X171.018 Y97.982 E13.30561
G1 X171.429 Y98.418 E13.37538
G1 X171.813 Y98.879 E13.44516
G1 X172.168 Y99.362 E13.51494
G1 X172.494 Y99.865 E13.58473
G1 X172.788 Y100.388 E13.65450
G1 X173.051 Y100.927 E13.72429
G1 X173.280 Y101.481 E13.79408
G1 X173.476 Y102.047 E13.86384
G1 X173.637 Y102.625 E13.93363
G1 X173.763 Y103.211 E14.00341
G1 X173.853 Y103.804 E14.07320
G1 X173.907 Y104.401 E14.14297
G1 X173.925 Y105.000 E14.21275
G1 X173.907 Y105.599 E14.28254
G1 X173.853 Y106.196 E14.35231
G1 X173.763 Y106.789 E14.42209
G1 X173.637 Y107.375 E14.49187
G1 X173.476 Y107.953 E14.56166
G1 X173.280 Y108.519 E14.63143
G1 X173.051 Y109.073 E14.70121
G1 X172.788 Y109.612 E14.77100
G1 X172.494 Y110.135 E14.84077
G1 X172.168 Y110.638 E14.91056
G1 X171.813 Y111.121 E14.98034
G1 X171.429 Y111.582 E15.05013
G1 X171.018 Y112.018 E15.11990
G1 X170.582 Y112.429 E15.18968
G1 X170.121 Y112.813 E15.25947
G1 X169.638 Y113.168 E15.32925
G1 X169.135 Y113.494 E15.39903
G1 X168.612 Y113.788 E15.46881
G1 X168.073 Y114.051 E15.53858
G1 X167.519 Y114.280 E15.60838
G1 X166.953 Y114.476 E15.67815
G1 X166.375 Y114.637 E15.74792
G1 X165.789 Y114.763 E15.81770
G1 X165.196 Y114.853 E15.88750
G1 X164.599 Y114.907 E15.95728
G1 X164.000 Y114.925 E16.02705
G1 X163.401 Y114.907 E16.09683
G1 X162.804 Y114.853 E16.16661
G1 X162.211 Y114.763 E16.23640
G1 X161.625 Y114.637 E16.30619
G1 X161.047 Y114.476 E16.37596
G1 X160.480 Y114.280 E16.44573
G1 X159.927 Y114.051 E16.51553
G1 X159.387 Y113.788 E16.58530
G1 X158.865 Y113.494 E16.65508
G1 X158.415 Y113.202 E16.71756
G1 X158.415 Y113.259 E16.72420
G1 X157.418 Y112.429 E16.87514
G1 X156.982 Y112.018 E16.94492
G1 X156.571 Y111.582 E17.01469
G1 X156.187 Y111.121 E17.08448
G1 X155.832 Y110.638 E17.15426
G1 X155.506 Y110.135 E17.22404
G1 X155.212 Y109.612 E17.29382
G1 X154.949 Y109.073 E17.36360
G1 X154.720 Y108.519 E17.43339
G1 X154.524 Y107.953 E17.50316
G1 X154.363 Y107.375 E17.57295
G1 X154.237 Y106.789 E17.64272
G1 X154.147 Y106.196 E17.71250
G1 X154.093 Y105.598 E17.78248
G1 X154.075 Y105.000 E17.85207
G1 X154.093 Y104.402 E17.92165
G1 X154.147 Y103.804 E17.99163
G1 X154.237 Y103.211 E18.06141
G1 X154.354 Y102.666 E18.12632
G1 X153.669 Y102.454 F7200.000
G1 X153.842 Y101.835 E18.20114 F756.000
G1 X154.052 Y101.227 E18.27593
G1 X154.298 Y100.633 E18.35074
G1 X154.579 Y100.055 E18.42555
G1 X154.895 Y99.496 E18.50034
G1 X155.244 Y98.956 E18.57515
G1 X155.625 Y98.438 E18.64995
G1 X156.036 Y97.945 E18.72476
G1 X156.477 Y97.477 E18.79956
G1 X156.945 Y97.036 E18.87437
G1 X157.438 Y96.625 E18.94917
G1 X157.956 Y96.244 E19.02398
G1 X158.496 Y95.895 E19.09878
G1 X159.055 Y95.579 E19.17359
G1 X159.633 Y95.298 E19.24839
G1 X160.227 Y95.052 E19.32320
G1 X160.835 Y94.842 E19.39800
G1 X161.454 Y94.669 E19.47280
G1 X162.082 Y94.535 E19.54760
G1 X162.718 Y94.438 E19.62242
G1 X163.358 Y94.380 E19.69722
G1 X164.000 Y94.360 E19.77202
G1 X164.642 Y94.380 E19.84682
G1 X165.282 Y94.438 E19.92162
G1 X165.918 Y94.535 E19.99643
G1 X166.546 Y94.669 E20.07124
G1 X167.165 Y94.842 E20.14604
G1 X167.773 Y95.052 E20.22084
G1 X168.367 Y95.298 E20.29565
G1 X168.945 Y95.579 E20.37045
G1 X169.504 Y95.895 E20.44526
G1 X170.044 Y96.244 E20.52006
G1 X170.562 Y96.625 E20.59486
G1 X171.055 Y97.036 E20.66967
G1 X171.523 Y97.477 E20.74448
G1 X171.964 Y97.945 E20.81928
G1 X172.375 Y98.438 E20.89408
G1 X172.756 Y98.956 E20.96889
G1 X173.105 Y99.496 E21.04370
G1 X173.421 Y100.055 E21.11849
G1 X173.702 Y100.633 E21.19330
G1 X173.948 Y101.227 E21.26811
G1 X174.158 Y101.835 E21.34290
G1 X174.331 Y102.454 E21.41772
G1 X174.465 Y103.082 E21.49252
G1 X174.562 Y103.718 E21.56732
G1 X174.620 Y104.358 E21.64212
G1 X174.640 Y105.000 E21.71693
G1 X174.620 Y105.642 E21.79174
G1 X174.562 Y106.282 E21.86653
G1 X174.465 Y106.918 E21.94134
G1 X174.331 Y107.546 E22.01614
G1 X174.158 Y108.165 E22.09095
G1 X173.948 Y108.773 E22.16575
G1 X173.702 Y109.367 E22.24055
G1 X173.421 Y109.945 E22.31536
G1 X173.105 Y110.504 E22.39016
G1 X172.756 Y111.044 E22.46497
G1 X172.375 Y111.562 E22.53977
G1 X171.964 Y112.055 E22.61458
G1 X171.523 Y112.523 E22.68938
G1 X171.055 Y112.964 E22.76418
G1 X170.562 Y113.375 E22.83899
G1 X170.044 Y113.756 E22.91380
G1 X169.504 Y114.105 E22.98860
G1 X168.945 Y114.421 E23.06340
G1 X168.367 Y114.702 E23.13820
G1 X167.773 Y114.948 E23.21301
G1 X167.165 Y115.158 E23.28781
G1 X166.546 Y115.331 E23.36262
G1 X165.918 Y115.465 E23.43742
G1 X165.282 Y115.562 E23.51223
G1 X164.642 Y115.620 E23.58703
G1 X164.000 Y115.640 E23.66184
G1 X163.358 Y115.620 E23.73664
G1 X162.718 Y115.562 E23.81144
G1 X162.082 Y115.465 E23.88625
G1 X161.454 Y115.331 E23.96105
G1 X160.835 Y115.158 E24.03586
G1 X160.227 Y114.948 E24.11066
G1 X159.633 Y114.702 E24.18547
G1 X159.055 Y114.421 E24.26027
G1 X158.496 Y114.105 E24.33507
G1 X157.956 Y113.756 E24.40987
G1 X157.438 Y113.375 E24.48468
G1 X156.945 Y112.964 E24.55949
G1 X156.477 Y112.523 E24.63429
G1 X156.036 Y112.055 E24.70909
G1 X155.625 Y111.562 E24.78390
G1 X155.244 Y111.044 E24.85870
G1 X154.895 Y110.504 E24.93351
G1 X154.579 Y109.945 E25.00831
G1 X154.298 Y109.367 E25.08312
G1 X154.052 Y108.773 E25.15792
G1 X153.842 Y108.165 E25.23272
G1 X153.669 Y107.546 E25.30753
G1 X153.535 Y106.918 E25.38233
G1 X153.438 Y106.282 E25.45713
G1 X153.380 Y105.641 E25.53214
G1 X153.360 Y105.000 E25.60674
G1 X153.380 Y104.359 E25.68134
G1 X153.438 Y103.718 E25.75635
G1 X153.535 Y103.082 E25.83115
G1 X153.647 Y102.559 E25.89349
G1 X154.289 Y102.281 F7200.000
G1 X157.231 Y108.465 F7200.000
G1 X154.598 Y105.831 E26.33271 F1080.000
G1 X154.563 Y104.774 E26.45750
G1 X156.617 Y106.827 E26.79995
G1 X156.416 Y105.603 E26.94629
G1 X154.632 Y103.819 E27.24377
G1 X154.786 Y102.950 E27.34789
G1 X156.407 Y104.571 E27.61828
G1 X156.516 Y103.657 E27.72686
G1 X155.001 Y102.141 E27.97957
G1 X155.277 Y101.394 E28.07354
G1 X156.710 Y102.826 E28.31250
G1 X156.981 Y102.074 E28.40681
G1 X155.599 Y100.692 E28.63726
G1 X155.968 Y100.038 E28.72585
G1 X157.311 Y101.381 E28.94988
G1 X157.701 Y100.747 E29.03763
G1 X156.381 Y99.428 E29.25770
G1 X156.836 Y98.860 E29.34355
G1 X158.139 Y100.162 E29.56073
G1 X158.622 Y99.622 E29.64620
G1 X157.348 Y98.348 E29.85862
G1 X157.860 Y97.836 E29.94397
G1 X159.158 Y99.135 E30.16047
G1 X159.745 Y98.698 E30.24673
G1 X158.428 Y97.381 E30.46637
G1 X159.038 Y96.968 E30.55328
G1 X160.385 Y98.315 E30.77790
G1 X161.077 Y97.984 E30.86841
G1 X159.692 Y96.599 E31.09938
G1 X160.394 Y96.277 E31.19040
G1 X161.829 Y97.712 E31.42982
G1 X162.658 Y97.518 E31.53020
G1 X161.141 Y96.001 E31.78312
G1 X161.950 Y95.786 E31.88176
G1 X163.578 Y97.415 E32.15340
G1 X164.608 Y97.421 E32.27489
G1 X162.819 Y95.632 E32.57333
G1 X163.774 Y95.563 E32.68622
G1 X165.831 Y97.621 E33.02937
G1 X167.478 Y98.244 F7200.000
G1 X164.831 Y95.598 E33.47077 F1080.000
G1 X166.041 Y95.784 E33.61514
G1 X173.216 Y102.959 E34.81179
