; generated by Slic3r 1.0.0RC2 on 2014-04-07 at 18:07:19

; layer_height = 0.3
; perimeters = 3
; top_solid_layers = 3
; bottom_solid_layers = 3
; fill_density = 0.20
; perimeter_speed = 60
; infill_speed = 60
; travel_speed = 120
; nozzle_diameter = 0.4
; filament_diameter = 1.75
; extrusion_multiplier = 0.98
; perimeters extrusion width = 0.40mm
; infill extrusion width = 0.42mm
; solid infill extrusion width = 0.42mm
; top infill extrusion width = 0.42mm
; first layer extrusion width = 0.80mm

G21 ; set units to millimeters
M107
M104 S220 ; set temperature
G28 ; home all axes
M106 S255;
G1 Z200 F1200 ; lift nozzle
M109 S220 ; wait for temperature to be reached
G90 ; use absolute coordinates
G92 E0
M82 ; use absolute distances for extrusion
G1 F1800.000 E-1.00000
G92 E0
G1 Z0.400 F7200.000
G1 X114.401 Y100.025 F7200.000
G1 E1.00000 F1800.000
G1 X115.081 Y99.255 E1.11956 F1080.000
G1 X115.701 Y98.635 E1.22162
G1 X116.401 Y98.095 E1.32451
G1 X117.261 Y97.525 E1.44460
G1 X118.011 Y97.095 E1.54522
G1 X118.811 Y96.765 E1.64594
G1 X119.781 Y96.435 E1.76520
G1 X120.591 Y96.215 E1.86289
G1 X127.441 Y94.805 E2.67687
G1 X132.931 Y93.825 E3.32595
G1 X139.001 Y93.075 E4.03781
G1 X144.391 Y92.695 E4.66671
G1 X145.031 Y92.675 E4.74124
G1 X150.501 Y92.595 E5.37796
G1 X155.891 Y92.785 E6.00569
G1 X161.611 Y93.275 E6.67388
G1 X167.321 Y94.075 E7.34495
G1 X172.971 Y95.175 E8.01490
G1 X179.981 Y96.745 E8.85101
G1 X180.791 Y96.985 E8.94934
G1 X181.621 Y97.285 E9.05206
G1 X182.411 Y97.625 E9.15216
G1 X183.151 Y98.065 E9.25236
G1 X183.891 Y98.575 E9.35697
G1 X184.561 Y99.105 E9.45639
G1 X185.161 Y99.715 E9.55598
G1 X185.741 Y100.385 E9.65912
G1 X186.261 Y101.075 E9.75968
G1 X186.701 Y101.835 E9.86190
G1 X187.091 Y102.635 E9.96548
G1 X187.401 Y103.405 E10.06209
G1 X187.621 Y104.215 E10.15978
G1 X187.801 Y105.085 E10.26319
G1 X187.921 Y105.915 E10.36080
G1 X187.941 Y106.745 E10.45743
G1 X187.901 Y107.635 E10.56112
G1 X187.801 Y108.515 E10.66420
G1 X187.591 Y109.365 E10.76611
G1 X187.321 Y110.215 E10.86991
G1 X187.001 Y111.035 E10.97236
G1 X186.581 Y111.805 E11.07444
G1 X186.101 Y112.555 E11.17808
G1 X185.601 Y113.225 E11.27539
G1 X185.031 Y113.835 E11.37256
G1 X184.381 Y114.445 E11.47631
G1 X183.741 Y114.975 E11.57302
G1 X183.031 Y115.425 E11.67086
G1 X182.251 Y115.855 E11.77452
G1 X181.451 Y116.235 E11.87761
G1 X180.601 Y116.495 E11.98106
G1 X179.741 Y116.705 E12.08410
G1 X178.981 Y116.845 E12.17404
G1 X178.211 Y116.895 E12.26385
G1 X122.391 Y117.395 E18.76100
G1 X121.601 Y117.355 E18.85306
G1 X120.831 Y117.225 E18.94395
G1 X119.831 Y116.995 E19.06338
G1 X118.961 Y116.735 E19.16906
G1 X118.151 Y116.365 E19.27271
G1 X117.241 Y115.875 E19.39300
G1 X116.511 Y115.415 E19.49343
G1 X115.841 Y114.875 E19.59358
G1 X115.091 Y114.175 E19.71299
G1 X114.501 Y113.545 E19.81345
G1 X113.991 Y112.855 E19.91331
G1 X113.441 Y111.985 E20.03311
G1 X113.031 Y111.225 E20.13362
G1 X112.721 Y110.415 E20.23456
G1 X112.411 Y109.435 E20.35420
G1 X112.201 Y108.615 E20.45272
G1 X112.111 Y107.765 E20.55220
G1 X112.061 Y106.815 E20.66292
G1 X112.051 Y106.395 E20.71182
G1 X112.081 Y105.705 E20.79221
G1 X112.191 Y105.025 E20.87238
G1 X112.401 Y104.015 E20.99245
G1 X112.631 Y103.185 E21.09269
G1 X112.961 Y102.385 E21.19341
G1 X113.421 Y101.465 E21.31313
G1 X113.861 Y100.705 E21.41534
G1 X114.335 Y100.109 E21.50394
G1 F1800.000 E20.50394
G92 E0
G1 X176.356 Y106.540 F7200.000
G1 E1.00000 F1800.000
G1 X176.444 Y106.200 E1.04094 F540.000
G1 X176.581 Y105.950 E1.07405
G1 X176.613 Y105.892 E1.08188
G1 X176.854 Y105.635 E1.12281
G1 X177.151 Y105.447 E1.16375
G1 X177.486 Y105.338 E1.20469
G1 X177.837 Y105.316 E1.24563
G1 X178.182 Y105.382 E1.28657
G1 X178.500 Y105.532 E1.32750
G1 X178.771 Y105.756 E1.36844
G1 X178.978 Y106.040 E1.40938
G1 X179.108 Y106.367 E1.45032
G1 X179.152 Y106.716 E1.49125
G1 X179.108 Y107.065 E1.53219
G1 X178.978 Y107.392 E1.57313
G1 X178.771 Y107.677 E1.61407
G1 X178.500 Y107.901 E1.65501
G1 X178.182 Y108.051 E1.69594
G1 X177.837 Y108.117 E1.73688
G1 X177.486 Y108.095 E1.77782
G1 X177.151 Y107.986 E1.81875
G1 X176.854 Y107.797 E1.85969
G1 X176.613 Y107.541 E1.90063
G1 X176.444 Y107.233 E1.94157
G1 X176.356 Y106.892 E1.98251
G1 X176.356 Y106.648 E2.01098
G1 X176.085 Y106.316 F7200.000
G1 F1800.000 E1.01098
G92 E0
G1 X124.652 Y106.716 F7200.000
G1 E1.00000 F1800.000
G1 X124.592 Y107.190 E1.05553 F540.000
G1 X124.416 Y107.633 E1.11105
G1 X124.136 Y108.019 E1.16658
G1 X123.768 Y108.323 E1.22210
G1 X123.337 Y108.526 E1.27763
G1 X122.868 Y108.616 E1.33315
G1 X122.392 Y108.586 E1.38868
G1 X121.938 Y108.438 E1.44420
G1 X121.535 Y108.183 E1.49973
G1 X121.209 Y107.835 E1.55525
G1 X121.015 Y107.483 E1.60198
G1 X120.979 Y107.417 E1.61078
G1 X120.860 Y106.955 E1.66630
G1 X120.860 Y106.478 E1.72183
G1 X120.960 Y106.089 E1.76856
G1 X120.979 Y106.016 E1.77736
G1 X121.209 Y105.598 E1.83288
G1 X121.535 Y105.250 E1.88841
G1 X121.874 Y105.035 E1.93513
G1 X121.938 Y104.994 E1.94393
G1 X122.392 Y104.847 E1.99946
G1 X122.868 Y104.817 E2.05498
G1 X123.337 Y104.906 E2.11051
G1 X123.768 Y105.109 E2.16603
G1 X124.136 Y105.413 E2.22156
G1 X124.416 Y105.799 E2.27708
G1 X124.592 Y106.243 E2.33261
G1 X124.638 Y106.610 E2.37566
G1 X125.055 Y106.972 F7200.000
G1 X126.059 Y106.970 F7200.000
G1 X126.091 Y106.716 E2.40547 F1080.000
G1 X125.986 Y105.885 E2.50299
G1 X125.678 Y105.106 E2.60052
G1 X124.914 Y104.055 E2.75176
G1 X129.145 Y103.186 E3.25447
G1 X134.390 Y102.252 E3.87453
G1 X139.653 Y101.600 E4.49178
G1 X145.464 Y101.191 E5.16977
G1 X145.534 Y101.814 E5.24274
G1 X140.880 Y102.540 E5.79103
G1 X137.185 Y103.397 E6.23248
G1 X133.563 Y104.522 E6.67394
G1 X130.064 Y105.897 E7.11149
G1 X125.970 Y107.682 E7.63134
G1 X126.046 Y107.077 E7.70230
G1 X150.253 Y100.306 F7200.000
G1 X158.954 Y102.213 F7200.000
G1 X159.042 Y101.631 E7.77085 F540.000
G1 X160.828 Y101.789 E7.97962
G1 X166.079 Y102.534 E8.59686
G1 X171.307 Y103.561 E9.21693
G1 X175.881 Y104.585 E9.76252
G1 X175.449 Y105.045 E9.83601
G1 X175.105 Y105.670 E9.91895
G1 X174.928 Y106.360 E10.00190
G1 X174.928 Y107.353 E10.11752
G1 X170.613 Y105.558 E10.66155
G1 X167.091 Y104.242 E11.09911
G1 X163.451 Y103.177 E11.54056
G1 X159.059 Y102.235 E12.06337
G1 X159.279 Y103.039 F7200.000
G1 X155.913 Y102.571 E12.45893 F1080.000
G1 X152.180 Y102.329 E12.89429
G1 X148.440 Y102.360 E13.32966
G1 X144.712 Y102.665 E13.76503
G1 X141.016 Y103.241 E14.20039
G1 X137.372 Y104.087 E14.63576
G1 X133.800 Y105.196 E15.07112
G1 X130.337 Y106.557 E15.50411
G1 X124.561 Y109.074 E16.23749
G1 X124.399 Y108.872 E16.26764
G1 X125.047 Y107.980 E16.39604
G1 X125.289 Y107.369 E16.47256
G1 X125.372 Y106.716 E16.54909
G1 X125.289 Y106.064 E16.62562
G1 X125.047 Y105.453 E16.70215
G1 X124.950 Y105.318 E16.72145
G1 X124.661 Y104.921 E16.77867
G1 X124.154 Y104.502 E16.85520
G1 X123.686 Y104.282 E16.91535
G1 X123.686 Y104.246 E16.91950
G1 X122.906 Y104.097 E17.01196
G1 X122.904 Y103.738 E17.05371
G1 X129.011 Y102.484 E17.77934
G1 X134.284 Y101.546 E18.40269
G1 X139.584 Y100.889 E19.02434
G1 X144.912 Y100.514 E19.64598
G1 X150.252 Y100.420 E20.26763
G1 X155.590 Y100.609 E20.88927
G1 X160.910 Y101.079 E21.51091
G1 X166.198 Y101.830 E22.13256
G1 X171.454 Y102.862 E22.75591
G1 X177.693 Y104.259 E23.50012
G1 X177.705 Y104.516 E23.53004
G1 X176.845 Y104.795 E23.63534
G1 X176.395 Y105.080 E23.69728
G1 X176.031 Y105.468 E23.75922
G1 X175.775 Y105.935 E23.82116
G1 X175.642 Y106.450 E23.88310
G1 X175.642 Y106.982 E23.94503
G1 X175.775 Y107.498 E24.00697
G1 X176.349 Y108.543 E24.14575
G1 X176.234 Y108.670 E24.16573
G1 X170.350 Y106.222 E24.90749
G1 X166.866 Y104.920 E25.34048
G1 X163.275 Y103.870 E25.77585
G1 X159.618 Y103.086 E26.21121
G1 X159.385 Y103.053 E26.23855
G1 X159.181 Y103.746 F7200.000
G1 X155.841 Y103.282 E26.63107 F756.000
G1 X152.160 Y103.043 E27.06034
G1 X148.472 Y103.074 E27.48962
G1 X144.796 Y103.374 E27.91890
G1 X141.152 Y103.943 E28.34818
G1 X137.559 Y104.777 E28.77745
G1 X134.037 Y105.871 E29.20673
G1 X130.611 Y107.217 E29.63516
G1 X124.211 Y110.006 E30.44773
G1 X123.298 Y110.271 E30.55834
G1 X122.374 Y110.293 E30.66592
G1 X121.475 Y110.080 E30.77349
G1 X120.659 Y109.644 E30.88107
G1 X119.982 Y109.015 E30.98865
G1 X119.488 Y108.234 E31.09622
G1 X119.209 Y107.353 E31.20380
G1 X119.163 Y106.430 E31.31138
G1 X119.355 Y105.525 E31.41896
G1 X119.770 Y104.700 E31.52653
G1 X120.383 Y104.007 E31.63411
G1 X121.151 Y103.494 E31.74169
G1 X122.050 Y103.185 E31.85229
G1 X128.876 Y101.783 E32.66340
G1 X134.177 Y100.840 E33.29006
G1 X139.515 Y100.178 E33.91610
G1 X144.880 Y99.800 E34.54213
G1 X150.258 Y99.706 E35.16817
G1 X155.634 Y99.896 E35.79421
G1 X160.992 Y100.369 E36.42025
G1 X166.317 Y101.125 E37.04629
G1 X171.600 Y102.163 E37.67294
G1 X178.401 Y103.686 E38.48408
G1 X179.166 Y103.963 E38.57875
G1 X179.815 Y104.410 E38.67043
G1 X180.330 Y105.005 E38.76210
G1 X180.678 Y105.712 E38.85378
G1 X180.837 Y106.483 E38.94545
G1 X180.795 Y107.270 E39.03713
G1 X180.557 Y108.021 E39.12880
G1 X180.137 Y108.687 E39.22048
G1 X179.563 Y109.226 E39.31216
G1 X178.871 Y109.602 E39.40383
G1 X178.106 Y109.792 E39.49551
G1 X177.319 Y109.783 E39.58718
G1 X176.534 Y109.569 E39.68185
G1 X170.088 Y106.887 E40.49446
G1 X166.640 Y105.598 E40.92289
G1 X163.100 Y104.563 E41.35216
G1 X159.494 Y103.790 E41.78144
G1 X159.287 Y103.761 E41.80574
G1 X158.912 Y103.084 F7200.000
G1 X133.754 Y102.953 F7200.000
G1 X133.670 Y102.870 E41.81956 F1080.000
G1 X132.805 Y103.024 E41.92275
G1 X133.448 Y103.666 E42.02947
G1 X132.716 Y103.954 E42.12177
G1 X131.940 Y103.178 E42.25066
G1 X131.075 Y103.332 E42.35385
G1 X131.985 Y104.241 E42.50491
G1 X131.253 Y104.529 E42.59722
G1 X130.210 Y103.486 E42.77045
G1 X129.345 Y103.639 E42.87364
G1 X130.521 Y104.816 E43.06905
G1 X129.790 Y105.104 E43.16136
G1 X128.497 Y103.811 E43.37609
G1 X127.651 Y103.984 E43.47744
G1 X129.079 Y105.411 E43.71447
G1 X128.369 Y105.721 E43.80539
G1 X126.806 Y104.158 E44.06496
G1 X125.961 Y104.331 E44.16632
G1 X127.659 Y106.030 E44.44842
G1 X126.881 Y106.270 E44.54412
G1 X126.950 Y106.339 E44.55557
G1 X123.543 Y109.449 F7200.000
G1 X123.351 Y109.257 E44.58764 F360.000
G1 X122.634 Y109.566 E44.67991 F360.000
G1 X122.375 Y109.307 E44.72321 F360.000
G1 X121.110 Y109.067 F7200.000
G1 X120.452 Y108.410 E44.83311 F360.000
G1 X120.148 Y107.080 E44.99432 F360.000
G1 X119.905 Y106.837 E45.03501 F360.000
G1 X120.209 Y106.115 E45.12756 F360.000
G1 X120.009 Y105.915 E45.16102 F360.000
G1 X120.504 Y105.384 E45.24680 F360.000
G1 X120.324 Y105.204 E45.27690 F360.000
G1 X120.806 Y104.661 E45.36278 F360.000
G1 X120.957 Y104.812 E45.38807 F360.000
G1 X121.555 Y104.384 E45.47495 F360.000
G1 X121.379 Y104.208 E45.50429 F360.000
G1 X122.119 Y103.923 E45.59807 F360.000
G1 X122.184 Y103.988 E45.60894 F360.000
G1 X134.713 Y103.282 F7200.000
G1 X135.597 Y102.818 E45.76394 F360.000
G1 X135.848 Y103.069 E45.81921 F360.000
G1 X136.796 Y102.669 E45.97894 F360.000
G1 X136.839 Y102.712 E45.98832 F360.000
G1 X138.118 Y102.620 F7200.000
G1 X138.301 Y102.270 E46.01253 F360.000
G1 X138.590 Y102.560 E46.03766 F360.000
G1 X138.775 Y102.211 E46.06184 F360.000
G1 X139.023 Y102.459 E46.08335 F360.000
G1 X139.248 Y102.153 E46.10672 F360.000
G1 X139.455 Y102.359 E46.12463 F360.000
G1 X139.723 Y102.095 E46.14774 F360.000
G1 X139.887 Y102.259 E46.16195 F360.000
G1 X140.221 Y102.060 E46.18579 F360.000
G1 X140.319 Y102.158 E46.19434 F360.000
G1 X140.718 Y102.025 E46.22015 F360.000
G1 X140.736 Y102.042 E46.22168 F360.000
G1 X138.158 Y102.660 F7200.000
G1 X138.118 Y102.620 E46.22517 F360.000
G1 X134.820 Y103.389 F7200.000
G1 X134.713 Y103.282 E46.24869 F360.000
G1 X146.251 Y101.735 F7200.000
G1 X146.732 Y101.203 E46.33243 F360.000
G1 X147.262 Y101.733 E46.41986 F360.000
G1 X147.728 Y101.186 E46.50376 F360.000
G1 X148.198 Y101.656 E46.58143 F360.000
G1 X148.724 Y101.168 E46.66513 F360.000
G1 X149.188 Y101.632 E46.74178 F360.000
G1 X149.719 Y101.151 E46.82552 F360.000
G1 X150.192 Y101.624 E46.90367 F360.000
G1 X150.741 Y101.159 E46.98759 F360.000
G1 X151.197 Y101.616 E47.06299 F360.000
G1 X151.791 Y101.196 E47.14785 F360.000
G1 X152.202 Y101.607 E47.21575 F360.000
G1 X152.841 Y101.233 E47.30220 F360.000
G1 X153.285 Y101.678 E47.37559 F360.000
G1 X153.891 Y101.270 E47.46082 F360.000
G1 X154.369 Y101.748 E47.53970 F360.000
G1 X154.941 Y101.307 E47.62404 F360.000
G1 X155.452 Y101.818 E47.70842 F360.000
G1 X156.018 Y101.370 E47.79261 F360.000
G1 X156.583 Y101.936 E47.88598 F360.000
G1 X157.129 Y101.469 E47.96987 F360.000
G1 X157.760 Y102.099 E48.07401 F360.000
G1 X158.240 Y101.567 E48.15776 F360.000
G1 X158.311 Y101.638 E48.16947 F360.000
G1 X163.747 Y102.725 F7200.000
G1 X164.353 Y102.792 E48.20742 F360.000
G1 X164.538 Y102.976 E48.22363 F360.000
G1 X164.982 Y102.881 E48.25191 F360.000
G1 X165.300 Y103.199 E48.27987 F360.000
G1 X165.611 Y102.971 E48.30388 F360.000
G1 X166.063 Y103.422 E48.34361 F360.000
G1 X166.296 Y103.116 E48.36756 F360.000
G1 X166.257 Y103.076 E48.37105 F360.000
G1 X167.490 Y103.583 F7200.000
G1 X169.439 Y103.907 E48.74109 F360.000
G1 X169.558 Y104.025 E48.77250 F360.000
G1 X167.588 Y103.681 F7200.000
G1 X167.490 Y103.583 E48.79844 F360.000
G1 X163.775 Y102.753 F7200.000
G1 X163.747 Y102.725 E48.80091 F360.000
G1 X177.003 Y108.893 F7200.000
G1 X177.971 Y108.825 E48.91678 F360.000
G1 X178.178 Y109.032 E48.95184 F360.000
G1 X178.758 Y108.576 E49.03997 F360.000
G1 X178.932 Y108.749 E49.06924 F360.000
G1 X179.484 Y108.266 E49.15694 F360.000
G1 X179.339 Y108.121 E49.18139 F360.000
G1 X179.916 Y107.661 E49.26944 F360.000
G1 X179.723 Y107.468 E49.30196 F360.000
G1 X180.098 Y106.807 E49.39274 F360.000
G1 X179.859 Y106.568 E49.43309 F360.000
G1 X179.663 Y105.336 E49.58214 F360.000
G1 X179.163 Y104.835 E49.66663 F360.000
G1 X177.875 Y104.712 F7200.000
G1 X170.102 Y102.480 F7200.000
G1 X173.676 Y107.729 F7200.000
G1 X177.003 Y108.893 F7200.000
G1 X177.081 Y108.971 E49.67983 F360.000
G1 X160.232 Y100.904 F7200.000
G1 X146.325 Y101.809 F7200.000
G1 X146.251 Y101.735 E49.69203 F360.000
G1 X170.397 Y104.570 F7200.000
G1 X170.278 Y104.450 E49.71667 F1080.000
G1 X171.100 Y104.002 E49.85364
G1 X172.572 Y105.474 E50.15843
G1 X172.732 Y104.364 E50.32257
G1 X174.205 Y105.838 E50.62748
G1 X174.465 Y104.827 E50.78018
G1 X174.369 Y104.731 E50.80008
M106 S255
G1 F1800.000 E49.80008
G92 E0
G1 Z0.700 F7200.000
G1 X176.041 Y105.687 F7200.000
G1 E1.00000 F1800.000
G1 X176.124 Y105.536 E1.00842 F952.261
G1 X176.469 Y105.169 E1.03303
G1 X176.894 Y104.899 E1.05764
G1 X177.372 Y104.744 E1.08225
G1 X177.875 Y104.712 E1.10686
G1 X178.200 Y104.774 E1.12304
G1 X178.369 Y104.807 E1.13147
G1 X178.825 Y105.021 E1.15608
G1 X179.212 Y105.342 E1.18068
G1 X179.508 Y105.749 E1.20529
G1 X179.693 Y106.217 E1.22990
G1 X179.757 Y106.716 E1.25451
G1 X179.693 Y107.216 E1.27912
G1 X179.508 Y107.684 E1.30373
G1 X179.188 Y108.111 E1.32984
G1 X178.825 Y108.412 E1.35290
G1 X178.369 Y108.626 E1.37751
G1 X177.875 Y108.720 E1.40212
G1 X177.372 Y108.689 E1.42673
G1 X176.894 Y108.533 E1.45134
G1 X176.469 Y108.263 E1.47594
G1 X176.242 Y108.022 E1.49213
G1 X176.124 Y107.897 E1.50055
G1 X175.882 Y107.455 E1.52516
G1 X175.756 Y106.968 E1.54977
G1 X175.756 Y106.465 E1.57438
G1 X175.882 Y105.977 E1.59899
G1 X176.012 Y105.740 E1.61224
G1 X176.392 Y105.880 F7200.000
G1 X176.450 Y105.773 E1.61819 F952.261
G1 X176.726 Y105.480 E1.63786
G1 X177.065 Y105.264 E1.65753
G1 X177.448 Y105.140 E1.67720
G1 X177.849 Y105.115 E1.69686
G1 X178.125 Y105.167 E1.71058
G1 X178.245 Y105.190 E1.71653
G1 X178.608 Y105.361 E1.73620
G1 X178.918 Y105.618 E1.75587
G1 X179.155 Y105.943 E1.77553
G1 X179.303 Y106.317 E1.79520
G1 X179.353 Y106.716 E1.81487
G1 X179.303 Y107.115 E1.83454
G1 X179.155 Y107.489 E1.85420
G1 X178.918 Y107.815 E1.87387
G1 X178.608 Y108.071 E1.89354
G1 X178.244 Y108.243 E1.91321
G1 X177.849 Y108.318 E1.93287
G1 X177.448 Y108.293 E1.95254
G1 X177.065 Y108.168 E1.97221
G1 X176.726 Y107.953 E1.99188
G1 X176.450 Y107.660 E2.01154
G1 X176.257 Y107.307 E2.03121
G1 X176.156 Y106.917 E2.05088
G1 X176.156 Y106.515 E2.07055
G1 X176.257 Y106.126 E2.09021
G1 X176.363 Y105.932 E2.10099
G1 X176.742 Y106.072 F7200.000
