; generated by Slic3r 1.0.0RC3 on 2014-03-03 at 10:56:32

; layer_height = 0.2
; perimeters = 3
; top_solid_layers = 3
; bottom_solid_layers = 3
; fill_density = 0.20
; perimeter_speed = 60
; infill_speed = 60
; travel_speed = 120
; nozzle_diameter = 0.4
; filament_diameter = 1.75
; extrusion_multiplier = 0.98
; perimeters extrusion width = 0.40mm
; infill extrusion width = 0.67mm
; solid infill extrusion width = 0.67mm
; top infill extrusion width = 0.67mm
; first layer extrusion width = 0.60mm

G21 ; set units to millimeters
M107
M104 S220 ; set temperature
G28 ; home all axes
M106 S255;
G1 Z200 F1200 ; lift nozzle
M109 S220 ; wait for temperature to be reached
G90 ; use absolute coordinates
G92 E0
M82 ; use absolute distances for extrusion
G1 F1800.000 E-1.00000
G92 E0
G1 Z0.300 F7200.000
G1 X109.245 Y98.165 F7200.000
G1 E1.00000 F1800.000
G1 X110.115 Y97.275 E1.08475 F1080.000
G1 X111.135 Y96.565 E1.16937
G1 X112.615 Y95.735 E1.28491
G1 X113.665 Y95.265 E1.36325
G1 X114.775 Y94.985 E1.44120
G1 X116.685 Y94.675 E1.57295
G1 X117.575 Y94.615 E1.63369
G1 X182.565 Y94.615 E6.05902
G1 X183.695 Y94.715 E6.13626
G1 X185.295 Y94.995 E6.24687
G1 X186.365 Y95.275 E6.32218
G1 X187.375 Y95.735 E6.39775
G1 X188.855 Y96.565 E6.51329
G1 X189.875 Y97.275 E6.59792
G1 X190.745 Y98.165 E6.68266
G1 X191.745 Y99.405 E6.79113
G1 X192.535 Y100.635 E6.89067
G1 X193.025 Y102.005 E6.98975
G1 X193.375 Y103.475 E7.09264
G1 X193.555 Y104.995 E7.19687
G1 X193.375 Y106.515 E7.30109
G1 X193.025 Y107.985 E7.40398
G1 X192.535 Y109.355 E7.50306
G1 X191.745 Y110.585 E7.60260
G1 X190.745 Y111.825 E7.71107
G1 X189.875 Y112.715 E7.79582
G1 X188.855 Y113.425 E7.88044
G1 X187.375 Y114.255 E7.99598
G1 X186.365 Y114.715 E8.07155
G1 X185.295 Y114.995 E8.14686
G1 X183.695 Y115.275 E8.25747
G1 X182.565 Y115.375 E8.33471
G1 X117.575 Y115.385 E12.76004
G1 X116.505 Y115.295 E12.83315
G1 X114.755 Y115.005 E12.95394
G1 X113.655 Y114.725 E13.03123
G1 X112.615 Y114.255 E13.10894
G1 X111.135 Y113.425 E13.22449
G1 X110.115 Y112.715 E13.30911
G1 X109.245 Y111.825 E13.39386
G1 X108.245 Y110.585 E13.50233
G1 X107.445 Y109.335 E13.60338
G1 X106.955 Y107.945 E13.70374
G1 X106.615 Y106.475 E13.80648
G1 X106.445 Y104.995 E13.90792
G1 X106.615 Y103.515 E14.00936
G1 X106.955 Y102.045 E14.11209
G1 X107.445 Y100.655 E14.21245
G1 X108.245 Y99.405 E14.31351
G1 X109.192 Y98.230 E14.41629
G1 F1800.000 E13.41629
G92 E0
G1 X181.060 Y105.013 F7200.000
G1 E1.00000 F1800.000
G1 X181.203 Y104.296 E1.04978 F540.000
G1 X181.609 Y103.688 E1.09957
G1 X182.217 Y103.282 E1.14936
G1 X182.934 Y103.139 E1.19914
G1 X183.651 Y103.282 E1.24893
G1 X184.259 Y103.688 E1.29871
G1 X184.665 Y104.296 E1.34849
G1 X184.808 Y105.013 E1.39828
G1 X184.665 Y105.730 E1.44806
G1 X184.259 Y106.338 E1.49785
G1 X183.651 Y106.744 E1.54764
G1 X182.934 Y106.887 E1.59742
G1 X182.217 Y106.744 E1.64721
G1 X181.609 Y106.338 E1.69700
G1 X181.202 Y105.730 E1.74678
G1 X181.076 Y105.095 E1.79088
G1 X181.628 Y105.013 F7200.000
G1 X181.727 Y104.513 E1.82557 F540.000
G1 X182.010 Y104.090 E1.86027
G1 X182.434 Y103.807 E1.89496
G1 X182.934 Y103.707 E1.92966
G1 X183.433 Y103.807 E1.96435
G1 X183.857 Y104.090 E1.99905
G1 X184.140 Y104.513 E2.03374
G1 X184.240 Y105.013 E2.06844
G1 X184.140 Y105.513 E2.10313
G1 X183.857 Y105.936 E2.13783
G1 X183.433 Y106.219 E2.17252
G1 X182.934 Y106.319 E2.20722
G1 X182.434 Y106.220 E2.24191
G1 X182.010 Y105.936 E2.27661
G1 X181.727 Y105.513 E2.31130
G1 X181.644 Y105.095 E2.34031
G1 X181.204 Y104.730 F7200.000
G1 F1800.000 E1.34031
G92 E0
G1 X118.937 Y105.013 F7200.000
G1 E1.00000 F1800.000
G1 X118.794 Y105.730 E1.04979 F540.000
G1 X118.388 Y106.338 E1.09957
G1 X117.780 Y106.744 E1.14936
G1 X117.063 Y106.887 E1.19914
G1 X116.346 Y106.744 E1.24893
G1 X115.738 Y106.338 E1.29872
G1 X115.332 Y105.730 E1.34850
G1 X115.189 Y105.013 E1.39829
G1 X115.440 Y103.750 E1.48599
G1 X115.645 Y103.750 E1.49996
G1 X116.346 Y103.282 E1.55732
G1 X117.063 Y103.139 E1.60710
G1 X117.780 Y103.282 E1.65689
G1 X118.388 Y103.688 E1.70667
G1 X118.794 Y104.296 E1.75646
G1 X118.920 Y104.931 E1.80055
G1 X118.369 Y105.013 F7200.000
G1 X118.269 Y105.513 E1.83525 F540.000
G1 X117.986 Y105.936 E1.86994
G1 X117.563 Y106.219 E1.90464
G1 X117.063 Y106.319 E1.93933
G1 X116.563 Y106.220 E1.97403
G1 X116.139 Y105.936 E2.00872
G1 X115.856 Y105.513 E2.04342
G1 X115.757 Y105.013 E2.07811
G1 X115.897 Y104.307 E2.12714
G1 X115.994 Y104.307 E2.13373
G1 X116.139 Y104.090 E2.15152
G1 X116.563 Y103.807 E2.18622
G1 X117.063 Y103.707 E2.22091
G1 X117.563 Y103.807 E2.25561
G1 X117.986 Y104.090 E2.29030
G1 X118.269 Y104.513 E2.32500
G1 X118.352 Y104.931 E2.35400
G1 X118.792 Y105.296 F7200.000
G1 X119.377 Y105.655 F7200.000
G1 X119.505 Y105.013 E2.39857 F1080.000
G1 X119.319 Y104.079 E2.46345
G1 X118.790 Y103.286 E2.52832
G1 X117.994 Y102.755 E2.59343
G1 X118.045 Y102.589 E2.60524
G1 X181.939 Y102.598 E6.95592
G1 X181.989 Y102.764 E6.96771
G1 X181.207 Y103.286 E7.03173
G1 X180.678 Y104.079 E7.09660
G1 X180.492 Y105.013 E7.16148
G1 X180.678 Y105.947 E7.22636
G1 X181.207 Y106.740 E7.29124
G1 X181.950 Y107.236 E7.35207
G1 X181.900 Y107.402 E7.36386
G1 X118.084 Y107.411 E11.70923
G1 X118.033 Y107.245 E11.72104
G1 X118.790 Y106.740 E11.78296
G1 X119.319 Y105.947 E11.84784
G1 X119.361 Y105.737 E11.86246
G1 F1800.000 E10.86246
G92 E0
G1 X120.424 Y107.968 F7200.000
G1 E1.00000 F1800.000
G1 X117.650 Y107.968 E1.18890 F1080.000
G1 X116.116 Y107.720 E1.29468
G1 X114.911 Y107.045 E1.38877
G1 X114.143 Y106.083 E1.47261
G1 X113.886 Y105.000 E1.54838
G1 X114.143 Y103.917 E1.62416
G1 X114.911 Y102.955 E1.70800
G1 X116.116 Y102.280 E1.80209
G1 X117.650 Y102.032 E1.90787
G1 X182.493 Y102.041 E6.32317
G1 X183.880 Y102.278 E6.41903
G1 X185.089 Y102.955 E6.51338
G1 X185.857 Y103.917 E6.59722
G1 X186.114 Y105.000 E6.67300
G1 X185.857 Y106.083 E6.74878
G1 X185.089 Y107.045 E6.83262
G1 X183.880 Y107.722 E6.92697
G1 X182.493 Y107.959 E7.02283
G1 X120.508 Y107.968 E11.24354
G1 X120.424 Y108.525 F7200.000
G1 X117.605 Y108.525 E11.43548 F540.000
G1 X115.930 Y108.255 E11.55102
G1 X114.543 Y107.478 E11.65926
G1 X113.630 Y106.333 E11.75902
G1 X113.313 Y105.000 E11.85229
G1 X113.630 Y103.667 E11.94556
G1 X114.543 Y102.522 E12.04532
G1 X115.930 Y101.745 E12.15356
G1 X117.605 Y101.475 E12.26909
G1 X182.540 Y101.484 E16.69064
G1 X184.069 Y101.745 E16.79625
G1 X185.457 Y102.522 E16.90458
G1 X186.370 Y103.667 E17.00434
G1 X186.687 Y105.000 E17.09761
G1 X186.370 Y106.333 E17.19088
G1 X185.457 Y107.478 E17.29064
G1 X184.069 Y108.255 E17.39897
G1 X182.540 Y108.516 E17.50459
G1 X120.508 Y108.525 E21.72850
G1 X120.145 Y108.042 F7200.000
G1 X119.107 Y107.017 F7200.000
G1 X119.090 Y107.000 E21.73017 F1080.000
G1 X119.407 Y106.524 E21.76935
G1 X119.900 Y107.017 E21.81709
G1 X120.693 Y107.017 E21.87143
G1 X119.704 Y106.028 E21.96722
G1 X119.836 Y105.367 E22.01344
G1 X121.485 Y107.016 E22.17333
G1 X122.278 Y107.016 E22.22768
G1 X119.815 Y104.553 E22.46647
G1 X119.831 Y102.983 E22.57405
G1 X123.864 Y107.016 E22.96494
G1 X124.657 Y107.016 E23.01929
G1 X120.624 Y102.983 E23.41016
G1 X121.418 Y102.984 E23.46452
G1 X125.450 Y107.016 E23.85538
G1 X126.243 Y107.016 E23.90972
G1 X122.211 Y102.984 E24.30055
G1 X123.004 Y102.984 E24.35491
G1 X127.036 Y107.016 E24.74572
G1 X127.829 Y107.016 E24.80007
G1 X123.797 Y102.984 E25.19085
G1 X124.590 Y102.984 E25.24521
G1 X128.622 Y107.015 E25.63598
G1 X129.414 Y107.015 E25.69033
G1 X125.383 Y102.984 E26.08107
G1 X126.176 Y102.984 E26.13543
G1 X130.207 Y107.015 E26.52615
G1 X131.000 Y107.015 E26.58050
G1 X126.969 Y102.984 E26.97120
G1 X127.763 Y102.984 E27.02556
G1 X131.793 Y107.015 E27.41624
G1 X132.586 Y107.015 E27.47058
G1 X128.556 Y102.985 E27.86124
G1 X129.349 Y102.985 E27.91560
G1 X133.379 Y107.015 E28.30624
G1 X134.172 Y107.015 E28.36058
G1 X130.142 Y102.985 E28.75119
G1 X130.935 Y102.985 E28.80555
G1 X134.965 Y107.015 E29.19615
G1 X135.758 Y107.014 E29.25049
G1 X131.728 Y102.985 E29.64106
G1 X132.521 Y102.985 E29.69542
G1 X136.550 Y107.014 E30.08597
G1 X137.343 Y107.014 E30.14032
G1 X133.314 Y102.985 E30.53084
G1 X134.107 Y102.985 E30.58520
G1 X138.136 Y107.014 E30.97571
G1 X138.929 Y107.014 E31.03005
G1 X134.901 Y102.985 E31.42054
G1 X135.694 Y102.986 E31.47490
G1 X139.722 Y107.014 E31.86536
G1 X140.515 Y107.014 E31.91970
G1 X136.487 Y102.986 E32.31014
G1 X137.280 Y102.986 E32.36450
G1 X141.308 Y107.014 E32.75492
G1 X142.101 Y107.014 E32.80927
G1 X138.073 Y102.986 E33.19966
G1 X138.866 Y102.986 E33.25402
G1 X142.894 Y107.013 E33.64440
G1 X143.686 Y107.013 E33.69874
G1 X139.659 Y102.986 E34.08910
G1 X140.452 Y102.986 E34.14346
G1 X144.479 Y107.013 E34.53379
G1 X145.272 Y107.013 E34.58813
G1 X141.246 Y102.986 E34.97844
G1 X142.039 Y102.986 E35.03280
G1 X146.065 Y107.013 E35.42309
G1 X146.858 Y107.013 E35.47743
G1 X142.832 Y102.987 E35.86770
G1 X143.625 Y102.987 E35.92206
G1 X147.651 Y107.013 E36.31231
G1 X148.444 Y107.013 E36.36665
G1 X144.418 Y102.987 E36.75687
G1 X145.211 Y102.987 E36.81123
G1 X149.237 Y107.013 E37.20143
G1 X150.030 Y107.012 E37.25578
G1 X146.004 Y102.987 E37.64596
G1 X146.797 Y102.987 E37.70032
G1 X150.823 Y107.012 E38.09048
G1 X151.615 Y107.012 E38.14482
G1 X147.590 Y102.987 E38.53496
G1 X148.384 Y102.987 E38.58932
G1 X152.408 Y107.012 E38.97943
G1 X153.201 Y107.012 E39.03377
G1 X149.177 Y102.987 E39.42387
G1 X149.970 Y102.988 E39.47823
G1 X153.994 Y107.012 E39.86830
G1 X154.787 Y107.012 E39.92264
G1 X150.763 Y102.988 E40.31269
G1 X151.556 Y102.988 E40.36705
G1 X155.580 Y107.012 E40.75708
G1 X156.373 Y107.012 E40.81142
G1 X152.349 Y102.988 E41.20143
G1 X153.142 Y102.988 E41.25579
G1 X157.166 Y107.011 E41.64577
G1 X157.959 Y107.011 E41.70012
G1 X153.935 Y102.988 E42.09008
G1 X154.729 Y102.988 E42.14444
G1 X158.751 Y107.011 E42.53438
G1 X159.544 Y107.011 E42.58872
G1 X155.522 Y102.988 E42.97864
G1 X156.315 Y102.988 E43.03300
G1 X160.337 Y107.011 E43.42290
G1 X161.130 Y107.011 E43.47724
G1 X157.108 Y102.989 E43.86712
G1 X157.901 Y102.989 E43.92148
G1 X161.923 Y107.011 E44.31133
G1 X162.716 Y107.011 E44.36568
G1 X158.694 Y102.989 E44.75551
G1 X159.487 Y102.989 E44.80987
G1 X163.509 Y107.010 E45.19968
G1 X164.302 Y107.010 E45.25402
G1 X160.280 Y102.989 E45.64381
G1 X161.073 Y102.989 E45.69817
G1 X165.095 Y107.010 E46.08794
G1 X165.888 Y107.010 E46.14228
G1 X161.867 Y102.989 E46.53203
G1 X162.660 Y102.989 E46.58639
G1 X166.680 Y107.010 E46.97611
G1 X167.473 Y107.010 E47.03046
G1 X163.453 Y102.989 E47.42016
G1 X164.246 Y102.990 E47.47452
G1 X168.266 Y107.010 E47.86420
G1 X169.059 Y107.010 E47.91854
G1 X165.039 Y102.990 E48.30820
G1 X165.832 Y102.990 E48.36256
G1 X169.852 Y107.010 E48.75219
G1 X170.645 Y107.009 E48.80654
G1 X166.625 Y102.990 E49.19615
G1 X167.418 Y102.990 E49.25051
G1 X171.438 Y107.009 E49.64011
G1 X172.231 Y107.009 E49.69445
G1 X168.212 Y102.990 E50.08402
G1 X169.005 Y102.990 E50.13838
G1 X173.024 Y107.009 E50.52793
G1 X173.816 Y107.009 E50.58227
G1 X169.798 Y102.990 E50.97180
G1 X170.591 Y102.990 E51.02616
G1 X174.609 Y107.009 E51.41567
G1 X175.402 Y107.009 E51.47001
G1 X171.384 Y102.991 E51.85950
G1 X172.177 Y102.991 E51.91386
G1 X176.195 Y107.009 E52.30332
G1 X176.988 Y107.009 E52.35766
G1 X172.970 Y102.991 E52.74710
G1 X173.763 Y102.991 E52.80146
G1 X177.781 Y107.008 E53.19088
G1 X178.574 Y107.008 E53.24523
G1 X174.556 Y102.991 E53.63462
G1 X175.350 Y102.991 E53.68898
G1 X179.367 Y107.008 E54.07836
G1 X180.160 Y107.008 E54.13270
G1 X176.143 Y102.991 E54.52206
G1 X176.936 Y102.991 E54.57642
G1 X180.832 Y106.888 E54.95412
G1 X180.175 Y105.437 F7200.000
G1 X177.729 Y102.992 E55.19118 F1080.000
G1 X178.522 Y102.992 E55.24554
G1 X180.165 Y104.635 E55.40483
G1 X180.297 Y103.974 E55.45105
G1 X179.315 Y102.992 E55.54622
G1 X180.108 Y102.992 E55.60058
G1 X180.601 Y103.484 E55.64834
G1 X180.919 Y103.009 E55.68752
G1 X180.901 Y102.992 E55.68919
G1 F1800.000 E54.68919
G92 E0
G1 X123.071 Y107.016 F7200.000
G1 E1.00000 F1800.000
G1 X119.106 Y103.051 E1.38437 F1080.000
G1 X117.588 Y102.755 F7200.000
G1 X117.684 Y102.440 E1.39609 F360.000
G1 X117.667 Y102.423 E1.39693 F360.000
G1 X117.588 Y102.755 F7200.000
G1 X117.313 Y102.480 E1.41076 F360.000
G1 X117.191 Y102.768 E1.42190 F360.000
G1 X116.959 Y102.537 E1.43353 F360.000
G1 X116.805 Y102.794 E1.44419 F360.000
G1 X116.605 Y102.594 E1.45424 F360.000
G1 X116.462 Y102.862 E1.46504 F360.000
G1 X116.251 Y102.651 E1.47565 F360.000
G1 X116.140 Y102.952 E1.48703 F360.000
G1 X115.986 Y102.798 E1.49478 F360.000
G1 X115.723 Y102.945 E1.50552 F360.000
G1 X115.894 Y103.117 E1.51413 F360.000
G1 X115.647 Y103.281 E1.52466 F360.000
G1 X115.459 Y103.093 E1.53413 F360.000
G1 X115.203 Y103.248 E1.54478 F360.000
G1 X115.223 Y103.268 E1.54581 F360.000
G1 X114.795 Y104.027 F7200.000
G1 X114.804 Y104.036 E1.54682 F360.000
G1 X114.532 Y104.739 E1.61039 F360.000
G1 X114.642 Y104.849 E1.62348 F360.000
G1 X114.750 Y105.932 E1.71519 F360.000
G1 X114.813 Y105.995 E1.72272 F360.000
G1 X115.350 Y106.835 F7200.000
G1 X115.910 Y106.920 E1.74595 F360.000
G1 X116.355 Y107.365 E1.77176 F360.000
G1 X116.669 Y107.205 E1.78621 F360.000
G1 X116.921 Y107.457 E1.80083 F360.000
G1 X117.195 Y107.257 E1.81475 F360.000
G1 X117.486 Y107.548 E1.83163 F360.000
G1 X117.614 Y107.202 E1.84677 F360.000
G1 X117.591 Y107.178 E1.84814 F360.000
G1 F1800.000 E0.84814
G92 E0
G1 X115.376 Y106.861 F7200.000
G1 E1.00000 F1800.000
G1 X115.350 Y106.835 E1.00151 F360.000
G1 F1800.000 E0.00151
G92 E0
G1 X182.260 Y107.552 F7200.000
G1 E1.00000 F1800.000
G1 X182.362 Y107.217 E1.01322 F360.000
G1 X182.678 Y107.533 E1.03009 F360.000
G1 X182.847 Y107.266 E1.04203 F360.000
G1 X183.051 Y107.470 E1.05291 F360.000
G1 X183.240 Y107.222 E1.06467 F360.000
G1 X183.424 Y107.406 E1.07448 F360.000
G1 X183.604 Y107.150 E1.08631 F360.000
G1 X183.785 Y107.330 E1.09596 F360.000
G1 X184.065 Y107.174 E1.10807 F360.000
G1 X183.922 Y107.030 E1.11571 F360.000
G1 X184.184 Y106.856 E1.12760 F360.000
G1 X184.345 Y107.017 E1.13621 F360.000
G1 X184.572 Y106.807 E1.14788 F360.000
G1 X184.618 Y106.853 E1.15033 F360.000
G1 X185.166 Y106.021 F7200.000
G1 X185.159 Y106.014 E1.15124 F360.000
G1 X185.463 Y105.283 E1.22209 F360.000
G1 X185.355 Y105.175 E1.23572 F360.000
G1 X185.122 Y103.907 E1.35109 F360.000
G1 X185.059 Y103.844 E1.35908 F360.000
G1 X184.453 Y103.055 F7200.000
G1 X184.427 Y103.029 E1.36051 F360.000
G1 X183.983 Y103.036 E1.37782 F360.000
G1 X183.565 Y102.618 E1.40089 F360.000
G1 X183.314 Y102.819 E1.41342 F360.000
G1 X183.021 Y102.525 E1.42959 F360.000
G1 X182.811 Y102.767 E1.44207 F360.000
G1 X182.477 Y102.433 E1.46053 F360.000
G1 X182.411 Y102.819 E1.47580 F360.000
G1 X182.435 Y102.842 E1.47710 F360.000
G1 F1800.000 E0.47710
G92 E0
G1 X182.260 Y107.552 F7200.000
G1 E1.00000 F1800.000
G1 X182.278 Y107.570 E1.00096 F360.000
M106 S255
G1 F1800.000 E0.00096
G92 E0
G1 Z0.500 F7200.000
G1 X119.082 Y105.013 F7200.000
G1 E1.00000 F1800.000
G1 X118.929 Y105.786 E1.02569 F1296.927
G1 X118.491 Y106.441 E1.05137
G1 X117.836 Y106.879 E1.07706
G1 X117.063 Y107.033 E1.10274
G1 X116.290 Y106.879 E1.12842
G1 X115.635 Y106.441 E1.15411
G1 X115.197 Y105.786 E1.17980
G1 X115.043 Y105.013 E1.20548
G1 X115.197 Y104.240 E1.23117
G1 X115.635 Y103.585 E1.25685
G1 X116.290 Y103.147 E1.28254
G1 X117.063 Y102.993 E1.30822
G1 X117.836 Y103.147 E1.33391
G1 X118.491 Y103.585 E1.35959
G1 X118.929 Y104.240 E1.38528
G1 X119.071 Y104.954 E1.40900
G1 X118.675 Y105.013 F7200.000
G1 X118.552 Y105.630 E1.42950 F1296.927
G1 X118.203 Y106.153 E1.45000
G1 X117.680 Y106.502 E1.47050
G1 X117.063 Y106.625 E1.49100
G1 X116.446 Y106.502 E1.51150
G1 X115.923 Y106.153 E1.53199
G1 X115.574 Y105.630 E1.55249
G1 X115.451 Y105.013 E1.57299
G1 X115.574 Y104.396 E1.59349
G1 X115.923 Y103.873 E1.61399
G1 X116.446 Y103.524 E1.63448
G1 X117.063 Y103.401 E1.65498
G1 X117.680 Y103.524 E1.67548
G1 X118.203 Y103.873 E1.69598
G1 X118.552 Y104.396 E1.71648
G1 X118.663 Y104.954 E1.73502
G1 X118.267 Y105.013 F7200.000
G1 X118.175 Y105.474 E1.75033 F1296.927
G1 X117.914 Y105.864 E1.76564
G1 X117.524 Y106.125 E1.78095
G1 X117.063 Y106.217 E1.79627
G1 X116.602 Y106.125 E1.81158
G1 X116.212 Y105.864 E1.82689
