; generated by Slic3r 1.0.0RC3 on 2014-03-03 at 10:57:01

; layer_height = 0.2
; perimeters = 3
; top_solid_layers = 3
; bottom_solid_layers = 3
; fill_density = 0.20
; perimeter_speed = 60
; infill_speed = 60
; travel_speed = 120
; nozzle_diameter = 0.4
; filament_diameter = 1.75
; extrusion_multiplier = 0.98
; perimeters extrusion width = 0.40mm
; infill extrusion width = 0.67mm
; solid infill extrusion width = 0.67mm
; top infill extrusion width = 0.67mm
; first layer extrusion width = 0.60mm

G21 ; set units to millimeters
M107
M104 S220 ; set temperature
G28 ; home all axes
M106 S255;
G1 Z200 F1200 ; lift nozzle
M109 S220 ; wait for temperature to be reached
G90 ; use absolute coordinates
G92 E0
M82 ; use absolute distances for extrusion
G1 F1800.000 E-1.00000
G92 E0
G1 Z0.300 F7200.000
G1 X140.541 Y79.122 F7200.000
G1 E1.00000 F1800.000
G1 X141.501 Y77.822 E1.11004 F1080.000
G1 X142.381 Y76.902 E1.19673
G1 X143.311 Y76.092 E1.28071
G1 X144.371 Y75.482 E1.36398
G1 X145.691 Y74.872 E1.46300
G1 X146.641 Y74.522 E1.53194
G1 X147.631 Y74.312 E1.60085
G1 X149.101 Y74.112 E1.70187
G1 X149.981 Y74.052 E1.76193
G1 X150.861 Y74.112 E1.82199
G1 X152.421 Y74.322 E1.92917
G1 X153.391 Y74.532 E1.99675
G1 X154.321 Y74.882 E2.06441
G1 X155.631 Y75.492 E2.16281
G1 X156.681 Y76.102 E2.24550
G1 X157.601 Y76.902 E2.32851
G1 X158.481 Y77.822 E2.41520
G1 X159.431 Y79.092 E2.52320
G1 X160.051 Y80.562 E2.63183
G1 X160.361 Y81.652 E2.70899
G1 X160.541 Y82.532 E2.77016
G1 X160.611 Y83.442 E2.83230
G1 X160.611 Y126.552 E5.76777
G1 X160.541 Y127.462 E5.82991
G1 X160.351 Y128.362 E5.89255
G1 X160.041 Y129.442 E5.96906
G1 X159.431 Y130.902 E6.07680
G1 X158.481 Y132.162 E6.18425
G1 X157.601 Y133.082 E6.27094
G1 X156.701 Y133.872 E6.35248
G1 X155.671 Y134.482 E6.43399
G1 X154.361 Y135.102 E6.53268
G1 X153.411 Y135.462 E6.60186
G1 X152.421 Y135.672 E6.67077
G1 X150.861 Y135.882 E6.77795
G1 X149.991 Y135.942 E6.83733
G1 X149.111 Y135.882 E6.89739
G1 X147.561 Y135.672 E7.00390
G1 X146.581 Y135.462 E7.07215
G1 X145.651 Y135.112 E7.13981
G1 X144.331 Y134.492 E7.23911
G1 X143.291 Y133.872 E7.32156
G1 X142.381 Y133.082 E7.40361
G1 X141.501 Y132.162 E7.49030
G1 X140.541 Y130.872 E7.59980
G1 X139.921 Y129.382 E7.70969
G1 X139.621 Y128.302 E7.78601
G1 X139.441 Y127.442 E7.84584
G1 X139.381 Y126.552 E7.90658
G1 X139.381 Y83.442 E10.84204
G1 X139.441 Y82.562 E10.90210
G1 X139.621 Y81.702 E10.96193
G1 X139.921 Y80.612 E11.03891
G1 X140.509 Y79.199 E11.14311
G1 F1800.000 E10.14311
G92 E0
G1 X147.849 Y84.098 F7200.000
G1 E1.00000 F1800.000
G1 X148.354 Y83.342 E1.06186 F540.000
G1 X149.109 Y82.838 E1.12372
G1 X150.000 Y82.660 E1.18558
G1 X150.891 Y82.838 E1.24745
G1 X151.646 Y83.342 E1.30931
G1 X152.151 Y84.098 E1.37118
G1 X152.328 Y84.989 E1.43304
G1 X152.151 Y85.880 E1.49490
G1 X151.646 Y86.635 E1.55676
G1 X150.891 Y87.140 E1.61863
G1 X150.000 Y87.317 E1.68049
G1 X149.109 Y87.140 E1.74235
G1 X148.354 Y86.635 E1.80421
G1 X147.849 Y85.880 E1.86608
G1 X147.672 Y84.989 E1.92794
G1 X147.833 Y84.180 E1.98411
G1 X148.374 Y84.315 F7200.000
G1 X148.755 Y83.744 E2.03088 F540.000
G1 X149.326 Y83.362 E2.07766
G1 X150.000 Y83.228 E2.12443
G1 X150.674 Y83.362 E2.17120
G1 X151.245 Y83.744 E2.21797
G1 X151.626 Y84.315 E2.26475
G1 X151.760 Y84.989 E2.31152
G1 X151.626 Y85.663 E2.35829
G1 X151.245 Y86.234 E2.40506
G1 X150.674 Y86.615 E2.45183
G1 X150.000 Y86.749 E2.49861
G1 X149.326 Y86.615 E2.54538
G1 X148.755 Y86.234 E2.59215
G1 X148.374 Y85.663 E2.63892
G1 X148.240 Y84.989 E2.68569
G1 X148.357 Y84.397 E2.72678
G1 X148.064 Y83.852 F7200.000
G1 F1800.000 E1.72678
G92 E0
G1 X150.000 Y123.185 F7200.000
G1 E1.00000 F1800.000
G1 X150.891 Y123.362 E1.06186 F540.000
G1 X151.646 Y123.867 E1.12373
G1 X152.151 Y124.622 E1.18559
G1 X152.328 Y125.513 E1.24745
G1 X152.151 Y126.404 E1.30932
G1 X151.646 Y127.160 E1.37118
G1 X150.891 Y127.665 E1.43304
G1 X150.000 Y127.842 E1.49490
G1 X149.109 Y127.665 E1.55677
G1 X148.354 Y127.160 E1.61863
G1 X147.849 Y126.404 E1.68049
G1 X147.672 Y125.513 E1.74235
G1 X147.849 Y124.622 E1.80422
G1 X148.354 Y123.867 E1.86608
G1 X149.109 Y123.362 E1.92794
G1 X149.918 Y123.201 E1.98411
G1 X150.000 Y123.753 F7200.000
G1 X150.674 Y123.887 E2.03088 F540.000
G1 X151.245 Y124.269 E2.07766
G1 X151.626 Y124.840 E2.12443
G1 X151.760 Y125.513 E2.17120
G1 X151.626 Y126.187 E2.21798
G1 X151.245 Y126.758 E2.26475
G1 X150.674 Y127.140 E2.31152
G1 X150.000 Y127.274 E2.35829
G1 X149.326 Y127.140 E2.40506
G1 X148.755 Y126.758 E2.45183
G1 X148.374 Y126.187 E2.49861
G1 X148.240 Y125.513 E2.54538
G1 X148.374 Y124.840 E2.59215
G1 X148.755 Y124.269 E2.63892
G1 X149.326 Y123.887 E2.68569
G1 X149.918 Y123.769 E2.72678
G1 X150.309 Y123.290 F7200.000
G1 X150.312 Y122.679 F7200.000
G1 X150.000 Y122.617 E2.74844 F1080.000
G1 X148.892 Y122.837 E2.82540
G1 X147.952 Y123.465 E2.90235
G1 X147.535 Y124.090 E2.95349
G1 X147.367 Y124.038 E2.96543
G1 X147.357 Y86.445 E5.52526
G1 X147.523 Y86.395 E5.53707
G1 X147.952 Y87.037 E5.58968
G1 X148.892 Y87.665 E5.66663
G1 X150.000 Y87.885 E5.74359
G1 X151.108 Y87.665 E5.82054
G1 X152.048 Y87.037 E5.89749
G1 X152.477 Y86.395 E5.95010
G1 X152.643 Y86.445 E5.96191
G1 X152.633 Y124.038 E8.52174
G1 X152.465 Y124.090 E8.53369
G1 X152.048 Y123.465 E8.58483
G1 X151.108 Y122.837 E8.66178
G1 X150.394 Y122.695 E8.71138
G1 F1800.000 E7.71138
G92 E0
G1 X153.187 Y123.311 F7200.000
G1 E1.00000 F1800.000
G1 X153.201 Y126.438 E1.21291 F1080.000
G1 X152.984 Y127.200 E1.26690
G1 X152.362 Y127.850 E1.32812
G1 X151.308 Y128.341 E1.40732
G1 X150.000 Y128.523 E1.49722
G1 X148.692 Y128.341 E1.58712
G1 X147.638 Y127.850 E1.66632
G1 X147.016 Y127.200 E1.72754
G1 X146.799 Y126.438 E1.78153
G1 X146.813 Y123.311 E1.99444
G1 X146.799 Y83.564 E4.70090
G1 X147.016 Y82.800 E4.75502
G1 X147.638 Y82.150 E4.81624
G1 X148.692 Y81.659 E4.89544
G1 X150.000 Y81.477 E4.98534
G1 X151.308 Y81.659 E5.07524
G1 X152.362 Y82.150 E5.15444
G1 X152.984 Y82.800 E5.21566
G1 X153.201 Y83.564 E5.26977
G1 X153.187 Y123.227 E7.97055
G1 X153.744 Y123.310 F7200.000
G1 X153.758 Y126.514 E8.18875 F540.000
G1 X153.481 Y127.486 E8.25753
G1 X152.692 Y128.310 E8.33527
G1 X151.467 Y128.882 E8.42729
G1 X150.000 Y129.085 E8.52815
G1 X148.533 Y128.882 E8.62902
G1 X147.308 Y128.310 E8.72104
G1 X146.624 Y127.596 E8.78841
G1 X146.550 Y127.596 E8.79345
G1 X146.242 Y126.514 E8.87001
G1 X146.256 Y123.310 E9.08822
G1 X146.241 Y83.486 E11.79989
G1 X146.519 Y82.514 E11.86872
G1 X147.308 Y81.690 E11.94645
G1 X148.533 Y81.118 E12.03848
G1 X150.000 Y80.915 E12.13934
G1 X151.467 Y81.118 E12.24021
G1 X152.692 Y81.690 E12.33223
G1 X153.481 Y82.514 E12.40996
G1 X153.759 Y83.486 E12.47879
G1 X153.744 Y123.226 E15.18478
G1 X153.262 Y123.590 F7200.000
G1 F1800.000 E14.18478
G92 E0
G1 X147.778 Y123.108 F7200.000
G1 E1.00000 F1800.000
G1 X147.760 Y123.091 E1.00169 F1080.000
G1 X148.259 Y122.786 E1.04228
G1 X147.760 Y122.287 E1.09130
G1 X147.760 Y121.483 E1.14711
G1 X148.742 Y122.466 E1.24358
G1 X149.412 Y122.332 E1.29103
G1 X147.760 Y120.680 E1.45333
G1 X147.760 Y119.876 E1.50915
G1 X150.124 Y122.240 E1.74132
G1 X151.127 Y122.439 E1.81234
G1 X147.759 Y119.072 E2.14303
G1 X147.759 Y118.269 E2.19885
G1 X152.240 Y122.749 E2.63888
G1 X152.240 Y121.946 E2.69466
G1 X147.759 Y117.465 E3.13473
G1 X147.759 Y116.661 E3.19055
G1 X152.240 Y121.142 E3.63066
G1 X152.240 Y120.339 E3.68645
G1 X147.759 Y115.857 E4.12661
G1 X147.758 Y115.054 E4.18242
G1 X152.240 Y119.536 E4.62262
G1 X152.241 Y118.733 E4.67840
G1 X147.758 Y114.250 E5.11865
G1 X147.758 Y113.446 E5.17446
G1 X152.241 Y117.929 E5.61475
G1 X152.241 Y117.126 E5.67053
G1 X147.758 Y112.643 E6.11086
G1 X147.757 Y111.839 E6.16667
G1 X152.241 Y116.323 E6.60705
G1 X152.242 Y115.519 E6.66283
G1 X147.757 Y111.035 E7.10324
G1 X147.757 Y110.231 E7.15906
G1 X152.242 Y114.716 E7.59951
G1 X152.242 Y113.913 E7.65530
G1 X147.757 Y109.428 E8.09580
G1 X147.757 Y108.624 E8.15161
G1 X152.242 Y113.110 E8.59216
G1 X152.242 Y112.306 E8.64794
G1 X147.756 Y107.820 E9.08852
G1 X147.756 Y107.017 E9.14434
G1 X152.243 Y111.503 E9.58497
G1 X152.243 Y110.700 E9.64075
G1 X147.756 Y106.213 E10.08142
G1 X147.756 Y105.409 E10.13724
G1 X152.243 Y109.897 E10.57795
G1 X152.243 Y109.093 E10.63373
G1 X147.755 Y104.605 E11.07449
G1 X147.755 Y103.802 E11.13030
G1 X152.244 Y108.290 E11.57110
G1 X152.244 Y107.487 E11.62689
G1 X147.755 Y102.998 E12.06773
G1 X147.755 Y102.194 E12.12354
G1 X152.244 Y106.683 E12.56443
G1 X152.244 Y105.880 E12.62021
G1 X147.755 Y101.391 E13.06114
G1 X147.754 Y100.587 E13.11695
G1 X152.244 Y105.077 E13.55792
G1 X152.245 Y104.274 E13.61371
G1 X147.754 Y99.783 E14.05472
G1 X147.754 Y98.980 E14.11053
G1 X152.245 Y103.470 E14.55159
G1 X152.245 Y102.667 E14.60737
G1 X147.754 Y98.176 E15.04847
G1 X147.754 Y97.372 E15.10428
G1 X152.245 Y101.864 E15.54543
G1 X152.245 Y101.061 E15.60121
G1 X147.753 Y96.568 E16.04239
G1 X147.753 Y95.765 E16.09821
G1 X152.246 Y100.257 E16.53943
G1 X152.246 Y99.454 E16.59522
G1 X147.753 Y94.961 E17.03649
G1 X147.753 Y94.157 E17.09230
G1 X152.246 Y98.651 E17.53361
G1 X152.246 Y97.847 E17.58940
G1 X147.752 Y93.354 E18.03075
G1 X147.752 Y92.550 E18.08657
G1 X152.247 Y97.044 E18.52796
G1 X152.247 Y96.241 E18.58375
G1 X147.752 Y91.746 E19.02519
G1 X147.752 Y90.942 E19.08100
G1 X152.247 Y95.438 E19.52249
G1 X152.247 Y94.634 E19.57827
G1 X147.752 Y90.139 E20.01979
G1 X147.751 Y89.335 E20.07561
G1 X152.247 Y93.831 E20.51718
G1 X152.248 Y93.028 E20.57296
G1 X147.751 Y88.531 E21.01457
G1 X147.751 Y87.728 E21.07039
G1 X152.248 Y92.225 E21.51204
G1 X152.248 Y91.421 E21.56782
G1 X148.894 Y88.067 E21.89728
G1 X149.897 Y88.266 E21.96830
G1 X152.248 Y90.618 E22.19926
G1 X152.249 Y89.815 E22.25505
G1 X150.601 Y88.167 E22.41685
G1 X151.269 Y88.031 E22.46416
G1 X152.249 Y89.011 E22.56041
G1 X152.249 Y88.208 E22.61620
G1 X151.750 Y87.710 E22.66517
G1 X152.232 Y87.388 E22.70540
G1 X152.249 Y87.405 E22.70708
G1 X152.550 Y86.010 F7200.000
G1 X152.526 Y85.987 E22.70829 F360.000
G1 X152.812 Y85.855 E22.71966 F360.000
G1 X152.595 Y85.638 E22.73073 F360.000
G1 X152.812 Y85.437 E22.74141 F360.000
G1 X152.665 Y85.290 E22.74895 F360.000
G1 X152.812 Y85.019 E22.76007 F360.000
G1 X152.710 Y84.917 E22.76528 F360.000
G1 X152.813 Y84.602 E22.77728 F360.000
G1 X152.794 Y84.584 E22.77820 F360.000
G1 X152.344 Y82.954 F7200.000
G1 X151.998 Y82.608 E22.81302 F360.000
G1 X150.806 Y82.241 E22.90197 F360.000
G1 X150.716 Y82.151 E22.91110 F360.000
G1 X149.851 Y82.110 E22.97286 F360.000
G1 X149.817 Y82.077 E22.97627 F360.000
G1 X149.162 Y82.247 E23.02449 F360.000
G1 X149.092 Y82.177 E23.03157 F360.000
G1 X148.590 Y82.500 E23.07414 F360.000
G1 X148.477 Y82.387 E23.08561 F360.000
G1 X148.096 Y82.831 E23.12733 F360.000
G1 X147.937 Y82.672 E23.14331 F360.000
G1 X147.528 Y83.088 E23.18491 F360.000
G1 X147.715 Y83.275 E23.20378 F360.000
G1 X147.367 Y83.752 E23.24589 F360.000
G1 X147.384 Y83.769 E23.24763 F360.000
G1 X147.344 Y84.550 F7200.000
G1 X147.360 Y84.566 E23.24843 F360.000
G1 X147.188 Y84.812 E23.25928 F360.000
G1 X147.290 Y84.915 E23.26453 F360.000
G1 X147.188 Y85.230 E23.27652 F360.000
G1 X147.357 Y85.400 E23.28517 F360.000
G1 X147.188 Y85.648 E23.29605 F360.000
G1 X147.461 Y85.921 E23.31000 F360.000
G1 X147.188 Y86.067 E23.32117 F360.000
G1 X147.206 Y86.085 E23.32209 F360.000
G1 F1800.000 E22.32209
G92 E0
G1 X147.454 Y124.471 F7200.000
G1 E1.00000 F1800.000
G1 X147.478 Y124.495 E1.00126 F360.000
G1 X147.454 Y124.471 F7200.000
G1 X147.196 Y124.651 E1.01318 F360.000
G1 X147.405 Y124.860 E1.02441 F360.000
G1 X147.194 Y125.087 E1.03615 F360.000
G1 X147.333 Y125.226 E1.04359 F360.000
G1 X147.192 Y125.523 E1.05605 F360.000
G1 X147.299 Y125.630 E1.06177 F360.000
G1 X147.190 Y125.959 E1.07491 F360.000
G1 X147.407 Y126.177 E1.08656 F360.000
G1 X147.192 Y126.400 E1.09830 F360.000
G1 X147.754 Y126.961 E1.12835 F360.000
G1 X147.549 Y127.195 E1.14011 F360.000
G1 X147.895 Y127.541 E1.15861 F360.000
G1 X148.552 Y127.760 F7200.000
G1 X148.716 Y127.924 E1.16739 F360.000
G1 F1800.000 E0.16739
G92 E0
G1 X151.162 Y127.951 F7200.000
G1 E1.00000 F1800.000
G1 X151.400 Y127.791 E1.00988 F360.000
G1 X151.454 Y127.845 E1.01246 F360.000
G1 X151.639 Y127.632 E1.02217 F360.000
G1 X151.725 Y127.718 E1.02636 F360.000
G1 X151.878 Y127.472 E1.03631 F360.000
G1 X151.997 Y127.591 E1.04209 F360.000
G1 X152.225 Y127.421 E1.05188 F360.000
G1 X152.053 Y127.250 E1.06021 F360.000
G1 X152.213 Y127.011 E1.07009 F360.000
G1 X152.424 Y127.222 E1.08035 F360.000
G1 X152.619 Y127.019 E1.09004 F360.000
G1 X152.372 Y126.773 E1.10204 F360.000
G1 X152.523 Y126.525 E1.11201 F360.000
G1 X152.717 Y126.719 E1.12143 F360.000
G1 X152.805 Y126.409 E1.13252 F360.000
G1 X152.589 Y126.193 E1.14302 F360.000
G1 X152.811 Y126.016 E1.15277 F360.000
G1 X152.655 Y125.861 E1.16031 F360.000
G1 X152.809 Y125.616 E1.17026 F360.000
G1 X152.721 Y125.529 E1.17450 F360.000
G1 X152.807 Y125.216 E1.18566 F360.000
G1 X152.630 Y125.040 E1.19425 F360.000
G1 X152.805 Y124.816 E1.20402 F360.000
G1 X152.531 Y124.543 E1.21733 F360.000
G1 X152.785 Y124.398 E1.22738 F360.000
G1 X152.803 Y124.416 E1.22826 F360.000
G1 F1800.000 E0.22826
G92 E0
G1 X151.162 Y127.951 F7200.000
G1 E1.00000 F1800.000
G1 X151.178 Y127.967 E1.00078 F360.000
M106 S255
G1 F1800.000 E0.00078
G92 E0
G1 Z0.500 F7200.000
G1 X150.000 Y87.463 F7200.000
G1 E1.00000 F1800.000
G1 X149.053 Y87.275 E1.03147 F973.108
G1 X148.250 Y86.738 E1.06293
G1 X147.714 Y85.936 E1.09440
G1 X147.526 Y84.989 E1.12586
G1 X147.714 Y84.042 E1.15733
G1 X148.251 Y83.239 E1.18880
G1 X149.053 Y82.703 E1.22026
G1 X150.000 Y82.515 E1.25173
G1 X150.947 Y82.703 E1.28319
G1 X151.750 Y83.239 E1.31466
G1 X152.286 Y84.042 E1.34613
G1 X152.474 Y84.989 E1.37759
G1 X152.286 Y85.936 E1.40906
G1 X151.749 Y86.738 E1.44053
G1 X150.947 Y87.275 E1.47199
G1 X150.059 Y87.451 E1.50150
G1 X150.000 Y87.055 F7200.000
G1 X149.209 Y86.898 E1.52778 F973.108
G1 X148.539 Y86.450 E1.55406
G1 X148.091 Y85.780 E1.58034
G1 X147.934 Y84.989 E1.60662
G1 X148.091 Y84.198 E1.63290
G1 X148.539 Y83.528 E1.65918
G1 X149.209 Y83.080 E1.68546
G1 X150.000 Y82.923 E1.71174
G1 X150.791 Y83.080 E1.73802
G1 X151.461 Y83.528 E1.76430
G1 X151.909 Y84.198 E1.79058
G1 X152.066 Y84.989 E1.81685
G1 X151.909 Y85.780 E1.84313
G1 X151.461 Y86.450 E1.86941
G1 X150.791 Y86.898 E1.89569
G1 X150.059 Y87.043 E1.92002
G1 X150.000 Y86.647 F7200.000
G1 X149.365 Y86.521 E1.94111 F973.108
G1 X148.827 Y86.162 E1.96220
G1 X148.468 Y85.624 E1.98329
G1 X148.342 Y84.989 E2.00439
G1 X148.468 Y84.354 E2.02548
G1 X148.827 Y83.816 E2.04657
G1 X149.365 Y83.457 E2.06766
G1 X150.000 Y83.330 E2.08875
G1 X150.635 Y83.457 E2.10985
G1 X151.173 Y83.816 E2.13094
G1 X151.532 Y84.354 E2.15203
G1 X151.658 Y84.989 E2.17313
G1 X151.532 Y85.624 E2.19422
G1 X151.173 Y86.162 E2.21531
G1 X150.635 Y86.521 E2.23640
G1 X150.059 Y86.636 E2.25554
G1 X149.778 Y86.980 F7200.000
G1 F1800.000 E1.25554
G92 E0
G1 X150.000 Y123.039 F7200.000
G1 E1.00000 F1800.000
G1 X150.947 Y123.228 E1.03147 F973.108
G1 X151.749 Y123.764 E1.06293
G1 X152.286 Y124.567 E1.09440
G1 X152.474 Y125.513 E1.12587
G1 X152.286 Y126.460 E1.15733
G1 X151.749 Y127.263 E1.18880
G1 X150.947 Y127.799 E1.22026
G1 X150.000 Y127.987 E1.25173
G1 X149.053 Y127.799 E1.28320
G1 X148.250 Y127.263 E1.31466
G1 X147.714 Y126.460 E1.34613
G1 X147.526 Y125.513 E1.37759
G1 X147.714 Y124.566 E1.40906
G1 X148.251 Y123.764 E1.44053
G1 X149.053 Y123.228 E1.47199
G1 X149.941 Y123.051 E1.50150
G1 X150.000 Y123.447 F7200.000
G1 X150.791 Y123.604 E1.52778 F973.108
G1 X151.461 Y124.052 E1.55406
G1 X151.909 Y124.723 E1.58034
G1 X152.066 Y125.513 E1.60662
G1 X151.909 Y126.304 E1.63290
G1 X151.461 Y126.974 E1.65918
G1 X150.791 Y127.422 E1.68546
G1 X150.000 Y127.580 E1.71174
G1 X149.209 Y127.422 E1.73802
G1 X148.539 Y126.974 E1.76430
G1 X148.091 Y126.304 E1.79058
G1 X147.934 Y125.513 E1.81685
G1 X148.091 Y124.723 E1.84313
G1 X148.539 Y124.052 E1.86941
G1 X149.209 Y123.604 E1.89569
G1 X149.941 Y123.459 E1.92001
G1 X150.000 Y123.855 F7200.000
G1 X150.635 Y123.981 E1.94111 F973.108
G1 X151.173 Y124.341 E1.96220
G1 X151.532 Y124.879 E1.98329
G1 X151.658 Y125.513 E2.00439
G1 X151.532 Y126.148 E2.02548
