; generated by Slic3r 1.0.0RC3 on 2014-03-03 at 10:57:34

; layer_height = 0.2
; perimeters = 3
; top_solid_layers = 3
; bottom_solid_layers = 3
; fill_density = 0.20
; perimeter_speed = 60
; infill_speed = 60
; travel_speed = 120
; nozzle_diameter = 0.4
; filament_diameter = 1.75
; extrusion_multiplier = 0.98
; perimeters extrusion width = 0.40mm
; infill extrusion width = 0.67mm
; solid infill extrusion width = 0.67mm
; top infill extrusion width = 0.67mm
; first layer extrusion width = 0.60mm

G21 ; set units to millimeters
M107
M104 S220 ; set temperature
G28 ; home all axes
M106 S255;
G1 Z200 F1200 ; lift nozzle
M109 S220 ; wait for temperature to be reached
G90 ; use absolute coordinates
G92 E0
M82 ; use absolute distances for extrusion
G1 F1800.000 E-1.00000
G92 E0
G1 Z0.300 F7200.000
G1 X108.988 Y71.512 F7200.000
G1 E1.00000 F1800.000
G1 X110.018 Y70.492 E1.09871 F1080.000
G1 X111.248 Y69.732 E1.19716
G1 X112.618 Y69.262 E1.29578
G1 X114.058 Y69.102 E1.39444
G1 X185.928 Y69.102 E6.28824
G1 X187.368 Y69.262 E6.38689
G1 X188.738 Y69.732 E6.48552
G1 X189.968 Y70.492 E6.58397
G1 X190.998 Y71.502 E6.68220
G1 X191.788 Y72.722 E6.78117
G1 X192.288 Y74.072 E6.87919
G1 X194.468 Y82.812 E7.49255
G1 X194.618 Y83.602 E7.54731
G1 X194.668 Y84.402 E7.60189
G1 X194.668 Y109.662 E9.32190
G1 X194.548 Y112.872 E9.54063
G1 X193.798 Y126.812 E10.49121
G1 X193.678 Y127.742 E10.55506
G1 X193.358 Y129.352 E10.66684
G1 X192.988 Y130.572 E10.75365
G1 X192.388 Y131.702 E10.84076
G1 X191.478 Y133.072 E10.95276
G1 X190.658 Y134.072 E11.04081
G1 X189.668 Y134.892 E11.12835
G1 X188.308 Y135.802 E11.23977
G1 X187.168 Y136.412 E11.32781
G1 X185.938 Y136.782 E11.41527
G1 X184.328 Y137.102 E11.52704
G1 X183.688 Y137.202 E11.57115
G1 X183.048 Y137.232 E11.61478
G1 X116.948 Y137.232 E16.11569
G1 X116.308 Y137.202 E16.15931
G1 X115.668 Y137.102 E16.20342
G1 X114.058 Y136.782 E16.31519
G1 X112.838 Y136.412 E16.40200
G1 X111.708 Y135.812 E16.48912
G1 X110.338 Y134.902 E16.60111
G1 X109.328 Y134.082 E16.68970
G1 X108.508 Y133.072 E16.77828
G1 X107.598 Y131.702 E16.89027
G1 X106.998 Y130.572 E16.97739
G1 X106.628 Y129.352 E17.06420
G1 X106.308 Y127.742 E17.17598
G1 X106.188 Y126.812 E17.23983
G1 X105.438 Y112.872 E18.19041
G1 X105.328 Y109.662 E18.40911
G1 X105.328 Y84.402 E20.12913
G1 X105.378 Y83.602 E20.18371
G1 X105.528 Y82.822 E20.23779
G1 X107.698 Y74.082 E20.85099
G1 X108.198 Y72.722 E20.94965
G1 X108.942 Y71.582 E21.04236
G1 F1800.000 E20.04236
G92 E0
G1 X178.910 Y77.945 F7200.000
G1 E1.00000 F1800.000
G1 X179.009 Y77.445 E1.03469 F540.000
G1 X179.292 Y77.022 E1.06939
G1 X179.716 Y76.738 E1.10408
G1 X180.216 Y76.639 E1.13878
G1 X180.715 Y76.738 E1.17347
G1 X181.139 Y77.022 E1.20817
G1 X181.422 Y77.445 E1.24287
G1 X181.522 Y77.945 E1.27756
G1 X181.422 Y78.445 E1.31226
G1 X181.139 Y78.868 E1.34695
G1 X180.715 Y79.151 E1.38165
G1 X180.216 Y79.251 E1.41634
G1 X179.716 Y79.151 E1.45104
G1 X179.292 Y78.868 E1.48573
G1 X179.009 Y78.445 E1.52043
G1 X178.926 Y78.027 E1.54943
G1 X178.486 Y77.662 F7200.000
G1 F1800.000 E0.54943
G92 E0
G1 X121.090 Y77.945 F7200.000
G1 E1.00000 F1800.000
G1 X120.991 Y78.445 E1.03469 F540.000
G1 X120.708 Y78.868 E1.06939
G1 X120.284 Y79.151 E1.10408
G1 X119.784 Y79.251 E1.13878
G1 X119.285 Y79.151 E1.17347
G1 X118.861 Y78.868 E1.20817
G1 X118.578 Y78.445 E1.24286
G1 X118.478 Y77.945 E1.27756
G1 X118.578 Y77.445 E1.31225
G1 X118.861 Y77.022 E1.34695
G1 X119.285 Y76.738 E1.38164
G1 X119.784 Y76.639 E1.41634
G1 X120.284 Y76.738 E1.45103
G1 X120.708 Y77.022 E1.48573
G1 X120.991 Y77.445 E1.52042
G1 X121.074 Y77.863 E1.54943
G1 X121.514 Y78.228 F7200.000
G1 F1800.000 E0.54943
G92 E0
G1 X173.471 Y92.106 F7200.000
G1 E1.00000 F1800.000
G1 X175.689 Y89.782 E1.21870 F540.000
G1 X177.777 Y88.498 E1.38565
G1 X180.161 Y88.465 E1.54798
G1 X182.545 Y88.498 E1.71031
G1 X184.645 Y89.789 E1.87816
G1 X186.512 Y92.121 E2.08158
G1 X186.512 Y100.785 E2.67154
G1 X185.374 Y102.784 E2.82821
G1 X184.447 Y103.565 E2.91072
G1 X183.554 Y104.140 E2.98308
G1 X182.548 Y104.379 E3.05347
G1 X181.471 Y104.488 E3.12715
G1 X180.161 Y104.436 E3.21646
G1 X178.850 Y104.488 E3.30577
G1 X177.774 Y104.379 E3.37945
G1 X176.768 Y104.140 E3.44984
G1 X175.874 Y103.565 E3.52219
G1 X174.962 Y102.797 E3.60340
G1 X173.471 Y100.805 E3.77280
G1 X173.471 Y92.189 E4.35948
G1 X173.185 Y91.628 F7200.000
G1 F1800.000 E3.35948
G92 E0
G1 X126.444 Y92.109 F7200.000
G1 E1.00000 F1800.000
G1 X126.444 Y100.798 E1.59162 F540.000
G1 X125.039 Y102.860 E1.76154
G1 X124.120 Y103.569 E1.84056
G1 X123.232 Y104.140 E1.91247
G1 X122.226 Y104.379 E1.98286
G1 X121.150 Y104.488 E2.05654
G1 X119.839 Y104.436 E2.14585
G1 X118.529 Y104.488 E2.23516
G1 X117.452 Y104.379 E2.30884
G1 X116.858 Y104.238 E2.35040
G1 X116.858 Y104.405 E2.36176
G1 X115.558 Y103.569 E2.46702
G1 X114.627 Y102.851 E2.54703
G1 X113.488 Y100.783 E2.70785
G1 X113.488 Y92.121 E3.29767
G1 X115.355 Y89.789 E3.50108
G1 X117.455 Y88.498 E3.66893
G1 X119.839 Y88.465 E3.83127
G1 X122.223 Y88.498 E3.99360
G1 X124.314 Y89.784 E4.16076
G1 X126.388 Y92.048 E4.36981
G1 X126.980 Y92.261 F7200.000
G1 F1800.000 E3.36981
G92 E0
G1 X178.923 Y106.663 F7200.000
G1 E1.00000 F1800.000
G1 X179.206 Y106.240 E1.03469 F540.000
G1 X179.630 Y105.957 E1.06939
G1 X180.130 Y105.857 E1.10408
G1 X180.629 Y105.957 E1.13878
G1 X181.053 Y106.240 E1.17347
G1 X181.336 Y106.663 E1.20817
G1 X181.436 Y107.163 E1.24286
G1 X181.336 Y107.663 E1.27756
G1 X181.053 Y108.086 E1.31225
G1 X180.629 Y108.370 E1.34695
G1 X180.130 Y108.469 E1.38164
G1 X179.630 Y108.370 E1.41634
G1 X179.206 Y108.086 E1.45103
G1 X178.923 Y107.663 E1.48573
G1 X178.824 Y107.163 E1.52042
G1 X178.907 Y106.745 E1.54943
G1 X178.640 Y106.240 F7200.000
G1 F1800.000 E0.54943
G92 E0
G1 X121.176 Y107.163 F7200.000
G1 E1.00000 F1800.000
G1 X121.077 Y107.663 E1.03470 F540.000
G1 X120.794 Y108.086 E1.06939
G1 X120.370 Y108.370 E1.10409
G1 X119.870 Y108.469 E1.13878
G1 X119.371 Y108.370 E1.17347
G1 X118.947 Y108.086 E1.20817
G1 X118.664 Y107.663 E1.24286
G1 X118.564 Y107.163 E1.27756
G1 X118.664 Y106.663 E1.31225
G1 X118.947 Y106.240 E1.34695
G1 X119.371 Y105.957 E1.38164
G1 X119.870 Y105.857 E1.41634
G1 X120.370 Y105.957 E1.45103
G1 X120.794 Y106.240 E1.48573
G1 X121.077 Y106.663 E1.52042
G1 X121.160 Y107.081 E1.54943
G1 X121.600 Y107.446 F7200.000
G1 F1800.000 E0.54943
G92 E0
G1 X180.961 Y125.625 F7200.000
G1 E1.00000 F1800.000
G1 X181.451 Y124.892 E1.06004 F540.000
G1 X182.184 Y124.403 E1.12007
G1 X183.049 Y124.231 E1.18010
G1 X183.913 Y124.403 E1.24012
G1 X184.647 Y124.892 E1.30016
G1 X185.136 Y125.625 E1.36020
G1 X185.308 Y126.490 E1.42023
G1 X185.136 Y127.355 E1.48026
G1 X184.647 Y128.088 E1.54030
G1 X183.913 Y128.578 E1.60033
G1 X183.049 Y128.750 E1.66036
G1 X182.184 Y128.578 E1.72039
G1 X181.451 Y128.088 E1.78042
G1 X180.961 Y127.355 E1.84045
G1 X180.789 Y126.490 E1.90049
G1 X180.945 Y125.707 E1.95484
G1 X181.486 Y125.843 F7200.000
G1 X181.853 Y125.294 E1.99978 F540.000
G1 X182.402 Y124.927 E2.04472
G1 X183.049 Y124.799 E2.08966
G1 X183.696 Y124.927 E2.13460
G1 X184.245 Y125.294 E2.17954
G1 X184.612 Y125.843 E2.22449
G1 X184.740 Y126.490 E2.26943
G1 X184.612 Y127.138 E2.31437
G1 X184.245 Y127.686 E2.35932
G1 X183.696 Y128.053 E2.40426
G1 X183.049 Y128.182 E2.44920
G1 X182.402 Y128.053 E2.49413
G1 X181.853 Y127.686 E2.53908
G1 X181.486 Y127.138 E2.58402
G1 X181.357 Y126.490 E2.62897
G1 X181.470 Y125.925 E2.66822
G1 X181.177 Y125.380 F7200.000
G1 F1800.000 E1.66822
G92 E0
G1 X119.211 Y126.490 F7200.000
G1 E1.00000 F1800.000
G1 X119.039 Y127.355 E1.06003 F540.000
G1 X118.549 Y128.088 E1.12007
G1 X117.816 Y128.578 E1.18010
G1 X116.951 Y128.750 E1.24013
G1 X116.087 Y128.578 E1.30016
G1 X115.353 Y128.088 E1.36019
G1 X114.864 Y127.355 E1.42023
G1 X114.692 Y126.490 E1.48026
G1 X114.864 Y125.625 E1.54030
G1 X115.353 Y124.892 E1.60033
G1 X116.087 Y124.403 E1.66037
G1 X116.951 Y124.231 E1.72040
G1 X117.816 Y124.403 E1.78042
G1 X118.549 Y124.892 E1.84046
G1 X119.039 Y125.625 E1.90049
G1 X119.194 Y126.408 E1.95484
G1 X118.643 Y126.490 F7200.000
G1 X118.514 Y127.138 E1.99978 F540.000
G1 X118.147 Y127.686 E2.04473
G1 X117.598 Y128.053 E2.08967
G1 X116.951 Y128.182 E2.13461
G1 X116.304 Y128.053 E2.17954
G1 X115.755 Y127.686 E2.22449
G1 X115.388 Y127.138 E2.26943
G1 X115.260 Y126.490 E2.31437
G1 X115.388 Y125.843 E2.35932
G1 X115.755 Y125.294 E2.40426
G1 X116.304 Y124.927 E2.44921
G1 X116.951 Y124.799 E2.49414
G1 X117.598 Y124.927 E2.53908
G1 X118.147 Y125.294 E2.58402
G1 X118.514 Y125.843 E2.62897
G1 X118.626 Y126.408 E2.66822
G1 X119.106 Y126.800 F7200.000
G1 X119.660 Y125.552 F7200.000
G1 X118.950 Y124.491 E2.75517 F1080.000
G1 X118.033 Y123.878 E2.83029
G1 X116.951 Y123.663 E2.90541
G1 X115.869 Y123.878 E2.98053
G1 X114.952 Y124.491 E3.05566
G1 X114.328 Y125.424 E3.13211
G1 X114.161 Y125.374 E3.14399
G1 X114.190 Y112.456 E4.02355
G1 X113.384 Y111.822 E4.09338
G1 X113.302 Y109.644 E4.24178
G1 X113.302 Y103.237 E4.67805
G1 X114.916 Y104.480 E4.81675
G1 X117.617 Y106.217 E5.03542
G1 X117.428 Y107.163 E5.10110
G1 X117.614 Y108.098 E5.16598
G1 X118.144 Y108.890 E5.23085
G1 X118.936 Y109.419 E5.29573
G1 X119.870 Y109.605 E5.36061
G1 X120.805 Y109.419 E5.42548
G1 X121.597 Y108.890 E5.49036
G1 X122.126 Y108.098 E5.55524
G1 X122.312 Y107.163 E5.62011
G1 X122.126 Y106.229 E5.68499
G1 X121.676 Y105.555 E5.74017
G1 X122.412 Y105.480 E5.79056
G1 X123.675 Y105.180 E5.87893
G1 X124.763 Y104.480 E5.96700
G1 X125.860 Y103.634 E6.06134
G1 X126.469 Y102.741 E6.13492
G1 X126.630 Y102.791 E6.14642
G1 X126.630 Y109.169 E6.58073
G1 X124.967 Y111.219 E6.76048
G1 X120.631 Y111.928 E7.05964
G1 X119.799 Y125.515 E7.98654
G1 X119.741 Y125.531 E7.99069
G1 X120.306 Y126.361 F7200.000
G1 X120.030 Y127.746 E8.08690 F1080.000
G1 X119.308 Y128.828 E8.17544
G1 X118.226 Y129.550 E8.26399
G1 X116.951 Y129.804 E8.35253
G1 X115.676 Y129.550 E8.44107
G1 X114.595 Y128.828 E8.52961
G1 X113.872 Y127.746 E8.61816
G1 X113.602 Y126.388 E8.71250
G1 X113.632 Y112.726 E9.64274
G1 X112.837 Y112.100 E9.71163
G1 X112.745 Y109.655 E9.87828
G1 X112.745 Y101.024 E10.46595
G1 X112.955 Y100.970 E10.48071
G1 X114.195 Y103.222 E10.65578
G1 X115.237 Y104.024 E10.74531
G1 X117.415 Y105.425 E10.92167
G1 X117.415 Y104.935 E10.95503
G1 X118.511 Y105.046 E11.03004
G1 X119.451 Y105.009 E11.09411
G1 X119.511 Y105.193 E11.10724
G1 X118.545 Y105.838 E11.18633
G1 X118.139 Y106.446 E11.23612
G1 X117.996 Y107.163 E11.28590
G1 X118.139 Y107.880 E11.33569
G1 X118.545 Y108.488 E11.38547
G1 X119.153 Y108.894 E11.43526
G1 X119.870 Y109.037 E11.48505
G1 X120.587 Y108.894 E11.53483
G1 X121.195 Y108.488 E11.58462
G1 X121.602 Y107.880 E11.63440
G1 X121.744 Y107.163 E11.68419
G1 X121.602 Y106.446 E11.73397
G1 X121.195 Y105.838 E11.78376
G1 X120.233 Y105.195 E11.86253
G1 X120.293 Y105.012 E11.87567
G1 X121.167 Y105.046 E11.93521
G1 X122.319 Y104.930 E12.01408
G1 X123.453 Y104.660 E12.09346
G1 X124.441 Y104.024 E12.17345
G1 X125.450 Y103.247 E12.26013
G1 X127.026 Y100.934 E12.45072
G1 X127.187 Y100.984 E12.46222
G1 X127.187 Y109.367 E13.03304
G1 X125.266 Y111.735 E13.24068
G1 X121.160 Y112.406 E13.52398
G1 X120.311 Y126.277 E14.47029
G1 F1800.000 E13.47029
G92 E0
G1 X173.285 Y109.169 F7200.000
G1 E1.00000 F1800.000
G1 X173.285 Y102.651 E1.44387 F1080.000
G1 X173.426 Y102.604 E1.45394
G1 X174.147 Y103.567 E1.53585
G1 X175.212 Y104.463 E1.63063
G1 X176.325 Y105.180 E1.72080
G1 X177.588 Y105.480 E1.80917
G1 X178.324 Y105.555 E1.85955
G1 X177.874 Y106.229 E1.91474
G1 X177.688 Y107.163 E1.97961
G1 X177.874 Y108.098 E2.04449
G1 X178.403 Y108.890 E2.10936
G1 X179.195 Y109.419 E2.17424
G1 X180.130 Y109.605 E2.23912
G1 X181.064 Y109.419 E2.30399
G1 X181.856 Y108.890 E2.36887
G1 X182.386 Y108.098 E2.43375
G1 X182.572 Y107.163 E2.49862
G1 X182.386 Y106.229 E2.56350
G1 X181.939 Y105.561 E2.61820
G1 X182.734 Y105.480 E2.67259
G1 X183.997 Y105.180 E2.76095
G1 X185.110 Y104.463 E2.85112
G1 X186.698 Y103.127 E2.99245
G1 X186.698 Y109.644 E3.43624
G1 X186.616 Y111.822 E3.58464
G1 X185.810 Y112.456 E3.65446
G1 X185.839 Y125.374 E4.53403
G1 X185.672 Y125.424 E4.54591
G1 X185.048 Y124.491 E4.62236
G1 X184.131 Y123.878 E4.69749
G1 X183.049 Y123.663 E4.77261
G1 X181.967 Y123.878 E4.84773
G1 X181.050 Y124.491 E4.92285
G1 X180.340 Y125.552 E5.00980
G1 X180.201 Y125.515 E5.01964
G1 X179.369 Y111.924 E5.94682
G1 X174.947 Y111.217 E6.25175
G1 X173.338 Y109.234 E6.42562
G1 X172.728 Y109.367 F7200.000
G1 X172.728 Y100.977 E6.99690 F1080.000
G1 X172.869 Y100.930 E7.00698
G1 X174.554 Y103.182 E7.19849
G1 X175.543 Y104.014 E7.28649
G1 X176.547 Y104.660 E7.36775
G1 X177.681 Y104.930 E7.44713
G1 X178.833 Y105.046 E7.52600
G1 X179.707 Y105.012 E7.58554
G1 X179.767 Y105.195 E7.59868
G1 X178.805 Y105.838 E7.67745
G1 X178.398 Y106.446 E7.72723
G1 X178.256 Y107.163 E7.77702
G1 X178.398 Y107.880 E7.82680
G1 X178.805 Y108.488 E7.87659
G1 X179.413 Y108.894 E7.92637
G1 X180.130 Y109.037 E7.97616
G1 X180.847 Y108.894 E8.02595
G1 X181.455 Y108.488 E8.07573
G1 X181.861 Y107.880 E8.12552
G1 X182.004 Y107.163 E8.17530
G1 X181.861 Y106.446 E8.22509
G1 X181.455 Y105.838 E8.27487
G1 X180.489 Y105.193 E8.35397
G1 X180.549 Y105.009 E8.36710
G1 X181.489 Y105.046 E8.43117
G1 X182.641 Y104.930 E8.51004
G1 X183.775 Y104.660 E8.58942
G1 X184.779 Y104.014 E8.67067
G1 X185.809 Y103.147 E8.76241
G1 X187.053 Y100.962 E8.93357
G1 X187.255 Y101.015 E8.94783
G1 X187.255 Y109.655 E9.53609
G1 X187.163 Y112.100 E9.70274
G1 X186.368 Y112.726 E9.77163
G1 X186.398 Y126.387 E10.70186
G1 X186.128 Y127.746 E10.79620
G1 X185.405 Y128.828 E10.88475
G1 X184.324 Y129.550 E10.97330
G1 X183.049 Y129.804 E11.06184
G1 X181.774 Y129.550 E11.15037
G1 X180.692 Y128.828 E11.23892
G1 X179.970 Y127.746 E11.32747
G1 X179.694 Y126.361 E11.42367
G1 X178.840 Y112.403 E12.37584
G1 X174.648 Y111.734 E12.66488
G1 X172.781 Y109.432 E12.86672
G1 F1800.000 E11.86672
G92 E0
G1 X172.357 Y94.594 F7200.000
G1 E1.00000 F1800.000
G1 X151.600 Y94.594 E2.41336 F1080.000
G1 X151.562 Y96.883 E2.56924
G1 X151.564 Y124.738 E4.46601
G1 X148.244 Y124.738 E4.69208
G1 X148.223 Y105.789 E5.98239
G1 X139.742 Y105.789 E6.55990
G1 X139.742 Y98.225 E7.07496
G1 X148.305 Y98.225 E7.65805
G1 X148.128 Y94.594 E7.90561
G1 X127.558 Y94.594 E9.30626
G1 X127.558 Y92.342 E9.45961
G1 X172.357 Y92.341 E12.51004
G1 X172.357 Y94.510 E12.65770
G1 F1800.000 E11.65770
G92 E0
G1 X173.525 Y90.435 F7200.000
G1 E1.00000 F1800.000
G1 X173.383 Y90.366 E1.01077 F1080.000
G1 X175.273 Y77.076 E1.92487
G1 X177.947 Y77.076 E2.10690
G1 X177.774 Y77.945 E2.16724
G1 X177.960 Y78.879 E2.23211
G1 X178.489 Y79.672 E2.29699
G1 X179.281 Y80.201 E2.36187
G1 X180.216 Y80.387 E2.42675
G1 X181.150 Y80.201 E2.49162
G1 X181.942 Y79.672 E2.55650
G1 X182.472 Y78.879 E2.62137
G1 X182.658 Y77.945 E2.68625
G1 X182.485 Y77.076 E2.74659
G1 X184.832 Y77.076 E2.90640
G1 X186.698 Y84.584 E3.43323
G1 X186.698 Y90.370 E3.82716
G1 X186.572 Y90.414 E3.83622
G1 X185.393 Y88.942 E3.96467
G1 X182.751 Y87.317 E4.17582
G1 X182.751 Y87.387 E4.18055
G1 X180.161 Y87.351 E4.35696
G1 X177.455 Y87.388 E4.54123
G1 X174.982 Y88.909 E4.73889
G1 X173.583 Y90.375 E4.87690
G1 F1800.000 E3.87690
G92 E0
G1 X126.528 Y90.314 F7200.000
G1 E1.00000 F1800.000
G1 X126.377 Y90.386 E1.01144 F1080.000
G1 X125.030 Y88.916 E1.14714
G1 X122.545 Y87.388 E1.34579
G1 X119.839 Y87.351 E1.53007
G1 X117.133 Y87.388 E1.71434
G1 X114.607 Y88.942 E1.91627
G1 X113.428 Y90.414 E2.04471
G1 X113.302 Y90.370 E2.05378
G1 X113.302 Y84.584 E2.44770
G1 X115.168 Y77.076 E2.97454
G1 X117.515 Y77.076 E3.13435
G1 X117.342 Y77.945 E3.19468
G1 X117.528 Y78.879 E3.25956
G1 X118.058 Y79.672 E3.32444
G1 X118.850 Y80.201 E3.38931
G1 X119.784 Y80.387 E3.45419
G1 X120.719 Y80.201 E3.51906
G1 X121.511 Y79.672 E3.58394
G1 X122.040 Y78.879 E3.64882
G1 X122.226 Y77.945 E3.71369
G1 X122.053 Y77.076 E3.77403
G1 X124.642 Y77.076 E3.95033
G1 X126.517 Y90.231 E4.85517
G1 X126.572 Y91.424 F7200.000
G1 X124.672 Y89.350 E5.04670 F1080.000
G1 X122.384 Y87.943 E5.22961
G1 X119.839 Y87.908 E5.40291
G1 X117.294 Y87.943 E5.57622
G1 X114.981 Y89.365 E5.76110
G1 X112.871 Y92.000 E5.99097
G1 X112.745 Y91.956 E6.00004
