; generated by Slic3r 1.0.0RC3 on 2014-03-03 at 10:58:01

; layer_height = 0.2
; perimeters = 3
; top_solid_layers = 3
; bottom_solid_layers = 3
; fill_density = 0.20
; perimeter_speed = 60
; infill_speed = 60
; travel_speed = 120
; nozzle_diameter = 0.4
; filament_diameter = 1.75
; extrusion_multiplier = 0.98
; perimeters extrusion width = 0.40mm
; infill extrusion width = 0.67mm
; solid infill extrusion width = 0.67mm
; top infill extrusion width = 0.67mm
; first layer extrusion width = 0.60mm

G21 ; set units to millimeters
M107
M104 S220 ; set temperature
G28 ; home all axes
M106 S255;
G1 Z200 F1200 ; lift nozzle
M109 S220 ; wait for temperature to be reached
G90 ; use absolute coordinates
G92 E0
M82 ; use absolute distances for extrusion
G1 F1800.000 E-1.00000
G92 E0
G1 Z0.300 F7200.000
G1 X127.349 Y76.989 F7200.000
G1 E1.00000 F1800.000
G1 X128.049 Y75.929 E1.08650 F1080.000
G1 X128.939 Y75.029 E1.17268
G1 X129.409 Y74.639 E1.21427
G1 X130.519 Y73.899 E1.30511
G1 X131.759 Y73.399 E1.39615
G1 X149.439 Y68.239 E2.65025
G1 X150.349 Y68.039 E2.71369
G1 X151.279 Y67.969 E2.77720
G1 X167.289 Y67.969 E3.86736
G1 X168.569 Y68.099 E3.95496
G1 X169.799 Y68.469 E4.04242
G1 X170.929 Y69.079 E4.12986
G1 X171.929 Y69.889 E4.21749
G1 X172.739 Y70.889 E4.30512
G1 X173.349 Y72.019 E4.39256
G1 X173.719 Y73.249 E4.48002
G1 X173.849 Y74.529 E4.56763
G1 X173.849 Y110.459 E7.01419
G1 X173.719 Y111.739 E7.10179
G1 X173.349 Y112.969 E7.18925
G1 X172.739 Y114.099 E7.27669
G1 X171.929 Y115.089 E7.36379
G1 X153.189 Y133.859 E9.16985
G1 X149.779 Y137.199 E9.49487
G1 X147.939 Y138.829 E9.66225
G1 X147.349 Y139.289 E9.71319
G1 X146.719 Y139.679 E9.76364
G1 X144.009 Y141.149 E9.97357
G1 X142.529 Y141.739 E10.08206
G1 X140.959 Y141.949 E10.18992
G1 X134.239 Y142.029 E10.64753
G1 X133.399 Y141.979 E10.70483
G1 X132.569 Y141.829 E10.76226
G1 X132.009 Y141.689 E10.80157
G1 X130.639 Y141.179 E10.90111
G1 X129.409 Y140.379 E11.00102
G1 X128.939 Y139.989 E11.04261
G1 X128.049 Y139.089 E11.12879
G1 X127.349 Y138.029 E11.21529
G1 X127.039 Y137.449 E11.26007
G1 X126.609 Y136.459 E11.33357
G1 X126.349 Y135.409 E11.40722
G1 X126.239 Y134.729 E11.45413
G1 X126.149 Y133.679 E11.52589
G1 X126.149 Y81.339 E15.08984
G1 X126.239 Y80.289 E15.16160
G1 X126.349 Y79.609 E15.20851
G1 X126.609 Y78.559 E15.28216
G1 X127.039 Y77.569 E15.35566
G1 X127.309 Y77.063 E15.39475
G1 F1800.000 E14.39475
G92 E0
G1 X157.653 Y78.364 F7200.000
G1 E1.00000 F1800.000
G1 X157.760 Y77.829 E1.03715 F540.000
G1 X158.063 Y77.375 E1.07430
G1 X158.516 Y77.072 E1.11145
G1 X159.052 Y76.966 E1.14860
G1 X159.587 Y77.072 E1.18576
G1 X160.040 Y77.375 E1.22291
G1 X160.343 Y77.829 E1.26006
G1 X160.450 Y78.364 E1.29721
G1 X160.343 Y78.899 E1.33436
G1 X160.040 Y79.353 E1.37151
G1 X159.587 Y79.656 E1.40866
G1 X159.052 Y79.762 E1.44581
G1 X158.516 Y79.656 E1.48297
G1 X158.063 Y79.353 E1.52012
G1 X157.760 Y78.899 E1.55727
G1 X157.669 Y78.446 E1.58873
G1 X157.200 Y78.061 F7200.000
G1 F1800.000 E0.58873
G92 E0
G1 X152.621 Y80.756 F7200.000
G1 E1.00000 F1800.000
G1 X165.969 Y80.756 E1.90888 F540.000
G1 X165.969 Y105.390 E3.58626
G1 X152.621 Y105.412 E4.49514
G1 X152.621 Y80.840 E6.16830
G1 X152.621 Y80.199 F7200.000
G1 F1800.000 E5.16830
G92 E0
G1 X158.638 Y106.342 F7200.000
G1 E1.00000 F1800.000
G1 X159.173 Y106.236 E1.03715 F540.000
G1 X159.708 Y106.342 E1.07430
G1 X160.162 Y106.645 E1.11145
G1 X160.465 Y107.099 E1.14861
G1 X160.572 Y107.634 E1.18576
G1 X160.465 Y108.169 E1.22291
G1 X160.162 Y108.623 E1.26006
G1 X159.708 Y108.926 E1.29721
G1 X159.173 Y109.032 E1.33436
G1 X158.638 Y108.926 E1.37151
G1 X158.185 Y108.623 E1.40866
G1 X157.881 Y108.169 E1.44582
G1 X157.775 Y107.634 E1.48296
G1 X157.881 Y107.099 E1.52012
G1 X158.185 Y106.645 E1.55727
G1 X158.569 Y106.388 E1.58873
G1 X158.745 Y105.807 F7200.000
G1 F1800.000 E0.58873
G92 E0
G1 X138.244 Y120.618 F7200.000
G1 E1.00000 F1800.000
G1 X138.749 Y121.374 E1.06186 F540.000
G1 X138.926 Y122.265 E1.12373
G1 X138.749 Y123.156 E1.18559
G1 X138.244 Y123.911 E1.24745
G1 X137.489 Y124.416 E1.30931
G1 X136.598 Y124.593 E1.37118
G1 X135.707 Y124.416 E1.43304
G1 X134.951 Y123.911 E1.49490
G1 X134.446 Y123.156 E1.55677
G1 X134.269 Y122.265 E1.61863
G1 X134.446 Y121.374 E1.68049
G1 X134.951 Y120.618 E1.74236
G1 X135.707 Y120.114 E1.80422
G1 X136.598 Y119.936 E1.86608
G1 X137.489 Y120.114 E1.92794
G1 X138.175 Y120.572 E1.98411
G1 X137.842 Y121.020 F7200.000
G1 X138.224 Y121.591 E2.03088 F540.000
G1 X138.358 Y122.265 E2.07766
G1 X138.224 Y122.938 E2.12443
G1 X137.842 Y123.510 E2.17120
G1 X137.271 Y123.891 E2.21797
G1 X136.598 Y124.025 E2.26475
G1 X135.924 Y123.891 E2.31152
G1 X135.353 Y123.510 E2.35829
G1 X134.971 Y122.938 E2.40507
G1 X134.837 Y122.265 E2.45184
G1 X134.971 Y121.591 E2.49861
G1 X135.353 Y121.020 E2.54538
G1 X135.924 Y120.638 E2.59215
G1 X136.598 Y120.504 E2.63892
G1 X137.271 Y120.638 E2.68570
G1 X137.773 Y120.973 E2.72678
G1 X138.389 Y120.911 F7200.000
G1 F1800.000 E1.72678
G92 E0
G1 X143.792 Y125.007 F7200.000
G1 E1.00000 F1800.000
G1 X144.547 Y124.502 E1.06186 F540.000
G1 X145.438 Y124.325 E1.12372
G1 X146.329 Y124.502 E1.18559
G1 X147.084 Y125.007 E1.24745
G1 X147.589 Y125.762 E1.30931
G1 X147.766 Y126.653 E1.37117
G1 X147.589 Y127.544 E1.43303
G1 X147.084 Y128.300 E1.49490
G1 X146.329 Y128.804 E1.55676
G1 X145.438 Y128.982 E1.61862
G1 X144.547 Y128.804 E1.68049
G1 X143.791 Y128.300 E1.74235
G1 X143.287 Y127.544 E1.80421
G1 X143.110 Y126.653 E1.86607
G1 X143.287 Y125.762 E1.92794
G1 X143.745 Y125.076 E1.98411
G1 X144.193 Y125.408 F7200.000
G1 X144.764 Y125.027 E2.03088 F540.000
G1 X145.438 Y124.893 E2.07766
G1 X146.112 Y125.027 E2.12443
G1 X146.683 Y125.408 E2.17120
G1 X147.064 Y125.979 E2.21797
G1 X147.198 Y126.653 E2.26474
G1 X147.064 Y127.327 E2.31151
G1 X146.683 Y127.898 E2.35829
G1 X146.112 Y128.280 E2.40506
G1 X145.438 Y128.414 E2.45183
G1 X144.764 Y128.280 E2.49860
G1 X144.193 Y127.898 E2.54538
G1 X143.811 Y127.327 E2.59215
G1 X143.677 Y126.653 E2.63892
G1 X143.811 Y125.980 E2.68569
G1 X144.147 Y125.478 E2.72678
G1 X144.084 Y124.862 F7200.000
G1 F1800.000 E1.72678
G92 E0
G1 X137.842 Y130.985 F7200.000
G1 E1.00000 F1800.000
G1 X138.224 Y131.556 E1.04677 F540.000
G1 X138.358 Y132.230 E1.09354
G1 X138.224 Y132.904 E1.14032
G1 X137.842 Y133.475 E1.18709
G1 X137.271 Y133.857 E1.23386
G1 X136.598 Y133.991 E1.28063
G1 X135.924 Y133.857 E1.32740
G1 X135.353 Y133.475 E1.37418
G1 X134.971 Y132.904 E1.42095
G1 X134.837 Y132.230 E1.46772
G1 X134.971 Y131.556 E1.51450
G1 X135.353 Y130.985 E1.56127
G1 X135.924 Y130.604 E1.60804
G1 X136.598 Y130.470 E1.65481
G1 X137.271 Y130.604 E1.70158
G1 X137.773 Y130.939 E1.74266
G1 X138.389 Y130.877 F7200.000
G1 X138.817 Y130.439 F7200.000
G1 X138.646 Y130.182 E1.76372 F1080.000
G1 X137.706 Y129.554 E1.84067
G1 X136.598 Y129.334 E1.91762
G1 X135.489 Y129.554 E1.99458
G1 X134.234 Y130.393 E2.09739
G1 X134.234 Y124.102 E2.52577
G1 X135.489 Y124.941 E2.62858
G1 X136.598 Y125.161 E2.70553
G1 X137.706 Y124.941 E2.78249
G1 X138.646 Y124.313 E2.85944
G1 X139.274 Y123.373 E2.93640
G1 X139.494 Y122.265 E3.01335
G1 X139.274 Y121.156 E3.09030
G1 X138.646 Y120.217 E3.16725
G1 X137.706 Y119.589 E3.24420
G1 X136.598 Y119.368 E3.32116
G1 X135.350 Y119.616 E3.40775
G1 X151.327 Y94.218 E5.45093
G1 X151.507 Y94.269 E5.46366
G1 X151.507 Y106.528 E6.29835
G1 X156.861 Y106.519 E6.66290
G1 X156.639 Y107.634 E6.74031
G1 X156.832 Y108.604 E6.80764
G1 X157.381 Y109.426 E6.87497
G1 X158.204 Y109.975 E6.94231
G1 X159.173 Y110.168 E7.00964
G1 X160.143 Y109.975 E7.07697
G1 X160.965 Y109.426 E7.14430
G1 X161.515 Y108.604 E7.21164
G1 X161.708 Y107.634 E7.27897
G1 X161.484 Y106.511 E7.35689
G1 X165.877 Y106.504 E7.65600
G1 X165.877 Y109.804 E7.88065
G1 X161.157 Y113.763 E8.30017
G1 X148.379 Y127.360 E9.57070
G1 X148.211 Y127.274 E9.58354
G1 X148.334 Y126.653 E9.62662
G1 X148.114 Y125.545 E9.70357
G1 X147.486 Y124.605 E9.78052
G1 X146.546 Y123.977 E9.85747
G1 X145.438 Y123.757 E9.93442
G1 X145.144 Y123.815 E9.95484
G1 X144.330 Y123.977 E10.01138
G1 X143.390 Y124.605 E10.08833
G1 X142.762 Y125.545 E10.16529
G1 X142.703 Y125.839 E10.18570
G1 X142.542 Y126.653 E10.24224
G1 X142.762 Y127.762 E10.31919
G1 X143.390 Y128.701 E10.39615
G1 X144.330 Y129.329 E10.47310
G1 X145.438 Y129.550 E10.55005
G1 X146.068 Y129.424 E10.59378
G1 X146.149 Y129.576 E10.60551
G1 X144.467 Y131.266 E10.76786
G1 X142.780 Y132.759 E10.92124
G1 X140.521 Y133.983 E11.09624
G1 X138.830 Y134.002 E11.21137
G1 X139.274 Y133.339 E11.26574
G1 X139.494 Y132.230 E11.34270
G1 X139.274 Y131.122 E11.41965
G1 X138.864 Y130.509 E11.46986
G1 X138.354 Y130.749 F7200.000
G1 X138.244 Y130.584 E11.48337 F1080.000
G1 X137.489 Y130.079 E11.54523
G1 X136.598 Y129.902 E11.60709
G1 X135.707 Y130.079 E11.66896
G1 X134.951 Y130.584 E11.73082
G1 X134.446 Y131.339 E11.79268
G1 X134.269 Y132.230 E11.85454
G1 X134.446 Y133.121 E11.91640
G1 X134.951 Y133.877 E11.97827
G1 X135.787 Y134.435 E12.04671
G1 X135.739 Y134.596 E12.05812
G1 X134.262 Y134.613 E12.15872
G1 X134.000 Y134.549 E12.17706
G1 X133.808 Y134.391 E12.19397
G1 X133.642 Y134.086 E12.21763
G1 X133.577 Y133.682 E12.24549
G1 X133.677 Y133.066 E12.28796
G1 X133.677 Y121.252 E13.09240
G1 X133.577 Y120.637 E13.13488
G1 X133.642 Y120.233 E13.16273
G1 X133.808 Y119.927 E13.18639
G1 X134.000 Y119.770 E13.20330
G1 X134.704 Y119.597 E13.25266
G1 X151.884 Y92.286 E15.44972
G1 X152.064 Y92.338 E15.46244
G1 X152.064 Y105.970 E16.39068
G1 X157.972 Y105.960 E16.79299
G1 X157.357 Y106.881 E16.86844
G1 X157.207 Y107.634 E16.92068
G1 X157.357 Y108.386 E16.97292
G1 X157.783 Y109.024 E17.02516
G1 X158.421 Y109.451 E17.07741
G1 X159.173 Y109.600 E17.12965
G1 X159.926 Y109.451 E17.18189
G1 X160.564 Y109.024 E17.23413
G1 X160.990 Y108.386 E17.28637
G1 X161.140 Y107.634 E17.33861
G1 X160.990 Y106.881 E17.39086
G1 X160.372 Y105.956 E17.46662
G1 X166.434 Y105.946 E17.87942
G1 X166.434 Y110.064 E18.15976
G1 X161.540 Y114.169 E18.59473
G1 X148.001 Y128.575 E19.94087
G1 X147.436 Y129.089 E19.99291
G1 X144.850 Y131.671 E20.24179
G1 X143.102 Y133.218 E20.40071
G1 X140.665 Y134.538 E20.58943
G1 X137.508 Y134.575 E20.80443
G1 X137.455 Y134.404 E20.81662
G1 X138.244 Y133.877 E20.88126
G1 X138.749 Y133.121 E20.94312
G1 X138.926 Y132.230 E21.00499
G1 X138.749 Y131.339 E21.06685
G1 X138.401 Y130.818 E21.10951
G1 F1800.000 E20.10951
G92 E0
G1 X161.332 Y79.642 F7200.000
G1 E1.00000 F1800.000
G1 X161.586 Y78.364 E1.08873 F540.000
G1 X161.393 Y77.394 E1.15606
G1 X160.844 Y76.572 E1.22339
G1 X160.150 Y76.109 E1.28016
G1 X160.201 Y75.943 E1.29196
G1 X165.877 Y75.943 E1.67847
G1 X165.877 Y79.642 E1.93035
G1 X161.415 Y79.642 E2.23416
G1 F1800.000 E1.23416
G92 E0
G1 X156.771 Y79.642 F7200.000
G1 E1.00000 F1800.000
G1 X152.696 Y79.642 E1.27750 F540.000
G1 X152.696 Y75.943 E1.52937
G1 X157.902 Y75.943 E1.88387
G1 X157.953 Y76.109 E1.89567
G1 X157.259 Y76.572 E1.95244
G1 X156.710 Y77.394 E2.01977
G1 X156.517 Y78.364 E2.08710
G1 X156.755 Y79.560 E2.17014
G1 X157.235 Y79.116 F7200.000
G1 X157.958 Y80.199 E2.25880 F1080.000
G1 X152.139 Y80.199 E2.65505
G1 X152.139 Y75.386 E2.98279
G1 X166.434 Y75.386 E3.95617
G1 X166.434 Y80.199 E4.28391
G1 X160.145 Y80.199 E4.71217
G1 X160.868 Y79.116 E4.80083
G1 X161.018 Y78.364 E4.85307
G1 X160.868 Y77.611 E4.90531
G1 X160.442 Y76.974 E4.95756
G1 X159.804 Y76.547 E5.00980
G1 X159.052 Y76.398 E5.06204
G1 X158.299 Y76.547 E5.11428
G1 X157.661 Y76.974 E5.16652
G1 X157.235 Y77.611 E5.21876
G1 X157.085 Y78.364 E5.27101
G1 X157.219 Y79.035 E5.31756
G1 F1800.000 E4.31756
G92 E0
G1 X151.582 Y74.829 F7200.000
G1 E1.00000 F1800.000
G1 X166.991 Y74.829 E2.04925 F540.000
G1 X166.991 Y110.323 E4.46616
G1 X161.923 Y114.574 E4.91656
G1 X148.393 Y128.972 E6.26194
G1 X147.820 Y129.494 E6.31470
G1 X145.232 Y132.077 E6.56366
G1 X143.423 Y133.678 E6.72815
G1 X140.809 Y135.094 E6.93058
G1 X134.198 Y135.171 E7.38078
G1 X133.744 Y135.060 E7.41256
G1 X133.371 Y134.753 E7.44551
G1 X133.108 Y134.268 E7.48303
G1 X133.013 Y133.682 E7.52348
G1 X133.120 Y133.021 E7.56904
G1 X133.120 Y121.297 E8.36738
G1 X133.013 Y120.637 E8.41295
G1 X133.108 Y120.050 E8.45339
G1 X133.371 Y119.566 E8.49091
G1 X133.744 Y119.259 E8.52386
G1 X134.353 Y119.110 E8.56650
G1 X151.582 Y91.720 E10.76982
G1 X151.582 Y74.912 E11.91433
G1 X152.064 Y75.107 F7200.000
G1 F1800.000 E10.91433
G92 E0
G1 X138.224 Y82.301 F7200.000
G1 E1.00000 F1800.000
G1 X138.358 Y82.975 E1.04677 F540.000
G1 X138.224 Y83.648 E1.09354
G1 X137.842 Y84.219 E1.14032
G1 X137.271 Y84.601 E1.18709
G1 X136.598 Y84.735 E1.23386
G1 X135.924 Y84.601 E1.28063
G1 X135.353 Y84.219 E1.32740
G1 X134.971 Y83.648 E1.37418
G1 X134.837 Y82.975 E1.42095
G1 X134.971 Y82.301 E1.46772
G1 X135.353 Y81.730 E1.51449
G1 X135.924 Y81.348 E1.56127
G1 X136.598 Y81.214 E1.60804
G1 X137.271 Y81.348 E1.65481
G1 X137.842 Y81.730 E1.70158
G1 X138.178 Y82.231 E1.74267
G1 X138.770 Y82.410 F7200.000
G1 F1800.000 E0.74267
G92 E0
G1 X143.791 Y85.717 F7200.000
G1 E1.00000 F1800.000
G1 X144.547 Y85.212 E1.06186 F540.000
G1 X145.438 Y85.035 E1.12372
G1 X146.329 Y85.212 E1.18559
G1 X147.084 Y85.717 E1.24745
G1 X147.589 Y86.472 E1.30931
G1 X147.766 Y87.363 E1.37117
G1 X147.589 Y88.254 E1.43304
G1 X147.084 Y89.009 E1.49490
G1 X146.329 Y89.514 E1.55676
G1 X145.438 Y89.691 E1.61863
G1 X144.547 Y89.514 E1.68049
G1 X143.791 Y89.009 E1.74235
G1 X143.287 Y88.254 E1.80421
G1 X143.110 Y87.363 E1.86608
G1 X143.287 Y86.472 E1.92794
G1 X143.745 Y85.786 E1.98411
G1 X144.193 Y86.118 F7200.000
G1 X144.764 Y85.737 E2.03089 F540.000
G1 X145.438 Y85.603 E2.07766
G1 X146.112 Y85.737 E2.12443
G1 X146.683 Y86.118 E2.17120
G1 X147.064 Y86.689 E2.21797
G1 X147.198 Y87.363 E2.26474
G1 X147.064 Y88.037 E2.31152
G1 X146.683 Y88.608 E2.35829
G1 X146.112 Y88.989 E2.40506
G1 X145.438 Y89.123 E2.45183
G1 X144.764 Y88.989 E2.49861
G1 X144.193 Y88.608 E2.54538
G1 X143.811 Y88.037 E2.59215
G1 X143.677 Y87.363 E2.63892
G1 X143.811 Y86.689 E2.68570
G1 X144.147 Y86.188 E2.72678
G1 X144.084 Y85.572 F7200.000
G1 F1800.000 E1.72678
G92 E0
G1 X137.842 Y91.695 F7200.000
G1 E1.00000 F1800.000
G1 X138.224 Y92.266 E1.04677 F540.000
G1 X138.358 Y92.940 E1.09355
G1 X138.224 Y93.614 E1.14032
G1 X137.842 Y94.185 E1.18709
G1 X137.271 Y94.566 E1.23386
G1 X136.598 Y94.700 E1.28064
G1 X135.924 Y94.566 E1.32741
G1 X135.353 Y94.185 E1.37418
G1 X134.971 Y93.614 E1.42095
G1 X134.837 Y92.940 E1.46772
G1 X134.971 Y92.266 E1.51450
G1 X135.353 Y91.695 E1.56127
G1 X135.924 Y91.313 E1.60804
G1 X136.598 Y91.179 E1.65481
G1 X137.271 Y91.313 E1.70158
G1 X137.773 Y91.649 E1.74267
G1 X138.389 Y91.586 F7200.000
G1 X138.817 Y91.148 F7200.000
G1 X138.646 Y90.892 E1.76365 F1080.000
G1 X137.706 Y90.264 E1.84061
G1 X136.598 Y90.043 E1.91756
G1 X135.489 Y90.264 E1.99451
G1 X134.234 Y91.103 E2.09732
G1 X134.234 Y84.812 E2.52570
G1 X135.489 Y85.651 E2.62851
G1 X136.598 Y85.871 E2.70547
G1 X137.706 Y85.650 E2.78242
G1 X138.646 Y85.023 E2.85937
G1 X139.274 Y84.083 E2.93633
G1 X139.494 Y82.975 E3.01328
G1 X139.274 Y81.866 E3.09023
G1 X138.653 Y80.938 E3.16627
G1 X142.265 Y81.238 E3.41308
G1 X148.300 Y81.783 E3.82570
G1 X148.300 Y86.235 E4.12886
G1 X148.135 Y86.285 E4.14066
G1 X147.486 Y85.315 E4.22014
G1 X146.546 Y84.687 E4.29710
G1 X145.438 Y84.467 E4.37405
G1 X144.330 Y84.687 E4.45100
G1 X143.390 Y85.315 E4.52795
G1 X142.762 Y86.255 E4.60491
G1 X142.542 Y87.363 E4.68186
G1 X142.762 Y88.471 E4.75882
G1 X143.390 Y89.411 E4.83577
G1 X144.330 Y90.039 E4.91272
G1 X145.438 Y90.259 E4.98968
G1 X146.068 Y90.134 E5.03340
G1 X146.149 Y90.286 E5.04513
G1 X144.467 Y91.976 E5.20748
G1 X142.780 Y93.469 E5.36086
G1 X140.521 Y94.693 E5.53586
G1 X138.830 Y94.712 E5.65099
G1 X139.274 Y94.048 E5.70536
G1 X139.494 Y92.940 E5.78232
G1 X139.274 Y91.832 E5.85927
G1 X138.863 Y91.218 E5.90955
G1 X138.354 Y91.458 F7200.000
G1 X138.244 Y91.293 E5.92299 F1080.000
G1 X137.489 Y90.789 E5.98485
G1 X136.598 Y90.611 E6.04672
G1 X135.707 Y90.789 E6.10858
G1 X134.951 Y91.293 E6.17044
G1 X134.446 Y92.049 E6.23230
G1 X134.269 Y92.940 E6.29417
G1 X134.446 Y93.831 E6.35603
G1 X134.951 Y94.586 E6.41789
G1 X135.787 Y95.145 E6.48633
G1 X135.739 Y95.305 E6.49775
