; generated by Slic3r 1.0.0RC2 on 2014-04-06 at 23:58:54

; layer_height = 0.3
; perimeters = 2
; top_solid_layers = 3
; bottom_solid_layers = 3
; fill_density = 0.1
; perimeter_speed = 60
; infill_speed = 60
; travel_speed = 120
; nozzle_diameter = 0.4
; filament_diameter = 1.75
; extrusion_multiplier = 0.98
; perimeters extrusion width = 0.40mm
; infill extrusion width = 0.42mm
; solid infill extrusion width = 0.42mm
; top infill extrusion width = 0.42mm
; first layer extrusion width = 0.80mm

G21 ; set units to millimeters
M107
M104 S220 ; set temperature
G28 ; home all axes
M106 S255;
G1 Z200 F1200 ; lift nozzle
M109 S220 ; wait for temperature to be reached
G90 ; use absolute coordinates
G92 E0
M82 ; use absolute distances for extrusion
G1 F1800.000 E-1.00000
G92 E0
G1 Z0.400 F7200.000
G1 X110.590 Y87.772 F7200.000
G1 E1.00000 F1800.000
G1 X111.550 Y86.722 E1.16559 F1080.000
G1 X112.710 Y85.902 E1.33093
G1 X114.010 Y85.342 E1.49568
G1 X115.400 Y85.062 E1.66071
G1 X143.400 Y82.562 E4.93259
G1 X144.000 Y82.542 E5.00246
G1 X156.000 Y82.542 E6.39914
G1 X156.600 Y82.562 E6.46901
G1 X184.600 Y85.062 E9.74089
G1 X185.990 Y85.342 E9.90592
G1 X187.290 Y85.902 E10.07067
G1 X188.450 Y86.722 E10.23601
G1 X189.410 Y87.772 E10.40160
G1 X190.120 Y88.992 E10.56589
G1 X190.560 Y90.342 E10.73115
G1 X190.710 Y91.752 E10.89619
G1 X190.710 Y111.752 E13.22399
G1 X190.560 Y113.192 E13.39249
G1 X190.100 Y114.552 E13.55959
G1 X189.360 Y115.792 E13.72766
G1 X188.370 Y116.852 E13.89648
G1 X187.180 Y117.662 E14.06402
G1 X174.170 Y124.662 E15.78352
G1 X172.630 Y125.262 E15.97589
G1 X170.990 Y125.462 E16.16818
G1 X129.000 Y125.462 E21.05539
G1 X127.360 Y125.262 E21.24768
G1 X125.820 Y124.662 E21.44005
G1 X112.820 Y117.662 E23.15852
G1 X111.630 Y116.842 E23.32673
G1 X110.640 Y115.792 E23.49469
G1 X109.900 Y114.552 E23.66276
G1 X109.440 Y113.182 E23.83096
G1 X109.290 Y111.752 E23.99831
G1 X109.290 Y91.752 E26.32611
G1 X109.440 Y90.342 E26.49115
G1 X109.880 Y88.992 E26.65641
G1 X110.536 Y87.865 E26.80823
G1 F1800.000 E25.80823
G92 E0
G1 X125.179 Y115.117 F7200.000
G1 E1.00000 F1800.000
G1 X140.364 Y115.117 E2.76735 F1080.000
G1 X140.364 Y108.245 E3.56718
G1 X145.886 Y108.245 E4.20985
G1 X145.886 Y115.077 E5.00505
G1 X145.156 Y114.733 E5.09892
G1 X144.633 Y114.634 E5.16086
G1 X144.102 Y114.667 E5.22280
G1 X143.596 Y114.831 E5.28474
G1 X143.147 Y115.117 E5.34668
G1 X143.023 Y115.249 E5.36779
G1 X142.711 Y115.249 E5.40400
G1 X142.394 Y116.486 E5.55271
G1 X142.394 Y117.018 E5.61464
G1 X142.553 Y117.638 E5.68912
G1 X129.281 Y117.638 E7.23384
G1 X125.110 Y115.392 E7.78521
G1 X125.153 Y115.220 E7.80584
G1 X121.636 Y113.522 F7200.000
G1 X117.114 Y111.087 E8.40356 F540.000
G1 X117.114 Y108.245 E8.73439
G1 X121.636 Y108.245 E9.26066
G1 X121.636 Y113.415 E9.86240
G1 X122.350 Y114.402 F7200.000
G1 X139.650 Y114.402 E11.87595 F756.000
G1 X139.650 Y107.530 E12.67578
G1 X146.600 Y107.530 E13.48469
G1 X146.600 Y118.352 E14.74426
G1 X144.750 Y118.352 E14.95960
G1 X145.523 Y117.713 E15.07636
G1 X145.730 Y117.428 E15.11730
G1 X145.859 Y117.101 E15.15824
G1 X145.903 Y116.752 E15.19917
G1 X145.859 Y116.403 E15.24011
G1 X145.730 Y116.076 E15.28105
G1 X145.523 Y115.792 E15.32199
G1 X145.252 Y115.568 E15.36292
G1 X144.934 Y115.418 E15.40386
G1 X144.588 Y115.352 E15.44480
G1 X144.237 Y115.374 E15.48574
G1 X144.173 Y115.395 E15.49356
G1 X143.903 Y115.483 E15.52667
G1 X143.606 Y115.671 E15.56761
G1 X143.332 Y115.963 E15.61419
G1 X143.265 Y115.963 E15.62190
G1 X143.108 Y116.577 E15.69563
G1 X143.108 Y116.928 E15.73656
G1 X143.125 Y116.993 E15.74439
G1 X143.195 Y117.269 E15.77750
G1 X143.365 Y117.577 E15.81844
G1 X144.093 Y118.352 E15.94222
G1 X129.101 Y118.352 E17.68713
G1 X116.400 Y111.514 E19.36606
G1 X116.400 Y107.530 E19.82965
G1 X122.350 Y107.530 E20.52217
G1 X122.350 Y114.295 E21.30954
G1 X122.350 Y115.117 F7200.000
G1 X128.220 Y116.116 F7200.000
G1 X128.098 Y115.994 E21.33039 F1080.000
G1 X128.752 Y115.597 E21.42283
G1 X129.955 Y116.801 E21.62870
G1 X131.005 Y116.801 E21.75569
G1 X129.801 Y115.597 E21.96156
G1 X130.851 Y115.597 E22.08855
G1 X132.054 Y116.801 E22.29442
G1 X133.104 Y116.801 E22.42142
G1 X131.901 Y115.597 E22.62729
G1 X132.950 Y115.597 E22.75428
G1 X134.154 Y116.801 E22.96015
G1 X135.204 Y116.801 E23.08714
G1 X134.000 Y115.597 E23.29301
G1 X135.050 Y115.597 E23.42000
G1 X136.253 Y116.801 E23.62587
G1 X137.303 Y116.801 E23.75286
G1 X136.100 Y115.597 E23.95873
G1 X137.149 Y115.597 E24.08572
G1 X138.353 Y116.801 E24.29159
G1 X139.403 Y116.801 E24.41858
G1 X138.199 Y115.597 E24.62445
G1 X139.249 Y115.597 E24.75144
G1 X140.452 Y116.801 E24.95731
G1 X141.502 Y116.801 E25.08430
G1 X140.299 Y115.597 E25.29017
G1 X140.845 Y115.094 E25.38004
G1 X141.674 Y115.922 E25.52185
G1 X141.888 Y115.087 E25.62617
G1 X140.845 Y114.044 E25.80466
G1 X140.845 Y112.994 E25.93165
G1 X142.262 Y114.411 E26.17409
G1 X142.809 Y113.909 E26.26397
G1 X140.845 Y111.944 E26.60009
G1 X140.845 Y110.895 E26.72708
G1 X143.714 Y113.764 E27.21802
G1 X144.618 Y113.618 E27.32880
G1 X140.845 Y109.845 E27.97440
G1 X140.845 Y108.795 E28.10139
G1 X145.048 Y112.998 E28.82051
G1 X145.048 Y111.949 E28.94750
G1 X141.825 Y108.725 E29.49898
G1 X142.874 Y108.725 E29.62597
G1 X145.048 Y110.899 E29.99785
G1 X145.048 Y109.849 E30.12484
G1 X143.924 Y108.725 E30.31713
G1 X144.974 Y108.725 E30.44413
G1 X145.048 Y108.799 E30.45682
G1 F1800.000 E29.45682
G92 E0
G1 X121.157 Y108.801 F7200.000
G1 E1.00000 F1800.000
G1 X121.079 Y108.723 E1.01395 F1080.000
G1 X119.979 Y108.723 E1.15347
G1 X121.157 Y109.902 E1.36474
G1 X121.157 Y111.002 E1.50426
G1 X118.879 Y108.723 E1.91284
G1 X117.778 Y108.723 E2.05236
G1 X121.157 Y112.102 E2.65825
G1 X120.112 Y112.157 E2.79098
G1 X117.593 Y109.638 E3.24264
G1 X117.593 Y110.739 E3.38216
G1 X117.728 Y110.873 E3.40630
G1 F1800.000 E2.40630
G92 E0
G1 X117.114 Y103.016 F7200.000
G1 E1.00000 F1800.000
G1 X117.114 Y94.941 E1.93992 F1080.000
G1 X117.796 Y95.373 E2.03392
G1 X118.302 Y95.538 E2.09585
G1 X118.833 Y95.571 E2.15780
G1 X119.356 Y95.472 E2.21974
G1 X119.838 Y95.245 E2.28167
G1 X120.248 Y94.906 E2.34361
G1 X120.560 Y94.475 E2.40555
G1 X120.682 Y94.169 E2.44393
G1 X121.249 Y94.169 E2.50994
G1 X120.733 Y92.867 E2.67293
G1 X142.394 Y92.867 E5.19397
G1 X142.394 Y93.718 E5.29312
G1 X142.526 Y94.234 E5.35506
G1 X142.782 Y94.700 E5.41700
G1 X143.147 Y95.088 E5.47894
G1 X143.596 Y95.373 E5.54088
G1 X143.746 Y95.422 E5.55921
G1 X144.102 Y95.538 E5.60282
G1 X144.633 Y95.571 E5.66475
G1 X145.156 Y95.472 E5.72670
G1 X145.886 Y95.128 E5.82057
G1 X145.886 Y103.016 E6.73867
G1 X140.364 Y103.016 E7.38134
G1 X140.364 Y96.388 E8.15277
G1 X121.636 Y96.388 E10.33255
G1 X121.636 Y103.016 E11.10398
G1 X117.221 Y103.016 E11.61779
G1 X116.400 Y103.730 F7200.000
G1 X116.400 Y92.152 E12.96535 F756.000
G1 X117.826 Y92.152 E13.13132
G1 X117.395 Y92.936 E13.23538
G1 X117.308 Y93.277 E13.27632
G1 X117.308 Y93.628 E13.31725
G1 X117.395 Y93.969 E13.35819
G1 X117.565 Y94.277 E13.39913
G1 X117.806 Y94.534 E13.44007
G1 X118.103 Y94.722 E13.48101
G1 X118.167 Y94.743 E13.48883
G1 X118.437 Y94.831 E13.52194
G1 X118.788 Y94.853 E13.56288
G1 X119.134 Y94.787 E13.60382
G1 X119.452 Y94.637 E13.64476
G1 X119.723 Y94.413 E13.68569
G1 X119.930 Y94.128 E13.72663
G1 X120.059 Y93.801 E13.76757
G1 X120.103 Y93.454 E13.80827
G1 X120.198 Y93.454 E13.81934
G1 X119.930 Y92.776 E13.90422
G1 X119.476 Y92.152 E13.99399
G1 X143.626 Y92.152 E16.80479
G1 X143.195 Y92.936 E16.90885
G1 X143.108 Y93.277 E16.94979
G1 X143.108 Y93.628 E16.99073
G1 X143.195 Y93.969 E17.03166
G1 X143.365 Y94.277 E17.07260
G1 X143.606 Y94.534 E17.11354
G1 X143.903 Y94.722 E17.15448
G1 X143.967 Y94.743 E17.16230
G1 X144.237 Y94.831 E17.19542
G1 X144.588 Y94.853 E17.23635
G1 X144.934 Y94.787 E17.27729
G1 X145.252 Y94.637 E17.31823
G1 X145.523 Y94.413 E17.35917
G1 X145.730 Y94.128 E17.40011
G1 X145.859 Y93.801 E17.44105
G1 X145.903 Y93.452 E17.48198
G1 X145.859 Y93.103 E17.52292
G1 X145.730 Y92.776 E17.56386
G1 X145.523 Y92.492 E17.60479
G1 X145.252 Y92.268 E17.64573
G1 X144.934 Y92.118 E17.68667
G1 X144.400 Y92.016 E17.74990
G1 X144.400 Y89.401 E18.05424
G1 X144.561 Y89.345 E18.07416
G1 X146.600 Y91.893 E18.45397
G1 X146.600 Y103.730 E19.83175
G1 X139.650 Y103.730 E20.64066
G1 X139.650 Y97.102 E21.41209
G1 X122.350 Y97.102 E23.42563
G1 X122.350 Y103.730 E24.19706
G1 X116.507 Y103.730 E24.87711
G1 X116.757 Y103.112 F7200.000
G1 X117.669 Y102.535 F7200.000
G1 X117.595 Y102.462 E24.88955 F1080.000
G1 X117.595 Y101.423 E25.01388
G1 X118.707 Y102.535 E25.20214
G1 X119.746 Y102.535 E25.32646
G1 X117.595 Y100.384 E25.69055
G1 X117.595 Y99.346 E25.81488
G1 X120.785 Y102.535 E26.35480
G1 X121.155 Y101.867 E26.44626
G1 X117.595 Y98.307 E27.04884
G1 X117.595 Y97.268 E27.17317
G1 X121.155 Y100.828 E27.77574
G1 X121.155 Y99.789 E27.90007
G1 X117.595 Y96.230 E28.50264
G1 X118.432 Y96.028 E28.60569
G1 X121.155 Y98.751 E29.06658
G1 X121.155 Y97.712 E29.19091
G1 X119.396 Y95.954 E29.48857
G1 X120.118 Y95.637 E29.58294
G1 X121.155 Y96.673 E29.75838
G1 X121.427 Y95.907 E29.85571
G1 X120.667 Y95.147 E29.98443
G1 X121.209 Y94.650 E30.07243
G1 X122.466 Y95.907 E30.28531
G1 X123.505 Y95.907 E30.40964
G1 X121.766 Y94.169 E30.70394
G1 X121.984 Y93.348 E30.80562
G1 X124.544 Y95.907 E31.23891
G1 X125.582 Y95.907 E31.36324
G1 X123.023 Y93.348 E31.79653
G1 X124.061 Y93.348 E31.92086
G1 X126.621 Y95.907 E32.35415
G1 X127.660 Y95.907 E32.47848
G1 X125.100 Y93.348 E32.91177
G1 X126.139 Y93.348 E33.03610
G1 X128.698 Y95.907 E33.46939
G1 X129.737 Y95.907 E33.59372
G1 X127.177 Y93.348 E34.02702
G1 X128.216 Y93.348 E34.15134
G1 X130.776 Y95.907 E34.58464
G1 X131.814 Y95.907 E34.70897
G1 X129.255 Y93.348 E35.14226
G1 X130.293 Y93.348 E35.26659
G1 X132.853 Y95.907 E35.69988
G1 X133.892 Y95.907 E35.82421
G1 X131.332 Y93.348 E36.25750
G1 X132.371 Y93.348 E36.38183
G1 X134.930 Y95.907 E36.81512
G1 X135.969 Y95.907 E36.93945
G1 X133.409 Y93.348 E37.37274
G1 X134.448 Y93.348 E37.49707
G1 X137.008 Y95.907 E37.93037
G1 X138.046 Y95.907 E38.05469
G1 X135.487 Y93.348 E38.48799
G1 X136.525 Y93.348 E38.61232
G1 X139.085 Y95.907 E39.04561
G1 X140.124 Y95.907 E39.16994
G1 X137.564 Y93.348 E39.60323
G1 X138.603 Y93.348 E39.72756
G1 X145.405 Y100.150 E40.87899
G1 X145.405 Y101.188 E41.00332
G1 X140.845 Y96.629 E41.77517
G1 X140.845 Y97.667 E41.89950
G1 X145.405 Y102.227 E42.67135
G1 X144.674 Y102.535 E42.76625
G1 X140.845 Y98.706 E43.41445
G1 X140.845 Y99.745 E43.53878
G1 X143.636 Y102.535 E44.01116
G1 X142.597 Y102.535 E44.13549
G1 X140.845 Y100.783 E44.43204
G1 X140.845 Y101.822 E44.55636
G1 X141.558 Y102.535 E44.67709
G1 X145.405 Y99.111 F7200.000
G1 X139.642 Y93.348 E45.65269 F1080.000
G1 X140.680 Y93.348 E45.77702
G1 X145.405 Y98.072 E46.57680
G1 X145.405 Y97.034 E46.70113
G1 X144.410 Y96.039 E46.86945
G1 X145.337 Y95.927 E46.98114
G1 X145.405 Y95.995 E46.99267
G1 X141.913 Y93.541 F7200.000
G1 X141.719 Y93.348 E47.02548 F1080.000
G1 X145.121 Y91.354 F7200.000
G1 X145.225 Y91.458 E47.04255 F360.000
G1 X146.045 Y92.345 F7200.000
G1 X146.083 Y92.383 E47.04551 F360.000
G1 F1800.000 E46.04551
G92 E0
G1 X129.856 Y92.752 F7200.000
G1 X126.538 Y96.502 F7200.000
G1 X125.572 Y99.502 F7200.000
G1 X122.200 Y106.130 F7200.000
G1 X121.750 Y101.714 F7200.000
G1 X116.917 Y92.733 F7200.000
G1 E1.00000 F1800.000
G1 X116.900 Y92.716 E1.00131 F360.000
G1 X116.902 Y94.188 F7200.000
G1 X116.938 Y94.224 E1.00416 F360.000
G1 F1800.000 E0.00416
G92 E0
G1 X123.816 Y114.920 F7200.000
G1 E1.00000 F1800.000
G1 X124.665 Y114.888 E1.08610 F360.000
G1 X124.721 Y114.945 E1.09423 F360.000
G1 X123.893 Y114.996 F7200.000
G1 X123.816 Y114.920 E1.10521 F360.000
G1 X126.649 Y115.634 F7200.000
G1 X127.497 Y115.603 E1.19131 F360.000
G1 X127.554 Y115.659 E1.19944 F360.000
G1 X126.725 Y115.710 F7200.000
G1 X126.649 Y115.634 E1.21041 F360.000
G1 F1800.000 E0.21041
G92 E0
G1 X154.114 Y114.988 F7200.000
G1 E1.00000 F1800.000
G1 X154.114 Y108.489 E1.75647 F1080.000
G1 X159.636 Y108.489 E2.39913
G1 X159.636 Y115.117 E3.17056
G1 X174.821 Y115.117 E4.93791
G1 X174.890 Y115.392 E4.97101
G1 X170.719 Y117.638 E5.52238
G1 X157.511 Y117.638 E7.05965
G1 X157.623 Y116.752 E7.16357
G1 X157.556 Y116.224 E7.22551
G1 X157.360 Y115.730 E7.28746
G1 X157.048 Y115.299 E7.34939
G1 X156.638 Y114.960 E7.41132
G1 X156.156 Y114.733 E7.47326
G1 X155.633 Y114.634 E7.53520
G1 X155.102 Y114.667 E7.59714
G1 X154.216 Y114.955 E7.70559
G1 F1800.000 E6.70559
G92 E0
G1 X159.750 Y108.374 F7200.000
G1 X162.750 Y105.374 F7200.000
G1 X175.250 Y111.130 F7200.000
G1 X178.250 Y111.888 F7200.000
G1 X178.364 Y113.522 F7200.000
G1 E1.00000 F1800.000
G1 X178.364 Y108.489 E1.58580 F540.000
G1 X182.886 Y108.489 E2.11208
G1 X182.886 Y111.087 E2.41450
G1 X178.458 Y113.471 E2.99975
G1 X177.650 Y114.402 F7200.000
G1 X177.650 Y107.774 E3.77118 F756.000
G1 X183.600 Y107.774 E4.46370
G1 X183.600 Y111.514 E4.89889
G1 X170.899 Y118.352 E6.57782
G1 X155.750 Y118.352 E8.34104
G1 X156.523 Y117.713 E8.45780
G1 X156.730 Y117.428 E8.49874
G1 X156.859 Y117.101 E8.53968
G1 X156.903 Y116.752 E8.58061
G1 X156.859 Y116.403 E8.62155
G1 X156.754 Y116.139 E8.65466
G1 X156.730 Y116.076 E8.66249
G1 X156.523 Y115.792 E8.70343
G1 X156.252 Y115.568 E8.74436
G1 X156.191 Y115.539 E8.75219
G1 X155.934 Y115.418 E8.78530
G1 X155.588 Y115.352 E8.82624
G1 X155.237 Y115.374 E8.86718
G1 X155.173 Y115.395 E8.87500
G1 X154.903 Y115.483 E8.90812
G1 X154.606 Y115.671 E8.94905
G1 X154.365 Y115.928 E8.98999
G1 X154.195 Y116.236 E9.03093
G1 X154.063 Y116.752 E9.09300
G1 X154.195 Y117.269 E9.15507
G1 X154.365 Y117.577 E9.19601
G1 X155.093 Y118.352 E9.31978
G1 X153.400 Y118.352 E9.51681
G1 X153.400 Y107.774 E10.74798
G1 X160.350 Y107.774 E11.55689
G1 X160.350 Y114.402 E12.32831
G1 X177.543 Y114.402 E14.32939
G1 X178.364 Y114.402 F7200.000
G1 X171.736 Y115.597 F7200.000
G1 X171.824 Y115.686 E14.34456 F1080.000
G1 X171.404 Y116.318 E14.43659
G1 X170.683 Y115.597 E14.56020
G1 X169.631 Y115.597 E14.68776
G1 X170.720 Y116.686 E14.87451
G1 X169.783 Y116.801 E14.98905
G1 X168.579 Y115.597 E15.19542
G1 X167.527 Y115.597 E15.32299
G1 X168.731 Y116.801 E15.52935
G1 X167.678 Y116.801 E15.65692
G1 X166.475 Y115.597 E15.86329
G1 X165.423 Y115.597 E15.99085
G1 X166.626 Y116.801 E16.19722
G1 X165.574 Y116.801 E16.32479
G1 X164.371 Y115.597 E16.53115
G1 X163.319 Y115.597 E16.65872
G1 X164.522 Y116.801 E16.86509
G1 X163.470 Y116.801 E16.99265
G1 X162.266 Y115.597 E17.19902
G1 X161.214 Y115.597 E17.32659
G1 X162.418 Y116.801 E17.53295
G1 X161.366 Y116.801 E17.66052
G1 X160.162 Y115.597 E17.86689
G1 X158.359 Y115.899 F7200.000
G1 X159.261 Y116.801 E18.02154 F1080.000
G1 X160.313 Y116.801 E18.14911
G1 X154.595 Y111.082 E19.12971
G1 X154.595 Y110.030 E19.25728
G1 X159.155 Y114.590 E20.03928
G1 X159.155 Y113.538 E20.16685
G1 X154.628 Y109.011 E20.94320
G1 X155.638 Y108.969 E21.06585
G1 X159.155 Y112.486 E21.66889
G1 X159.155 Y111.434 E21.79646
G1 X156.691 Y108.969 E22.21909
G1 X157.743 Y108.969 E22.34666
G1 X159.155 Y110.382 E22.58888
G1 X159.155 Y109.330 E22.71645
G1 X158.795 Y108.969 E22.77827
G1 X157.483 Y115.023 F7200.000
G1 X154.595 Y112.134 E23.27358 F1080.000
G1 X154.595 Y113.186 E23.40114
G1 X155.565 Y114.156 E23.56752
G1 X154.595 Y114.238 E23.68559
G1 X154.661 Y114.305 E23.69703
G1 F1800.000 E22.69703
G92 E0
G1 X159.750 Y108.374 F7200.000
G1 X162.750 Y105.374 F7200.000
G1 X175.250 Y111.130 F7200.000
G1 X178.250 Y111.888 F7200.000
G1 X178.909 Y112.681 F7200.000
G1 E1.00000 F1800.000
G1 X178.846 Y112.619 E1.01041 F1080.000
G1 X179.571 Y112.325 E1.10232
G1 X178.846 Y111.600 E1.22277
G1 X178.846 Y110.580 E1.34249
G1 X180.234 Y111.968 E1.57300
G1 X180.896 Y111.611 E1.66138
G1 X178.846 Y109.561 E2.00193
G1 X179.274 Y108.970 E2.08765
G1 X181.559 Y111.255 E2.46709
G1 X182.221 Y110.898 E2.55547
G1 X180.294 Y108.970 E2.87564
G1 X181.313 Y108.970 E2.99536
G1 X182.404 Y110.062 E3.17664
G1 X182.404 Y109.042 E3.29636
G1 X182.332 Y108.970 E3.30833
G1 F1800.000 E2.30833
G92 E0
G1 X182.886 Y103.260 F7200.000
G1 E1.00000 F1800.000
G1 X178.364 Y103.260 E1.52628 F1080.000
G1 X178.364 Y96.388 E2.32611
G1 X159.636 Y96.388 E4.50590
