; generated by Slic3r 1.0.0RC2 on 2014-05-17 at 12:32:43

; layer_height = 0.3
; perimeters = 2
; top_solid_layers = 3
; bottom_solid_layers = 3
; fill_density = 0.1
; perimeter_speed = 60
; infill_speed = 60
; travel_speed = 120
; nozzle_diameter = 0.4
; filament_diameter = 1.75
; extrusion_multiplier = 0.98
; perimeters extrusion width = 0.40mm
; infill extrusion width = 0.42mm
; solid infill extrusion width = 0.42mm
; top infill extrusion width = 0.42mm
; first layer extrusion width = 0.80mm

G21 ; set units to millimeters
M107
M104 S220 ; set temperature
G28 ; home all axes
M106 S255;
G1 Z200 F1200 ; lift nozzle
M109 S220 ; wait for temperature to be reached
G90 ; use absolute coordinates
G92 E0
M82 ; use absolute distances for extrusion
G1 F1800.000 E-1.00000
G92 E0
G1 Z0.400 F7200.000
G1 X115.070 Y91.392 F7200.000
G1 E1.00000 F1800.000
G1 X116.010 Y90.302 E1.16752 F1080.000
G1 X116.910 Y89.382 E1.31732
G1 X117.770 Y88.592 E1.45324
G1 X118.880 Y87.692 E1.61956
G1 X119.260 Y87.412 E1.67450
G1 X120.260 Y86.732 E1.81525
G1 X121.210 Y86.152 E1.94480
G1 X122.000 Y85.722 E2.04948
G1 X123.170 Y85.162 E2.20045
G1 X125.010 Y84.432 E2.43085
G1 X125.870 Y84.162 E2.53576
G1 X127.440 Y83.762 E2.72433
G1 X128.150 Y83.622 E2.80856
G1 X129.440 Y83.442 E2.96016
G1 X129.840 Y83.392 E3.00708
G1 X130.910 Y83.312 E3.13196
G1 X132.040 Y83.292 E3.26350
G1 X168.380 Y83.292 E7.49311
G1 X169.460 Y83.332 E7.61890
G1 X170.670 Y83.452 E7.76042
G1 X172.310 Y83.712 E7.95368
G1 X173.360 Y83.952 E8.07904
G1 X174.660 Y84.332 E8.23668
G1 X175.820 Y84.742 E8.37988
G1 X176.260 Y84.912 E8.43478
G1 X176.920 Y85.202 E8.51869
G1 X177.960 Y85.702 E8.65299
G1 X179.300 Y86.462 E8.83230
G1 X179.720 Y86.722 E8.88979
G1 X180.460 Y87.222 E8.99373
G1 X181.280 Y87.822 E9.11199
G1 X181.640 Y88.102 E9.16508
G1 X182.320 Y88.682 E9.26910
G1 X183.180 Y89.472 E9.40502
G1 X183.550 Y89.842 E9.46592
G1 X184.160 Y90.502 E9.57052
G1 X185.250 Y91.812 E9.76887
G1 X185.880 Y92.682 E9.89389
G1 X186.640 Y93.862 E10.05725
G1 X187.090 Y94.642 E10.16206
G1 X187.340 Y95.122 E10.22505
G1 X187.800 Y96.092 E10.35000
G1 X188.450 Y97.712 E10.55316
G1 X188.730 Y98.562 E10.65732
G1 X189.090 Y99.862 E10.81433
G1 X189.290 Y100.742 E10.91936
G1 X189.540 Y102.292 E11.10210
G1 X189.650 Y103.452 E11.23771
G1 X189.700 Y104.672 E11.37983
G1 X189.650 Y106.582 E11.60221
G1 X189.570 Y107.472 E11.70621
G1 X189.370 Y108.802 E11.86275
G1 X189.290 Y109.252 E11.91595
G1 X189.090 Y110.132 E12.02098
G1 X188.720 Y111.452 E12.18054
G1 X188.200 Y112.962 E12.36642
G1 X187.700 Y114.112 E12.51237
G1 X187.250 Y115.032 E12.63157
G1 X186.820 Y115.822 E12.73626
G1 X186.120 Y116.962 E12.89196
G1 X185.250 Y118.182 E13.06636
G1 X184.370 Y119.252 E13.22761
G1 X183.670 Y120.022 E13.34873
G1 X182.320 Y121.312 E13.56605
G1 X181.640 Y121.892 E13.67008
G1 X180.540 Y122.722 E13.83046
G1 X179.100 Y123.652 E14.02998
G1 X178.020 Y124.252 E14.17378
G1 X177.220 Y124.652 E14.27788
G1 X176.180 Y125.102 E14.40977
G1 X174.660 Y125.662 E14.59831
G1 X173.360 Y126.042 E14.75595
G1 X172.310 Y126.282 E14.88131
G1 X170.960 Y126.502 E15.04051
G1 X169.520 Y126.652 E15.20901
G1 X168.440 Y126.702 E15.33485
G1 X131.320 Y126.692 E19.65524
G1 X130.070 Y126.622 E19.80096
G1 X129.590 Y126.572 E19.85713
G1 X128.520 Y126.422 E19.98288
G1 X126.880 Y126.102 E20.17736
G1 X126.190 Y125.922 E20.26036
G1 X124.630 Y125.412 E20.45138
G1 X123.350 Y124.912 E20.61132
G1 X122.000 Y124.272 E20.78521
G1 X120.870 Y123.642 E20.93579
G1 X119.940 Y123.052 E21.06398
G1 X119.060 Y122.432 E21.18927
G1 X117.670 Y121.312 E21.39704
G1 X117.010 Y120.702 E21.50164
G1 X115.880 Y119.542 E21.69012
G1 X115.200 Y118.752 E21.81144
G1 X114.640 Y118.042 E21.91669
G1 X113.870 Y116.952 E22.07202
G1 X113.090 Y115.672 E22.24648
G1 X112.460 Y114.482 E22.40319
G1 X112.000 Y113.462 E22.53342
G1 X111.420 Y111.942 E22.72278
G1 X111.150 Y111.082 E22.82769
G1 X111.030 Y110.632 E22.88190
G1 X110.710 Y109.252 E23.04678
G1 X110.530 Y108.222 E23.16847
G1 X110.410 Y107.332 E23.27300
G1 X110.360 Y106.802 E23.33496
G1 X110.290 Y105.352 E23.50392
G1 X110.300 Y104.252 E23.63196
G1 X110.380 Y102.992 E23.77890
G1 X110.540 Y101.662 E23.93482
G1 X110.780 Y100.392 E24.08525
G1 X111.030 Y99.352 E24.20974
G1 X111.470 Y97.912 E24.38499
G1 X111.940 Y96.662 E24.54042
G1 X112.380 Y95.672 E24.66652
G1 X113.010 Y94.462 E24.82530
G1 X113.180 Y94.172 E24.86442
G1 X113.870 Y93.032 E25.01952
G1 X114.380 Y92.292 E25.12412
G1 X115.004 Y91.476 E25.24364
G1 F1800.000 E24.24364
G92 E0
G1 X155.405 Y101.352 F7200.000
G1 E1.00000 F1800.000
G1 X155.801 Y100.187 E1.14317 F756.000
G1 X156.305 Y99.065 E1.28634
G1 X156.911 Y97.995 E1.42949
G1 X157.615 Y96.986 E1.57264
G1 X158.410 Y96.048 E1.71578
G1 X159.289 Y95.188 E1.85891
G1 X160.245 Y94.415 E2.00203
G1 X161.269 Y93.734 E2.14514
G1 X162.353 Y93.153 E2.28825
G1 X163.486 Y92.675 E2.43135
G1 X164.658 Y92.306 E2.57443
G1 X165.860 Y92.048 E2.71752
G1 X167.081 Y91.905 E2.86060
G1 X168.310 Y91.876 E3.00368
G1 X169.536 Y91.962 E3.14676
G1 X170.749 Y92.163 E3.28984
G1 X171.938 Y92.477 E3.43293
G1 X173.092 Y92.901 E3.57603
G1 X174.201 Y93.431 E3.71912
G1 X175.250 Y94.059 E3.86139
G1 X176.223 Y94.720 E3.99827
G1 X177.170 Y95.612 E4.14970
G1 X178.004 Y96.508 E4.29218
G1 X178.754 Y97.482 E4.43532
G1 X179.410 Y98.523 E4.57847
G1 X179.966 Y99.620 E4.72163
G1 X180.416 Y100.765 E4.86480
G1 X180.757 Y101.946 E5.00797
G1 X181.076 Y103.625 E5.20686
G1 X181.031 Y103.625 E5.21210
G1 X181.102 Y104.380 E5.30030
G1 X181.102 Y105.610 E5.44347
G1 X180.987 Y106.835 E5.58666
G1 X180.757 Y108.043 E5.72983
G1 X180.416 Y109.225 E5.87301
G1 X179.966 Y110.370 E6.01618
G1 X179.410 Y111.467 E6.15934
G1 X178.754 Y112.508 E6.30248
G1 X178.004 Y113.482 E6.44563
G1 X177.166 Y114.382 E6.58877
G1 X176.247 Y115.200 E6.73189
G1 X175.256 Y115.927 E6.87500
G1 X174.201 Y116.559 E7.01811
G1 X173.092 Y117.089 E7.16121
G1 X171.938 Y117.513 E7.30430
G1 X170.749 Y117.827 E7.44739
G1 X169.600 Y118.017 E7.58296
G1 X168.310 Y118.114 E7.73353
G1 X167.081 Y118.085 E7.87660
G1 X165.860 Y117.942 E8.01969
G1 X164.658 Y117.684 E8.16278
G1 X163.486 Y117.315 E8.30586
G1 X162.353 Y116.837 E8.44896
G1 X161.269 Y116.256 E8.59207
G1 X160.245 Y115.575 E8.73517
G1 X159.289 Y114.802 E8.87829
G1 X158.410 Y113.942 E9.02143
G1 X157.615 Y113.004 E9.16457
G1 X156.911 Y111.995 E9.30770
G1 X156.305 Y110.925 E9.45086
G1 X155.801 Y109.803 E9.59403
G1 X155.405 Y108.638 E9.73720
G1 X155.119 Y107.442 E9.88038
G1 X154.947 Y106.224 E10.02355
G1 X154.889 Y104.995 E10.16674
G1 X154.947 Y103.766 E10.30991
G1 X155.119 Y102.548 E10.45309
G1 X155.380 Y101.456 E10.58379
G1 X154.918 Y100.829 F7200.000
G1 X154.158 Y100.361 F7200.000
G1 X154.524 Y99.386 E10.70491 F756.000
G1 X154.811 Y98.741 E10.78712
G1 X155.209 Y97.964 E10.88877
G1 X155.742 Y97.070 E11.00991
G1 X156.239 Y96.351 E11.11156
G1 X156.777 Y95.664 E11.21323
G1 X157.355 Y95.009 E11.31489
G1 X157.972 Y94.390 E11.41655
G1 X158.497 Y93.918 E11.49874
G1 X159.176 Y93.369 E11.60041
G1 X160.028 Y92.770 E11.72154
G1 X160.628 Y92.399 E11.80373
G1 X161.395 Y91.981 E11.90539
G1 X162.185 Y91.609 E12.00706
G1 X162.997 Y91.285 E12.10872
G1 X163.986 Y90.964 E12.22984
G1 X164.670 Y90.786 E12.31204
G1 X165.526 Y90.612 E12.41370
G1 X166.557 Y90.473 E12.53483
G1 X167.429 Y90.412 E12.63649
G1 X168.135 Y90.402 E12.71868
G1 X169.008 Y90.436 E12.82035
G1 X169.877 Y90.522 E12.92201
G1 X170.903 Y90.693 E13.04314
G1 X171.754 Y90.892 E13.14480
G1 X172.591 Y91.142 E13.24647
G1 X173.411 Y91.441 E13.34812
G1 X174.061 Y91.719 E13.43032
G1 X174.844 Y92.105 E13.53198
G1 X175.603 Y92.537 E13.63364
G1 X176.472 Y93.111 E13.75478
G1 X177.037 Y93.534 E13.83697
G1 X177.706 Y94.095 E13.93864
G1 X178.341 Y94.695 E14.04030
G1 X178.939 Y95.332 E14.14195
G1 X179.600 Y96.136 E14.26308
G1 X180.109 Y96.845 E14.36474
G1 X180.489 Y97.441 E14.44694
G1 X180.996 Y98.349 E14.56806
G1 X181.303 Y98.986 E14.65026
G1 X181.638 Y99.792 E14.75192
G1 X181.975 Y100.777 E14.87305
G1 X182.163 Y101.458 E14.95525
G1 X182.349 Y102.311 E15.05691
G1 X182.484 Y103.174 E15.15858
G1 X182.568 Y104.043 E15.26023
G1 X182.599 Y105.084 E15.38136
G1 X182.568 Y105.957 E15.48303
G1 X182.504 Y106.660 E15.56522
G1 X182.349 Y107.689 E15.68634
G1 X182.163 Y108.542 E15.78801
G1 X181.925 Y109.383 E15.88967
G1 X181.638 Y110.208 E15.99134
G1 X181.371 Y110.861 E16.07353
G1 X180.919 Y111.799 E16.19466
G1 X180.489 Y112.559 E16.29632
G1 X180.109 Y113.155 E16.37852
G1 X179.600 Y113.864 E16.48018
G1 X179.049 Y114.542 E16.58184
G1 X178.458 Y115.186 E16.68350
G1 X177.831 Y115.793 E16.78516
G1 X177.037 Y116.466 E16.90629
G1 X176.472 Y116.889 E16.98848
G1 X175.745 Y117.375 E17.09015
G1 X174.844 Y117.895 E17.21128
G1 X174.061 Y118.281 E17.31294
G1 X173.411 Y118.559 E17.39514
G1 X172.591 Y118.858 E17.49680
G1 X171.754 Y119.108 E17.59846
G1 X170.739 Y119.340 E17.71958
G1 X169.877 Y119.478 E17.82125
G1 X169.174 Y119.552 E17.90344
G1 X168.135 Y119.598 E18.02457
G1 X167.261 Y119.580 E18.12623
G1 X166.391 Y119.510 E18.22790
G1 X165.526 Y119.388 E18.32956
G1 X164.833 Y119.251 E18.41175
G1 X163.826 Y118.989 E18.53288
G1 X163.154 Y118.771 E18.61507
G1 X162.339 Y118.457 E18.71674
G1 X161.395 Y118.019 E18.83787
G1 X160.628 Y117.601 E18.93953
G1 X160.028 Y117.230 E19.02172
G1 X159.310 Y116.731 E19.12339
G1 X158.624 Y116.190 E19.22505
G1 X157.851 Y115.494 E19.34618
G1 X157.242 Y114.868 E19.44783
G1 X156.777 Y114.336 E19.53003
G1 X156.239 Y113.649 E19.63169
G1 X155.742 Y112.930 E19.73335
G1 X155.209 Y112.036 E19.85449
G1 X154.811 Y111.259 E19.95614
G1 X154.524 Y110.614 E20.03834
G1 X154.212 Y109.798 E20.14000
G1 X153.950 Y108.964 E20.24166
G1 X153.703 Y107.953 E20.36280
G1 X153.577 Y107.259 E20.44499
G1 X153.468 Y106.392 E20.54665
G1 X153.405 Y105.353 E20.66778
G1 X153.410 Y104.480 E20.76944
G1 X153.468 Y103.608 E20.87110
G1 X153.577 Y102.741 E20.97276
G1 X153.703 Y102.047 E21.05496
G1 X153.905 Y101.197 E21.15663
G1 X154.126 Y100.463 E21.24582
G1 X154.860 Y100.228 F7200.000
G1 F1800.000 E20.24582
G92 E0
G1 X159.262 Y101.381 F7200.000
G1 E1.00000 F1800.000
G1 X160.082 Y99.809 E1.20635 F756.000
G1 X161.182 Y98.417 E1.41285
G1 X162.523 Y97.254 E1.61949
G1 X164.059 Y96.362 E1.82623
G1 X165.736 Y95.775 E2.03305
G1 X167.580 Y95.508 E2.24986
G1 X169.270 Y95.586 E2.44673
G1 X170.999 Y95.992 E2.65348
G1 X172.620 Y96.715 E2.86010
G1 X174.343 Y97.961 E3.10761
G1 X175.540 Y99.273 E3.31423
G1 X176.469 Y100.781 E3.52046
G1 X177.101 Y102.436 E3.72658
G1 X177.444 Y104.706 E3.99386
G1 X177.277 Y106.826 E4.24128
G1 X176.778 Y108.526 E4.44750
G1 X175.970 Y110.104 E4.65380
G1 X174.883 Y111.505 E4.86024
G1 X173.552 Y112.678 E5.06676
G1 X171.762 Y113.699 E5.30659
G1 X170.075 Y114.253 E5.51326
G1 X168.068 Y114.482 E5.74842
G1 X166.540 Y114.370 E5.92669
G1 X164.819 Y113.929 E6.13343
G1 X163.213 Y113.172 E6.34009
G1 X161.598 Y111.964 E6.57482
G1 X160.414 Y110.645 E6.78111
G1 X159.497 Y109.129 E6.98737
G1 X158.877 Y107.469 E7.19358
G1 X158.560 Y105.366 E7.44107
G1 X158.745 Y103.076 E7.70851
G1 X159.231 Y101.484 E7.90226
G1 X159.972 Y101.307 F7200.000
G1 F1800.000 E6.90226
G92 E0
G1 X155.556 Y99.512 F7200.000
G1 E1.00000 F1800.000
G1 X155.182 Y99.138 E1.02927 F360.000
G1 X155.333 Y98.809 E1.04926 F360.000
G1 X155.704 Y99.181 E1.07830 F360.000
G1 X155.853 Y98.850 E1.09838 F360.000
G1 X155.497 Y98.494 E1.12621 F360.000
G1 X155.662 Y98.178 E1.14588 F360.000
G1 X156.026 Y98.542 E1.17436 F360.000
G1 X156.199 Y98.236 E1.19383 F360.000
G1 X155.838 Y97.875 E1.22206 F360.000
G1 X156.018 Y97.575 E1.24141 F360.000
G1 X156.373 Y97.930 E1.26918 F360.000
G1 X156.554 Y97.632 E1.28849 F360.000
G1 X156.204 Y97.281 E1.31589 F360.000
G1 X156.398 Y96.996 E1.33499 F360.000
G1 X156.752 Y97.349 E1.36260 F360.000
G1 X156.949 Y97.066 E1.38166 F360.000
G1 X156.595 Y96.712 E1.40936 F360.000
G1 X156.802 Y96.440 E1.42829 F360.000
G1 X157.146 Y96.784 E1.45517 F360.000
G1 X157.358 Y96.516 E1.47406 F360.000
G1 X157.012 Y96.169 E1.50113 F360.000
G1 X157.229 Y95.907 E1.51998 F360.000
G1 X157.578 Y96.256 E1.54729 F360.000
G1 X157.798 Y95.996 E1.56612 F360.000
G1 X157.452 Y95.650 E1.59314 F360.000
G1 X157.685 Y95.403 E1.61191 F360.000
G1 X158.018 Y95.736 E1.63796 F360.000
G1 X158.258 Y95.497 E1.65673 F360.000
G1 X157.925 Y95.163 E1.68279 F360.000
G1 X158.165 Y94.923 E1.70155 F360.000
G1 X158.501 Y95.259 E1.72782 F360.000
G1 X158.743 Y95.022 E1.74658 F360.000
G1 X158.405 Y94.684 E1.77307 F360.000
G1 X158.652 Y94.451 E1.79184 F360.000
G1 X158.989 Y94.788 E1.81818 F360.000
G1 X159.254 Y94.573 E1.83705 F360.000
G1 X158.907 Y94.226 E1.86421 F360.000
G1 X159.173 Y94.012 E1.88308 F360.000
G1 X159.519 Y94.359 E1.91018 F360.000
G1 X159.785 Y94.144 E1.92904 F360.000
G1 X159.440 Y93.799 E1.95601 F360.000
G1 X159.716 Y93.595 E1.97498 F360.000
G1 X160.059 Y93.938 E2.00180 F360.000
G1 X160.347 Y93.747 E2.02093 F360.000
G1 X159.997 Y93.397 E2.04827 F360.000
G1 X160.282 Y93.202 E2.06735 F360.000
G1 X160.635 Y93.555 E2.09498 F360.000
G1 X160.923 Y93.363 E2.11412 F360.000
G1 X160.578 Y93.018 E2.14114 F360.000
G1 X160.874 Y92.835 E2.16041 F360.000
G1 X161.228 Y93.189 E2.18808 F360.000
G1 X161.540 Y93.021 E2.20767 F360.000
G1 X161.183 Y92.663 E2.23566 F360.000
G1 X161.494 Y92.495 E2.25525 F360.000
G1 X161.853 Y92.853 E2.28327 F360.000
G1 X162.167 Y92.688 E2.30291 F360.000
G1 X161.812 Y92.333 E2.33067 F360.000
G1 X162.140 Y92.181 E2.35065 F360.000
G1 X162.505 Y92.546 E2.37916 F360.000
G1 X162.842 Y92.403 E2.39942 F360.000
G1 X162.470 Y92.031 E2.42853 F360.000
G1 X162.813 Y91.894 E2.44896 F360.000
G1 X163.180 Y92.261 E2.47764 F360.000
G1 X163.534 Y92.136 E2.49842 F360.000
G1 X163.158 Y91.759 E2.52785 F360.000
G1 X163.516 Y91.637 E2.54875 F360.000
G1 X163.899 Y92.021 E2.57874 F360.000
G1 X164.264 Y91.906 E2.59989 F360.000
G1 X163.878 Y91.520 E2.63010 F360.000
G1 X164.250 Y91.412 E2.65152 F360.000
G1 X164.637 Y91.799 E2.68180 F360.000
G1 X165.032 Y91.714 E2.70414 F360.000
G1 X164.631 Y91.313 E2.73554 F360.000
G1 X165.019 Y91.222 E2.75761 F360.000
G1 X165.427 Y91.630 E2.78951 F360.000
G1 X165.826 Y91.549 E2.81202 F360.000
G1 X165.420 Y91.143 E2.84377 F360.000
G1 X165.828 Y91.071 E2.86668 F360.000
G1 X166.256 Y91.498 E2.90009 F360.000
G1 X166.685 Y91.448 E2.92399 F360.000
G1 X166.251 Y91.014 E2.95792 F360.000
G1 X166.682 Y90.965 E2.98190 F360.000
G1 X167.120 Y91.403 E3.01620 F360.000
G1 X167.589 Y91.392 E3.04213 F360.000
G1 X167.128 Y90.931 E3.07818 F360.000
G1 X167.587 Y90.910 E3.10357 F360.000
G1 X168.058 Y91.381 E3.14041 F360.000
G1 X168.060 Y90.903 E3.16686 F360.000
G1 X168.548 Y91.391 E3.20502 F360.000
G1 X168.553 Y90.916 E3.23127 F360.000
G1 X169.064 Y91.427 E3.27126 F360.000
G1 X169.057 Y90.941 E3.29814 F360.000
G1 X169.580 Y91.464 E3.33901 F360.000
G1 X169.591 Y90.995 E3.36494 F360.000
G1 X170.154 Y91.557 E3.40891 F360.000
G1 X170.145 Y91.069 E3.43595 F360.000
G1 X170.729 Y91.653 E3.48163 F360.000
G1 X170.723 Y91.167 E3.50851 F360.000
G1 X171.364 Y91.808 E3.55866 F360.000
G1 X171.341 Y91.306 E3.58648 F360.000
G1 X172.016 Y91.980 E3.63924 F360.000
G1 X172.001 Y91.485 E3.66663 F360.000
G1 X172.762 Y92.247 E3.72620 F360.000
G1 X172.711 Y91.716 E3.75568 F360.000
G1 X173.570 Y92.575 E3.82283 F360.000
G1 X173.496 Y92.021 E3.85371 F360.000
G1 X174.504 Y93.029 E3.93253 F360.000
G1 X174.394 Y92.439 E3.96575 F360.000
G1 X175.746 Y93.791 E4.07152 F360.000
G1 X175.492 Y93.057 F7200.000
G1 X179.932 Y97.497 E4.41876 F360.000
G1 X179.190 Y97.235 F7200.000
G1 X180.568 Y98.613 E4.52654 F360.000
G1 X179.943 Y98.468 E4.56202 F360.000
G1 X180.980 Y99.505 E4.64315 F360.000
G1 X180.430 Y99.435 E4.67382 F360.000
G1 X181.285 Y100.290 E4.74068 F360.000
G1 X180.741 Y100.226 E4.77096 F360.000
G1 X181.518 Y101.003 E4.83171 F360.000
G1 X180.992 Y100.956 E4.86093 F360.000
G1 X181.698 Y101.662 E4.91613 F360.000
G1 X181.187 Y101.631 E4.94443 F360.000
G1 X181.830 Y102.274 E4.99474 F360.000
G1 X181.323 Y102.247 E5.02279 F360.000
G1 X181.930 Y102.854 E5.07026 F360.000
G1 X181.436 Y102.840 E5.09762 F360.000
G1 X182.009 Y103.412 E5.14242 F360.000
G1 X181.548 Y103.432 E5.16791 F360.000
G1 X182.056 Y103.940 E5.20765 F360.000
G1 X181.660 Y104.024 E5.23002 F360.000
G1 X182.084 Y104.448 E5.26318 F360.000
