; generated by Slic3r 1.0.0RC2 on 2014-05-21 at 17:10:42

; layer_height = 0.3
; perimeters = 4
; top_solid_layers = 3
; bottom_solid_layers = 3
; fill_density = 0.1
; perimeter_speed = 60
; infill_speed = 60
; travel_speed = 120
; nozzle_diameter = 0.4
; filament_diameter = 1.75
; extrusion_multiplier = 0.98
; perimeters extrusion width = 0.40mm
; infill extrusion width = 0.42mm
; solid infill extrusion width = 0.42mm
; top infill extrusion width = 0.42mm
; first layer extrusion width = 0.80mm

G21 ; set units to millimeters
M107
M104 S220 ; set temperature
G28 ; home all axes
M106 S255;
G1 Z200 F1200 ; lift nozzle
M109 S220 ; wait for temperature to be reached
G90 ; use absolute coordinates
G92 E0
M82 ; use absolute distances for extrusion
G1 F1800.000 E-1.00000
G92 E0
G1 Z0.400 F7200.000
G1 X136.835 Y65.396 F7200.000
G1 E1.00000 F1800.000
G1 X137.655 Y64.266 E1.16250 F1080.000
G1 X138.695 Y63.336 E1.32488
G1 X139.905 Y62.646 E1.48700
G1 X141.225 Y62.216 E1.64859
G1 X142.615 Y62.066 E1.81131
G1 X150.725 Y62.036 E2.75524
G1 X165.025 Y62.036 E4.41961
G1 X165.695 Y62.066 E4.49767
G1 X167.175 Y62.366 E4.67343
G1 X168.465 Y62.936 E4.83758
G1 X169.615 Y63.756 E5.00197
G1 X170.555 Y64.806 E5.16599
G1 X171.265 Y66.036 E5.33129
G1 X171.695 Y67.376 E5.49509
G1 X171.835 Y68.776 E5.65885
G1 X171.755 Y110.926 E10.56469
G1 X171.725 Y111.586 E10.64158
G1 X171.625 Y112.236 E10.71813
G1 X165.535 Y142.556 E14.31755
G1 X165.155 Y143.816 E14.47073
G1 X164.535 Y144.976 E14.62381
G1 X163.695 Y145.986 E14.77671
G1 X162.685 Y146.826 E14.92961
G1 X161.525 Y147.436 E15.08215
G1 X160.265 Y147.826 E15.23566
G1 X158.955 Y147.946 E15.38877
G1 X144.565 Y147.946 E17.06362
G1 X136.445 Y147.926 E18.00871
G1 X135.145 Y147.796 E18.16077
G1 X133.885 Y147.416 E18.31395
G1 X132.725 Y146.796 E18.46703
G1 X131.715 Y145.956 E18.61993
G1 X130.875 Y144.946 E18.77283
G1 X130.265 Y143.786 E18.92537
G1 X129.875 Y142.526 E19.07889
G1 X129.755 Y141.216 E19.23199
G1 X129.755 Y123.636 E21.27813
G1 X129.795 Y122.886 E21.36554
G1 X135.965 Y68.026 E27.79095
G1 X136.265 Y66.666 E27.95304
G1 X136.791 Y65.494 E28.10260
G1 F1800.000 E27.10260
G92 E0
G1 X139.017 Y126.184 F7200.000
G1 E1.00000 F1800.000
G1 X142.021 Y126.184 E1.34958 F540.000
G1 X142.021 Y138.674 E2.80318
G1 X139.017 Y138.674 E3.15276
G1 X139.017 Y126.292 E4.59389
G1 X138.303 Y125.470 F7200.000
G1 X142.735 Y125.470 E5.10971 F540.000
G1 X142.735 Y138.732 E6.65320
G1 X143.020 Y139.388 E6.73645
G1 X138.303 Y139.388 E7.28545
G1 X138.303 Y125.577 E8.89282
G1 X137.589 Y124.756 F7200.000
G1 X143.449 Y124.756 E9.57488 F1080.000
G1 X143.449 Y138.583 E11.18421
G1 X144.109 Y140.102 E11.37693
G1 X137.589 Y140.102 E12.13580
G1 X137.589 Y124.863 E13.90941
G1 X150.751 Y123.972 F7200.000
G1 X150.751 Y120.974 E14.25827 F540.000
G1 X157.053 Y120.974 E14.99169
G1 X157.053 Y121.814 E15.08938
G1 X152.244 Y121.814 E15.64907
G1 X152.234 Y123.191 E15.80939
G1 X151.776 Y123.972 E15.91472
G1 X150.858 Y123.972 E16.02150
G1 X150.037 Y124.686 F7200.000
G1 X150.037 Y120.260 E16.53661 F1080.000
G1 X156.658 Y120.260 E17.30724
G1 X156.661 Y100.197 E19.64237
G1 X157.767 Y100.197 E19.77105
G1 X157.767 Y122.528 E22.37012
G1 X152.953 Y122.528 E22.93041
G1 X152.947 Y123.388 E23.03047
G1 X152.185 Y124.686 E23.20567
G1 X150.144 Y124.686 E23.44317
G1 X149.323 Y124.042 F7200.000
G1 X149.323 Y119.546 E23.96646 F756.000
G1 X155.946 Y119.546 E24.73731
G1 X155.947 Y99.483 E27.07244
G1 X158.481 Y99.483 E27.36738
G1 X158.481 Y123.242 E30.13269
G1 X153.662 Y123.242 E30.69359
G1 X153.659 Y123.584 E30.73339
G1 X152.594 Y125.400 E30.97845
G1 X144.163 Y125.400 E31.95972
G1 X144.163 Y138.435 E33.47684
G1 X144.323 Y138.802 E33.52343
G1 X158.560 Y138.802 E35.18057
G1 X158.561 Y140.845 E35.41835
G1 X144.783 Y140.845 E37.02204
G1 X144.760 Y140.816 E37.02628
G1 X136.875 Y140.816 E37.94413
G1 X136.875 Y124.042 E39.89645
G1 X149.216 Y124.042 E41.33286
G1 X150.037 Y124.042 F7200.000
G1 X141.539 Y126.739 F7200.000
G1 X141.466 Y126.666 E41.34514 F1080.000
G1 X140.434 Y126.666 E41.46798
G1 X141.539 Y127.771 E41.65398
G1 X141.539 Y128.804 E41.77682
G1 X139.498 Y126.763 E42.12024
G1 X139.498 Y127.795 E42.24308
G1 X141.539 Y129.836 E42.58650
G1 X141.539 Y130.868 E42.70934
G1 X139.498 Y128.827 E43.05277
G1 X139.498 Y129.860 E43.17560
G1 X141.539 Y131.901 E43.51903
G1 X141.539 Y132.933 E43.64186
G1 X139.498 Y130.892 E43.98529
G1 X139.498 Y131.925 E44.10813
G1 X141.539 Y133.966 E44.45155
G1 X141.539 Y134.998 E44.57439
G1 X139.498 Y132.957 E44.91782
G1 X139.498 Y133.990 E45.04065
G1 X141.539 Y136.031 E45.38408
G1 X141.539 Y137.063 E45.50691
G1 X139.498 Y135.022 E45.85034
G1 X139.498 Y136.054 E45.97318
G1 X141.539 Y138.095 E46.31660
G1 X140.604 Y138.192 E46.42851
G1 X139.498 Y137.087 E46.61451
G1 X139.498 Y138.119 E46.73735
G1 X139.571 Y138.192 E46.74963
G1 X144.845 Y139.989 F7200.000
G1 X145.409 Y139.523 E46.83645 F360.000
G1 X146.011 Y140.124 E46.93742 F360.000
G1 X146.439 Y139.523 E47.02506 F360.000
G1 X147.041 Y140.124 E47.12603 F360.000
G1 X147.469 Y139.523 E47.21367 F360.000
G1 X148.070 Y140.124 E47.31464 F360.000
G1 X148.499 Y139.523 E47.40228 F360.000
G1 X149.100 Y140.124 E47.50326 F360.000
G1 X149.528 Y139.523 E47.59090 F360.000
G1 X150.130 Y140.124 E47.69187 F360.000
G1 X150.558 Y139.523 E47.77951 F360.000
G1 X151.160 Y140.124 E47.88048 F360.000
G1 X151.588 Y139.523 E47.96812 F360.000
G1 X152.190 Y140.124 E48.06910 F360.000
G1 X152.618 Y139.523 E48.15673 F360.000
G1 X153.220 Y140.124 E48.25771 F360.000
G1 X153.648 Y139.523 E48.34535 F360.000
G1 X154.249 Y140.124 E48.44632 F360.000
G1 X154.678 Y139.523 E48.53396 F360.000
G1 X155.279 Y140.124 E48.63493 F360.000
G1 X155.708 Y139.523 E48.72257 F360.000
G1 X156.309 Y140.124 E48.82355 F360.000
G1 X156.737 Y139.523 E48.91119 F360.000
G1 X157.339 Y140.124 E49.01216 F360.000
G1 X157.840 Y139.595 E49.09861 F360.000
G1 X157.767 Y139.523 E49.11084 F360.000
G1 X144.952 Y140.095 F7200.000
G1 X144.845 Y139.989 E49.12873 F360.000
G1 F1800.000 E48.12873
G92 E0
G1 X144.963 Y124.900 F7200.000
G1 E1.00000 F1800.000
G1 X145.094 Y124.542 E1.02155 F360.000
G1 X145.453 Y124.900 E1.05017 F360.000
G1 X145.584 Y124.542 E1.07172 F360.000
G1 X145.943 Y124.900 E1.10034 F360.000
G1 X146.074 Y124.542 E1.12189 F360.000
G1 X146.432 Y124.900 E1.15051 F360.000
G1 X146.564 Y124.542 E1.17206 F360.000
G1 X146.922 Y124.900 E1.20067 F360.000
G1 X147.054 Y124.542 E1.22222 F360.000
G1 X147.412 Y124.900 E1.25084 F360.000
G1 X147.543 Y124.542 E1.27239 F360.000
G1 X147.902 Y124.900 E1.30101 F360.000
G1 X148.033 Y124.542 E1.32256 F360.000
G1 X148.392 Y124.900 E1.35118 F360.000
G1 X148.523 Y124.542 E1.37273 F360.000
G1 X148.882 Y124.900 E1.40135 F360.000
G1 X149.013 Y124.542 E1.42290 F360.000
G1 X149.371 Y124.900 E1.45152 F360.000
G1 X149.537 Y124.576 E1.47206 F360.000
G1 X149.503 Y124.542 E1.47482 F360.000
G1 X151.251 Y123.437 F7200.000
G1 X151.593 Y123.295 E1.49553 F360.000
G1 X151.251 Y122.953 E1.52256 F360.000
G1 X151.736 Y122.952 E1.54962 F360.000
G1 X151.251 Y122.468 E1.58790 F360.000
G1 X151.251 Y121.983 E1.61498 F360.000
G1 X151.739 Y122.471 E1.65353 F360.000
G1 X151.743 Y121.990 E1.68042 F360.000
G1 X151.256 Y121.503 E1.71884 F360.000
G1 X151.712 Y121.474 E1.74435 F360.000
G1 X151.746 Y121.508 E1.74705 F360.000
G1 X151.251 Y123.437 F7200.000
G1 X151.286 Y123.472 E1.74976 F360.000
G1 X144.963 Y124.900 F7200.000
G1 X144.604 Y124.542 E1.77838 F360.000
G1 X144.473 Y124.900 E1.79993 F360.000
G1 X144.115 Y124.542 E1.82855 F360.000
G1 X143.949 Y124.866 E1.84909 F360.000
G1 X143.983 Y124.900 E1.85185 F360.000
G1 X152.002 Y124.800 F7200.000
G1 X149.923 Y121.150 F7200.000
G1 X157.158 Y120.440 F7200.000
G1 X157.267 Y120.066 E1.87357 F360.000
G1 X157.159 Y119.958 E1.88206 F360.000
G1 X157.267 Y119.582 E1.90383 F360.000
G1 X157.160 Y119.476 E1.91222 F360.000
G1 X157.267 Y119.099 E1.93403 F360.000
G1 X157.161 Y118.994 E1.94234 F360.000
G1 X157.267 Y118.616 E1.96420 F360.000
G1 X157.161 Y118.510 E1.97250 F360.000
G1 X157.267 Y118.132 E1.99436 F360.000
G1 X157.161 Y118.027 E2.00267 F360.000
G1 X157.267 Y117.649 E2.02452 F360.000
G1 X157.161 Y117.544 E2.03283 F360.000
G1 X157.267 Y117.166 E2.05468 F360.000
G1 X157.161 Y117.060 E2.06299 F360.000
G1 X157.267 Y116.682 E2.08485 F360.000
G1 X157.161 Y116.577 E2.09315 F360.000
G1 X157.267 Y116.199 E2.11501 F360.000
G1 X157.161 Y116.093 E2.12332 F360.000
G1 X157.267 Y115.716 E2.14517 F360.000
G1 X157.161 Y115.610 E2.15348 F360.000
G1 X157.267 Y115.232 E2.17533 F360.000
G1 X157.161 Y115.127 E2.18364 F360.000
G1 X157.267 Y114.749 E2.20550 F360.000
G1 X157.161 Y114.643 E2.21380 F360.000
G1 X157.267 Y114.265 E2.23566 F360.000
G1 X157.161 Y114.160 E2.24397 F360.000
G1 X157.267 Y113.782 E2.26582 F360.000
G1 X157.161 Y113.677 E2.27413 F360.000
G1 X157.267 Y113.299 E2.29598 F360.000
G1 X157.161 Y113.193 E2.30429 F360.000
G1 X157.267 Y112.815 E2.32614 F360.000
G1 X157.161 Y112.710 E2.33445 F360.000
G1 X157.267 Y112.332 E2.35631 F360.000
G1 X157.161 Y112.227 E2.36462 F360.000
G1 X157.267 Y111.849 E2.38647 F360.000
G1 X157.161 Y111.743 E2.39478 F360.000
G1 X157.267 Y111.365 E2.41663 F360.000
G1 X157.161 Y111.260 E2.42494 F360.000
G1 X157.267 Y110.882 E2.44679 F360.000
G1 X157.161 Y110.776 E2.45510 F360.000
G1 X157.267 Y110.399 E2.47696 F360.000
G1 X157.161 Y110.293 E2.48526 F360.000
G1 X157.267 Y109.915 E2.50712 F360.000
G1 X157.161 Y109.810 E2.51543 F360.000
G1 X157.267 Y109.432 E2.53728 F360.000
G1 X157.161 Y109.326 E2.54559 F360.000
G1 X157.267 Y108.948 E2.56744 F360.000
G1 X157.161 Y108.843 E2.57575 F360.000
G1 X157.267 Y108.465 E2.59761 F360.000
G1 X157.161 Y108.360 E2.60591 F360.000
G1 X157.267 Y107.982 E2.62777 F360.000
G1 X157.161 Y107.876 E2.63608 F360.000
G1 X157.267 Y107.498 E2.65793 F360.000
G1 X157.161 Y107.393 E2.66624 F360.000
G1 X157.267 Y107.015 E2.68809 F360.000
G1 X157.161 Y106.910 E2.69640 F360.000
G1 X157.267 Y106.532 E2.71826 F360.000
G1 X157.161 Y106.426 E2.72656 F360.000
G1 X157.267 Y106.048 E2.74842 F360.000
G1 X157.161 Y105.943 E2.75673 F360.000
G1 X157.267 Y105.565 E2.77858 F360.000
G1 X157.161 Y105.459 E2.78689 F360.000
G1 X157.267 Y105.082 E2.80874 F360.000
G1 X157.161 Y104.976 E2.81705 F360.000
G1 X157.267 Y104.598 E2.83891 F360.000
G1 X157.161 Y104.493 E2.84721 F360.000
G1 X157.267 Y104.115 E2.86907 F360.000
G1 X157.161 Y104.009 E2.87738 F360.000
G1 X157.267 Y103.631 E2.89923 F360.000
G1 X157.161 Y103.526 E2.90754 F360.000
G1 X157.267 Y103.148 E2.92939 F360.000
G1 X157.161 Y103.043 E2.93770 F360.000
G1 X157.267 Y102.665 E2.95955 F360.000
G1 X157.161 Y102.559 E2.96786 F360.000
G1 X157.267 Y102.181 E2.98972 F360.000
G1 X157.161 Y102.076 E2.99802 F360.000
G1 X157.267 Y101.698 E3.01988 F360.000
G1 X157.161 Y101.593 E3.02819 F360.000
G1 X157.267 Y101.215 E3.05004 F360.000
G1 X157.161 Y101.109 E3.05835 F360.000
G1 X157.267 Y100.731 E3.08020 F360.000
G1 X157.233 Y100.697 E3.08290 F360.000
G1 F1800.000 E2.08290
G92 E0
G1 X163.327 Y100.570 F7200.000
G1 E1.00000 F1800.000
G1 X163.433 Y100.192 E1.02184 F360.000
G1 X163.327 Y100.086 E1.03016 F360.000
G1 X163.433 Y99.709 E1.05200 F360.000
G1 X163.327 Y99.603 E1.06032 F360.000
G1 X163.433 Y99.225 E1.08216 F360.000
G1 X163.327 Y99.120 E1.09049 F360.000
G1 X163.433 Y98.742 E1.11232 F360.000
G1 X163.327 Y98.636 E1.12065 F360.000
G1 X163.433 Y98.259 E1.14249 F360.000
G1 X163.327 Y98.153 E1.15081 F360.000
G1 X163.433 Y97.776 E1.17265 F360.000
G1 X163.327 Y97.670 E1.18097 F360.000
G1 X163.433 Y97.292 E1.20281 F360.000
G1 X163.327 Y97.187 E1.21114 F360.000
G1 X163.433 Y96.809 E1.23297 F360.000
G1 X163.327 Y96.703 E1.24130 F360.000
G1 X163.433 Y96.326 E1.26314 F360.000
G1 X163.327 Y96.220 E1.27146 F360.000
G1 X163.433 Y95.842 E1.29330 F360.000
G1 X163.327 Y95.737 E1.30162 F360.000
G1 X163.433 Y95.359 E1.32346 F360.000
G1 X163.327 Y95.254 E1.33179 F360.000
G1 X163.433 Y94.876 E1.35362 F360.000
G1 X163.327 Y94.770 E1.36195 F360.000
G1 X163.433 Y94.393 E1.38379 F360.000
G1 X163.327 Y94.287 E1.39211 F360.000
G1 X163.433 Y93.909 E1.41395 F360.000
G1 X163.327 Y93.804 E1.42227 F360.000
G1 X163.433 Y93.426 E1.44411 F360.000
G1 X163.327 Y93.320 E1.45244 F360.000
G1 X163.433 Y92.943 E1.47427 F360.000
G1 X163.327 Y92.837 E1.48260 F360.000
G1 X163.433 Y92.460 E1.50444 F360.000
G1 X163.327 Y92.354 E1.51276 F360.000
G1 X163.433 Y91.976 E1.53460 F360.000
G1 X163.327 Y91.871 E1.54292 F360.000
G1 X163.433 Y91.493 E1.56476 F360.000
G1 X163.327 Y91.387 E1.57309 F360.000
G1 X163.433 Y91.010 E1.59492 F360.000
G1 X163.327 Y90.904 E1.60325 F360.000
G1 X163.433 Y90.526 E1.62508 F360.000
G1 X163.327 Y90.421 E1.63341 F360.000
G1 X163.433 Y90.043 E1.65525 F360.000
G1 X163.327 Y89.937 E1.66357 F360.000
G1 X163.433 Y89.560 E1.68541 F360.000
G1 X163.399 Y89.526 E1.68810 F360.000
G1 X157.914 Y88.445 F7200.000
G1 X157.415 Y87.946 E1.73230 F360.000
G1 X157.910 Y87.897 E1.76345 F360.000
G1 X157.415 Y87.402 E1.80728 F360.000
G1 X157.906 Y87.349 E1.83821 F360.000
G1 X157.415 Y86.858 E1.88169 F360.000
G1 X157.700 Y86.599 E1.90580 F360.000
G1 X157.627 Y86.526 E1.91228 F360.000
G1 X157.914 Y88.445 F7200.000
G1 X157.415 Y88.489 E1.94365 F360.000
G1 X157.454 Y88.528 E1.94706 F360.000
G1 X155.537 Y85.458 F7200.000
G1 X155.703 Y85.134 E1.96760 F360.000
G1 X155.669 Y85.100 E1.97037 F360.000
G1 X155.537 Y85.458 F7200.000
G1 X155.179 Y85.100 E1.99898 F360.000
G1 X155.048 Y85.458 E2.02054 F360.000
G1 X154.689 Y85.100 E2.04915 F360.000
G1 X154.558 Y85.458 E2.07070 F360.000
G1 X154.199 Y85.100 E2.09932 F360.000
G1 X154.068 Y85.458 E2.12087 F360.000
G1 X153.709 Y85.100 E2.14949 F360.000
G1 X153.578 Y85.458 E2.17104 F360.000
G1 X153.220 Y85.100 E2.19966 F360.000
G1 X153.088 Y85.458 E2.22121 F360.000
G1 X152.730 Y85.100 E2.24983 F360.000
G1 X152.598 Y85.458 E2.27138 F360.000
G1 X152.240 Y85.100 E2.30000 F360.000
G1 X152.109 Y85.458 E2.32155 F360.000
G1 X151.750 Y85.100 E2.35017 F360.000
G1 X151.619 Y85.458 E2.37172 F360.000
G1 X151.260 Y85.100 E2.40033 F360.000
G1 X151.129 Y85.458 E2.42189 F360.000
G1 X150.770 Y85.100 E2.45050 F360.000
G1 X150.639 Y85.458 E2.47205 F360.000
G1 X150.281 Y85.100 E2.50067 F360.000
G1 X150.115 Y85.424 E2.52121 F360.000
G1 X150.149 Y85.458 E2.52398 F360.000
G1 X145.111 Y69.784 F7200.000
G1 X150.901 Y70.478 F7200.000
G1 X150.835 Y70.413 E2.53513 F360.000
G1 X151.346 Y69.875 E2.62478 F360.000
G1 X151.949 Y70.478 E2.72784 F360.000
G1 X152.395 Y69.875 E2.81846 F360.000
G1 X152.998 Y70.478 E2.92151 F360.000
G1 X153.444 Y69.875 E3.01214 F360.000
G1 X154.047 Y70.478 E3.11519 F360.000
G1 X154.493 Y69.875 E3.20581 F360.000
G1 X155.096 Y70.478 E3.30886 F360.000
G1 X155.541 Y69.875 E3.39949 F360.000
G1 X156.144 Y70.478 E3.50254 F360.000
G1 X156.590 Y69.875 E3.59316 F360.000
G1 X157.193 Y70.478 E3.69622 F360.000
G1 X157.639 Y69.875 E3.78684 F360.000
G1 X158.242 Y70.478 E3.88989 F360.000
G1 X158.687 Y69.875 E3.98051 F360.000
G1 X159.290 Y70.478 E4.08357 F360.000
G1 X159.736 Y69.875 E4.17419 F360.000
G1 X160.339 Y70.478 E4.27724 F360.000
G1 X160.785 Y69.875 E4.36786 F360.000
G1 X161.388 Y70.478 E4.47092 F360.000
G1 X161.834 Y69.875 E4.56154 F360.000
G1 X162.437 Y70.478 E4.66459 F360.000
G1 X162.882 Y69.875 E4.75522 F360.000
G1 X163.485 Y70.478 E4.85827 F360.000
G1 X164.005 Y69.949 E4.94789 F360.000
G1 X163.931 Y69.875 E4.96057 F360.000
G1 F1800.000 E3.96057
G92 E0
G1 X145.111 Y69.784 F7200.000
G1 X146.596 Y85.358 F7200.000
G1 X147.440 Y88.358 F7200.000
G1 X159.713 Y96.085 F7200.000
G1 X162.713 Y99.241 F7200.000
G1 X163.327 Y100.570 F7200.000
G1 E1.00000 F1800.000
G1 X163.433 Y100.675 E1.00832 F360.000
G1 X163.327 Y101.053 E1.03016 F360.000
G1 X163.433 Y101.159 E1.03849 F360.000
G1 X163.327 Y101.536 E1.06032 F360.000
G1 X163.433 Y101.642 E1.06865 F360.000
G1 X163.327 Y102.019 E1.09049 F360.000
G1 X163.433 Y102.125 E1.09881 F360.000
G1 X163.327 Y102.503 E1.12065 F360.000
G1 X163.433 Y102.608 E1.12897 F360.000
G1 X163.327 Y102.986 E1.15081 F360.000
G1 X163.433 Y103.092 E1.15914 F360.000
G1 X163.327 Y103.469 E1.18097 F360.000
G1 X163.433 Y103.575 E1.18930 F360.000
G1 X163.327 Y103.953 E1.21114 F360.000
G1 X163.433 Y104.058 E1.21946 F360.000
G1 X163.327 Y104.436 E1.24130 F360.000
