; generated by Slic3r 1.0.0RC2 on 2014-05-18 at 08:50:17

; layer_height = 0.3
; perimeters = 3
; top_solid_layers = 3
; bottom_solid_layers = 3
; fill_density = 0.1
; perimeter_speed = 60
; infill_speed = 60
; travel_speed = 120
; nozzle_diameter = 0.4
; filament_diameter = 1.75
; extrusion_multiplier = 0.98
; perimeters extrusion width = 0.40mm
; infill extrusion width = 0.42mm
; solid infill extrusion width = 0.42mm
; top infill extrusion width = 0.42mm
; first layer extrusion width = 0.80mm

G21 ; set units to millimeters
M107
M104 S220 ; set temperature
G28 ; home all axes
M106 S255;
G1 Z200 F1200 ; lift nozzle
M109 S220 ; wait for temperature to be reached
G90 ; use absolute coordinates
G92 E0
M82 ; use absolute distances for extrusion
G1 F1800.000 E-1.00000
G92 E0
G1 Z0.400 F7200.000
G1 X88.608 Y82.800 F7200.000
G1 E1.00000 F1800.000
G1 X89.518 Y81.880 E1.15061 F1080.000
G1 X89.988 Y81.490 E1.22169
G1 X90.618 Y81.030 E1.31249
G1 X91.288 Y80.650 E1.40214
G1 X131.218 Y60.770 E6.59372
G1 X132.148 Y60.390 E6.71065
G1 X133.128 Y60.150 E6.82809
G1 X134.778 Y59.880 E7.02268
G1 X135.288 Y59.820 E7.08245
G1 X135.958 Y59.790 E7.16051
G1 X200.948 Y59.790 E14.72469
G1 X202.108 Y59.890 E14.86020
G1 X203.708 Y60.170 E15.04926
G1 X204.798 Y60.460 E15.18053
G1 X205.828 Y60.920 E15.31183
G1 X207.308 Y61.750 E15.50932
G1 X208.358 Y62.480 E15.65817
G1 X209.258 Y63.400 E15.80796
G1 X210.258 Y64.640 E15.99337
G1 X211.058 Y65.890 E16.16610
G1 X211.558 Y67.290 E16.33913
G1 X211.908 Y68.760 E16.51500
G1 X212.068 Y69.800 E16.63747
G1 X213.298 Y85.720 E18.49592
G1 X213.318 Y86.240 E18.55649
G1 X213.318 Y111.760 E21.52676
G1 X213.208 Y114.620 E21.85988
G1 X212.448 Y128.660 E23.49639
G1 X212.338 Y129.610 E23.60769
G1 X212.018 Y131.220 E23.79875
G1 X211.638 Y132.470 E23.95081
G1 X211.018 Y133.620 E24.10287
G1 X210.108 Y134.990 E24.29430
G1 X209.628 Y135.640 E24.38834
G1 X209.068 Y136.220 E24.48218
G1 X200.578 Y144.040 E25.82562
G1 X199.738 Y144.700 E25.94996
G1 X198.878 Y145.270 E26.07004
G1 X198.128 Y145.700 E26.17067
G1 X197.328 Y146.030 E26.27139
G1 X196.358 Y146.360 E26.39064
G1 X195.548 Y146.580 E26.48833
G1 X188.698 Y147.990 E27.30232
G1 X183.208 Y148.970 E27.95140
G1 X182.848 Y149.020 E27.99370
G1 X177.138 Y149.720 E28.66326
G1 X171.748 Y150.100 E29.29216
G1 X165.778 Y150.210 E29.98713
G1 X94.738 Y149.150 E38.25638
G1 X93.968 Y149.100 E38.34619
G1 X93.208 Y148.950 E38.43636
G1 X92.648 Y148.810 E38.50354
G1 X91.248 Y148.290 E38.67736
G1 X89.988 Y147.470 E38.85233
G1 X89.518 Y147.080 E38.92342
G1 X88.608 Y146.160 E39.07403
G1 X87.888 Y145.070 E39.22607
G1 X87.578 Y144.490 E39.30262
G1 X87.138 Y143.480 E39.43084
G1 X86.868 Y142.400 E39.56041
G1 X86.758 Y141.720 E39.64058
G1 X86.678 Y140.650 E39.76547
G1 X86.678 Y88.310 E45.85731
G1 X86.758 Y87.240 E45.98220
G1 X86.868 Y86.560 E46.06237
G1 X87.138 Y85.480 E46.19194
G1 X87.578 Y84.470 E46.32017
G1 X87.888 Y83.890 E46.39671
G1 X88.549 Y82.889 E46.53629
G1 F1800.000 E45.53629
G92 E0
G1 X118.230 Y85.335 F7200.000
G1 E1.00000 F1800.000
G1 X118.344 Y84.761 E1.06813 F540.000
G1 X118.670 Y84.274 E1.13626
G1 X119.156 Y83.949 E1.20440
G1 X119.730 Y83.835 E1.27253
G1 X120.305 Y83.949 E1.34066
G1 X120.791 Y84.274 E1.40879
G1 X121.117 Y84.761 E1.47693
G1 X121.231 Y85.335 E1.54506
G1 X121.117 Y85.909 E1.61319
G1 X120.791 Y86.396 E1.68133
G1 X120.305 Y86.721 E1.74946
G1 X119.730 Y86.835 E1.81759
G1 X119.156 Y86.721 E1.88572
G1 X118.670 Y86.396 E1.95386
G1 X118.344 Y85.909 E2.02199
G1 X118.251 Y85.440 E2.07765
G1 X117.743 Y85.010 F7200.000
G1 X113.200 Y87.627 F7200.000
G1 X126.748 Y87.627 E3.65447 F756.000
G1 X126.748 Y112.461 E6.54487
G1 X113.200 Y112.483 E8.12169
G1 X113.200 Y87.734 E11.00217
G1 X113.200 Y86.913 F7200.000
G1 F1800.000 E10.00217
G92 E0
G1 X119.278 Y113.219 F7200.000
G1 E1.00000 F1800.000
G1 X119.852 Y113.105 E1.06813 F540.000
G1 X120.426 Y113.219 E1.13626
G1 X120.913 Y113.544 E1.20440
G1 X121.238 Y114.031 E1.27253
G1 X121.353 Y114.605 E1.34067
G1 X121.238 Y115.179 E1.40879
G1 X120.913 Y115.666 E1.47693
G1 X120.426 Y115.991 E1.54506
G1 X119.852 Y116.105 E1.61319
G1 X119.278 Y115.991 E1.68132
G1 X118.791 Y115.666 E1.74946
G1 X118.466 Y115.179 E1.81759
G1 X118.352 Y114.605 E1.88572
G1 X118.466 Y114.031 E1.95386
G1 X118.791 Y113.544 E2.02199
G1 X119.189 Y113.278 E2.07766
G1 X119.392 Y112.645 F7200.000
G1 X98.593 Y127.919 F7200.000
G1 X98.997 Y128.523 E2.16223 F540.000
G1 X99.139 Y129.236 E2.24681
G1 X98.997 Y129.949 E2.33139
G1 X98.593 Y130.553 E2.41597
G1 X97.989 Y130.957 E2.50055
G1 X97.277 Y131.098 E2.58512
G1 X96.564 Y130.957 E2.66970
G1 X95.960 Y130.553 E2.75428
G1 X95.556 Y129.949 E2.83886
G1 X95.414 Y129.236 E2.92344
G1 X95.556 Y128.523 E3.00801
G1 X95.960 Y127.919 E3.09259
G1 X96.564 Y127.515 E3.17717
G1 X97.277 Y127.374 E3.26174
G1 X97.989 Y127.515 E3.34632
G1 X98.504 Y127.859 E3.41843
G1 X99.294 Y127.780 F7200.000
G1 X104.800 Y132.307 F7200.000
G1 X105.404 Y131.904 E3.50301 F540.000
G1 X106.117 Y131.762 E3.58758
G1 X106.830 Y131.904 E3.67216
G1 X107.434 Y132.307 E3.75674
G1 X107.838 Y132.912 E3.84131
G1 X107.979 Y133.624 E3.92589
G1 X107.838 Y134.337 E4.01047
G1 X107.434 Y134.941 E4.09505
G1 X106.830 Y135.345 E4.17962
G1 X106.117 Y135.487 E4.26420
G1 X105.404 Y135.345 E4.34878
G1 X104.800 Y134.941 E4.43336
G1 X104.396 Y134.337 E4.51793
G1 X104.254 Y133.624 E4.60251
G1 X104.396 Y132.912 E4.68709
G1 X104.740 Y132.397 E4.75920
G1 X104.661 Y131.607 F7200.000
G1 X98.593 Y137.884 F7200.000
G1 X98.997 Y138.489 E4.84377 F540.000
G1 X99.139 Y139.201 E4.92835
G1 X98.997 Y139.914 E5.01293
G1 X98.593 Y140.518 E5.09751
G1 X97.989 Y140.922 E5.18209
G1 X97.276 Y141.064 E5.26667
G1 X96.564 Y140.922 E5.35124
G1 X95.960 Y140.518 E5.43582
G1 X95.556 Y139.914 E5.52040
G1 X95.414 Y139.201 E5.60498
G1 X95.556 Y138.489 E5.68956
G1 X95.960 Y137.884 E5.77413
G1 X96.564 Y137.481 E5.85871
G1 X97.276 Y137.339 E5.94329
G1 X97.989 Y137.481 E6.02786
G1 X98.504 Y137.825 E6.09997
G1 X99.294 Y137.745 F7200.000
G1 X99.846 Y137.188 F7200.000
G1 X99.623 Y136.855 E6.14665 F1080.000
G1 X98.546 Y136.135 E6.29736
G1 X97.276 Y135.883 E6.44807
G1 X96.007 Y136.135 E6.59878
G1 X95.327 Y136.589 E6.69392
G1 X95.327 Y131.848 E7.24578
G1 X96.006 Y132.302 E7.34092
G1 X97.277 Y132.555 E7.49164
G1 X98.547 Y132.302 E7.64235
G1 X99.623 Y131.583 E7.79306
G1 X100.343 Y130.506 E7.94378
G1 X100.595 Y129.236 E8.09449
G1 X100.343 Y127.966 E8.24520
G1 X99.623 Y126.889 E8.39591
G1 X98.547 Y126.170 E8.54662
G1 X96.978 Y125.858 E8.73280
G1 X111.542 Y102.705 E11.91630
G1 X111.772 Y102.772 E11.94419
G1 X111.772 Y113.914 E13.24097
G1 X117.035 Y113.905 E13.85355
G1 X116.896 Y114.605 E13.93662
G1 X117.121 Y115.736 E14.07088
G1 X117.762 Y116.696 E14.20515
G1 X118.721 Y117.337 E14.33943
G1 X119.852 Y117.562 E14.47369
G1 X120.984 Y117.337 E14.60795
G1 X121.943 Y116.696 E14.74222
G1 X122.584 Y115.736 E14.87649
G1 X122.809 Y114.605 E15.01075
G1 X122.668 Y113.896 E15.09490
G1 X126.142 Y113.890 E15.49923
G1 X126.142 Y116.582 E15.81247
G1 X121.550 Y120.433 E16.50994
G1 X109.386 Y133.377 E18.57733
G1 X109.183 Y132.354 E18.69865
G1 X108.464 Y131.278 E18.84935
G1 X107.387 Y130.558 E19.00006
G1 X106.117 Y130.306 E19.15078
G1 X104.847 Y130.558 E19.30149
G1 X103.770 Y131.278 E19.45220
G1 X103.051 Y132.354 E19.60292
G1 X102.975 Y132.737 E19.64827
G1 X102.798 Y133.624 E19.75363
G1 X103.051 Y134.894 E19.90434
G1 X103.770 Y135.971 E20.05506
G1 X104.847 Y136.690 E20.20577
G1 X105.894 Y136.899 E20.33002
G1 X104.862 Y137.936 E20.50031
G1 X103.221 Y139.389 E20.75542
G1 X101.092 Y140.541 E21.03711
G1 X100.327 Y140.550 E21.12620
G1 X100.595 Y139.201 E21.28623
G1 X100.343 Y137.931 E21.43696
G1 X99.905 Y137.277 E21.52852
G1 X99.252 Y137.585 F7200.000
G1 X99.108 Y137.370 E21.55867 F1080.000
G1 X98.268 Y136.808 E21.67631
G1 X97.276 Y136.611 E21.79395
G1 X96.285 Y136.808 E21.91159
G1 X95.445 Y137.370 E22.02924
G1 X94.825 Y138.297 E22.15901
G1 X94.613 Y138.232 E22.18487
G1 X94.613 Y130.205 E23.11912
G1 X94.825 Y130.141 E23.14498
G1 X95.445 Y131.068 E23.27475
G1 X96.285 Y131.629 E23.39240
G1 X97.277 Y131.826 E23.51004
G1 X98.268 Y131.629 E23.62769
G1 X99.108 Y131.068 E23.74533
G1 X99.670 Y130.227 E23.86298
G1 X99.867 Y129.236 E23.98063
G1 X99.670 Y128.245 E24.09827
G1 X99.108 Y127.404 E24.21591
G1 X98.268 Y126.843 E24.33355
G1 X97.277 Y126.645 E24.45120
G1 X95.749 Y126.949 E24.63251
G1 X94.671 Y128.562 E24.85831
G1 X94.516 Y127.608 E24.97086
G1 X94.568 Y127.288 E25.00853
G1 X94.728 Y126.994 E25.04756
G1 X95.545 Y126.794 E25.14547
G1 X112.256 Y100.229 E28.79818
G1 X112.486 Y100.295 E28.82606
G1 X112.486 Y113.198 E30.32784
G1 X118.170 Y113.189 E30.98938
G1 X117.793 Y113.752 E31.06821
G1 X117.624 Y114.605 E31.16942
G1 X117.793 Y115.458 E31.27061
G1 X118.276 Y116.181 E31.37181
G1 X118.999 Y116.664 E31.47302
G1 X119.852 Y116.833 E31.57421
G1 X120.705 Y116.664 E31.67541
G1 X121.428 Y116.181 E31.77661
G1 X121.911 Y115.458 E31.87781
G1 X122.081 Y114.605 E31.97901
G1 X121.911 Y113.752 E32.08021
G1 X121.531 Y113.184 E32.15980
G1 X126.856 Y113.175 E32.77955
G1 X126.856 Y116.915 E33.21482
G1 X122.042 Y120.953 E33.94612
G1 X108.625 Y135.229 E36.22639
G1 X108.410 Y135.119 E36.25453
G1 X108.707 Y133.624 E36.43187
G1 X108.510 Y132.633 E36.54951
G1 X107.949 Y131.793 E36.66715
G1 X107.108 Y131.231 E36.78479
G1 X106.117 Y131.034 E36.90244
G1 X105.126 Y131.231 E37.02008
G1 X104.285 Y131.793 E37.13773
G1 X103.724 Y132.633 E37.25538
G1 X103.526 Y133.624 E37.37302
G1 X103.723 Y134.616 E37.49066
G1 X104.285 Y135.456 E37.60831
G1 X105.126 Y136.018 E37.72596
G1 X106.117 Y136.215 E37.84360
G1 X107.578 Y135.924 E38.01697
G1 X107.684 Y136.125 E38.04336
G1 X105.352 Y138.456 E38.42710
G1 X103.633 Y139.978 E38.69437
G1 X101.277 Y141.253 E39.00613
G1 X98.943 Y141.280 E39.27781
G1 X99.670 Y140.193 E39.43005
G1 X99.867 Y139.201 E39.54769
G1 X99.670 Y138.210 E39.66535
G1 X99.312 Y137.674 E39.74037
G1 F1800.000 E38.74037
G92 E0
G1 X105.111 Y138.821 F7200.000
G1 X112.112 Y131.685 F7200.000
G1 X114.884 Y133.117 F7200.000
G1 X129.102 Y119.095 F7200.000
G1 X129.970 Y79.500 F7200.000
G1 X123.053 Y79.500 F7200.000
G1 X121.684 Y82.500 F7200.000
G1 X112.961 Y83.776 F7200.000
G1 X113.789 Y86.199 F7200.000
G1 E1.00000 F1800.000
G1 X113.789 Y83.328 E1.33412 F540.000
G1 X117.584 Y83.328 E1.77578
G1 X116.999 Y84.204 E1.89831
G1 X116.774 Y85.335 E2.03258
G1 X116.946 Y86.199 E2.13510
G1 X113.896 Y86.199 E2.49001
G1 X113.075 Y86.913 F7200.000
G1 X113.075 Y82.614 E2.99038 F540.000
G1 X119.486 Y82.614 E3.73655
G1 X119.551 Y82.827 E3.76240
G1 X118.155 Y83.759 E3.95779
G1 X117.672 Y84.482 E4.05899
G1 X117.502 Y85.335 E4.16019
G1 X117.672 Y86.188 E4.26140
G1 X118.156 Y86.913 E4.36292
G1 X113.182 Y86.913 E4.94184
G1 X112.961 Y83.776 F7200.000
G1 X121.684 Y82.500 F7200.000
G1 X122.515 Y86.199 F7200.000
G1 X122.687 Y85.335 E5.04436 F540.000
G1 X122.462 Y84.204 E5.17863
G1 X121.877 Y83.328 E5.30117
G1 X126.142 Y83.328 E5.79754
G1 X126.142 Y86.199 E6.13166
G1 X122.622 Y86.199 E6.54129
G1 X121.789 Y86.188 F7200.000
G1 X121.959 Y85.335 E6.64249 F540.000
G1 X121.789 Y84.482 E6.74369
G1 X121.306 Y83.759 E6.84489
G1 X119.910 Y82.827 E7.04028
G1 X119.975 Y82.614 E7.06614
G1 X126.856 Y82.614 E7.86702
G1 X126.856 Y86.913 E8.36739
G1 X121.305 Y86.913 E9.01350
G1 X121.730 Y86.277 E9.10255
G1 X127.570 Y81.900 F7200.000
G1 X127.570 Y117.248 E13.21669 F756.000
G1 X122.533 Y121.473 E13.98183
G1 X109.001 Y135.872 E16.28170
G1 X108.430 Y136.392 E16.37166
G1 X105.842 Y138.975 E16.79719
G1 X104.044 Y140.567 E17.07664
G1 X101.462 Y141.965 E17.41845
G1 X94.888 Y142.042 E18.18361
G1 X94.469 Y141.939 E18.23382
G1 X94.128 Y141.659 E18.28522
G1 X93.882 Y141.207 E18.34510
G1 X93.793 Y140.653 E18.41037
G1 X93.899 Y140.001 E18.48731
G1 X93.899 Y128.260 E19.85377
G1 X93.793 Y127.608 E19.93071
G1 X93.882 Y127.054 E19.99598
G1 X94.128 Y126.602 E20.05586
G1 X94.469 Y126.322 E20.10726
G1 X95.095 Y126.169 E20.18221
G1 X112.361 Y98.721 E23.95639
G1 X112.361 Y81.900 E25.91413
G1 X127.463 Y81.900 E27.67186
G1 X127.213 Y82.518 F7200.000
G1 X126.247 Y117.575 F7200.000
G1 X101.962 Y116.379 F7200.000
G1 X112.600 Y109.467 F7200.000
G1 X111.262 Y104.127 F7200.000
G1 X111.290 Y104.156 E27.67659 F1080.000
G1 X110.840 Y104.726 E27.76198
G1 X111.290 Y105.176 E27.83685
G1 X111.290 Y106.196 E27.95679
G1 X110.446 Y105.352 E28.09716
G1 X110.052 Y105.978 E28.18415
G1 X111.290 Y107.216 E28.39001
G1 X111.290 Y108.237 E28.50996
G1 X109.658 Y106.605 E28.78133
G1 X109.264 Y107.231 E28.86831
G1 X111.290 Y109.257 E29.20518
G1 X111.290 Y110.277 E29.32512
G1 X108.870 Y107.857 E29.72749
G1 X108.476 Y108.483 E29.81447
G1 X111.290 Y111.297 E30.28234
G1 X111.290 Y112.317 E30.40229
G1 X108.082 Y109.110 E30.93566
G1 X107.688 Y109.736 E31.02264
G1 X111.290 Y113.338 E31.62151
G1 X116.600 Y115.587 F7200.000
G1 X115.402 Y114.389 E31.82059 F1080.000
G1 X114.384 Y114.391 E31.94034
G1 X120.665 Y120.672 E32.98463
G1 X120.170 Y121.198 E33.06948
G1 X113.365 Y114.393 E34.20094
G1 X112.347 Y114.394 E34.32069
G1 X119.676 Y121.724 E35.53932
G1 X119.182 Y122.250 E35.62418
G1 X107.294 Y110.362 E37.60070
G1 X106.900 Y110.988 E37.68768
G1 X118.688 Y122.776 E39.64752
G1 X118.193 Y123.302 E39.73237
G1 X106.506 Y111.615 E41.67554
G1 X106.112 Y112.241 E41.76252
G1 X117.699 Y123.827 E43.68900
G1 X117.205 Y124.353 E43.77386
G1 X105.718 Y112.867 E45.68366
G1 X105.325 Y113.493 E45.77065
G1 X116.711 Y124.879 E47.66377
G1 X116.216 Y125.405 E47.74863
G1 X104.931 Y114.120 E49.62507
G1 X104.537 Y114.746 E49.71206
G1 X115.722 Y125.931 E51.57182
G1 X115.228 Y126.457 E51.65668
G1 X104.143 Y115.372 E53.49977
G1 X103.749 Y115.998 E53.58675
G1 X114.734 Y126.983 E55.41316
G1 X114.239 Y127.509 E55.49802
G1 X103.355 Y116.625 E57.30775
G1 X102.961 Y117.251 E57.39473
G1 X113.745 Y128.035 E59.18779
G1 X113.251 Y128.561 E59.27264
G1 X102.567 Y117.877 E61.04901
G1 X102.173 Y118.503 E61.13600
G1 X112.757 Y129.087 E62.89569
G1 X112.262 Y129.613 E62.98055
G1 X101.779 Y119.130 E64.72356
G1 X101.385 Y119.756 E64.81055
G1 X111.768 Y130.139 E66.53689
G1 X111.274 Y130.665 E66.62174
G1 X100.991 Y120.382 E68.33140
G1 X100.597 Y121.008 E68.41838
G1 X110.780 Y131.191 E70.11136
G1 X109.479 Y131.931 E70.28726
G1 X109.791 Y132.243 E70.33908
G1 X110.285 Y131.717 E70.42394
G1 X100.203 Y121.635 E72.10024
G1 X99.809 Y122.261 E72.18722
G1 X107.810 Y130.262 E73.51755
G1 X106.399 Y129.871 E73.68976
G1 X99.415 Y122.887 E74.85089
G1 X99.021 Y123.513 E74.93788
G1 X105.454 Y129.946 E76.00746
G1 X104.619 Y130.131 E76.10805
G1 X98.627 Y124.140 E77.10425
G1 X98.022 Y125.574 E77.28734
G1 X97.840 Y125.392 E77.31764
G1 X98.234 Y124.766 E77.40462
G1 X104.007 Y130.540 E78.36464
G1 X103.405 Y130.957 E78.45083
G1 X100.938 Y128.491 E78.86098
G1 X101.016 Y129.589 E78.99042
G1 X102.996 Y131.569 E79.31965
G1 X102.593 Y132.186 E79.40631
G1 X100.847 Y130.440 E79.69667
G1 X100.510 Y131.123 E79.78622
G1 X102.424 Y133.037 E80.10449
G1 X102.386 Y134.019 E80.22001
G1 X100.101 Y131.734 E80.59985
G1 X99.554 Y132.208 E80.68488
G1 X102.936 Y135.590 E81.24713
G1 X104.152 Y136.805 F7200.000
G1 X104.706 Y137.359 E81.33926 F1080.000
G1 X104.196 Y137.870 E81.42407
G1 X98.943 Y132.617 E82.29746
G1 X98.173 Y132.867 E82.39261
G1 X103.661 Y138.355 E83.30505
G1 X103.120 Y138.834 E83.39002
G1 X97.322 Y133.037 E84.35397
G1 X96.072 Y132.806 E84.50349
G1 X99.375 Y136.110 E85.05279
G1 X100.368 Y137.102 F7200.000
G1 X102.498 Y139.232 E85.40688 F1080.000
G1 X101.836 Y139.591 E85.49537
G1 X100.997 Y138.751 E85.63489
G1 X100.977 Y139.752 E85.75250
G1 X101.174 Y139.949 E85.78530
G1 X97.726 Y135.481 F7200.000
G1 X95.808 Y133.563 E86.10419 F1080.000
G1 X95.808 Y134.583 E86.22414
G1 X96.726 Y135.501 E86.37672
G1 X95.808 Y135.603 E86.48528
G1 X95.875 Y135.670 E86.49638
G1 X118.871 Y117.858 F7200.000
G1 X121.159 Y120.146 E86.87686 F1080.000
G1 X121.706 Y119.673 E86.96190
G1 X120.047 Y118.014 E87.23777
G1 X120.898 Y117.845 E87.33978
G1 X122.261 Y119.208 E87.56641
G1 X122.816 Y118.742 E87.65155
G1 X121.587 Y117.513 E87.85596
G1 X122.198 Y117.104 E87.94243
G1 X123.371 Y118.277 E88.13741
G1 X123.926 Y117.812 E88.22255
G1 X122.637 Y116.523 E88.43677
G1 X123.041 Y115.907 E88.52341
