; generated by Slic3r 1.0.0RC3 on 2014-03-07 at 11:37:19

; layer_height = 0.3
; perimeters = 2
; top_solid_layers = 3
; bottom_solid_layers = 3
; fill_density = 0.1
; perimeter_speed = 60
; infill_speed = 60
; travel_speed = 120
; nozzle_diameter = 0.4
; filament_diameter = 1.75
; extrusion_multiplier = 0.98
; perimeters extrusion width = 0.40mm
; infill extrusion width = 0.42mm
; solid infill extrusion width = 0.42mm
; top infill extrusion width = 0.42mm
; first layer extrusion width = 0.60mm

G21 ; set units to millimeters
M107
M104 S220 ; set temperature
G28 ; home all axes
M106 S255;
G1 Z200 F1200 ; lift nozzle
M109 S220 ; wait for temperature to be reached
G90 ; use absolute coordinates
G92 E0
M82 ; use absolute distances for extrusion
G1 F1800.000 E-1.00000
G92 E0
G1 Z0.300 F7200.000
G1 X99.686 Y46.328 F7200.000
G1 E1.00000 F1800.000
G1 X101.186 Y43.158 E1.23880 F1080.000
G1 X101.846 Y42.058 E1.32615
G1 X102.706 Y41.108 E1.41340
G1 X103.736 Y40.338 E1.50097
G1 X104.886 Y39.788 E1.58777
G1 X106.126 Y39.478 E1.67481
G1 X107.406 Y39.408 E1.76209
G1 X134.836 Y40.628 E3.63172
G1 X136.866 Y40.848 E3.77075
G1 X137.566 Y40.968 E3.81911
G1 X147.956 Y43.248 E4.54343
G1 X149.786 Y43.758 E4.67278
G1 X150.216 Y43.898 E4.70358
G1 X162.616 Y48.398 E5.60180
G1 X164.236 Y49.058 E5.72092
G1 X177.136 Y55.448 E6.70117
G1 X177.596 Y55.698 E6.73682
G1 X179.476 Y56.828 E6.88618
G1 X179.906 Y57.118 E6.92149
G1 X185.696 Y61.248 E7.40577
G1 X190.516 Y64.738 E7.81097
G1 X191.126 Y65.248 E7.86512
G1 X193.536 Y67.488 E8.08916
G1 X194.056 Y68.028 E8.14020
G1 X201.536 Y76.778 E8.92404
G1 X202.066 Y77.478 E8.98383
G1 X202.906 Y78.778 E9.08922
G1 X203.256 Y79.398 E9.13770
G1 X206.016 Y84.898 E9.55672
G1 X207.486 Y87.908 E9.78481
G1 X207.786 Y88.638 E9.83855
G1 X209.486 Y93.528 E10.19107
G1 X211.096 Y98.618 E10.55459
G1 X211.276 Y99.318 E10.60380
G1 X213.536 Y110.708 E11.39450
G1 X214.946 Y121.948 E12.16585
G1 X215.526 Y128.428 E12.60886
G1 X215.886 Y133.058 E12.92507
G1 X216.176 Y139.008 E13.33071
G1 X216.366 Y143.688 E13.64964
G1 X216.456 Y153.058 E14.28770
G1 X216.326 Y154.408 E14.38005
G1 X215.916 Y155.708 E14.47286
G1 X215.256 Y156.898 E14.56552
G1 X214.366 Y157.918 E14.65770
G1 X213.276 Y158.738 E14.75058
G1 X212.046 Y159.308 E14.84289
G1 X210.726 Y159.618 E14.93521
G1 X174.956 Y164.168 E17.39050
G1 X174.436 Y164.218 E17.42608
G1 X173.166 Y164.278 E17.51265
G1 X171.666 Y164.178 E17.61501
G1 X170.226 Y163.738 E17.71754
G1 X167.716 Y162.638 E17.90415
G1 X166.546 Y161.968 E17.99595
G1 X165.536 Y161.088 E18.08717
G1 X164.726 Y160.018 E18.17855
G1 X99.956 Y52.588 E26.72038
G1 X99.376 Y51.328 E26.81483
G1 X99.066 Y49.968 E26.90981
G1 X99.046 Y48.578 E27.00447
G1 X99.326 Y47.218 E27.09901
G1 X99.695 Y46.385 E27.16102
G1 F1800.000 E26.16102
G92 E0
G1 X101.845 Y47.342 F7200.000
G1 E1.00000 F1800.000
G1 X104.072 Y42.632 E1.35472 F1080.000
G1 X107.266 Y41.449 E1.58667
G1 X117.473 Y45.999 E2.34760
G1 X121.508 Y47.955 E2.65290
G1 X126.712 Y50.519 E3.04795
G1 X128.861 Y51.659 E3.21361
G1 X129.401 Y51.334 E3.25652
G1 X129.400 Y47.818 E3.49596
G1 X129.612 Y46.893 E3.56057
G1 X130.949 Y44.139 E3.76903
G1 X133.263 Y42.857 E3.94913
G1 X136.945 Y43.266 E4.20138
G1 X147.508 Y45.588 E4.93780
G1 X149.351 Y46.116 E5.06837
G1 X155.646 Y48.442 E5.52533
G1 X161.832 Y50.647 E5.97248
G1 X163.397 Y51.292 E6.08778
G1 X176.160 Y57.614 E7.05759
G1 X178.464 Y59.008 E7.24098
G1 X184.285 Y63.172 E7.72832
G1 X189.222 Y66.744 E8.14324
G1 X189.417 Y66.905 E8.16049
G1 X192.008 Y69.308 E8.40111
G1 X192.176 Y69.482 E8.41758
G1 X199.828 Y78.434 E9.21946
G1 X199.996 Y78.659 E9.23856
G1 X201.085 Y80.369 E9.37663
G1 X203.874 Y85.935 E9.80056
G1 X205.410 Y89.070 E10.03825
G1 X205.507 Y89.304 E10.05553
G1 X207.213 Y94.222 E10.40997
G1 X208.870 Y99.454 E10.78364
G1 X208.928 Y99.681 E10.79960
G1 X210.753 Y108.945 E11.44254
G1 X211.170 Y110.946 E11.58175
G1 X211.952 Y117.517 E12.03230
G1 X212.603 Y122.364 E12.36531
G1 X213.151 Y128.591 E12.79099
G1 X213.522 Y133.339 E13.11527
G1 X213.800 Y139.134 E13.51033
G1 X213.987 Y143.614 E13.81563
G1 X214.093 Y154.788 E14.57656
G1 X211.735 Y157.246 E14.80851
G1 X204.688 Y157.472 E15.28860
G1 X202.152 Y155.043 E15.52769
G1 X202.078 Y148.656 E15.96266
G1 X201.595 Y134.488 E16.92797
G1 X200.729 Y124.238 E17.62835
G1 X199.844 Y117.674 E18.07938
G1 X199.371 Y113.588 E18.35944
G1 X198.173 Y107.955 E18.75158
G1 X197.311 Y103.397 E19.06746
G1 X196.131 Y99.671 E19.33363
G1 X194.362 Y94.572 E19.70110
G1 X190.429 Y86.778 E20.29555
G1 X181.908 Y76.966 E21.18044
G1 X176.823 Y73.277 E21.60821
G1 X170.639 Y68.853 E22.12596
G1 X157.589 Y62.381 E23.11787
G1 X144.502 Y57.669 E24.06498
G1 X139.635 Y56.590 E24.40446
G1 X139.283 Y57.468 E24.46887
G1 X140.599 Y58.263 E24.57357
G1 X146.473 Y61.702 E25.03707
G1 X147.983 Y62.778 E25.16333
G1 X155.753 Y68.143 E25.80627
G1 X155.938 Y68.287 E25.82223
G1 X160.076 Y71.891 E26.19590
G1 X163.907 Y75.415 E26.55034
G1 X164.083 Y75.598 E26.56762
G1 X166.359 Y78.270 E26.80660
G1 X170.340 Y83.032 E27.22925
G1 X171.475 Y84.712 E27.36731
G1 X171.615 Y84.955 E27.38641
G1 X176.776 Y95.540 E28.18829
G1 X176.869 Y95.764 E28.20476
G1 X178.041 Y99.097 E28.44538
G1 X178.110 Y99.341 E28.46263
G1 X179.418 Y105.280 E28.87674
G1 X180.919 Y112.290 E29.36489
G1 X181.280 Y114.959 E29.54828
G1 X181.993 Y129.184 E30.51809
G1 X181.962 Y130.877 E30.63339
G1 X181.519 Y137.429 E31.08054
G1 X181.144 Y144.129 E31.53750
G1 X180.894 Y146.030 E31.66807
G1 X178.815 Y156.644 E32.40449
G1 X177.723 Y160.183 E32.65673
G1 X175.626 Y161.795 E32.83683
G1 X172.567 Y161.924 E33.04531
G1 X171.634 Y161.750 E33.10992
G1 X167.238 Y159.839 E33.43631
G1 X165.897 Y156.995 E33.65043
G1 X166.491 Y154.917 E33.79757
G1 X168.616 Y143.974 E34.55664
G1 X169.097 Y136.314 E35.07921
G1 X169.509 Y130.204 E35.49623
G1 X168.772 Y115.545 E36.49569
G1 X167.179 Y108.111 E37.01334
G1 X165.841 Y102.036 E37.43689
G1 X160.254 Y90.309 E38.32142
G1 X154.660 Y83.566 E38.91801
G1 X150.664 Y79.884 E39.28801
G1 X147.689 Y77.297 E39.55646
G1 X143.879 Y74.710 E39.87006
G1 X139.189 Y71.367 E40.26220
G1 X135.630 Y69.306 E40.54226
G1 X129.962 Y65.879 E40.99329
G1 X120.919 Y61.007 E41.69272
G1 X108.104 Y54.913 E42.65898
G1 X102.275 Y52.300 E43.09395
G1 X101.058 Y49.006 E43.33304
G1 X101.809 Y47.417 E43.45272
G1 X102.349 Y47.580 F7200.000
G1 X104.479 Y43.076 E43.79198 F1080.000
G1 X107.247 Y42.050 E43.99300
G1 X117.234 Y46.502 E44.73756
G1 X121.262 Y48.455 E45.04237
G1 X126.462 Y51.017 E45.43707
G1 X129.419 Y52.585 E45.66498
G1 X129.959 Y52.261 E45.70789
G1 X129.957 Y47.881 E46.00612
G1 X130.141 Y47.079 E46.06211
G1 X131.373 Y44.541 E46.25426
G1 X133.379 Y43.430 E46.41035
G1 X136.840 Y43.814 E46.64749
G1 X147.380 Y46.130 E47.38229
G1 X149.168 Y46.643 E47.50895
G1 X155.456 Y48.966 E47.96540
G1 X161.638 Y51.169 E48.41230
G1 X163.175 Y51.803 E48.52553
G1 X175.902 Y58.108 E49.49261
G1 X178.149 Y59.468 E49.67144
G1 X183.961 Y63.624 E50.15801
G1 X188.881 Y67.186 E50.57161
G1 X189.051 Y67.325 E50.58656
G1 X191.618 Y69.706 E50.82493
G1 X199.392 Y78.782 E51.63869
G1 X199.538 Y78.977 E51.65524
G1 X200.593 Y80.632 E51.78895
G1 X203.374 Y86.181 E52.21160
G1 X204.902 Y89.300 E52.44805
G1 X204.986 Y89.503 E52.46303
G1 X206.683 Y94.394 E52.81554
G1 X208.385 Y99.804 E53.20169
G1 X210.207 Y109.057 E53.84385
G1 X210.618 Y111.025 E53.98076
G1 X211.399 Y117.587 E54.43074
G1 X212.049 Y122.419 E54.76272
G1 X212.596 Y128.639 E55.18788
G1 X212.965 Y133.370 E55.51103
G1 X213.244 Y139.160 E55.90574
G1 X213.430 Y143.633 E56.21055
G1 X213.534 Y154.567 E56.95511
G1 X211.490 Y156.697 E57.15613
G1 X204.904 Y156.907 E57.60482
G1 X202.706 Y154.803 E57.81203
G1 X202.635 Y148.643 E58.23149
G1 X202.151 Y134.455 E59.19818
G1 X201.283 Y124.178 E59.90046
G1 X200.396 Y117.602 E60.35224
G1 X199.922 Y113.498 E60.63355
G1 X198.719 Y107.843 E61.02728
G1 X197.853 Y103.261 E61.34478
G1 X196.660 Y99.495 E61.61376
G1 X194.876 Y94.354 E61.98428
G1 X190.895 Y86.465 E62.58599
G1 X182.286 Y76.553 E63.47997
G1 X177.149 Y72.825 E63.91219
G1 X170.927 Y68.374 E64.43309
G1 X157.813 Y61.871 E65.42982
G1 X144.659 Y57.134 E66.38181
G1 X136.449 Y55.314 E66.95445
G1 X136.097 Y56.192 E67.01886
G1 X140.314 Y58.742 E67.35444
G1 X146.022 Y62.073 E67.80442
G1 X147.663 Y63.234 E67.94133
G1 X155.424 Y68.593 E68.58349
G1 X159.708 Y72.309 E68.96964
G1 X163.518 Y75.814 E69.32216
G1 X163.670 Y75.972 E69.33713
G1 X165.932 Y78.628 E69.57470
G1 X169.903 Y83.377 E69.99623
G1 X171.001 Y85.005 E70.12994
G1 X171.122 Y85.216 E70.14650
G1 X176.268 Y95.770 E70.94600
G1 X177.510 Y99.266 E71.19863
G1 X177.570 Y99.477 E71.21357
G1 X178.874 Y105.399 E71.62648
G1 X180.373 Y112.397 E72.11374
G1 X180.725 Y114.999 E72.29257
G1 X181.436 Y129.184 E73.25966
G1 X181.406 Y130.846 E73.37288
G1 X180.963 Y137.395 E73.81978
G1 X180.589 Y144.087 E74.27623
G1 X180.346 Y145.932 E74.40290
G1 X178.271 Y156.522 E75.13770
G1 X177.244 Y159.849 E75.37482
G1 X175.426 Y161.246 E75.53091
G1 X172.607 Y161.365 E75.72307
G1 X171.798 Y161.214 E75.77907
G1 X167.653 Y159.411 E76.08688
G1 X166.490 Y156.947 E76.27245
G1 X167.033 Y155.047 E76.40697
G1 X169.171 Y144.024 E77.17155
G1 X169.653 Y136.350 E77.69511
G1 X170.066 Y130.222 E78.11336
G1 X169.326 Y115.471 E79.11899
G1 X167.723 Y107.993 E79.63980
G1 X166.372 Y101.854 E80.06781
G1 X160.727 Y90.007 E80.96142
G1 X155.039 Y83.154 E81.56781
G1 X151.035 Y79.469 E81.93834
G1 X148.030 Y76.855 E82.20959
G1 X144.199 Y74.255 E82.52481
G1 X139.491 Y70.898 E82.91853
G1 X135.916 Y68.828 E83.19985
G1 X130.238 Y65.395 E83.65163
G1 X121.159 Y60.503 E84.35391
G1 X108.337 Y54.407 E85.32060
G1 X102.716 Y51.887 E85.74006
G1 X101.662 Y49.033 E85.94727
G1 X102.313 Y47.655 E86.05101
G1 X102.852 Y47.818 F7200.000
G1 X104.885 Y43.519 E86.37480 F1080.000
G1 X107.228 Y42.651 E86.54490
G1 X116.995 Y47.005 E87.27308
G1 X121.017 Y48.955 E87.57740
G1 X126.212 Y51.515 E87.97176
G1 X130.877 Y53.996 E88.33157
G1 X131.460 Y53.267 E88.39510
G1 X130.516 Y52.192 E88.49255
G1 X130.514 Y47.944 E88.78179
G1 X130.670 Y47.266 E88.82917
G1 X131.797 Y44.943 E89.00500
G1 X133.494 Y44.003 E89.13708
G1 X136.735 Y44.361 E89.35911
G1 X147.252 Y46.672 E90.09229
G1 X148.985 Y47.169 E90.21504
G1 X155.266 Y49.489 E90.67100
G1 X161.444 Y51.691 E91.11763
G1 X162.953 Y52.314 E91.22879
G1 X175.644 Y58.602 E92.19315
G1 X177.833 Y59.927 E92.36741
G1 X183.636 Y64.077 E92.85320
G1 X188.541 Y67.627 E93.26549
G1 X191.227 Y70.103 E93.51425
G1 X198.957 Y79.129 E94.32344
G1 X199.080 Y79.294 E94.33745
G1 X200.102 Y80.895 E94.46680
G1 X202.868 Y86.415 E94.88721
G1 X204.466 Y89.702 E95.13602
G1 X206.153 Y94.566 E95.48660
G1 X207.841 Y99.927 E95.86930
G1 X209.662 Y109.168 E96.51069
G1 X210.067 Y111.103 E96.64529
G1 X210.847 Y117.657 E97.09471
G1 X211.495 Y122.474 E97.42566
G1 X212.041 Y128.686 E97.85029
G1 X212.409 Y133.401 E98.17231
G1 X212.687 Y139.186 E98.56667
G1 X212.873 Y143.651 E98.87099
G1 X212.975 Y154.345 E99.59918
G1 X211.245 Y156.147 E99.76927
G1 X205.120 Y156.343 E100.18656
G1 X203.260 Y154.562 E100.36189
G1 X203.192 Y148.630 E100.76584
G1 X202.708 Y134.422 E101.73391
G1 X201.837 Y124.117 E102.43809
G1 X200.948 Y117.530 E102.89063
G1 X200.472 Y113.408 E103.17319
G1 X199.265 Y107.730 E103.56849
G1 X198.394 Y103.125 E103.88762
G1 X197.189 Y99.320 E104.15940
G1 X195.390 Y94.137 E104.53298
G1 X191.361 Y86.152 E105.14196
G1 X182.665 Y76.139 E106.04502
G1 X177.473 Y72.372 E106.48179
G1 X171.212 Y67.895 E107.00592
G1 X158.049 Y61.366 E108.00640
G1 X144.830 Y56.604 E108.96311
G1 X133.811 Y54.159 E109.73167
G1 X132.853 Y54.032 E109.79752
G1 X132.566 Y54.913 E109.86061
G1 X135.931 Y56.743 E110.12142
G1 X140.030 Y59.221 E110.44753
G1 X145.730 Y62.548 E110.89695
G1 X147.343 Y63.690 E111.03155
G1 X155.094 Y69.042 E111.67293
G1 X159.339 Y72.726 E112.05563
G1 X163.128 Y76.212 E112.40622
G1 X165.506 Y78.987 E112.65503
G1 X169.466 Y83.723 E113.07544
G1 X170.527 Y85.299 E113.20479
G1 X170.630 Y85.477 E113.21880
G1 X175.829 Y96.163 E114.02799
G1 X177.029 Y99.614 E114.27674
G1 X178.331 Y105.527 E114.68904
G1 X179.846 Y112.618 E115.18276
G1 X180.169 Y115.039 E115.34909
G1 X180.877 Y129.080 E116.30641
G1 X180.849 Y130.816 E116.42461
G1 X180.407 Y137.357 E116.87102
G1 X180.022 Y144.161 E117.33510
G1 X179.798 Y145.833 E117.44995
G1 X177.687 Y156.562 E118.19449
G1 X176.765 Y159.515 E118.40515
G1 X175.227 Y160.697 E118.53722
G1 X172.647 Y160.805 E118.71307
G1 X171.963 Y160.678 E118.76045
G1 X168.067 Y158.984 E119.04968
G1 X167.083 Y156.898 E119.20670
G1 X167.576 Y155.177 E119.32859
G1 X169.726 Y144.078 E120.09844
G1 X170.209 Y136.386 E120.62325
G1 X170.623 Y130.239 E121.04273
G1 X169.882 Y115.424 E122.05276
G1 X168.268 Y107.874 E122.57848
G1 X166.902 Y101.672 E123.01093
G1 X161.200 Y89.704 E123.91363
G1 X155.444 Y82.769 E124.52728
G1 X151.407 Y79.054 E124.90087
G1 X148.370 Y76.412 E125.17493
G1 X144.520 Y73.800 E125.49177
G1 X139.793 Y70.429 E125.88707
G1 X136.202 Y68.350 E126.16963
G1 X130.515 Y64.911 E126.62218
G1 X121.410 Y60.006 E127.32635
G1 X108.571 Y53.901 E128.29443
G1 X103.158 Y51.475 E128.69837
G1 X102.265 Y49.059 E128.87370
G1 X102.817 Y47.894 E128.96151
G1 F1800.000 E127.96151
G92 E0
G1 X131.071 Y48.007 F7200.000
G1 E1.00000 F1800.000
G1 X131.199 Y47.452 E1.03876 F1080.000
G1 X132.222 Y45.344 E1.19828
G1 X133.610 Y44.576 E1.30634
G1 X136.496 Y44.886 E1.50397
G1 X147.124 Y47.215 E2.24483
G1 X148.711 Y47.665 E2.35720
G1 X155.079 Y50.014 E2.81934
G1 X161.251 Y52.214 E3.26549
G1 X162.809 Y52.860 E3.38034
G1 X175.479 Y59.146 E4.34343
G1 X177.518 Y60.386 E4.50592
G1 X183.311 Y64.530 E4.99093
G1 X188.201 Y68.069 E5.40191
G1 X190.937 Y70.605 E5.65598
G1 X198.622 Y79.612 E6.46218
G1 X199.611 Y81.159 E6.58718
G1 X202.370 Y86.664 E7.00647
G1 X203.886 Y89.760 E7.24122
G1 X205.613 Y94.705 E7.59788
G1 X207.297 Y100.050 E7.97948
G1 X209.116 Y109.280 E8.62008
G1 X209.515 Y111.182 E8.75237
G1 X210.294 Y117.727 E9.20123
G1 X210.934 Y122.471 E9.52720
G1 X211.486 Y128.734 E9.95525
G1 X211.853 Y133.432 E10.27615
G1 X212.131 Y139.212 E10.67017
G1 X212.316 Y143.670 E10.97400
G1 X212.416 Y154.123 E11.68581
G1 X211.001 Y155.598 E11.82497
G1 X205.337 Y155.779 E12.21086
G1 X203.815 Y154.322 E12.35431
G1 X203.749 Y148.618 E12.74274
G1 X203.263 Y134.375 E13.71315
G1 X202.391 Y124.056 E14.41827
G1 X201.501 Y117.459 E14.87158
G1 X201.022 Y113.318 E15.15538
G1 X199.810 Y107.617 E15.55227
G1 X198.943 Y103.021 E15.87074
G1 X197.718 Y99.144 E16.14761
G1 X195.889 Y93.885 E16.52677
G1 X191.789 Y85.781 E17.14517
G1 X182.996 Y75.682 E18.05694
G1 X177.800 Y71.921 E18.49375
G1 X171.566 Y67.458 E19.01582
G1 X158.105 Y60.782 E20.03891
G1 X152.285 Y58.707 E20.45963
G1 X145.020 Y56.080 E20.98568
G1 X133.908 Y53.610 E21.76079
G1 X132.317 Y53.400 E21.87007
G1 X131.073 Y51.982 E21.99853
G1 X131.071 Y48.090 E22.26351
G1 X131.628 Y48.070 F7200.000
G1 X131.727 Y47.638 E22.29366 F1080.000
G1 X132.646 Y45.746 E22.43686
G1 X133.726 Y45.148 E22.52091
G1 X136.526 Y45.456 E22.71273
G1 X146.996 Y47.757 E23.44267
G1 X148.548 Y48.198 E23.55257
G1 X154.889 Y50.538 E24.01277
G1 X161.057 Y52.736 E24.45866
G1 X162.570 Y53.364 E24.57016
G1 X175.200 Y59.629 E25.53020
G1 X177.202 Y60.845 E25.68972
G1 X182.987 Y64.982 E26.17396
G1 X187.860 Y68.510 E26.58363
G1 X190.524 Y70.979 E26.83097
G1 X198.164 Y79.930 E27.63225
G1 X199.120 Y81.422 E27.75289
G1 X201.871 Y86.912 E28.17107
G1 X203.379 Y89.990 E28.40441
G1 X205.085 Y94.884 E28.75736
G1 X206.754 Y100.173 E29.13499
G1 X208.570 Y109.392 E29.77481
G1 X208.949 Y111.172 E29.89876
G1 X209.741 Y117.797 E30.35308
G1 X210.381 Y122.540 E30.67891
G1 X210.931 Y128.781 E31.10555
G1 X211.297 Y133.463 E31.42533
G1 X211.574 Y139.238 E31.81899
G1 X211.759 Y143.689 E32.12234
G1 X211.856 Y153.901 E32.81777
G1 X210.756 Y155.048 E32.92601
G1 X205.553 Y155.215 E33.28049
G1 X204.369 Y154.081 E33.39207
G1 X204.306 Y148.605 E33.76499
G1 X203.819 Y134.342 E34.73678
G1 X202.945 Y123.995 E35.44380
G1 X202.053 Y117.387 E35.89786
G1 X201.573 Y113.228 E36.18291
G1 X200.356 Y107.504 E36.58138
G1 X199.484 Y102.885 E36.90147
G1 X198.246 Y98.969 E37.18115
G1 X196.403 Y93.667 E37.56337
G1 X192.255 Y85.468 E38.18903
G1 X183.366 Y75.265 E39.11044
