; generated by Slic3r 1.0.0RC2 on 2014-05-15 at 09:28:01

; layer_height = 0.3
; perimeters = 2
; top_solid_layers = 3
; bottom_solid_layers = 3
; fill_density = 0
; perimeter_speed = 60
; infill_speed = 60
; travel_speed = 120
; nozzle_diameter = 0.4
; filament_diameter = 1.75
; extrusion_multiplier = 0.98
; perimeters extrusion width = 0.40mm
; infill extrusion width = 0.42mm
; solid infill extrusion width = 0.42mm
; top infill extrusion width = 0.42mm
; first layer extrusion width = 0.80mm

G21 ; set units to millimeters
M107
M104 S220 ; set temperature
G28 ; home all axes
M106 S255;
G1 Z200 F1200 ; lift nozzle
M109 S220 ; wait for temperature to be reached
G90 ; use absolute coordinates
G92 E0
M82 ; use absolute distances for extrusion
G1 F1800.000 E-1.00000
G92 E0
G1 Z0.400 F7200.000
G1 X82.371 Y48.753 F7200.000
G1 E1.00000 F1800.000
G1 X83.131 Y47.583 E1.16238 F1080.000
G1 X84.101 Y46.603 E1.32287
G1 X85.261 Y45.833 E1.48492
G1 X86.551 Y45.323 E1.64637
G1 X87.921 Y45.093 E1.80806
G1 X91.701 Y44.843 E2.24897
G1 X92.791 Y44.863 E2.37586
G1 X93.861 Y45.053 E2.50234
G1 X123.091 Y52.813 E6.02227
G1 X124.381 Y53.303 E6.18288
G1 X125.551 Y54.043 E6.34400
G1 X215.641 Y125.583 E19.73348
G1 X216.581 Y126.493 E19.88576
G1 X217.331 Y127.573 E20.03880
G1 X217.851 Y128.773 E20.19101
G1 X218.131 Y130.063 E20.34465
G1 X218.191 Y130.713 E20.42063
G1 X218.351 Y134.303 E20.83888
G1 X218.271 Y135.663 E20.99745
G1 X217.921 Y136.983 E21.15639
G1 X217.311 Y138.203 E21.31515
G1 X216.471 Y139.273 E21.47347
G1 X215.421 Y140.153 E21.63293
G1 X179.461 Y164.693 E26.70001
G1 X178.051 Y165.423 E26.88481
G1 X176.491 Y165.803 E27.07169
G1 X174.901 Y165.813 E27.25675
G1 X164.451 Y164.583 E28.48142
G1 X163.521 Y164.403 E28.59167
G1 X153.471 Y161.763 E29.80108
G1 X152.881 Y161.583 E29.87287
G1 X142.101 Y157.653 E31.20833
G1 X141.481 Y157.393 E31.28658
G1 X130.781 Y152.223 E32.66971
G1 X130.051 Y151.813 E32.76715
G1 X120.221 Y145.453 E34.12985
G1 X119.331 Y144.763 E34.26093
G1 X111.151 Y137.253 E35.55339
G1 X110.371 Y136.403 E35.68766
G1 X103.661 Y127.703 E36.96644
G1 X103.091 Y126.823 E37.08847
G1 X97.651 Y116.863 E38.40935
G1 X97.281 Y116.073 E38.51089
G1 X92.911 Y104.793 E39.91885
G1 X92.701 Y104.153 E39.99724
G1 X89.101 Y91.073 E41.57623
G1 X83.481 Y64.363 E44.75307
G1 X81.721 Y52.803 E46.11405
G1 X81.661 Y51.413 E46.27598
G1 X81.881 Y50.053 E46.43633
G1 X82.334 Y48.853 E46.58556
G1 F1800.000 E45.58556
G92 E0
G1 X112.799 Y57.908 F7200.000
G1 E1.00000 F1800.000
G1 X115.083 Y55.463 E1.38944 F1080.000
G1 X122.379 Y55.369 E2.23873
G1 X124.219 Y56.403 E2.48439
G1 X124.946 Y57.635 E2.65084
G1 X125.173 Y58.209 E2.72269
G1 X126.607 Y64.629 E3.48837
G1 X126.813 Y65.228 E3.56199
G1 X127.575 Y68.607 E3.96519
G1 X128.400 Y70.392 E4.19404
G1 X129.533 Y73.154 E4.54154
G1 X130.644 Y75.730 E4.86804
G1 X132.453 Y79.609 E5.36626
G1 X135.761 Y86.977 E6.30622
G1 X141.425 Y97.891 E7.73742
G1 X142.023 Y98.927 E7.87656
G1 X148.654 Y109.264 E9.30598
G1 X152.717 Y114.382 E10.06661
G1 X154.154 Y116.026 E10.32073
G1 X155.752 Y117.546 E10.57742
G1 X159.064 Y119.911 E11.05106
G1 X162.470 Y121.527 E11.48987
G1 X168.101 Y123.225 E12.17440
G1 X175.185 Y124.388 E13.00994
G1 X184.536 Y125.351 E14.10407
G1 X185.764 Y125.517 E14.24831
G1 X191.027 Y126.127 E14.86493
G1 X195.294 Y126.542 E15.36388
G1 X195.479 Y126.511 E15.38578
G1 X195.587 Y126.462 E15.39957
G1 X201.140 Y126.737 E16.04670
G1 X210.854 Y126.933 E17.17748
G1 X212.887 Y126.896 E17.41418
G1 X215.157 Y128.845 E17.76233
G1 X215.406 Y130.757 E17.98680
G1 X215.645 Y136.124 E18.61208
G1 X213.289 Y138.556 E19.00615
G1 X203.187 Y138.430 E20.18203
G1 X195.826 Y138.083 E21.03971
G1 X189.214 Y137.496 E21.81229
G1 X182.908 Y136.684 E22.55236
G1 X177.387 Y135.820 E23.20270
G1 X168.776 Y134.309 E24.22029
G1 X164.973 Y133.282 E24.67880
G1 X163.413 Y132.804 E24.86869
G1 X161.145 Y132.221 E25.14125
G1 X160.890 Y132.137 E25.17248
G1 X153.245 Y129.012 E26.13374
G1 X152.838 Y128.786 E26.18793
G1 X151.614 Y127.904 E26.36346
G1 X147.713 Y125.470 E26.89867
G1 X147.097 Y125.028 E26.98695
G1 X146.900 Y124.864 E27.01674
G1 X146.286 Y124.280 E27.11539
G1 X141.210 Y119.873 E27.89773
G1 X139.251 Y118.002 E28.21312
G1 X138.832 Y117.547 E28.28506
G1 X132.256 Y109.841 E29.46418
G1 X131.911 Y109.399 E29.52942
G1 X128.625 Y104.831 E30.18427
G1 X127.978 Y103.692 E30.33680
G1 X127.500 Y102.973 E30.43728
G1 X123.806 Y96.780 E31.27659
G1 X121.726 Y93.367 E31.74176
G1 X120.916 Y91.862 E31.94063
G1 X119.816 Y89.371 E32.25766
G1 X118.955 Y87.496 E32.49782
G1 X116.068 Y80.131 E33.41850
G1 X114.999 Y76.890 E33.81567
G1 X114.883 Y76.449 E33.86879
G1 X114.108 Y72.975 E34.28302
G1 X113.590 Y69.585 E34.68221
G1 X113.120 Y67.032 E34.98438
G1 X113.088 Y66.724 E35.02035
G1 X112.932 Y60.375 E35.75954
G1 X112.805 Y58.015 E36.03461
G1 X113.528 Y58.173 F7200.000
G1 X115.397 Y56.173 E36.35324 F1080.000
G1 X122.196 Y56.085 E37.14467
G1 X123.702 Y56.932 E37.34566
G1 X124.303 Y57.950 E37.48324
G1 X124.488 Y58.419 E37.54203
G1 X125.914 Y64.805 E38.30353
G1 X126.123 Y65.414 E38.37852
G1 X126.895 Y68.837 E38.78692
G1 X127.742 Y70.670 E39.02193
G1 X128.875 Y73.431 E39.36923
G1 X129.992 Y76.022 E39.69770
G1 X131.803 Y79.904 E40.19624
G1 X135.118 Y87.288 E41.13826
G1 X140.799 Y98.234 E42.57367
G1 X141.412 Y99.298 E42.71662
G1 X148.072 Y109.680 E44.15219
G1 X152.168 Y114.839 E44.91894
G1 X153.637 Y116.521 E45.17879
G1 X155.296 Y118.098 E45.44518
G1 X158.700 Y120.529 E45.93204
G1 X161.637 Y121.934 E46.31104
G1 X162.216 Y122.196 E46.38503
G1 X167.939 Y123.922 E47.08073
G1 X175.112 Y125.099 E47.92670
G1 X184.457 Y126.061 E49.02016
G1 X185.675 Y126.226 E49.16320
G1 X190.951 Y126.837 E49.78139
G1 X195.415 Y127.271 E50.30339
G1 X195.600 Y127.240 E50.32529
G1 X195.725 Y127.184 E50.34125
G1 X201.096 Y127.450 E50.96711
G1 X210.853 Y127.647 E52.10296
G1 X212.628 Y127.615 E52.30960
G1 X214.485 Y129.209 E52.59445
G1 X214.693 Y130.805 E52.78171
G1 X214.918 Y135.848 E53.36931
G1 X212.990 Y137.838 E53.69173
G1 X203.202 Y137.716 E54.83107
G1 X195.948 Y137.375 E55.67634
G1 X189.362 Y136.794 E56.44582
G1 X183.004 Y135.977 E57.19194
G1 X177.465 Y135.109 E57.84447
G1 X168.946 Y133.615 E58.85110
G1 X165.165 Y132.594 E59.30695
G1 X163.607 Y132.116 E59.49662
G1 X161.346 Y131.535 E59.76830
G1 X161.138 Y131.466 E59.79386
G1 X153.555 Y128.366 E60.74736
G1 X153.222 Y128.182 E60.79169
G1 X152.013 Y127.311 E60.96508
G1 X148.102 Y124.871 E61.50158
G1 X147.536 Y124.464 E61.58267
G1 X146.766 Y123.751 E61.70482
G1 X141.685 Y119.339 E62.48806
G1 X139.768 Y117.509 E62.79660
G1 X139.371 Y117.078 E62.86479
G1 X132.813 Y109.395 E64.04043
G1 X132.486 Y108.975 E64.10240
G1 X129.237 Y104.462 E64.74964
G1 X128.586 Y103.316 E64.90302
G1 X128.108 Y102.599 E65.00328
G1 X124.417 Y96.411 E65.84186
G1 X122.341 Y93.004 E66.30627
G1 X121.553 Y91.538 E66.50005
G1 X120.467 Y89.078 E66.81298
G1 X119.616 Y87.225 E67.05026
G1 X116.737 Y79.880 E67.96857
G1 X115.681 Y76.679 E68.36078
G1 X115.577 Y76.280 E68.40888
G1 X114.808 Y72.832 E68.81999
G1 X114.294 Y69.467 E69.21619
G1 X113.828 Y66.930 E69.51641
G1 X113.802 Y66.678 E69.54584
G1 X113.646 Y60.347 E70.28298
G1 X113.534 Y58.280 E70.52386
G1 X114.258 Y58.439 F7200.000
G1 X115.711 Y56.883 E70.77168 F1080.000
G1 X122.014 Y56.802 E71.50524
G1 X123.184 Y57.460 E71.66157
G1 X123.659 Y58.265 E71.77029
G1 X123.804 Y58.630 E71.81602
G1 X125.222 Y64.980 E72.57332
G1 X125.433 Y65.601 E72.64969
G1 X126.215 Y69.068 E73.06328
G1 X127.085 Y70.948 E73.30446
G1 X128.217 Y73.708 E73.65158
G1 X129.340 Y76.315 E73.98201
G1 X131.153 Y80.199 E74.48086
G1 X134.474 Y87.599 E75.42494
G1 X140.172 Y98.577 E76.86456
G1 X140.802 Y99.670 E77.01132
G1 X147.491 Y110.096 E78.45305
G1 X151.619 Y115.297 E79.22591
G1 X153.121 Y117.015 E79.49150
G1 X154.840 Y118.649 E79.76759
G1 X158.336 Y121.147 E80.26766
G1 X161.335 Y122.581 E80.65454
G1 X161.963 Y122.866 E80.73482
G1 X167.777 Y124.619 E81.44168
G1 X175.017 Y125.807 E82.29560
G1 X184.378 Y126.771 E83.39089
G1 X185.586 Y126.934 E83.53272
G1 X190.875 Y127.547 E84.15249
G1 X195.536 Y128.001 E84.69753
G1 X195.722 Y127.970 E84.71942
G1 X195.864 Y127.905 E84.73756
G1 X201.052 Y128.164 E85.34215
G1 X210.852 Y128.361 E86.48306
G1 X212.369 Y128.334 E86.65965
G1 X213.813 Y129.574 E86.88120
G1 X213.980 Y130.852 E87.03125
G1 X214.190 Y135.573 E87.58118
G1 X212.691 Y137.120 E87.83194
G1 X203.217 Y137.002 E88.93474
G1 X195.989 Y136.662 E89.77700
G1 X189.432 Y136.083 E90.54309
G1 X183.100 Y135.269 E91.28616
G1 X177.617 Y134.410 E91.93211
G1 X175.426 Y134.015 E92.19118
G1 X169.230 Y132.946 E92.92307
G1 X165.357 Y131.907 E93.38975
G1 X163.801 Y131.429 E93.57918
G1 X161.385 Y130.796 E93.86983
G1 X153.864 Y127.721 E94.81556
G1 X153.605 Y127.578 E94.85004
G1 X152.411 Y126.718 E95.02130
G1 X148.491 Y124.272 E95.55909
G1 X147.976 Y123.901 E95.63297
G1 X147.246 Y123.223 E95.74888
G1 X142.159 Y118.806 E96.53302
G1 X140.285 Y117.016 E96.83472
G1 X139.910 Y116.608 E96.89915
G1 X133.371 Y108.948 E98.07133
G1 X133.061 Y108.551 E98.13002
G1 X129.848 Y104.092 E98.76964
G1 X129.194 Y102.940 E98.92388
G1 X128.717 Y102.225 E99.02392
G1 X125.029 Y96.043 E99.86178
G1 X122.956 Y92.641 E100.32542
G1 X122.189 Y91.213 E100.51410
G1 X121.118 Y88.785 E100.82294
G1 X120.277 Y86.955 E101.05733
G1 X117.405 Y79.628 E101.97328
G1 X116.364 Y76.468 E102.36053
G1 X116.270 Y76.110 E102.40361
G1 X115.508 Y72.689 E102.81160
G1 X114.999 Y69.349 E103.20482
G1 X114.535 Y66.828 E103.50308
G1 X114.515 Y66.633 E103.52597
G1 X114.359 Y60.319 E104.26106
G1 X114.264 Y58.546 E104.46775
G1 X114.987 Y58.704 F7200.000
G1 X116.026 Y57.593 E104.64477 F1080.000
G1 X121.831 Y57.518 E105.32046
G1 X122.667 Y57.989 E105.43212
G1 X123.016 Y58.579 E105.51198
G1 X123.119 Y58.840 E105.54464
G1 X124.529 Y65.155 E106.29776
G1 X124.599 Y65.404 E106.32787
G1 X124.743 Y65.788 E106.37557
G1 X125.534 Y69.298 E106.79436
G1 X126.427 Y71.227 E107.04170
G1 X127.558 Y73.985 E107.38863
G1 X128.689 Y76.607 E107.72102
G1 X130.502 Y80.494 E108.22019
G1 X133.831 Y87.910 E109.16632
G1 X139.546 Y98.920 E110.61017
G1 X140.192 Y100.041 E110.76074
G1 X146.909 Y110.512 E112.20861
G1 X151.070 Y115.754 E112.98759
G1 X152.604 Y117.509 E113.25891
G1 X154.383 Y119.201 E113.54469
G1 X157.972 Y121.764 E114.05799
G1 X161.032 Y123.228 E114.45275
G1 X161.709 Y123.535 E114.53932
G1 X167.616 Y125.316 E115.25735
G1 X174.923 Y126.516 E116.11919
G1 X184.299 Y127.481 E117.21632
G1 X185.497 Y127.643 E117.35695
G1 X190.800 Y128.257 E117.97829
G1 X195.658 Y128.730 E118.54637
G1 X195.843 Y128.699 E118.56827
G1 X196.002 Y128.627 E118.58858
G1 X200.982 Y128.877 E119.16892
G1 X210.852 Y129.076 E120.31788
G1 X212.110 Y129.053 E120.46440
G1 X213.142 Y129.939 E120.62265
G1 X213.268 Y130.900 E120.73550
G1 X213.463 Y135.297 E121.24774
G1 X212.393 Y136.402 E121.42687
G1 X203.232 Y136.288 E122.49312
G1 X195.993 Y135.946 E123.33663
G1 X189.502 Y135.372 E124.09506
G1 X183.196 Y134.561 E124.83508
G1 X177.731 Y133.705 E125.47883
G1 X175.551 Y133.311 E125.73678
G1 X169.367 Y132.245 E126.46708
G1 X165.549 Y131.219 E126.92724
G1 X163.995 Y130.741 E127.11645
G1 X161.633 Y130.126 E127.40056
G1 X154.173 Y127.076 E128.33853
G1 X153.988 Y126.974 E128.36316
G1 X152.809 Y126.124 E128.53227
G1 X148.880 Y123.673 E129.07136
G1 X148.415 Y123.337 E129.13804
G1 X147.727 Y122.694 E129.24771
G1 X142.634 Y118.272 E130.03275
G1 X140.801 Y116.523 E130.32760
G1 X140.448 Y116.139 E130.38827
G1 X133.929 Y108.502 E131.55698
G1 X133.636 Y108.127 E131.61240
G1 X130.460 Y103.723 E132.24441
G1 X129.802 Y102.564 E132.39949
G1 X129.325 Y101.851 E132.49931
G1 X125.640 Y95.674 E133.33646
G1 X123.571 Y92.278 E133.79933
G1 X122.825 Y90.888 E133.98292
G1 X121.769 Y88.492 E134.28767
G1 X120.938 Y86.685 E134.51917
G1 X118.074 Y79.377 E135.43275
G1 X117.046 Y76.257 E135.81503
G1 X116.964 Y75.941 E135.85310
G1 X116.196 Y72.485 E136.26511
G1 X115.703 Y69.231 E136.64821
G1 X115.243 Y66.727 E136.94451
G1 X115.073 Y60.291 E137.69384
G1 X114.993 Y58.811 E137.86635
G1 X115.717 Y58.969 F7200.000
G1 X116.340 Y58.302 E137.97256 F1080.000
G1 X121.648 Y58.235 E138.59039
G1 X122.149 Y58.517 E138.65739
G1 X122.372 Y58.894 E138.70838
G1 X122.434 Y59.051 E138.72798
G1 X123.837 Y65.331 E139.47690
G1 X123.924 Y65.642 E139.51449
G1 X124.053 Y65.975 E139.55611
G1 X124.854 Y69.529 E139.98010
G1 X125.769 Y71.505 E140.23361
G1 X126.900 Y74.261 E140.58034
G1 X128.037 Y76.900 E140.91470
G1 X129.852 Y80.789 E141.41418
G1 X133.188 Y88.221 E142.36237
G1 X138.919 Y99.263 E143.81043
G1 X139.582 Y100.413 E143.96481
G1 X146.327 Y110.928 E145.41884
G1 X150.521 Y116.211 E146.20394
G1 X152.087 Y118.003 E146.48099
G1 X153.927 Y119.753 E146.77647
G1 X157.608 Y122.382 E147.30298
G1 X160.729 Y123.874 E147.70563
G1 X161.455 Y124.205 E147.79849
G1 X167.454 Y126.013 E148.52768
G1 X174.828 Y127.224 E149.39746
G1 X184.220 Y128.191 E150.49641
G1 X185.408 Y128.351 E150.63585
G1 X190.724 Y128.967 E151.25876
G1 X195.779 Y129.459 E151.84988
G1 X195.965 Y129.428 E151.87178
G1 X196.140 Y129.348 E151.89427
G1 X200.918 Y129.590 E152.45101
G1 X210.851 Y129.790 E153.60736
G1 X211.851 Y129.772 E153.72383
G1 X212.470 Y130.303 E153.81878
G1 X212.555 Y130.948 E153.89441
G1 X212.736 Y135.021 E154.36898
G1 X212.094 Y135.684 E154.47645
G1 X203.247 Y135.574 E155.50616
G1 X196.049 Y135.234 E156.34495
G1 X189.572 Y134.662 E157.10170
G1 X183.292 Y133.853 E157.83867
G1 X177.846 Y133.000 E158.48023
G1 X175.675 Y132.608 E158.73705
G1 X169.505 Y131.544 E159.46576
G1 X165.741 Y130.531 E159.91941
G1 X164.189 Y130.054 E160.10838
G1 X161.881 Y129.455 E160.38596
G1 X154.483 Y126.431 E161.31616
G1 X154.372 Y126.370 E161.33094
G1 X153.208 Y125.531 E161.49792
G1 X149.269 Y123.074 E162.03829
G1 X148.855 Y122.774 E162.09778
G1 X148.207 Y122.165 E162.20120
G1 X143.108 Y117.738 E162.98714
G1 X141.318 Y116.030 E163.27515
G1 X140.987 Y115.670 E163.33206
G1 X134.486 Y108.056 E164.49731
G1 X134.211 Y107.703 E164.54944
G1 X131.071 Y103.353 E165.17384
G1 X130.409 Y102.188 E165.32978
G1 X129.934 Y101.477 E165.42938
G1 X126.252 Y95.305 E166.26580
G1 X124.186 Y91.915 E166.72791
G1 X123.461 Y90.563 E166.90640
G1 X122.421 Y88.199 E167.20706
G1 X121.599 Y86.414 E167.43568
G1 X118.742 Y79.125 E168.34688
G1 X117.728 Y76.046 E168.72421
G1 X117.658 Y75.771 E168.75726
G1 X116.900 Y72.366 E169.16329
G1 X116.407 Y69.112 E169.54627
G1 X115.950 Y66.625 E169.84061
G1 X115.787 Y60.263 E170.58137
G1 X115.723 Y59.076 E170.71969
G1 X116.446 Y59.234 F7200.000
G1 X116.654 Y59.012 E170.75509 F1080.000
G1 X121.465 Y58.951 E171.31506
G1 X121.632 Y59.045 E171.33739
G1 X121.749 Y59.261 E171.36599
G1 X123.144 Y65.506 E172.11072
G1 X123.249 Y65.879 E172.15579
G1 X123.363 Y66.162 E172.19134
G1 X124.174 Y69.759 E172.62052
G1 X125.112 Y71.784 E172.88020
G1 X126.242 Y74.538 E173.22674
G1 X127.385 Y77.192 E173.56307
G1 X129.201 Y81.083 E174.06285
G1 X132.536 Y88.513 E175.01074
G1 X138.293 Y99.607 E176.46538
G1 X138.980 Y100.798 E176.62553
G1 X145.767 Y111.373 E178.08793
G1 X149.972 Y116.668 E178.87496
G1 X151.571 Y118.497 E179.15775
G1 X153.471 Y120.305 E179.46293
G1 X157.244 Y123.000 E180.00265
G1 X160.426 Y124.521 E180.41319
G1 X161.202 Y124.874 E180.51233
G1 X167.292 Y126.710 E181.25269
G1 X174.734 Y127.932 E182.13040
G1 X184.142 Y128.901 E183.23119
G1 X185.319 Y129.060 E183.36942
G1 X190.655 Y129.678 E183.99467
G1 X195.900 Y130.189 E184.60807
G1 X196.086 Y130.158 E184.62997
G1 X196.279 Y130.070 E184.65463
G1 X200.697 Y130.282 E185.16950
G1 X200.854 Y130.303 E185.18785
G1 X210.850 Y130.504 E186.35158
G1 X211.592 Y130.491 E186.43799
G1 X211.799 Y130.668 E186.46964
G1 X211.841 Y130.980 E186.50622
G1 X212.009 Y134.745 E186.94496
G1 X211.795 Y134.966 E186.98078
G1 X203.256 Y134.860 E187.97466
G1 X196.112 Y134.523 E188.80716
G1 X189.642 Y133.951 E189.56308
G1 X183.383 Y133.145 E190.29756
G1 X177.961 Y132.296 E190.93637
G1 X175.799 Y131.905 E191.19206
G1 X169.643 Y130.843 E191.91918
G1 X165.933 Y129.843 E192.36631
G1 X164.383 Y129.366 E192.55506
G1 X162.128 Y128.785 E192.82610
G1 X154.792 Y125.786 E193.74853
G1 X153.606 Y124.938 E193.91827
G1 X149.657 Y122.475 E194.45993
G1 X149.294 Y122.211 E194.51222
G1 X148.688 Y121.637 E194.60940
