; generated by Slic3r 1.0.0RC2 on 2014-05-15 at 09:46:37

; layer_height = 0.3
; perimeters = 2
; top_solid_layers = 3
; bottom_solid_layers = 3
; fill_density = 0
; perimeter_speed = 60
; infill_speed = 60
; travel_speed = 120
; nozzle_diameter = 0.4
; filament_diameter = 1.75
; extrusion_multiplier = 0.98
; perimeters extrusion width = 0.40mm
; infill extrusion width = 0.42mm
; solid infill extrusion width = 0.42mm
; top infill extrusion width = 0.42mm
; first layer extrusion width = 0.80mm

G21 ; set units to millimeters
M107
M104 S220 ; set temperature
G28 ; home all axes
M106 S255;
G1 Z200 F1200 ; lift nozzle
M109 S220 ; wait for temperature to be reached
G90 ; use absolute coordinates
G92 E0
M82 ; use absolute distances for extrusion
G1 F1800.000 E-1.00000
G92 E0
G1 Z0.400 F7200.000
G1 X105.266 Y75.995 F7200.000
G1 E1.00000 F1800.000
G1 X105.966 Y75.085 E1.13363 F1080.000
G1 X113.486 Y66.925 E2.42516
G1 X114.326 Y66.165 E2.55701
G1 X123.596 Y59.005 E3.92030
G1 X124.286 Y58.535 E4.01747
G1 X134.526 Y52.495 E5.40119
G1 X135.116 Y52.185 E5.47876
G1 X145.526 Y47.375 E6.81346
G1 X146.106 Y47.135 E6.88652
G1 X155.906 Y43.675 E8.09615
G1 X156.806 Y43.425 E8.20486
G1 X167.116 Y41.325 E9.42948
G1 X168.756 Y41.195 E9.62096
G1 X170.386 Y41.475 E9.81345
G1 X171.886 Y42.135 E10.00419
G1 X190.806 Y53.395 E12.56676
G1 X192.036 Y54.325 E12.74624
G1 X193.016 Y55.515 E12.92566
G1 X209.276 Y80.645 E16.40940
G1 X209.896 Y81.875 E16.56972
G1 X210.266 Y83.215 E16.73152
G1 X210.346 Y84.595 E16.89241
G1 X210.186 Y88.185 E17.31066
G1 X210.126 Y88.835 E17.38664
G1 X209.846 Y90.125 E17.54028
G1 X209.326 Y91.325 E17.69250
G1 X208.576 Y92.405 E17.84553
G1 X207.636 Y93.315 E17.99781
G1 X117.546 Y164.855 E31.38729
G1 X115.976 Y165.775 E31.59908
G1 X114.226 Y166.255 E31.81029
G1 X95.006 Y168.735 E34.06585
G1 X94.256 Y168.785 E34.15333
G1 X90.466 Y168.845 E34.59450
G1 X89.086 Y168.725 E34.75573
G1 X87.756 Y168.325 E34.91738
G1 X86.536 Y167.655 E35.07938
G1 X85.486 Y166.755 E35.24034
G1 X84.646 Y165.655 E35.40143
G1 X84.036 Y164.415 E35.56227
G1 X83.706 Y163.065 E35.72402
G1 X83.656 Y161.685 E35.88474
G1 X84.446 Y150.025 E37.24496
G1 X84.486 Y149.635 E37.29059
G1 X87.896 Y122.515 E40.47194
G1 X90.326 Y109.605 E42.00092
G1 X90.486 Y108.945 E42.07996
G1 X93.906 Y97.345 E43.48754
G1 X94.206 Y96.525 E43.58916
G1 X98.806 Y86.145 E44.91061
G1 X99.306 Y85.225 E45.03248
G1 X105.208 Y76.085 E46.29879
G1 F1800.000 E45.29879
G92 E0
G1 X107.702 Y77.365 F7200.000
G1 E1.00000 F1800.000
G1 X107.908 Y77.099 E1.03920 F1080.000
G1 X115.657 Y68.695 E2.36968
G1 X115.902 Y68.472 E2.40824
G1 X125.402 Y61.139 E3.80500
G1 X125.604 Y61.003 E3.83339
G1 X136.203 Y54.759 E5.26518
G1 X146.786 Y49.869 E6.62199
G1 X156.968 Y46.261 E7.87930
G1 X157.231 Y46.188 E7.91105
G1 X169.520 Y43.685 E9.37082
G1 X172.417 Y46.088 E9.80884
G1 X172.307 Y53.272 E10.64517
G1 X170.572 Y55.403 E10.96487
G1 X171.026 Y56.242 E11.07593
G1 X177.942 Y55.540 E11.88504
G1 X188.876 Y55.188 E13.15829
G1 X191.246 Y57.398 E13.53549
G1 X191.513 Y64.444 E14.35617
G1 X189.281 Y66.835 E14.73684
G1 X178.695 Y67.159 E15.96954
G1 X170.976 Y67.931 E16.87237
G1 X164.742 Y69.434 E17.61879
G1 X157.013 Y70.814 E18.53257
G1 X148.511 Y73.152 E19.55891
G1 X139.581 Y76.001 E20.64986
G1 X133.082 Y79.804 E21.52626
G1 X132.997 Y79.874 E21.53909
G1 X127.590 Y85.891 E22.48067
G1 X127.514 Y86.024 E22.49844
G1 X124.164 Y96.632 E23.79318
G1 X124.064 Y96.886 E23.82496
G1 X119.072 Y107.372 E25.17671
G1 X116.390 Y117.614 E26.40891
G1 X115.966 Y119.513 E26.63538
G1 X117.097 Y119.963 E26.77707
G1 X119.499 Y115.938 E27.32257
G1 X119.977 Y115.219 E27.42305
G1 X120.740 Y113.899 E27.60056
G1 X123.955 Y109.452 E28.23921
G1 X124.307 Y109.005 E28.30540
G1 X130.831 Y101.364 E29.47480
G1 X131.336 Y100.821 E29.56112
G1 X133.141 Y99.100 E29.85142
G1 X138.284 Y94.631 E30.64447
G1 X138.899 Y94.047 E30.74312
G1 X139.095 Y93.883 E30.77291
G1 X139.711 Y93.440 E30.86119
G1 X143.613 Y91.007 E31.39640
G1 X144.837 Y90.125 E31.57193
G1 X145.244 Y89.899 E31.62611
G1 X152.889 Y86.774 E32.58738
G1 X153.143 Y86.690 E32.61861
G1 X155.412 Y86.107 E32.89117
G1 X156.971 Y85.629 E33.08105
G1 X160.953 Y84.563 E33.56076
G1 X167.176 Y83.490 E34.29584
G1 X169.386 Y83.091 E34.55717
G1 X174.853 Y82.234 E35.20125
G1 X181.213 Y81.415 E35.94757
G1 X187.905 Y80.823 E36.72954
G1 X195.119 Y80.483 E37.57013
G1 X205.281 Y80.351 E38.75294
G1 X207.643 Y82.784 E39.14766
G1 X207.389 Y88.328 E39.79364
G1 X207.155 Y90.066 E39.99774
G1 X204.886 Y92.015 E40.34589
G1 X202.852 Y91.978 E40.58258
G1 X193.139 Y92.174 E41.71337
G1 X187.585 Y92.449 E42.36050
G1 X187.478 Y92.400 E42.37429
G1 X187.292 Y92.369 E42.39619
G1 X183.025 Y92.784 E42.89514
G1 X177.763 Y93.394 E43.51176
G1 X176.534 Y93.559 E43.65600
G1 X167.205 Y94.520 E44.74762
G1 X160.054 Y95.697 E45.59108
G1 X154.468 Y97.384 E46.27020
G1 X151.062 Y99.000 E46.70900
G1 X147.712 Y101.397 E47.18851
G1 X146.130 Y102.908 E47.44314
G1 X144.705 Y104.541 E47.69538
G1 X140.652 Y109.647 E48.45410
G1 X134.030 Y119.970 E49.88156
G1 X133.432 Y121.006 E50.02080
G1 X127.750 Y131.952 E51.45621
G1 X124.452 Y139.302 E52.39380
G1 X122.642 Y143.181 E52.89203
G1 X121.532 Y145.757 E53.21853
G1 X120.398 Y148.519 E53.56603
G1 X119.574 Y150.304 E53.79487
G1 X118.811 Y153.683 E54.19807
G1 X118.606 Y154.282 E54.27169
G1 X117.172 Y160.702 E55.03737
G1 X116.945 Y161.276 E55.10923
G1 X116.217 Y162.508 E55.27569
G1 X114.378 Y163.542 E55.52137
G1 X107.086 Y163.450 E56.37015
G1 X104.797 Y161.004 E56.75999
G1 X104.930 Y158.536 E57.04773
G1 X105.087 Y152.187 E57.78691
G1 X105.119 Y151.879 E57.82288
G1 X105.588 Y149.326 E58.12506
G1 X106.107 Y145.936 E58.52425
G1 X106.958 Y142.156 E58.97524
G1 X107.816 Y139.532 E59.29650
G1 X107.391 Y138.942 E59.38115
G1 X101.729 Y138.915 E60.04010
G1 X101.268 Y138.479 E60.11399
G1 X100.443 Y138.773 E60.21593
G1 X98.843 Y151.211 E61.67550
G1 X97.965 Y163.872 E63.15261
G1 X95.749 Y165.976 E63.50821
G1 X88.701 Y166.102 E64.32875
G1 X86.321 Y163.599 E64.73074
G1 X87.239 Y150.150 E66.29970
G1 X88.893 Y137.121 E67.82833
G1 X90.610 Y123.219 E69.45862
G1 X93.092 Y110.023 E71.02153
G1 X96.620 Y98.017 E72.47798
G1 X96.708 Y97.776 E72.50776
G1 X101.417 Y87.140 E73.86166
G1 X101.563 Y86.869 E73.89750
G1 X107.644 Y77.455 E75.20181
G1 X108.285 Y77.779 F7200.000
G1 X108.454 Y77.561 E75.23388 F1080.000
G1 X116.162 Y69.202 E76.55730
G1 X116.362 Y69.019 E76.58885
G1 X125.986 Y61.606 E78.00270
G1 X136.519 Y55.400 E79.42566
G1 X147.070 Y50.525 E80.77845
G1 X157.182 Y46.942 E82.02707
G1 X157.397 Y46.883 E82.05306
G1 X169.328 Y44.453 E83.47012
G1 X171.697 Y46.419 E83.82850
G1 X171.596 Y53.014 E84.59617
G1 X170.188 Y54.743 E84.85574
G1 X164.934 Y55.916 E85.48238
G1 X164.729 Y56.042 E85.51035
G1 X164.648 Y56.141 E85.52527
G1 X160.549 Y57.065 E86.01435
G1 X156.825 Y58.404 E86.47487
G1 X157.171 Y59.675 E86.62822
G1 X162.296 Y58.718 E87.23506
G1 X169.043 Y57.163 E88.04092
G1 X177.977 Y56.254 E89.08616
G1 X188.604 Y55.912 E90.32367
G1 X190.544 Y57.720 E90.63228
G1 X190.788 Y64.174 E91.38406
G1 X188.962 Y66.130 E91.69552
G1 X178.648 Y66.446 E92.89650
G1 X170.856 Y67.226 E93.80794
G1 X164.606 Y68.733 E94.55628
G1 X156.855 Y70.116 E95.47261
G1 X148.307 Y72.467 E96.50446
G1 X139.288 Y75.344 E97.60634
G1 X132.625 Y79.244 E98.50491
G1 X132.539 Y79.314 E98.51774
G1 X126.955 Y85.529 E99.49021
G1 X126.880 Y85.662 E99.50799
G1 X123.491 Y96.393 E100.81781
G1 X123.409 Y96.601 E100.84382
G1 X118.422 Y107.063 E102.19273
G1 X115.696 Y117.445 E103.44213
G1 X114.308 Y123.660 E104.18327
G1 X115.432 Y124.113 E104.32429
G1 X116.416 Y122.499 E104.54428
G1 X120.107 Y116.312 E105.38286
G1 X120.585 Y115.595 E105.48312
G1 X121.330 Y114.301 E105.65694
G1 X124.485 Y109.936 E106.28374
G1 X124.812 Y109.516 E106.34571
G1 X131.369 Y101.833 E107.52136
G1 X131.837 Y101.330 E107.60131
G1 X133.683 Y99.571 E107.89808
G1 X138.765 Y95.159 E108.68132
G1 X139.374 Y94.581 E108.77915
G1 X140.100 Y94.040 E108.88455
G1 X144.011 Y91.600 E109.42105
G1 X145.220 Y90.729 E109.59444
G1 X145.553 Y90.544 E109.63878
G1 X153.136 Y87.445 E110.59228
G1 X153.345 Y87.376 E110.61783
G1 X155.606 Y86.795 E110.88952
G1 X157.163 Y86.316 E111.07917
G1 X161.090 Y85.264 E111.55237
G1 X167.301 Y84.193 E112.28585
G1 X169.501 Y83.796 E112.54605
G1 X174.959 Y82.941 E113.18908
G1 X181.297 Y82.124 E113.93287
G1 X187.946 Y81.536 E114.70980
G1 X195.146 Y81.196 E115.54877
G1 X204.983 Y81.069 E116.69377
G1 X206.916 Y83.060 E117.01673
G1 X206.679 Y88.249 E117.62127
G1 X206.483 Y89.702 E117.79186
G1 X204.627 Y91.296 E118.07671
G1 X202.852 Y91.264 E118.28335
G1 X193.094 Y91.461 E119.41920
G1 X187.724 Y91.727 E120.04506
G1 X187.599 Y91.670 E120.06102
G1 X187.413 Y91.640 E120.08292
G1 X182.950 Y92.074 E120.60492
G1 X177.673 Y92.685 E121.22311
G1 X176.456 Y92.850 E121.36615
G1 X167.110 Y93.812 E122.45960
G1 X159.892 Y95.000 E123.31099
G1 X154.215 Y96.714 E124.00128
G1 X150.698 Y98.382 E124.45425
G1 X147.255 Y100.845 E124.94698
G1 X145.636 Y102.390 E125.20750
G1 X144.156 Y104.084 E125.46928
G1 X140.071 Y109.231 E126.23411
G1 X133.420 Y119.598 E127.66772
G1 X132.805 Y120.663 E127.81077
G1 X127.107 Y131.641 E129.25040
G1 X123.801 Y139.007 E130.19005
G1 X121.990 Y142.889 E130.68859
G1 X120.873 Y145.480 E131.01706
G1 X119.741 Y148.241 E131.36437
G1 X118.893 Y150.074 E131.59938
G1 X118.121 Y153.496 E132.00777
G1 X117.913 Y154.106 E132.08277
G1 X116.487 Y160.491 E132.84426
G1 X116.301 Y160.961 E132.90305
G1 X115.700 Y161.979 E133.04064
G1 X114.195 Y162.826 E133.24165
G1 X107.399 Y162.740 E134.03267
G1 X105.527 Y160.739 E134.35162
G1 X105.644 Y158.564 E134.60514
G1 X105.800 Y152.232 E135.34227
G1 X105.826 Y151.981 E135.37170
G1 X106.293 Y149.444 E135.67192
G1 X106.786 Y146.188 E136.05525
G1 X107.565 Y142.674 E136.47415
G1 X107.680 Y142.232 E136.52731
G1 X108.801 Y138.822 E136.94505
G1 X108.376 Y138.232 E137.02969
G1 X102.015 Y138.202 E137.77007
G1 X100.735 Y136.992 E137.97518
G1 X99.908 Y137.288 E138.07734
G1 X98.134 Y151.120 E139.70041
G1 X97.271 Y163.545 E141.15008
G1 X95.459 Y165.267 E141.44102
G1 X89.002 Y165.382 E142.19269
G1 X87.054 Y163.334 E142.52159
G1 X87.951 Y150.209 E144.05280
G1 X89.601 Y137.210 E145.57794
G1 X91.317 Y123.318 E147.20707
G1 X93.791 Y110.172 E148.76395
G1 X97.298 Y98.241 E150.21144
G1 X97.370 Y98.044 E150.23580
G1 X102.059 Y87.454 E151.58374
G1 X102.178 Y87.233 E151.61306
G1 X108.227 Y77.869 E152.91055
G1 X108.868 Y78.192 F7200.000
G1 X109.000 Y78.022 E152.93549 F1080.000
G1 X116.667 Y69.708 E154.25184
G1 X116.822 Y69.566 E154.27637
G1 X126.368 Y62.210 E155.67899
G1 X136.835 Y56.040 E157.09312
G1 X147.355 Y51.180 E158.44189
G1 X157.564 Y47.578 E159.70199
G1 X169.135 Y45.221 E161.07634
G1 X170.978 Y46.750 E161.35509
G1 X170.886 Y52.755 E162.05409
G1 X169.791 Y54.100 E162.25598
G1 X164.537 Y55.273 E162.88257
G1 X164.332 Y55.399 E162.91053
G1 X164.251 Y55.499 E162.92555
G1 X160.306 Y56.391 E163.39627
G1 X155.604 Y58.085 E163.97797
G1 X150.860 Y59.709 E164.56155
G1 X148.336 Y60.689 E164.87670
G1 X145.217 Y62.160 E165.27809
G1 X145.679 Y63.392 E165.43129
G1 X154.236 Y60.955 E166.46678
G1 X162.427 Y59.420 E167.43676
G1 X169.138 Y57.871 E168.23837
G1 X178.013 Y56.967 E169.27664
G1 X188.333 Y56.635 E170.47841
G1 X189.841 Y58.041 E170.71845
G1 X190.063 Y63.904 E171.40133
G1 X188.643 Y65.425 E171.64357
G1 X178.602 Y65.733 E172.81282
G1 X170.736 Y66.520 E173.73287
G1 X164.470 Y68.032 E174.48313
G1 X156.698 Y69.419 E175.40201
G1 X148.104 Y71.782 E176.43937
G1 X138.995 Y74.688 E177.55219
G1 X132.168 Y78.684 E178.47293
G1 X132.082 Y78.754 E178.48576
G1 X126.321 Y85.167 E179.48912
G1 X126.245 Y85.299 E179.50690
G1 X122.754 Y96.316 E180.85199
G1 X117.728 Y106.872 E182.21275
G1 X115.002 Y117.277 E183.46465
G1 X112.845 Y126.939 E184.61685
G1 X112.478 Y128.291 E184.77993
G1 X113.729 Y128.733 E184.93427
G1 X114.187 Y127.698 E185.06602
G1 X114.954 Y126.270 E185.25471
G1 X117.027 Y122.868 E185.71836
G1 X120.715 Y116.686 E186.55621
G1 X121.192 Y115.971 E186.65625
G1 X121.920 Y114.704 E186.82638
G1 X125.059 Y110.360 E187.45011
G1 X125.369 Y109.962 E187.50880
G1 X131.908 Y102.302 E188.68098
G1 X132.338 Y101.839 E188.75456
G1 X134.158 Y100.105 E189.04711
G1 X139.245 Y95.688 E189.83125
G1 X139.974 Y95.010 E189.94716
G1 X140.489 Y94.639 E190.02104
G1 X144.410 Y92.193 E190.55883
G1 X145.603 Y91.333 E190.73008
G1 X145.862 Y91.189 E190.76457
G1 X153.384 Y88.115 E191.71030
G1 X155.800 Y87.482 E192.00095
G1 X157.355 Y87.004 E192.19037
G1 X161.228 Y85.965 E192.65706
G1 X167.425 Y84.896 E193.38895
G1 X169.615 Y84.501 E193.64802
G1 X175.098 Y83.642 E194.29397
G1 X181.431 Y82.828 E195.03704
G1 X187.987 Y82.249 E195.80313
G1 X195.219 Y81.909 E196.64581
G1 X204.686 Y81.788 E197.74769
G1 X206.189 Y83.336 E197.99888
G1 X205.969 Y88.170 E198.56198
G1 X205.812 Y89.337 E198.69906
G1 X204.368 Y90.577 E198.92061
G1 X202.851 Y90.550 E199.09719
G1 X193.050 Y90.747 E200.23811
G1 X187.862 Y91.006 E200.84270
G1 X187.720 Y90.941 E200.86084
G1 X187.535 Y90.910 E200.88273
G1 X182.874 Y91.364 E201.42777
G1 X177.584 Y91.977 E202.04754
G1 X176.377 Y92.140 E202.18937
G1 X167.016 Y93.103 E203.28466
G1 X159.730 Y94.303 E204.14399
G1 X153.961 Y96.045 E204.84544
G1 X150.334 Y97.764 E205.31259
G1 X146.799 Y100.294 E205.81853
G1 X145.119 Y101.896 E206.08875
G1 X143.607 Y103.627 E206.35626
G1 X139.489 Y108.815 E207.12721
G1 X132.809 Y119.227 E208.56697
G1 X132.178 Y120.320 E208.71383
G1 X126.464 Y131.330 E210.15767
G1 X123.151 Y138.712 E211.09938
G1 X121.339 Y142.596 E211.59824
G1 X120.215 Y145.203 E211.92867
G1 X119.083 Y147.962 E212.27578
G1 X118.213 Y149.843 E212.51696
G1 X117.431 Y153.309 E212.93055
G1 X117.220 Y153.931 E213.00693
G1 X115.802 Y160.281 E213.76423
G1 X115.658 Y160.646 E213.80995
G1 X115.183 Y161.451 E213.91868
G1 X114.012 Y162.109 E214.07502
G1 X107.712 Y162.030 E214.80826
G1 X106.256 Y160.473 E215.05634
G1 X106.358 Y158.592 E215.27563
G1 X106.513 Y152.278 E216.01071
G1 X106.534 Y152.082 E216.03360
G1 X106.997 Y149.562 E216.33186
G1 X107.506 Y146.222 E216.72509
G1 X108.269 Y142.801 E217.13306
G1 X108.362 Y142.443 E217.17614
G1 X109.380 Y139.348 E217.55529
G1 X109.849 Y138.146 E217.70554
G1 X109.427 Y137.523 E217.79313
G1 X102.301 Y137.490 E218.62255
G1 X100.865 Y136.132 E218.85250
G1 X100.791 Y134.917 E218.99415
G1 X99.490 Y134.876 E219.14569
G1 X97.423 Y151.049 E221.04344
G1 X96.578 Y163.219 E222.46322
G1 X95.168 Y164.558 E222.68952
G1 X89.303 Y164.663 E223.37231
G1 X87.788 Y163.070 E223.62812
G1 X88.663 Y150.268 E225.12157
G1 X90.310 Y137.299 E226.64323
G1 X92.025 Y123.417 E228.27119
G1 X94.489 Y110.322 E229.82204
G1 X97.977 Y98.465 E231.26057
G1 X102.700 Y87.769 E232.62145
G1 X102.793 Y87.597 E232.64426
G1 X108.810 Y78.282 E233.93492
G1 F1800.000 E232.93492
G92 E0
G1 X138.224 Y55.949 F7200.000
G1 X170.498 Y45.453 F7200.000
G1 X168.429 Y53.892 F7200.000
G1 X131.791 Y69.041 F7200.000
G1 X116.894 Y82.269 F7200.000
G1 X99.781 Y128.510 F7200.000
G1 X96.418 Y158.312 F7200.000
G1 X132.839 Y102.348 F7200.000
G1 E1.00000 F1800.000
G1 X134.632 Y100.639 E1.28832 F1080.000
G1 X139.725 Y96.217 E2.07336
G1 X140.414 Y95.573 E2.18303
G1 X140.878 Y95.238 E2.24971
G1 X144.808 Y92.786 E2.78879
G1 X145.987 Y91.937 E2.95791
G1 X146.172 Y91.834 E2.98254
G1 X153.632 Y88.785 E3.92051
G1 X155.994 Y88.170 E4.20462
G1 X157.548 Y87.692 E4.39382
G1 X161.285 Y86.684 E4.84435
G1 X169.730 Y85.206 E5.84223
G1 X175.194 Y84.350 E6.48598
G1 X181.501 Y83.538 E7.22600
G1 X187.992 Y82.964 E7.98444
G1 X195.233 Y82.623 E8.82825
G1 X204.388 Y82.507 E9.89384
G1 X205.462 Y83.613 E10.07326
G1 X205.266 Y88.011 E10.58566
G1 X205.140 Y88.972 E10.69850
G1 X204.109 Y89.858 E10.85675
G1 X202.850 Y89.835 E11.00328
G1 X192.980 Y90.034 E12.15223
G1 X188.001 Y90.284 E12.73258
G1 X187.842 Y90.212 E12.75289
G1 X187.656 Y90.181 E12.77478
G1 X182.798 Y90.654 E13.34286
G1 X177.495 Y91.268 E13.96421
G1 X176.298 Y91.430 E14.10484
G1 X166.921 Y92.395 E15.20196
G1 X159.614 Y93.595 E16.06381
G1 X153.707 Y95.376 E16.78184
G1 X153.030 Y95.683 E16.86840
G1 X149.970 Y97.146 E17.26317
G1 X146.382 Y99.710 E17.77646
G1 X144.602 Y101.402 E18.06225
G1 X143.069 Y103.157 E18.33356
G1 X138.907 Y108.399 E19.11256
