; generated by Slic3r 1.0.0RC2 on 2014-05-22 at 19:55:55

; layer_height = 0.3
; perimeters = 3
; top_solid_layers = 3
; bottom_solid_layers = 3
; fill_density = 0.30
; perimeter_speed = 60
; infill_speed = 60
; travel_speed = 120
; nozzle_diameter = 0.4
; filament_diameter = 1.75
; extrusion_multiplier = 0.98
; perimeters extrusion width = 0.40mm
; infill extrusion width = 0.42mm
; solid infill extrusion width = 0.42mm
; top infill extrusion width = 0.42mm
; first layer extrusion width = 0.80mm

G21 ; set units to millimeters
M107
M104 S220 ; set temperature
G28 ; home all axes
M106 S255;
G1 Z200 F1200 ; lift nozzle
M109 S220 ; wait for temperature to be reached
G90 ; use absolute coordinates
G92 E0
M82 ; use absolute distances for extrusion
G1 F1800.000 E-1.00000
G92 E0
G1 Z0.400 F7200.000
G1 X101.422 Y95.757 F7200.000
G1 E1.00000 F1800.000
G1 X102.392 Y94.807 E1.15802 F1080.000
G1 X103.532 Y94.067 E1.31621
G1 X104.802 Y93.577 E1.47465
G1 X106.142 Y93.347 E1.63289
G1 X140.652 Y91.037 E5.65849
G1 X154.372 Y91.027 E7.25536
G1 X191.912 Y91.807 E11.62558
G1 X193.202 Y91.957 E11.77674
G1 X194.432 Y92.357 E11.92728
G1 X195.572 Y92.977 E12.07831
G1 X196.562 Y93.817 E12.22943
G1 X197.382 Y94.827 E12.38085
G1 X197.982 Y95.967 E12.53079
G1 X200.522 Y102.167 E13.31061
G1 X200.932 Y103.597 E13.48376
G1 X201.012 Y105.087 E13.65743
G1 X200.772 Y106.547 E13.82964
G1 X200.212 Y107.927 E14.00297
G1 X199.362 Y109.147 E14.17604
G1 X196.102 Y112.867 E14.75174
G1 X194.852 Y113.967 E14.94554
G1 X193.372 Y114.737 E15.13971
G1 X191.742 Y115.117 E15.33451
G1 X154.922 Y118.937 E19.64299
G1 X154.232 Y118.967 E19.72338
G1 X108.792 Y118.967 E25.01213
G1 X107.212 Y118.787 E25.19722
G1 X105.722 Y118.227 E25.38248
G1 X104.402 Y117.337 E25.56778
G1 X102.572 Y115.757 E25.84917
G1 X101.622 Y114.747 E26.01056
G1 X100.902 Y113.557 E26.17244
G1 X100.432 Y112.247 E26.33442
G1 X99.132 Y106.857 E26.97975
G1 X98.952 Y105.527 E27.13596
G1 X99.042 Y104.177 E27.29344
G1 X99.892 Y99.087 E27.89407
G1 X100.152 Y98.037 E28.01997
G1 X100.672 Y96.887 E28.16686
G1 X101.363 Y95.847 E28.31225
G1 F1800.000 E27.31225
G92 E0
G1 X107.727 Y101.966 F7200.000
G1 E1.00000 F1800.000
G1 X108.026 Y101.731 E1.04433 F540.000
G1 X108.369 Y101.554 E1.08917
G1 X108.732 Y101.449 E1.13316
G1 X109.122 Y101.410 E1.17882
G1 X109.499 Y101.448 E1.22296
G1 X109.873 Y101.558 E1.26828
G1 X110.214 Y101.737 E1.31307
G1 X110.518 Y101.980 E1.35842
G1 X110.769 Y102.281 E1.40399
G1 X110.958 Y102.629 E1.45016
G1 X111.183 Y103.369 E1.54018
G1 X110.942 Y104.157 E1.63603
G1 X110.752 Y104.493 E1.68097
G1 X110.501 Y104.784 E1.72565
G1 X110.202 Y105.019 E1.76989
G1 X109.860 Y105.196 E1.81476
G1 X109.493 Y105.303 E1.85920
G1 X109.109 Y105.340 E1.90419
G1 X108.727 Y105.303 E1.94881
G1 X108.353 Y105.192 E1.99421
G1 X108.013 Y105.013 E2.03889
G1 X107.709 Y104.769 E2.08424
G1 X107.458 Y104.468 E2.12991
G1 X107.270 Y104.121 E2.17585
G1 X107.156 Y103.743 E2.22184
G1 X107.121 Y103.352 E2.26757
G1 X107.166 Y102.963 E2.31309
G1 X107.286 Y102.593 E2.35841
G1 X107.476 Y102.257 E2.40332
G1 X107.659 Y102.049 E2.43553
G1 X107.649 Y101.593 F7200.000
G1 F1800.000 E1.43553
G92 E0
G1 X111.495 Y103.220 F7200.000
G1 E1.00000 F1800.000
G1 X111.695 Y102.894 E1.04456 F540.000
G1 X111.796 Y102.566 E1.08448
G1 X111.834 Y102.527 E1.09077
G1 X111.992 Y102.234 E1.12961
G1 X112.248 Y101.948 E1.17427
G1 X112.551 Y101.718 E1.21847
G1 X112.892 Y101.549 E1.26279
G1 X113.256 Y101.446 E1.30691
G1 X113.635 Y101.411 E1.35116
G1 X114.014 Y101.446 E1.39544
G1 X114.423 Y101.564 E1.44501
G1 X114.768 Y101.746 E1.49036
G1 X115.070 Y101.992 E1.53579
G1 X115.322 Y102.301 E1.58215
G1 X115.491 Y102.614 E1.62351
G1 X115.613 Y103.006 E1.67132
G1 X115.649 Y103.411 E1.71865
G1 X115.600 Y103.809 E1.76530
G1 X115.473 Y104.181 E1.81110
G1 X115.435 Y104.220 E1.81744
G1 X115.276 Y104.514 E1.85625
G1 X115.023 Y104.797 E1.90054
G1 X114.716 Y105.033 E1.94561
G1 X114.375 Y105.202 E1.98988
G1 X114.011 Y105.305 E2.03384
G1 X113.631 Y105.340 E2.07834
G1 X113.200 Y105.294 E2.12877
G1 X112.835 Y105.181 E2.17321
G1 X112.492 Y104.997 E2.21856
G1 X112.195 Y104.754 E2.26322
G1 X111.968 Y104.481 E2.30449
G1 X111.774 Y104.129 E2.35130
G1 X111.526 Y103.322 E2.44951
G1 X111.226 Y102.948 F7200.000
G1 F1800.000 E1.44951
G92 E0
G1 X110.430 Y101.173 F7200.000
G1 X184.263 Y104.670 F7200.000
G1 E1.00000 F1800.000
G1 X184.312 Y104.273 E1.04665 F540.000
G1 X184.440 Y103.901 E1.09245
G1 X184.477 Y103.861 E1.09878
G1 X184.636 Y103.568 E1.13760
G1 X184.889 Y103.284 E1.18188
G1 X185.197 Y103.049 E1.22695
G1 X185.537 Y102.879 E1.27123
G1 X185.901 Y102.777 E1.31519
G1 X186.281 Y102.742 E1.35968
G1 X186.712 Y102.788 E1.41011
G1 X187.077 Y102.900 E1.45456
G1 X187.420 Y103.084 E1.49990
G1 X187.717 Y103.327 E1.54456
G1 X187.944 Y103.600 E1.58584
G1 X188.138 Y103.952 E1.63265
G1 X188.417 Y104.861 E1.74333
G1 X188.217 Y105.188 E1.78789
G1 X188.117 Y105.515 E1.82780
G1 X188.079 Y105.554 E1.83410
G1 X187.920 Y105.848 E1.87294
G1 X187.875 Y105.879 E1.87937
G1 X187.664 Y106.134 E1.91779
G1 X187.361 Y106.363 E1.96199
G1 X187.021 Y106.533 E2.00631
G1 X186.656 Y106.636 E2.05043
G1 X186.277 Y106.670 E2.09468
G1 X185.898 Y106.635 E2.13896
G1 X185.489 Y106.517 E2.18853
G1 X185.145 Y106.335 E2.23388
G1 X184.842 Y106.089 E2.27931
G1 X184.590 Y105.780 E2.32567
G1 X184.421 Y105.468 E2.36702
G1 X184.299 Y105.076 E2.41484
G1 X184.273 Y104.777 E2.44971
G1 X183.927 Y104.452 F7200.000
G1 X182.869 Y104.350 F7200.000
G1 X182.814 Y104.538 E2.47257 F1080.000
G1 X182.874 Y105.301 E2.56155
G1 X183.111 Y106.047 E2.65267
G1 X183.379 Y106.545 E2.71854
G1 X184.018 Y107.333 E2.83661
G1 X154.137 Y110.434 E6.33309
G1 X109.478 Y110.434 E11.53102
G1 X108.599 Y109.674 E11.66629
G1 X107.845 Y106.545 E12.04092
G1 X108.471 Y106.713 E12.11642
G1 X109.109 Y106.775 E12.19104
G1 X109.761 Y106.714 E12.26722
G1 X110.370 Y106.542 E12.34094
G1 X110.953 Y106.249 E12.41683
G1 X111.361 Y105.918 E12.47791
G1 X111.673 Y106.172 E12.52479
G1 X112.259 Y106.492 E12.60244
G1 X112.855 Y106.682 E12.67529
G1 X113.046 Y106.719 E12.69789
G1 X113.454 Y106.759 E12.74560
G1 X113.648 Y106.773 E12.76824
G1 X114.266 Y106.719 E12.84047
G1 X114.654 Y106.603 E12.88760
G1 X114.848 Y106.568 E12.91056
G1 X115.220 Y106.371 E12.95959
G1 X115.409 Y106.310 E12.98269
G1 X115.762 Y106.023 E13.03561
G1 X115.939 Y105.930 E13.05888
G1 X116.215 Y105.598 E13.10920
G1 X116.378 Y105.480 E13.13258
G1 X116.599 Y105.070 E13.18683
G1 X116.738 Y104.925 E13.21018
G1 X116.886 Y104.443 E13.26891
G1 X116.990 Y104.272 E13.29210
G1 X117.043 Y103.732 E13.35533
G1 X117.098 Y103.543 E13.37820
G1 X117.038 Y102.781 E13.46719
G1 X116.802 Y102.035 E13.55830
G1 X116.367 Y101.230 E13.66469
G1 X139.278 Y99.696 E16.33722
G1 X139.278 Y104.064 E16.84562
G1 X156.060 Y104.064 E18.79891
G1 X156.060 Y99.604 E19.31804
G1 X190.511 Y100.323 E23.32867
G1 X190.916 Y101.298 E23.45147
G1 X190.172 Y101.367 E23.53847
G1 X189.563 Y101.540 E23.61220
G1 X188.980 Y101.832 E23.68808
G1 X188.562 Y102.172 E23.75074
G1 X188.239 Y101.909 E23.79920
G1 X187.654 Y101.589 E23.87683
G1 X187.057 Y101.400 E23.94970
G1 X186.866 Y101.362 E23.97229
G1 X186.264 Y101.308 E24.04265
G1 X185.646 Y101.362 E24.11488
G1 X185.258 Y101.478 E24.16201
G1 X185.064 Y101.514 E24.18496
G1 X184.692 Y101.711 E24.23398
G1 X184.503 Y101.772 E24.25709
G1 X184.150 Y102.058 E24.31001
G1 X183.973 Y102.151 E24.33328
G1 X183.697 Y102.484 E24.38359
G1 X183.534 Y102.601 E24.40698
G1 X183.313 Y103.012 E24.46124
G1 X183.174 Y103.156 E24.48458
G1 X183.026 Y103.638 E24.54329
G1 X182.923 Y103.809 E24.56650
G1 X182.879 Y104.243 E24.61727
G1 X183.573 Y104.485 F7200.000
G1 X183.538 Y104.604 E24.63170 F1080.000
G1 X183.586 Y105.188 E24.69986
G1 X183.766 Y105.757 E24.76933
G1 X183.985 Y106.163 E24.82294
G1 X184.056 Y106.261 E24.83708
G1 X184.336 Y106.598 E24.88802
G1 X184.750 Y106.935 E24.95014
G1 X185.217 Y107.181 E25.01165
G1 X186.194 Y107.475 E25.13037
G1 X186.160 Y107.829 E25.17175
G1 X154.174 Y111.148 E28.91461
G1 X109.212 Y111.148 E34.14781
G1 X107.958 Y110.064 E34.34072
G1 X106.775 Y105.155 E34.92840
G1 X106.931 Y105.057 E34.94983
G1 X107.632 Y105.619 E35.05436
G1 X108.089 Y105.858 E35.11440
G1 X108.599 Y106.008 E35.17630
G1 X109.109 Y106.057 E35.23592
G1 X109.627 Y106.008 E35.29650
G1 X110.115 Y105.869 E35.35558
G1 X110.578 Y105.634 E35.41596
G1 X110.979 Y105.326 E35.47482
G1 X111.360 Y104.867 E35.54433
G1 X111.684 Y105.257 E35.60343
G1 X112.082 Y105.585 E35.66339
G1 X112.547 Y105.837 E35.72489
G1 X113.027 Y105.988 E35.78353
G1 X113.639 Y106.057 E35.85517
G1 X114.139 Y106.012 E35.91353
G1 X114.611 Y105.885 E35.97051
G1 X114.941 Y105.710 E36.01393
G1 X115.062 Y105.671 E36.02875
G1 X115.367 Y105.423 E36.07452
G1 X115.481 Y105.364 E36.08944
G1 X115.723 Y105.072 E36.13360
G1 X115.827 Y104.997 E36.14852
G1 X116.017 Y104.645 E36.19505
G1 X116.105 Y104.553 E36.20989
G1 X116.229 Y104.149 E36.25913
G1 X116.295 Y104.041 E36.27384
G1 X116.339 Y103.596 E36.32581
G1 X116.374 Y103.477 E36.34026
G1 X116.326 Y102.893 E36.40841
G1 X116.146 Y102.324 E36.47788
G1 X115.927 Y101.919 E36.53149
G1 X115.856 Y101.821 E36.54564
G1 X115.576 Y101.484 E36.59658
G1 X114.535 Y100.637 E36.75276
G1 X139.992 Y98.933 E39.72230
G1 X139.992 Y103.351 E40.23653
G1 X155.346 Y103.351 E42.02358
G1 X155.346 Y98.875 E42.54453
G1 X190.992 Y99.619 E46.69425
G1 X192.097 Y102.278 E47.02943
G1 X191.334 Y102.074 E47.12143
G1 X190.824 Y102.024 E47.18104
G1 X190.306 Y102.073 E47.24162
G1 X189.818 Y102.213 E47.30071
G1 X189.355 Y102.447 E47.36108
G1 X188.954 Y102.755 E47.41994
G1 X188.562 Y103.227 E47.49137
G1 X188.228 Y102.824 E47.55238
G1 X188.135 Y102.745 E47.56662
G1 X187.830 Y102.497 E47.61235
G1 X187.365 Y102.245 E47.67384
G1 X186.762 Y102.070 E47.74692
G1 X186.273 Y102.025 E47.80413
G1 X185.773 Y102.069 E47.86249
G1 X185.301 Y102.197 E47.91946
G1 X184.971 Y102.371 E47.96288
G1 X184.850 Y102.410 E47.97770
G1 X184.545 Y102.658 E48.02348
G1 X184.431 Y102.717 E48.03839
G1 X184.189 Y103.010 E48.08254
G1 X184.085 Y103.085 E48.09747
G1 X183.895 Y103.436 E48.14401
G1 X183.807 Y103.528 E48.15885
G1 X183.683 Y103.933 E48.20808
G1 X183.617 Y104.041 E48.22279
G1 X183.584 Y104.379 E48.26230
G1 X180.973 Y108.482 F7200.000
G1 X187.078 Y107.513 F7200.000
G1 X188.000 Y106.764 E48.40051 F540.000
G1 X188.115 Y106.709 E48.41541
G1 X188.552 Y106.182 E48.49508
G1 X188.921 Y106.619 E48.56172
G1 X189.242 Y106.880 E48.60982
G1 X189.992 Y107.431 E48.71819
G1 X187.166 Y107.724 E49.04892
G1 X187.119 Y107.612 E49.06305
G1 X112.282 Y100.788 F7200.000
G1 X111.371 Y101.887 E49.22921 F540.000
G1 X110.515 Y100.906 E49.38070
G1 X112.175 Y100.795 E49.57431
G1 X106.887 Y100.434 F7200.000
G1 X140.706 Y98.167 E53.51938 F756.000
G1 X140.706 Y102.637 E54.03969
G1 X154.632 Y102.637 E55.66050
G1 X154.632 Y98.146 E56.18327
G1 X191.473 Y98.915 E60.47208
G1 X193.860 Y104.657 E61.19588
G1 X192.897 Y105.748 E61.36524
G1 X192.713 Y105.668 E61.38859
G1 X192.812 Y104.730 E61.49834
G1 X192.777 Y104.338 E61.54408
G1 X192.663 Y103.960 E61.59005
G1 X192.475 Y103.613 E61.63600
G1 X192.257 Y103.350 E61.67582
G1 X191.920 Y103.068 E61.72695
G1 X191.580 Y102.890 E61.77163
G1 X191.256 Y102.792 E61.81106
G1 X190.824 Y102.742 E61.86158
G1 X190.440 Y102.778 E61.90657
G1 X190.073 Y102.886 E61.95101
G1 X189.731 Y103.063 E61.99588
G1 X189.432 Y103.297 E62.04012
G1 X189.181 Y103.588 E62.08481
G1 X188.991 Y103.925 E62.12974
G1 X188.750 Y104.712 E62.22559
G1 X188.975 Y105.452 E62.31561
G1 X189.164 Y105.801 E62.36179
G1 X189.415 Y106.101 E62.40736
G1 X189.719 Y106.345 E62.45270
G1 X190.060 Y106.523 E62.49749
G1 X190.384 Y106.620 E62.53685
G1 X190.811 Y106.671 E62.58689
G1 X191.201 Y106.633 E62.63255
G1 X192.020 Y106.387 E62.73206
G1 X192.151 Y106.592 E62.76038
G1 X190.856 Y108.059 E62.98824
G1 X154.211 Y111.863 E67.27619
G1 X108.946 Y111.863 E72.54464
G1 X107.317 Y110.454 E72.79520
G1 X106.071 Y105.280 E73.41468
G1 X106.869 Y100.539 E73.97424
G1 X107.501 Y100.797 F7200.000
G1 X107.116 Y104.996 F7200.000
G1 X109.416 Y109.744 F7200.000
G1 X109.014 Y109.342 E74.04101 F1080.000
G1 X108.690 Y107.999 E74.20349
G1 X110.644 Y109.953 E74.52833
G1 X111.664 Y109.953 E74.64823
G1 X108.956 Y107.244 E75.09853
G1 X109.905 Y107.174 E75.21049
G1 X112.684 Y109.953 E75.67246
G1 X113.704 Y109.953 E75.79236
G1 X110.678 Y106.926 E76.29545
G1 X111.333 Y106.561 E76.38360
G1 X114.724 Y109.953 E76.94737
G1 X115.744 Y109.953 E77.06727
G1 X112.990 Y107.198 E77.52522
G1 X114.035 Y107.223 E77.64813
G1 X116.764 Y109.953 E78.10188
G1 X117.784 Y109.953 E78.22177
G1 X114.883 Y107.051 E78.70413
G1 X115.604 Y106.753 E78.79592
G1 X118.804 Y109.953 E79.32787
G1 X119.824 Y109.953 E79.44777
G1 X116.206 Y106.334 E80.04925
G1 X116.719 Y105.828 E80.13403
G1 X120.844 Y109.953 E80.81976
G1 X121.864 Y109.953 E80.93965
G1 X117.127 Y105.216 E81.72711
G1 X117.421 Y104.489 E81.81919
G1 X122.884 Y109.953 E82.72737
G1 X123.904 Y109.953 E82.84726
G1 X117.576 Y103.624 E83.89929
G1 X117.446 Y102.474 E84.03527
G1 X124.924 Y109.953 E85.27840
G1 X125.944 Y109.953 E85.39829
G1 X117.621 Y101.629 E86.78195
G1 X118.577 Y101.565 E86.89457
G1 X126.964 Y109.953 E88.28887
G1 X127.984 Y109.953 E88.40877
G1 X119.533 Y101.501 E89.81370
G1 X120.489 Y101.437 E89.92633
G1 X129.004 Y109.953 E91.34190
G1 X130.024 Y109.953 E91.46180
G1 X121.445 Y101.373 E92.88802
G1 X122.401 Y101.309 E93.00064
G1 X131.044 Y109.953 E94.43750
G1 X132.064 Y109.953 E94.55740
G1 X123.357 Y101.245 E96.00489
G1 X124.313 Y101.181 E96.11752
G1 X133.084 Y109.953 E97.57566
G1 X134.104 Y109.953 E97.69555
G1 X125.269 Y101.117 E99.16433
G1 X126.225 Y101.053 E99.27696
G1 X135.124 Y109.953 E100.75637
G1 X136.144 Y109.953 E100.87627
G1 X127.181 Y100.989 E102.36633
G1 X128.137 Y100.925 E102.47895
G1 X137.164 Y109.953 E103.97965
G1 X138.185 Y109.953 E104.09955
G1 X129.093 Y100.861 E105.61089
G1 X130.049 Y100.797 E105.72351
G1 X139.205 Y109.953 E107.24549
G1 X140.225 Y109.953 E107.36539
G1 X131.005 Y100.733 E108.89801
G1 X131.961 Y100.669 E109.01063
G1 X141.245 Y109.953 E110.55389
G1 X142.265 Y109.953 E110.67379
G1 X132.917 Y100.605 E112.22769
G1 X133.873 Y100.541 E112.34031
G1 X143.285 Y109.953 E113.90485
G1 X144.305 Y109.953 E114.02475
G1 X134.829 Y100.477 E115.59993
G1 X135.785 Y100.413 E115.71255
G1 X138.796 Y103.424 E116.21314
G1 X138.796 Y102.404 E116.33304
G1 X136.741 Y100.349 E116.67471
G1 X137.697 Y100.285 E116.78733
G1 X138.796 Y101.384 E116.97008
G1 X138.796 Y100.364 E117.08997
G1 X138.653 Y100.221 E117.11380
G1 X139.918 Y104.546 F7200.000
G1 X145.325 Y109.953 E118.01254 F1080.000
G1 X146.345 Y109.953 E118.13244
G1 X140.938 Y104.546 E119.03118
G1 X141.958 Y104.546 E119.15108
G1 X147.365 Y109.953 E120.04982
G1 X148.385 Y109.953 E120.16971
G1 X142.978 Y104.546 E121.06846
G1 X143.998 Y104.546 E121.18835
G1 X149.405 Y109.953 E122.08709
G1 X150.425 Y109.953 E122.20699
G1 X145.018 Y104.546 E123.10573
G1 X146.038 Y104.546 E123.22563
G1 X151.445 Y109.953 E124.12437
G1 X152.465 Y109.953 E124.24427
G1 X147.058 Y104.546 E125.14301
G1 X148.078 Y104.546 E125.26290
G1 X153.485 Y109.953 E126.16164
G1 X154.468 Y109.916 E126.27729
G1 X149.098 Y104.546 E127.16990
G1 X150.118 Y104.546 E127.28979
G1 X155.392 Y109.820 E128.16646
G1 X156.316 Y109.724 E128.27567
G1 X151.138 Y104.546 E129.13639
G1 X152.158 Y104.546 E129.25629
G1 X157.240 Y109.628 E130.10107
G1 X158.164 Y109.532 E130.21027
G1 X153.178 Y104.546 E131.03911
G1 X154.198 Y104.546 E131.15900
G1 X159.088 Y109.436 E131.97190
G1 X160.012 Y109.340 E132.08110
G1 X155.218 Y104.546 E132.87805
G1 X156.238 Y104.546 E132.99795
G1 X160.936 Y109.244 E133.77895
G1 X161.860 Y109.148 E133.88816
G1 X156.542 Y103.830 E134.77228
G1 X156.542 Y102.810 E134.89218
G1 X162.785 Y109.053 E135.92992
G1 X163.709 Y108.957 E136.03913
G1 X156.542 Y101.790 E137.23048
G1 X156.542 Y100.770 E137.35038
G1 X164.633 Y108.861 E138.69535
G1 X165.557 Y108.765 E138.80456
G1 X156.895 Y100.103 E140.24437
G1 X157.937 Y100.125 E140.36685
G1 X166.481 Y108.669 E141.78711
G1 X167.405 Y108.573 E141.89632
G1 X158.979 Y100.147 E143.29702
G1 X160.021 Y100.169 E143.41950
G1 X168.329 Y108.477 E144.80064
G1 X169.253 Y108.381 E144.90984
G1 X161.062 Y100.190 E146.27143
