; generated by Slic3r 1.0.0RC3 on 2014-03-11 at 10:02:34

; layer_height = 0.3
; perimeters = 2
; top_solid_layers = 3
; bottom_solid_layers = 3
; fill_density = 0.1
; perimeter_speed = 60
; infill_speed = 60
; travel_speed = 120
; nozzle_diameter = 0.4
; filament_diameter = 1.75
; extrusion_multiplier = 0.98
; perimeters extrusion width = 0.40mm
; infill extrusion width = 0.42mm
; solid infill extrusion width = 0.42mm
; top infill extrusion width = 0.42mm
; first layer extrusion width = 0.60mm

G21 ; set units to millimeters
M107
M104 S220 ; set temperature
G28 ; home all axes
M106 S255;
G1 Z200 F1200 ; lift nozzle
M109 S220 ; wait for temperature to be reached
G90 ; use absolute coordinates
G92 E0
M82 ; use absolute distances for extrusion
G1 F1800.000 E-1.00000
G92 E0
G1 Z0.300 F7200.000
G1 X107.704 Y120.846 F7200.000
G1 E1.00000 F1800.000
G1 X171.394 Y64.356 E6.79687 F1080.000
G1 X172.514 Y63.556 E6.89059
G1 X173.774 Y63.006 E6.98421
G1 X175.124 Y62.736 E7.07795
G1 X176.504 Y62.756 E7.17193
G1 X177.844 Y63.056 E7.26543
G1 X179.104 Y63.636 E7.35988
G1 X180.204 Y64.456 E7.45331
G1 X181.104 Y65.496 E7.54696
G1 X185.314 Y71.486 E8.04550
G1 X185.694 Y72.096 E8.09443
G1 X186.014 Y72.746 E8.14376
G1 X188.844 Y79.566 E8.64655
G1 X189.074 Y80.236 E8.69478
G1 X189.244 Y80.926 E8.74317
G1 X190.564 Y88.366 E9.25769
G1 X190.644 Y89.026 E9.30296
G1 X190.654 Y89.696 E9.34859
G1 X190.444 Y97.436 E9.87582
G1 X190.404 Y98.076 E9.91948
G1 X190.294 Y98.706 E9.96303
G1 X188.544 Y106.446 E10.50337
G1 X188.374 Y107.026 E10.54452
G1 X188.164 Y107.596 E10.58589
G1 X184.944 Y115.056 E11.13915
G1 X184.684 Y115.586 E11.17935
G1 X184.384 Y116.086 E11.21906
G1 X179.814 Y122.966 E11.78147
G1 X179.114 Y123.846 E11.85803
G1 X173.364 Y129.916 E12.42736
G1 X172.954 Y130.316 E12.46636
G1 X172.514 Y130.676 E12.50507
G1 X165.634 Y135.776 E13.08822
G1 X155.424 Y142.746 E13.93000
G1 X154.274 Y143.366 E14.01896
G1 X153.024 Y143.756 E14.10812
G1 X151.724 Y143.886 E14.19708
G1 X134.064 Y143.886 E15.39960
G1 X133.104 Y143.816 E15.46514
G1 X132.164 Y143.606 E15.53072
G1 X122.044 Y140.546 E16.25063
G1 X121.374 Y140.296 E16.29933
G1 X120.734 Y139.986 E16.34775
G1 X114.284 Y136.366 E16.85139
G1 X113.674 Y135.976 E16.90069
G1 X113.114 Y135.526 E16.94960
G1 X107.674 Y130.636 E17.44768
G1 X106.744 Y129.606 E17.54218
G1 X106.064 Y128.416 E17.63550
G1 X105.634 Y127.106 E17.72939
G1 X105.494 Y125.736 E17.82316
G1 X105.644 Y124.366 E17.91700
G1 X106.074 Y123.056 E18.01089
G1 X106.774 Y121.866 E18.10490
G1 X107.648 Y120.908 E18.19320
G1 F1800.000 E17.19320
G92 E0
G1 X107.907 Y123.825 F7200.000
G1 E1.00000 F1800.000
G1 X111.336 Y120.871 E1.30818 F1080.000
G1 X141.218 Y94.572 E4.01870
G1 X169.747 Y69.220 E6.61753
G1 X169.842 Y69.037 E6.63157
G1 X169.848 Y68.982 E6.63535
G1 X174.349 Y64.910 E7.04864
G1 X178.082 Y65.333 E7.30440
G1 X183.504 Y73.040 E7.94609
G1 X183.726 Y73.442 E7.97731
G1 X186.738 Y80.691 E8.51185
G1 X186.866 Y81.128 E8.54289
G1 X188.265 Y88.997 E9.08710
G1 X188.296 Y89.421 E9.11603
G1 X188.073 Y97.576 E9.67151
G1 X188.022 Y97.981 E9.69932
G1 X186.181 Y106.109 E10.26679
G1 X186.061 Y106.476 E10.29309
G1 X182.691 Y114.285 E10.87225
G1 X182.513 Y114.613 E10.89764
G1 X177.742 Y121.802 E11.48511
G1 X177.517 Y122.085 E11.50977
G1 X171.512 Y128.413 E12.10380
G1 X171.242 Y128.653 E12.12835
G1 X164.155 Y133.920 E12.72968
G1 X163.542 Y134.235 E12.77654
G1 X156.592 Y136.465 E13.27355
G1 X156.473 Y136.540 E13.28315
G1 X155.981 Y137.060 E13.33192
G1 X155.902 Y137.268 E13.34704
G1 X155.953 Y138.972 E13.46314
G1 X153.491 Y141.509 E13.70383
G1 X144.981 Y141.509 E14.28332
G1 X143.044 Y139.568 E14.47004
G1 X142.582 Y139.568 E14.50149
G1 X140.641 Y141.509 E14.68842
G1 X132.339 Y141.509 E15.25369
G1 X129.732 Y138.902 E15.50473
G1 X129.547 Y138.818 E15.51857
G1 X123.216 Y138.415 E15.95058
G1 X122.315 Y138.148 E16.01455
G1 X115.250 Y134.184 E16.56617
G1 X114.873 Y133.913 E16.59776
G1 X107.865 Y127.600 E17.24004
G1 X107.906 Y123.909 E17.49140
G1 X108.461 Y124.083 F7200.000
G1 X111.702 Y121.292 E17.78265 F1080.000
G1 X141.587 Y94.989 E20.49346
G1 X170.277 Y69.495 E23.10691
G1 X170.372 Y69.312 E23.12095
G1 X170.378 Y69.253 E23.12496
G1 X174.535 Y65.492 E23.50670
G1 X177.770 Y65.858 E23.72836
G1 X183.031 Y73.336 E24.35092
G1 X183.223 Y73.684 E24.37798
G1 X186.212 Y80.877 E24.90837
G1 X186.323 Y81.256 E24.93527
G1 X187.711 Y89.067 E25.47548
G1 X187.739 Y89.434 E25.50056
G1 X187.517 Y97.533 E26.05225
G1 X187.473 Y97.884 E26.07635
G1 X185.643 Y105.961 E26.64022
G1 X185.540 Y106.279 E26.66301
G1 X182.189 Y114.041 E27.23872
G1 X182.035 Y114.326 E27.26073
G1 X177.292 Y121.473 E27.84486
G1 X177.096 Y121.719 E27.86623
G1 X171.125 Y128.013 E28.45698
G1 X170.891 Y128.220 E28.47826
G1 X163.859 Y133.446 E29.07482
G1 X163.329 Y133.719 E29.11544
G1 X156.286 Y135.978 E29.61908
G1 X156.166 Y136.053 E29.62867
G1 X155.417 Y136.846 E29.70295
G1 X155.338 Y137.053 E29.71807
G1 X155.389 Y138.753 E29.83387
G1 X153.256 Y140.952 E30.04246
G1 X145.212 Y140.952 E30.59018
G1 X143.044 Y138.780 E30.79913
G1 X142.582 Y138.779 E30.83058
G1 X140.410 Y140.952 E31.03977
G1 X132.570 Y140.952 E31.57361
G1 X130.449 Y138.830 E31.77787
G1 X130.449 Y138.620 E31.79223
G1 X130.147 Y138.298 E31.82225
G1 X123.313 Y137.863 E32.28853
G1 X122.533 Y137.632 E32.34397
G1 X115.550 Y133.713 E32.88922
G1 X115.223 Y133.479 E32.91660
G1 X108.425 Y127.354 E33.53964
G1 X108.460 Y124.167 E33.75672
G1 X109.015 Y124.341 F7200.000
G1 X112.068 Y121.712 E34.03104 F1080.000
G1 X141.956 Y95.407 E36.74214
G1 X170.806 Y69.769 E39.37022
G1 X170.901 Y69.586 E39.38426
G1 X170.908 Y69.524 E39.38849
G1 X174.722 Y66.074 E39.73869
G1 X177.459 Y66.384 E39.92625
G1 X182.558 Y73.631 E40.52967
G1 X182.720 Y73.926 E40.55257
G1 X185.686 Y81.062 E41.07881
G1 X185.780 Y81.383 E41.10157
G1 X187.158 Y89.136 E41.63778
G1 X187.181 Y89.447 E41.65900
G1 X186.961 Y97.491 E42.20691
G1 X186.923 Y97.788 E42.22731
G1 X185.106 Y105.813 E42.78756
G1 X185.018 Y106.082 E42.80685
G1 X181.687 Y113.798 E43.37911
G1 X181.557 Y114.038 E43.39774
G1 X176.841 Y121.145 E43.97853
G1 X176.675 Y121.353 E43.99662
G1 X170.737 Y127.612 E44.58408
G1 X170.539 Y127.787 E44.60209
G1 X163.564 Y132.971 E45.19389
G1 X163.115 Y133.202 E45.22826
G1 X155.979 Y135.491 E45.73852
G1 X155.860 Y135.566 E45.74812
G1 X154.854 Y136.631 E45.84789
G1 X154.775 Y136.839 E45.86301
G1 X154.825 Y138.534 E45.97851
G1 X153.020 Y140.395 E46.15502
G1 X145.443 Y140.395 E46.67095
G1 X143.648 Y138.595 E46.84403
G1 X143.655 Y134.770 E47.10452
G1 X143.328 Y134.443 E47.13605
G1 X142.299 Y134.446 E47.20607
G1 X141.974 Y134.772 E47.23742
G1 X141.974 Y138.600 E47.49807
G1 X140.179 Y140.395 E47.67091
G1 X132.801 Y140.395 E48.17332
G1 X131.006 Y138.600 E48.34616
G1 X131.006 Y138.412 E48.35894
G1 X130.933 Y138.220 E48.37296
G1 X130.603 Y137.852 E48.40659
G1 X130.406 Y137.756 E48.42150
G1 X123.411 Y137.311 E48.89874
G1 X122.751 Y137.116 E48.94565
G1 X115.849 Y133.242 E49.48453
G1 X115.573 Y133.044 E49.50770
G1 X108.985 Y127.109 E50.11149
G1 X109.015 Y124.424 E50.29430
G1 X109.570 Y124.599 F7200.000
G1 X112.434 Y122.132 E50.55168 F1080.000
G1 X142.325 Y95.824 E53.26308
G1 X171.336 Y70.044 E55.90579
G1 X171.431 Y69.861 E55.91983
G1 X171.438 Y69.796 E55.92428
G1 X174.908 Y66.655 E56.24294
G1 X177.147 Y66.909 E56.39640
G1 X182.085 Y73.927 E56.98069
G1 X182.218 Y74.168 E56.99942
G1 X185.160 Y81.248 E57.52151
G1 X185.237 Y81.510 E57.54014
G1 X186.604 Y89.206 E58.07235
G1 X186.623 Y89.460 E58.08971
G1 X186.405 Y97.448 E58.63383
G1 X186.374 Y97.691 E58.65052
G1 X184.568 Y105.664 E59.20717
G1 X184.496 Y105.885 E59.22295
G1 X181.186 Y113.554 E59.79177
G1 X181.079 Y113.751 E59.80701
G1 X176.390 Y120.817 E60.38446
G1 X176.255 Y120.987 E60.39926
G1 X170.350 Y127.211 E60.98344
G1 X170.188 Y127.354 E60.99817
G1 X163.268 Y132.497 E61.58522
G1 X162.901 Y132.686 E61.61334
G1 X155.673 Y135.005 E62.13023
G1 X155.553 Y135.080 E62.13983
G1 X154.290 Y136.417 E62.26510
G1 X154.211 Y136.624 E62.28022
G1 X154.261 Y138.316 E62.39542
G1 X152.784 Y139.837 E62.53984
G1 X145.674 Y139.837 E63.02399
G1 X144.205 Y138.365 E63.16560
G1 X144.213 Y134.211 E63.44848
G1 X143.886 Y133.884 E63.48001
G1 X141.742 Y133.890 E63.62597
G1 X141.417 Y134.217 E63.65733
G1 X141.417 Y138.369 E63.94008
G1 X139.949 Y139.837 E64.08149
G1 X133.032 Y139.837 E64.55248
G1 X131.563 Y138.369 E64.69389
G1 X131.563 Y138.199 E64.70547
G1 X131.490 Y138.007 E64.71948
G1 X130.866 Y137.310 E64.78314
G1 X130.669 Y137.215 E64.79806
G1 X123.509 Y136.759 E65.28654
G1 X122.969 Y136.599 E65.32493
G1 X116.149 Y132.772 E65.85744
G1 X115.923 Y132.609 E65.87639
G1 X109.545 Y126.864 E66.46094
G1 X109.569 Y124.682 E66.60948
G1 X110.124 Y124.857 F7200.000
G1 X112.799 Y122.552 E66.84993 F1080.000
G1 X142.694 Y96.241 E69.56162
G1 X171.866 Y70.318 E72.21895
G1 X171.960 Y70.135 E72.23299
G1 X171.968 Y70.067 E72.23767
G1 X175.094 Y67.237 E72.52479
G1 X176.836 Y67.434 E72.64414
G1 X181.612 Y74.222 E73.20930
G1 X181.715 Y74.410 E73.22387
G1 X184.634 Y81.434 E73.74181
G1 X184.694 Y81.638 E73.75629
G1 X186.051 Y89.276 E74.28451
G1 X186.066 Y89.473 E74.29801
G1 X185.848 Y97.406 E74.83835
G1 X185.825 Y97.595 E74.85133
G1 X184.031 Y105.516 E75.40438
G1 X183.975 Y105.688 E75.41665
G1 X180.684 Y113.311 E75.98202
G1 X180.601 Y113.464 E75.99387
G1 X175.939 Y120.489 E76.56799
G1 X175.834 Y120.621 E76.57950
G1 X169.962 Y126.810 E77.16040
G1 X169.836 Y126.922 E77.17186
G1 X162.973 Y132.022 E77.75414
G1 X162.687 Y132.169 E77.77601
G1 X155.366 Y134.518 E78.29953
G1 X155.247 Y134.593 E78.30913
G1 X153.726 Y136.202 E78.45990
G1 X153.647 Y136.410 E78.47503
G1 X153.698 Y138.097 E78.58993
G1 X152.549 Y139.280 E78.70225
G1 X145.905 Y139.280 E79.15462
G1 X144.763 Y138.135 E79.26477
G1 X144.772 Y133.652 E79.57003
G1 X144.444 Y133.325 E79.60157
G1 X141.185 Y133.335 E79.82347
G1 X140.860 Y133.661 E79.85482
G1 X140.860 Y138.138 E80.15968
G1 X139.718 Y139.280 E80.26967
G1 X133.262 Y139.280 E80.70924
G1 X132.120 Y138.138 E80.81922
G1 X132.120 Y137.986 E80.82960
G1 X132.047 Y137.794 E80.84361
G1 X131.129 Y136.769 E80.93729
G1 X130.931 Y136.673 E80.95221
G1 X123.607 Y136.207 E81.45194
G1 X123.187 Y136.083 E81.48180
G1 X116.449 Y132.301 E82.00794
G1 X116.273 Y132.175 E82.02268
G1 X110.104 Y126.618 E82.58799
G1 X110.123 Y124.940 E82.70225
G1 X110.678 Y125.114 F7200.000
G1 X113.165 Y122.972 E82.92577 F1080.000
G1 X143.063 Y96.659 E85.63775
G1 X172.395 Y70.593 E88.30971
G1 X172.490 Y70.410 E88.32375
G1 X172.498 Y70.338 E88.32866
G1 X175.280 Y67.819 E88.58423
G1 X176.524 Y67.960 E88.66948
G1 X181.138 Y74.518 E89.21551
G1 X181.212 Y74.652 E89.22592
G1 X184.108 Y81.619 E89.73970
G1 X184.150 Y81.765 E89.75005
G1 X185.497 Y89.345 E90.27427
G1 X185.508 Y89.486 E90.28391
G1 X185.292 Y97.363 E90.82047
G1 X185.275 Y97.498 E90.82974
G1 X183.453 Y105.490 E91.38791
G1 X180.123 Y113.176 E91.95826
G1 X175.413 Y120.255 E92.53724
G1 X169.484 Y126.489 E93.12301
G1 X162.677 Y131.548 E93.70053
G1 X162.473 Y131.653 E93.71615
G1 X155.060 Y134.031 E94.24630
G1 X154.940 Y134.106 E94.25590
G1 X153.162 Y135.988 E94.43217
G1 X153.083 Y136.195 E94.44729
G1 X153.134 Y137.878 E94.56190
G1 X152.313 Y138.723 E94.64213
G1 X146.136 Y138.723 E95.06272
G1 X145.320 Y137.906 E95.14140
G1 X145.330 Y133.094 E95.46905
G1 X145.002 Y132.766 E95.50059
G1 X140.628 Y132.780 E95.79843
G1 X140.303 Y133.106 E95.82979
G1 X140.303 Y137.907 E96.15675
G1 X139.487 Y138.723 E96.23531
G1 X133.493 Y138.723 E96.64345
G1 X132.677 Y137.907 E96.72202
G1 X132.677 Y137.773 E96.73119
G1 X132.604 Y137.581 E96.74520
G1 X131.391 Y136.228 E96.86891
G1 X131.194 Y136.132 E96.88383
G1 X123.705 Y135.655 E97.39481
G1 X123.405 Y135.566 E97.41614
G1 X116.748 Y131.830 E97.93591
G1 X116.623 Y131.740 E97.94644
G1 X110.664 Y126.373 E98.49250
G1 X110.677 Y125.198 E98.57250
G1 X111.232 Y125.372 F7200.000
G1 X113.531 Y123.392 E98.77907 F1080.000
G1 X143.432 Y97.076 E101.49135
G1 X172.925 Y70.868 E104.17794
G1 X173.020 Y70.685 E104.19198
G1 X173.028 Y70.610 E104.19711
G1 X175.466 Y68.400 E104.42114
G1 X176.212 Y68.485 E104.47229
G1 X180.665 Y74.813 E104.99918
G1 X183.582 Y81.805 E105.51503
G1 X184.944 Y89.415 E106.04142
G1 X184.736 Y97.321 E106.57995
G1 X182.931 Y105.293 E107.13655
G1 X179.645 Y112.889 E107.70009
G1 X174.992 Y119.889 E108.27245
G1 X169.133 Y126.056 E108.85168
G1 X162.382 Y131.074 E109.42444
G1 X162.259 Y131.136 E109.43381
G1 X154.753 Y133.544 E109.97059
G1 X154.634 Y133.620 E109.98019
G1 X152.599 Y135.773 E110.18196
G1 X152.520 Y135.981 E110.19708
G1 X152.570 Y137.659 E110.31139
G1 X152.077 Y138.166 E110.35953
G1 X146.367 Y138.166 E110.74834
G1 X145.878 Y137.676 E110.79555
G1 X145.888 Y132.535 E111.14559
G1 X145.560 Y132.207 E111.17713
G1 X140.071 Y132.224 E111.55092
G1 X139.746 Y132.550 E111.58227
G1 X139.746 Y137.677 E111.93134
G1 X139.256 Y138.166 E111.97847
G1 X133.724 Y138.166 E112.35519
G1 X133.234 Y137.677 E112.40233
G1 X133.234 Y137.560 E112.41030
G1 X133.161 Y137.367 E112.42431
G1 X131.654 Y135.686 E112.57805
G1 X131.457 Y135.590 E112.59296
G1 X123.803 Y135.103 E113.11520
G1 X123.623 Y135.050 E113.12799
G1 X117.048 Y131.360 E113.64139
G1 X111.224 Y126.127 E114.17450
G1 X111.232 Y125.456 E114.22022
G1 X111.787 Y125.630 F7200.000
G1 X113.897 Y123.812 E114.40986 F1080.000
G1 X143.801 Y97.493 E117.12243
G1 X173.454 Y71.142 E119.82365
G1 X173.549 Y70.959 E119.83768
G1 X173.558 Y70.881 E119.84304
G1 X175.652 Y68.982 E120.03552
G1 X175.901 Y69.010 E120.05258
G1 X180.207 Y75.136 E120.56241
G1 X183.064 Y82.020 E121.06995
G1 X184.393 Y89.512 E121.58809
G1 X184.177 Y97.305 E122.11893
G1 X182.410 Y105.096 E122.66289
G1 X179.167 Y112.602 E123.21961
G1 X174.572 Y119.523 E123.78536
G1 X168.781 Y125.623 E124.35805
G1 X162.086 Y130.599 E124.92605
G1 X154.446 Y133.058 E125.47253
G1 X154.327 Y133.133 E125.48213
G1 X152.035 Y135.559 E125.70940
G1 X151.956 Y135.766 E125.72453
G1 X152.006 Y137.440 E125.83854
G1 X151.842 Y137.609 E125.85458
G1 X146.598 Y137.609 E126.21161
G1 X146.435 Y137.446 E126.22735
G1 X146.446 Y131.976 E126.59979
G1 X146.119 Y131.649 E126.63133
G1 X139.514 Y131.669 E127.08105
G1 X139.189 Y131.995 E127.11241
G1 X139.189 Y137.446 E127.48358
G1 X139.026 Y137.609 E127.49929
G1 X133.955 Y137.609 E127.84458
G1 X133.791 Y137.446 E127.86030
G1 X133.791 Y137.347 E127.86706
G1 X133.718 Y137.154 E127.88108
G1 X131.917 Y135.145 E128.06484
G1 X131.720 Y135.049 E128.07975
G1 X123.901 Y134.551 E128.61324
G1 X123.841 Y134.533 E128.61751
G1 X117.322 Y130.871 E129.12663
G1 X111.784 Y125.882 E129.63421
G1 X111.786 Y125.714 E129.64565
G1 X112.517 Y125.763 F7200.000
G1 X114.068 Y124.417 E129.78549 F540.000
G1 X114.080 Y124.427 E129.78652
G1 X144.184 Y97.927 E132.51747
G1 X174.296 Y71.169 E135.26045
G1 X174.220 Y71.061 E135.26942
G1 X175.695 Y69.723 E135.40502
G1 X179.689 Y75.399 E135.87756
G1 X182.504 Y82.172 E136.37699
G1 X183.813 Y89.530 E136.88592
G1 X183.605 Y97.208 E137.40894
G1 X181.862 Y104.904 E137.94624
G1 X178.666 Y112.310 E138.49549
G1 X174.123 Y119.157 E139.05502
G1 X168.406 Y125.182 E139.62056
G1 X161.801 Y130.091 E140.18089
G1 X154.051 Y132.583 E140.73524
G1 X151.366 Y135.424 E141.00141
G1 X151.421 Y137.031 E141.11087
G1 X147.015 Y137.031 E141.41088
G1 X147.026 Y131.067 E141.81694
G1 X138.610 Y131.093 E142.39000
G1 X138.610 Y137.031 E142.79429
G1 X134.384 Y137.031 E143.08208
G1 X132.164 Y134.553 E143.30858
G1 X131.923 Y134.482 E143.32568
G1 X124.037 Y133.980 E143.86374
G1 X117.670 Y130.405 E144.36095
G1 X112.579 Y125.819 E144.82753
G1 X113.059 Y125.635 F7200.000
G1 X113.358 Y125.771 F7200.000
G1 X114.062 Y125.160 E144.89099 F1080.000
G1 X114.081 Y125.178 E144.89275
G1 X115.577 Y123.843 E145.02924
G1 X144.553 Y98.344 E147.65745
G1 X175.038 Y71.257 E150.43434
G1 X174.959 Y71.144 E150.44376
G1 X175.603 Y70.560 E150.50294
G1 X179.198 Y75.670 E150.92840
G1 X181.966 Y82.327 E151.41935
G1 X183.255 Y89.557 E151.91940
G1 X183.050 Y97.133 E152.43546
G1 X181.330 Y104.731 E152.96591
G1 X178.178 Y112.037 E153.50773
G1 X173.680 Y118.817 E154.06173
G1 X168.034 Y124.763 E154.62007
G1 X161.549 Y129.586 E155.17041
G1 X154.019 Y131.995 E155.70875
G1 X153.730 Y132.112 E155.72997
