; generated by Slic3r 1.2.9 on 2017-02-11 at 15:07:47

; external perimeters extrusion width = 0.40mm
; perimeters extrusion width = 0.48mm
; infill extrusion width = 0.48mm
; solid infill extrusion width = 0.48mm
; top infill extrusion width = 0.48mm

M107
M104 S220 ; set temperature
G28 ; home all axes
M106 S255;
G1 Z200 F1200 ; lift nozzle
M109 S220 ; wait for temperature to be reached
G21 ; set units to millimeters
G90 ; use absolute coordinates
M82 ; use absolute distances for extrusion
G92 E0
G1 Z0.400 F7200.000
G1 E-1.00000 F2400.00000
G92 E0
G1 X15.793 Y37.627 F7200.000
G1 E1.00000 F2400.00000
G1 X17.520 Y36.928 E1.21690 F1800.000
G1 X37.520 Y31.928 E3.61634
G1 X39.149 Y31.728 E3.80730
G1 X109.149 Y31.728 E11.95460
G1 X111.423 Y32.125 E12.22334
G1 X113.429 Y33.269 E12.49208 F1800.000
G1 X114.928 Y35.025 E12.76082
G1 X115.744 Y37.185 E13.02956
G1 X115.863 Y38.442 E13.17652
G1 X115.863 Y78.512 E17.84034
G1 X115.350 Y127.262 E23.51465
G1 X114.929 Y129.533 E23.78339
G1 X113.764 Y131.526 E24.05213
G1 X111.992 Y133.007 E24.32087
G1 X109.824 Y133.800 E24.58961
G1 X108.636 Y133.906 E24.72839
G1 X18.636 Y133.906 E35.20348
G1 X16.361 Y133.509 E35.47222
G1 X14.356 Y132.365 E35.74096
G1 X12.856 Y130.609 E36.00970
G1 X12.041 Y128.449 E36.27844
G1 X11.922 Y127.192 E36.42541
G1 X11.922 Y92.121 E40.50727
G1 X12.435 Y43.371 E46.18158
G1 X12.856 Y41.101 E46.45032
G1 X14.021 Y39.107 E46.71906
G1 X15.747 Y37.665 E46.98082
G1 E45.98082 F2400.00000
G92 E0
G1 X36.656 Y82.370 F7200.000
G1 E1.00000 F2400.00000
G1 X17.522 Y82.370 E3.22704 F1800.000
G1 X15.221 Y80.069 E3.60577
G1 X15.221 Y41.815 E8.05814
G1 X17.522 Y39.514 E8.43687
G1 X27.930 Y39.514 E9.64829
G1 X29.374 Y40.112 E9.83016
G1 X32.479 Y43.217 E10.34123
G1 X33.077 Y44.660 E10.52310
G1 X33.077 Y64.096 E12.78515
G1 X33.495 Y64.514 E12.85401
G1 X34.803 Y64.514 E13.00620
G1 X35.221 Y64.096 E13.07506
G1 X35.221 Y36.815 E16.25026
G1 X37.522 Y34.514 E16.62899
G1 X110.776 Y34.514 E25.15501
G1 X113.077 Y36.815 E25.53373
G1 X113.077 Y80.069 E30.56806
G1 X110.368 Y82.777 E31.01389
G1 X110.368 Y83.369 E31.08275
G1 X112.564 Y85.565 E31.44416
G1 X112.564 Y128.819 E36.47849
G1 X110.263 Y131.120 E36.85722
G1 X17.009 Y131.120 E47.71103
G1 X14.708 Y128.819 E48.08976
G1 X14.708 Y90.565 E52.54213
G1 X17.009 Y88.264 E52.92086
G1 X27.417 Y88.264 E54.13228
G1 X28.861 Y88.862 E54.31415
G1 X31.966 Y91.967 E54.82522
G1 X32.564 Y93.410 E55.00709
G1 X32.564 Y112.845 E57.26914
G1 X32.982 Y113.264 E57.33800
G1 X34.290 Y113.264 E57.49019
G1 X34.708 Y112.845 E57.55905
G1 X34.708 Y85.565 E60.73425
G1 X37.021 Y83.251 E61.11502
G1 X36.679 Y82.425 E61.21912
G1 X36.656 Y81.655 F7200.000
G1 X17.818 Y81.655 E63.41173 F1800.000
G1 X15.935 Y79.773 E63.72160
G1 X15.935 Y42.111 E68.10511
G1 X17.818 Y40.228 E68.41498
G1 X27.788 Y40.228 E69.57543
G1 X28.969 Y40.717 E69.72424
G1 X31.873 Y43.621 E70.20224
G1 X32.363 Y44.803 E70.35105
G1 X32.363 Y64.810 E72.67968
G1 X32.781 Y65.228 E72.74854
G1 X35.517 Y65.228 E73.06697
G1 X35.935 Y64.810 E73.13583
G1 X35.935 Y37.111 E76.35972
G1 X37.818 Y35.228 E76.66959
G1 X110.480 Y35.228 E85.12675
G1 X112.363 Y37.111 E85.43662 F1800.000
G1 X112.363 Y79.773 E90.40208
G1 X110.480 Y81.655 E90.71195
G1 X36.716 Y81.655 E99.29731
G1 X36.656 Y80.941 F7200.000
G1 X18.114 Y80.941 E101.45549 F1800.000
G1 X16.649 Y79.477 E101.69650
G1 X16.649 Y42.406 E106.01116
G1 X18.114 Y40.942 E106.25216
G1 X27.646 Y40.942 E107.36166
G1 X28.565 Y41.323 E107.47739
G1 X31.268 Y44.026 E107.92233
G1 X31.648 Y44.945 E108.03807
G1 X31.648 Y65.524 E110.43329
G1 X32.067 Y65.942 E110.50215
G1 X36.231 Y65.942 E110.98682
G1 X36.649 Y65.524 E111.05568
G1 X36.649 Y37.406 E114.32826
G1 X38.114 Y35.942 E114.56927
G1 X110.184 Y35.942 E122.95757
G1 X111.648 Y37.406 E123.19858
G1 X111.648 Y79.477 E128.09518 F1800.000
G1 X110.184 Y80.941 E128.33619
G1 X36.716 Y80.941 E136.88712
G1 X36.656 Y80.227 F7200.000
G1 X18.409 Y80.227 E139.01087 F1800.000
G1 X17.364 Y79.181 E139.18302
G1 X17.364 Y42.702 E143.42882
G1 X18.409 Y41.656 E143.60097
G1 X27.504 Y41.656 E144.65950
G1 X28.160 Y41.928 E144.74216
G1 X30.662 Y44.430 E145.15403
G1 X30.934 Y45.087 E145.23670
G1 X30.934 Y66.238 E147.69851
G1 X31.353 Y66.656 E147.76737
G1 X36.945 Y66.656 E148.41828
G1 X37.364 Y66.238 E148.48714
G1 X37.364 Y37.702 E151.80842
G1 X38.409 Y36.656 E151.98057
G1 X109.888 Y36.656 E160.30001
G1 X110.934 Y37.702 E160.47216 F1800.000
G1 X110.934 Y79.181 E165.29990
G1 X109.888 Y80.227 E165.47205
G1 X36.716 Y80.227 E173.98855
G1 X36.656 Y79.513 F7200.000
G1 X18.705 Y79.513 E176.07787 F1800.000
G1 X18.078 Y78.885 E176.18116
G1 X18.078 Y42.998 E180.35810
G1 X18.705 Y42.371 E180.46139
G1 X27.362 Y42.371 E181.46895
G1 X27.756 Y42.534 E181.51855
G1 X30.057 Y44.835 E181.89736
G1 X30.220 Y45.229 E181.94696
G1 X30.220 Y66.952 E184.47535
G1 X30.638 Y67.371 E184.54421
G1 X37.659 Y67.371 E185.36137
G1 X38.078 Y66.952 E185.43022
G1 X38.078 Y37.998 E188.80019
G1 X38.705 Y37.371 E188.90348
G1 X109.593 Y37.371 E197.15406
G1 X110.220 Y37.998 E197.25735
G1 X110.220 Y78.885 E202.01624 F1800.000
G1 X109.593 Y79.513 E202.11953
G1 X36.716 Y79.513 E210.60160
G1 X36.656 Y78.799 F7200.000
G1 X19.001 Y78.799 E212.65649 F1800.000
G1 X18.792 Y78.590 E212.69092
G1 X18.792 Y43.294 E216.79900
G1 X19.001 Y43.085 E216.83343
G1 X27.220 Y43.085 E217.79003
G1 X27.351 Y43.139 E217.80656
G1 X29.452 Y45.239 E218.15229
G1 X29.506 Y45.371 E218.16883
G1 X29.506 Y67.666 E220.76381
G1 X29.924 Y68.085 E220.83267
G1 X38.373 Y68.085 E221.81607
G1 X38.792 Y67.666 E221.88493
G1 X38.792 Y38.294 E225.30359
G1 X39.001 Y38.085 E225.33801
G1 X109.297 Y38.085 E233.51974
G1 X109.506 Y38.294 E233.55417 F1800.000
G1 X109.506 Y78.590 E238.24419
G1 X109.297 Y78.799 E238.27862
G1 X36.716 Y78.799 E246.72626
G1 E245.72626 F2400.00000
G92 E0
G1 X18.735 Y79.442 F7200.000
G1 X18.735 Y82.540 F7200.000
G1 X21.103 Y84.909 F7200.000
G1 X37.620 Y82.875 F7200.000
G1 X37.305 Y83.978 F7200.000
G1 E1.00000 F2400.00000
G1 X109.967 Y83.978 E9.45716 F1800.000
G1 X111.850 Y85.860 E9.76703 F1800.000
G1 X111.850 Y128.523 E14.73249
G1 X109.967 Y130.405 E15.04236
G1 X17.305 Y130.405 E25.82732
G1 X15.422 Y128.523 E26.13718
G1 X15.422 Y90.860 E30.52070
G1 X17.305 Y88.978 E30.83057
G1 X27.275 Y88.978 E31.99102
G1 X28.456 Y89.467 E32.13982
G1 X31.360 Y92.371 E32.61783
G1 X31.850 Y93.552 E32.76663
G1 X31.850 Y113.560 E35.09527
G1 X32.268 Y113.978 E35.16413
G1 X35.004 Y113.978 E35.48255
G1 X35.422 Y113.560 E35.55141
G1 X35.422 Y85.860 E38.77531
G1 X37.262 Y84.020 E39.07819
G1 X37.601 Y84.692 F7200.000
G1 X109.671 Y84.692 E47.46649 F1800.000
G1 X111.136 Y86.156 E47.70750
G1 X111.136 Y128.227 E52.60411 F1800.000
G1 X109.671 Y129.691 E52.84511
G1 X17.601 Y129.691 E63.56121
G1 X16.136 Y128.227 E63.80222
G1 X16.136 Y91.156 E68.11687
G1 X17.601 Y89.692 E68.35788
G1 X27.133 Y89.692 E69.46737
G1 X28.052 Y90.073 E69.58311
G1 X30.755 Y92.776 E70.02805
G1 X31.136 Y93.694 E70.14378
G1 X31.136 Y114.274 E72.53900
G1 X31.554 Y114.692 E72.60786
G1 X35.718 Y114.692 E73.09253
G1 X36.136 Y114.274 E73.16139
G1 X36.136 Y86.156 E76.43398
G1 X37.558 Y84.735 E76.66801
G1 X37.897 Y85.406 F7200.000
G1 X109.376 Y85.406 E84.98745 F1800.000
G1 X110.421 Y86.452 E85.15959 F1800.000
G1 X110.421 Y127.931 E89.98734
G1 X109.376 Y128.977 E90.15949
G1 X17.897 Y128.977 E100.80673
G1 X16.851 Y127.931 E100.97887
G1 X16.851 Y91.452 E105.22467
G1 X17.897 Y90.406 E105.39682
G1 X26.991 Y90.406 E106.45535
G1 X27.647 Y90.678 E106.53801
G1 X30.150 Y93.180 E106.94988
G1 X30.421 Y93.837 E107.03255
G1 X30.421 Y114.988 E109.49436
G1 X30.840 Y115.406 E109.56322
G1 X36.432 Y115.406 E110.21413
G1 X36.851 Y114.988 E110.28299
G1 X36.851 Y86.452 E113.60427
G1 X37.854 Y85.449 E113.76943
G1 X38.192 Y86.120 F7200.000
G1 X109.080 Y86.120 E122.02002 F1800.000
G1 X109.707 Y86.748 E122.12330
G1 X109.707 Y127.635 E126.88219 F1800.000
G1 X109.080 Y128.263 E126.98548
G1 X18.192 Y128.263 E137.56386
G1 X17.565 Y127.635 E137.66715
G1 X17.565 Y91.748 E141.84408
G1 X18.192 Y91.120 E141.94737
G1 X26.849 Y91.120 E142.95493
G1 X27.243 Y91.283 E143.00454
G1 X29.544 Y93.585 E143.38334
G1 X29.707 Y93.979 E143.43294
G1 X29.707 Y115.702 E145.96133
G1 X30.126 Y116.120 E146.03019
G1 X37.146 Y116.120 E146.84735
G1 X37.565 Y115.702 E146.91621
G1 X37.565 Y86.748 E150.28618
G1 X38.150 Y86.163 E150.38248
G1 X38.488 Y86.835 F7200.000
G1 X108.784 Y86.835 E158.56420 F1800.000
G1 X108.993 Y87.044 E158.59863 F1800.000
G1 X108.993 Y127.340 E163.28866
G1 X108.784 Y127.549 E163.32309
G1 X18.488 Y127.549 E173.83261
G1 X18.279 Y127.340 E173.86703
G1 X18.279 Y92.044 E177.97511
G1 X18.488 Y91.835 E178.00954
G1 X26.707 Y91.835 E178.96614
G1 X26.838 Y91.889 E178.98267
G1 X28.939 Y93.989 E179.32841
G1 X28.993 Y94.121 E179.34494
G1 X28.993 Y116.416 E181.93992
G1 X29.411 Y116.835 E182.00878
G1 X37.861 Y116.835 E182.99218
G1 X38.279 Y116.416 E183.06104
G1 X38.279 Y87.044 E186.47970
G1 X38.446 Y86.877 E186.50715
G1 E185.50715 F2400.00000
G92 E0
G1 X39.036 Y117.592 F7200.000
G1 E1.00000 F2400.00000
G1 X39.036 Y87.592 E4.49170 F1800.000
G1 X108.236 Y87.592 E12.54588
G1 X108.236 Y126.792 E17.10836
G1 X19.036 Y126.792 E27.49034
G1 X19.036 Y92.592 E31.47087
G1 X26.470 Y92.592 E32.33615
G1 X28.236 Y94.357 E32.62678
G1 X28.236 Y117.592 E35.33102
G1 X38.976 Y117.592 E36.58105
G1 X39.436 Y117.592 F7200.000
G1 X39.750 Y118.306 F7200.000
G1 X39.750 Y88.306 E40.07274 F1800.000
G1 X107.522 Y88.306 E47.96068
G1 X107.522 Y126.077 E52.35692
G1 X19.750 Y126.077 E62.57266
G1 X19.750 Y93.306 E66.38695
G1 X26.175 Y93.306 E67.13468
G1 X27.522 Y94.653 E67.35645
G1 X27.522 Y118.306 E70.10938
G1 X39.690 Y118.306 E71.52565
G1 X40.464 Y119.020 F7200.000
G1 X40.464 Y89.020 E75.01734 F1800.000
G1 X106.808 Y89.020 E82.73904
G1 X106.808 Y125.363 E86.96904
G1 X20.464 Y125.363 E97.01853
G1 X20.464 Y94.020 E100.66658
G1 X25.879 Y94.020 E101.29676
G1 X26.808 Y94.949 E101.44967
G1 X26.808 Y119.020 E104.25129
G1 X40.404 Y119.020 E105.83381
G1 X46.581 Y115.068 F7200.000
G1 X45.971 Y114.045 E105.97233 F1800.000
G1 X45.449 Y112.976 E106.11086
G1 X45.016 Y111.867 E106.24938
G1 X44.676 Y110.727 E106.38791
G1 X44.432 Y109.562 E106.52643
G1 X44.285 Y108.381 E106.66496
G1 X44.236 Y107.192 E106.80349
G1 X44.285 Y106.002 E106.94201
G1 X44.432 Y104.821 E107.08054
G1 X44.676 Y103.657 E107.21906
G1 X45.016 Y102.516 E107.35759
G1 X45.449 Y101.407 E107.49611
G1 X45.971 Y100.338 E107.63464
G1 X46.581 Y99.315 E107.77317
G1 X47.272 Y98.347 E107.91169
G1 X48.041 Y97.439 E108.05022
G1 X48.883 Y96.597 E108.18874
G1 X49.791 Y95.828 E108.32727
G1 X50.760 Y95.136 E108.46579
G1 X51.782 Y94.527 E108.60432
G1 X52.851 Y94.004 E108.74285
G1 X53.960 Y93.572 E108.88137
G1 X55.101 Y93.232 E109.01990
G1 X56.266 Y92.988 E109.15842
G1 X57.447 Y92.840 E109.29695
G1 X58.607 Y92.793 E109.43206 F1800.000
G1 X59.825 Y92.840 E109.57394
G1 X61.006 Y92.988 E109.71252
G1 X62.171 Y93.232 E109.85104
G1 X63.312 Y93.572 E109.98957
G1 X64.421 Y94.004 E110.12809
G1 X65.490 Y94.527 E110.26662
G1 X66.512 Y95.136 E110.40514
G1 X67.481 Y95.828 E110.54367
G1 X68.389 Y96.597 E110.68220
G1 X69.231 Y97.439 E110.82072
G1 X70.000 Y98.347 E110.95925
G1 X70.692 Y99.315 E111.09777
G1 X71.301 Y100.338 E111.23630
G1 X71.823 Y101.407 E111.37482
G1 X72.256 Y102.516 E111.51335
G1 X72.596 Y103.657 E111.65188
G1 X72.840 Y104.821 E111.79040
G1 X72.987 Y106.002 E111.92893
G1 X73.036 Y107.192 E112.06745
G1 X72.987 Y108.381 E112.20598
G1 X72.840 Y109.562 E112.34451
G1 X72.596 Y110.727 E112.48303
G1 X72.256 Y111.867 E112.62156
G1 X71.834 Y112.949 E112.75667
G1 X71.301 Y114.045 E112.89855
G1 X70.692 Y115.068 E113.03712
G1 X70.000 Y116.037 E113.17565
G1 X69.231 Y116.945 E113.31417
G1 X68.389 Y117.786 E113.45270
G1 X67.503 Y118.537 E113.58781
G1 X66.513 Y119.247 E113.72969
G1 X65.490 Y119.856 E113.86827
G1 X64.421 Y120.379 E114.00679
G1 X63.312 Y120.812 E114.14532
G1 X62.171 Y121.151 E114.28384
G1 X61.006 Y121.396 E114.42237
G1 X59.825 Y121.543 E114.56090
G1 X58.636 Y121.592 E114.69942
G1 X57.447 Y121.543 E114.83795
G1 X56.266 Y121.396 E114.97647
G1 X55.101 Y121.151 E115.11500
G1 X53.960 Y120.812 E115.25352
G1 X52.851 Y120.379 E115.39205
G1 X51.782 Y119.856 E115.53058
G1 X50.760 Y119.247 E115.66910
G1 X49.791 Y118.556 E115.80763
G1 X48.883 Y117.786 E115.94615
G1 X48.041 Y116.945 E116.08468
G1 X47.272 Y116.037 E116.22320
G1 X46.615 Y115.117 E116.35475
G1 X46.181 Y115.084 F7200.000
G1 E115.35475 F2400.00000
G92 E0
G1 X63.507 Y121.380 F7200.000
G1 X73.636 Y120.883 F7200.000
G1 X73.636 Y116.851 F7200.000
G1 X73.636 Y115.215 F7200.000
G1 X73.636 Y113.835 F7200.000
G1 X73.636 Y113.835 F7200.000
G1 X74.899 Y113.217 F7200.000
G1 X74.432 Y109.562 F7200.000
G1 E1.00000 F2400.00000
G1 X74.285 Y108.381 E1.13853 F1800.000
G1 X74.236 Y107.192 E1.27705
G1 X74.285 Y106.002 E1.41558
G1 X74.432 Y104.821 E1.55410
G1 X74.676 Y103.657 E1.69263
G1 X75.016 Y102.516 E1.83116
G1 X75.449 Y101.407 E1.96968
G1 X75.971 Y100.338 E2.10821
G1 X76.581 Y99.315 E2.24673
G1 X77.272 Y98.347 E2.38526
G1 X78.041 Y97.439 E2.52378
G1 X78.883 Y96.597 E2.66231
G1 X79.791 Y95.828 E2.80084
G1 X80.736 Y95.153 E2.93595
G1 X81.782 Y94.527 E3.07783
G1 X82.851 Y94.004 E3.21640
G1 X83.960 Y93.572 E3.35493
G1 X85.101 Y93.232 E3.49345
G1 X86.266 Y92.988 E3.63198
G1 X87.447 Y92.840 E3.77050
G1 X88.607 Y92.793 E3.90562 F1800.000
G1 X89.825 Y92.840 E4.04750
G1 X91.006 Y92.988 E4.18607
G1 X92.171 Y93.232 E4.32460
G1 X93.312 Y93.572 E4.46312
G1 X94.421 Y94.004 E4.60165
G1 X95.490 Y94.527 E4.74020
G1 X96.531 Y95.149 E4.88131
G1 X97.490 Y95.835 E5.01856
G1 X98.425 Y96.632 E5.16155
G1 X99.232 Y97.440 E5.29455
G1 X99.969 Y98.309 E5.42716
G1 X100.661 Y99.272 E5.56515
G1 X101.300 Y100.337 E5.70974
G1 X101.823 Y101.407 E5.84834
G1 X102.256 Y102.516 E5.98686
G1 X102.596 Y103.657 E6.12539
G1 X102.834 Y104.793 E6.26050
G1 X102.987 Y106.002 E6.40238
G1 X103.036 Y107.192 E6.54096
G1 X102.987 Y108.381 E6.67948
G1 X102.840 Y109.562 E6.81801
G1 X102.596 Y110.727 E6.95661
G1 X102.238 Y111.916 E7.10107
G1 X101.823 Y112.977 E7.23368
G1 X101.301 Y114.044 E7.37193
G1 X100.679 Y115.086 E7.51320
G1 X100.005 Y116.030 E7.64812
G1 X99.231 Y116.945 E7.78766
G1 X98.410 Y117.766 E7.92278
G1 X97.481 Y118.555 E8.06466
G1 X96.512 Y119.247 E8.20323
G1 X95.490 Y119.856 E8.34176
G1 X94.421 Y120.379 E8.48029
G1 X93.312 Y120.812 E8.61881
G1 X92.171 Y121.151 E8.75734
G1 X91.006 Y121.396 E8.89586
G1 X89.825 Y121.543 E9.03439
G1 X88.636 Y121.592 E9.17292
G1 X87.447 Y121.543 E9.31144
G1 X86.266 Y121.396 E9.44997
G1 X85.101 Y121.151 E9.58849
G1 X83.960 Y120.812 E9.72702
G1 X82.851 Y120.379 E9.86554
G1 X81.782 Y119.856 E10.00412
G1 X80.736 Y119.230 E10.14600
G1 X79.791 Y118.556 E10.28111
G1 X78.883 Y117.786 E10.41964
G1 X78.041 Y116.945 E10.55816
G1 X77.272 Y116.037 E10.69669
G1 X76.581 Y115.068 E10.83521
G1 X75.971 Y114.045 E10.97374
G1 X75.448 Y112.976 E11.11231
G1 X75.008 Y111.839 E11.25419
G1 X74.676 Y110.727 E11.38930
G1 X74.444 Y109.621 E11.52085
G1 X74.059 Y109.416 F7200.000
G1 X73.810 Y110.075 F7200.000
G1 X73.462 Y110.075 E11.56135 F1800.000
G1 X73.289 Y110.902 E11.65971
G1 X72.932 Y112.100 E11.80511
G1 X72.489 Y113.235 E11.94701
G1 X71.930 Y114.385 E12.09577
G1 X71.290 Y115.459 E12.24130
G1 X70.564 Y116.476 E12.38670
G1 X69.757 Y117.429 E12.53210
G1 X68.873 Y118.312 E12.67751
G1 X67.943 Y119.100 E12.81941
G1 X66.904 Y119.845 E12.96817
G1 X65.830 Y120.485 E13.11370
G1 X64.708 Y121.034 E13.25910
G1 X63.544 Y121.488 E13.40450
G1 X62.347 Y121.844 E13.54990
G1 X61.124 Y122.101 E13.69531
G1 X59.884 Y122.255 E13.84071
G1 X58.636 Y122.307 E13.98611
G1 X57.388 Y122.255 E14.13151
G1 X56.148 Y122.101 E14.27691
G1 X54.925 Y121.844 E14.42231
G1 X53.728 Y121.488 E14.56772
G1 X52.564 Y121.034 E14.71312
G1 X51.442 Y120.485 E14.85852
G1 X50.369 Y119.846 E15.00392
G1 X49.352 Y119.120 E15.14932
G1 X48.399 Y118.312 E15.29472
G1 X47.515 Y117.429 E15.44012
G1 X46.708 Y116.476 E15.58553
G1 X45.982 Y115.459 E15.73093
G1 X45.343 Y114.386 E15.87633
G1 X44.794 Y113.263 E16.02173
G1 X44.340 Y112.100 E16.16713
G1 X43.983 Y110.902 E16.31253
G1 X43.727 Y109.680 E16.45794
G1 X43.573 Y108.440 E16.60334
G1 X43.521 Y107.192 E16.74874
