; generated by Slic3r 1.2.9 on 2017-02-11 at 23:21:02

; external perimeters extrusion width = 0.40mm
; perimeters extrusion width = 0.48mm
; infill extrusion width = 0.48mm
; solid infill extrusion width = 0.48mm
; top infill extrusion width = 0.48mm

M107
M104 S220 ; set temperature
G28 ; home all axes
M106 S255;
G1 Z200 F1200 ; lift nozzle
M109 S220 ; wait for temperature to be reached
G21 ; set units to millimeters
G90 ; use absolute coordinates
M82 ; use absolute distances for extrusion
G92 E0
G1 Z0.400 F7200.000
G1 E-1.00000 F2400.00000
G92 E0
G1 X23.295 Y76.581 F7200.000
G1 E1.00000 F2400.00000
G1 X43.516 Y71.530 E3.42591 F1800.000
G1 X113.516 Y56.530 E11.75816
G1 X115.824 Y56.442 E12.02690
G1 X118.024 Y57.140 E12.29564
G1 X119.858 Y58.543 E12.56438 F1800.000
G1 X121.109 Y60.484 E12.83312
G1 X121.637 Y63.095 E13.14320
G1 X121.637 Y93.117 E16.63746
G1 X121.463 Y146.141 E22.80893
G1 X121.059 Y148.414 E23.07767
G1 X119.908 Y150.416 E23.34641
G1 X117.331 Y152.317 E23.71905
G1 X57.331 Y177.317 E31.28439
G1 X54.749 Y177.833 E31.59091
G1 X29.749 Y177.833 E34.50066
G1 X27.474 Y177.436 E34.76940
G1 X25.001 Y175.866 E35.11031
G1 X20.001 Y170.866 E35.93331
G1 X18.674 Y168.977 E36.20205
G1 X18.035 Y166.119 E36.54296
G1 X18.035 Y136.097 E40.03722
G1 X18.209 Y83.073 E46.20869
G1 X18.613 Y80.800 E46.47743
G1 X19.764 Y78.798 E46.74617
G1 X21.525 Y77.304 E47.01491
G1 X23.239 Y76.604 E47.23043
G1 E46.23043 F2400.00000
G92 E0
G1 X23.296 Y79.167 F7200.000
G1 E1.00000 F2400.00000
G1 X33.704 Y79.167 E2.21142 F1800.000
G1 X35.148 Y79.765 E2.39329
G1 X38.253 Y82.870 E2.90436
G1 X38.851 Y84.314 E3.08623
G1 X38.851 Y103.749 E5.34828
G1 X39.269 Y104.167 E5.41714
G1 X40.577 Y104.167 E5.56933
G1 X40.995 Y103.749 E5.63819
G1 X40.995 Y76.706 E8.78570
G1 X42.742 Y74.545 E9.10906
G1 X115.934 Y58.861 E17.82127
G1 X118.851 Y61.220 E18.25785
G1 X118.851 Y94.284 E22.10625 F1800.000
G1 X117.532 Y96.263 E22.38309
G1 X56.075 Y121.870 E30.13212
G1 X55.312 Y122.023 E30.22265
G1 X29.142 Y122.023 E33.26861
G1 X27.698 Y121.425 E33.45048
G1 X21.593 Y115.320 E34.45535
G1 X20.995 Y113.876 E34.63722
G1 X20.995 Y81.468 E38.40922
G1 X23.254 Y79.210 E38.78096
G1 X23.592 Y79.881 F7200.000
G1 X33.562 Y79.881 E39.94142 F1800.000
G1 X34.744 Y80.371 E40.09022
G1 X37.648 Y83.275 E40.56822
G1 X38.137 Y84.456 E40.71703
G1 X38.137 Y104.463 E43.04566
G1 X38.555 Y104.881 E43.11452
G1 X41.291 Y104.881 E43.43295
G1 X41.709 Y104.463 E43.50181
G1 X41.709 Y76.959 E46.70305
G1 X43.138 Y75.191 E46.96762
G1 X115.750 Y59.631 E55.61075
G1 X118.137 Y61.561 E55.96794 F1800.000
G1 X118.137 Y94.068 E59.75149
G1 X117.057 Y95.687 E59.97799
G1 X55.865 Y121.184 E67.69363
G1 X55.241 Y121.309 E67.76770
G1 X29.284 Y121.309 E70.78889
G1 X28.103 Y120.820 E70.93769
G1 X22.199 Y114.915 E71.90950
G1 X21.709 Y113.734 E72.05830
G1 X21.709 Y81.764 E75.77933
G1 X23.549 Y79.924 E76.08222
G1 X23.888 Y80.595 F7200.000
G1 X33.420 Y80.595 E77.19171 F1800.000
G1 X34.339 Y80.976 E77.30744
G1 X37.042 Y83.679 E77.75238
G1 X37.423 Y84.598 E77.86812
G1 X37.423 Y105.177 E80.26334
G1 X37.841 Y105.595 E80.33220
G1 X42.005 Y105.595 E80.81687
G1 X42.424 Y105.177 E80.88573
G1 X42.424 Y77.211 E84.14070
G1 X43.535 Y75.836 E84.34647
G1 X115.566 Y60.401 E92.92051
G1 X117.423 Y61.902 E93.19833
G1 X117.423 Y93.852 E96.91702 F1800.000
G1 X116.583 Y95.111 E97.09319
G1 X55.656 Y120.498 E104.77543
G1 X55.171 Y120.595 E104.83304
G1 X29.426 Y120.595 E107.82946
G1 X28.507 Y120.214 E107.94520
G1 X22.804 Y114.511 E108.88394
G1 X22.424 Y113.592 E108.99967
G1 X22.424 Y82.060 E112.66974
G1 X23.845 Y80.638 E112.90377
G1 X24.184 Y81.310 F7200.000
G1 X33.278 Y81.310 E113.96229 F1800.000
G1 X33.934 Y81.581 E114.04496
G1 X36.437 Y84.084 E114.45683
G1 X36.708 Y84.740 E114.53950
G1 X36.708 Y105.891 E117.00131
G1 X37.127 Y106.310 E117.07017
G1 X42.719 Y106.310 E117.72108
G1 X43.138 Y105.891 E117.78994
G1 X43.138 Y77.464 E121.09863
G1 X43.932 Y76.482 E121.24561
G1 X115.383 Y61.171 E129.75057
G1 X116.708 Y62.243 E129.94902 F1800.000
G1 X116.708 Y93.636 E133.60285
G1 X116.109 Y94.535 E133.72869
G1 X55.447 Y119.811 E141.37752
G1 X55.100 Y119.880 E141.41868
G1 X29.568 Y119.880 E144.39033
G1 X28.912 Y119.609 E144.47300
G1 X23.409 Y114.106 E145.37867
G1 X23.138 Y113.450 E145.46134
G1 X23.138 Y82.356 E149.08045
G1 X24.141 Y81.352 E149.24561
G1 X24.479 Y82.024 F7200.000
G1 X33.136 Y82.024 E150.25318 F1800.000
G1 X33.530 Y82.187 E150.30278
G1 X35.831 Y84.488 E150.68158
G1 X35.994 Y84.882 E150.73118
G1 X35.994 Y106.605 E153.25958
G1 X36.413 Y107.024 E153.32843
G1 X43.434 Y107.024 E154.14559
G1 X43.852 Y106.605 E154.21445
G1 X43.852 Y77.716 E157.57687
G1 X44.328 Y77.127 E157.66505
G1 X115.199 Y61.940 E166.10093
G1 X115.994 Y62.584 E166.21999
G1 X115.994 Y93.419 E169.80897 F1800.000
G1 X115.634 Y93.959 E169.88448
G1 X55.237 Y119.125 E177.49991
G1 X55.029 Y119.166 E177.52461
G1 X29.710 Y119.166 E180.47150
G1 X29.316 Y119.003 E180.52110
G1 X24.015 Y113.702 E181.39370
G1 X23.852 Y113.308 E181.44330
G1 X23.852 Y82.651 E185.01144
G1 X24.437 Y82.066 E185.10775
G1 E184.10775 F2400.00000
G92 E0
G1 X24.347 Y82.208 F7200.000
G1 X24.347 Y82.208 F7200.000
G1 X44.725 Y77.772 F7200.000
G1 E1.00000 F2400.00000
G1 X115.015 Y62.710 E9.36679 F1800.000
G1 X115.280 Y62.925 E9.40648
G1 X115.280 Y93.203 E12.93060
G1 X115.160 Y93.383 E12.95577
G1 X55.028 Y118.438 E20.53781
G1 X54.958 Y118.452 E20.54604
G1 X29.852 Y118.452 E23.46817
G1 X29.721 Y118.398 E23.48470
G1 X24.620 Y113.297 E24.32424
G1 X24.566 Y113.166 E24.34077
G1 X24.566 Y82.947 E27.85795
G1 X24.775 Y82.738 E27.89238
G1 X32.994 Y82.738 E28.84898
G1 X33.125 Y82.792 E28.86551
G1 X35.226 Y84.893 E29.21125
G1 X35.280 Y85.024 E29.22778
G1 X35.280 Y107.320 E31.82276
G1 X35.699 Y107.738 E31.89162
G1 X44.148 Y107.738 E32.87502
G1 X44.566 Y107.320 E32.94388
G1 X44.566 Y77.969 E36.36002
G1 X44.687 Y77.819 E36.38243
G1 E35.38243 F2400.00000
G92 E0
G1 X55.022 Y119.095 F7200.000
G1 X55.022 Y119.095 F7200.000
G1 X55.022 Y123.446 F7200.000
G1 X54.832 Y124.941 F7200.000
G1 E1.00000 F2400.00000
G1 X115.760 Y111.885 E8.25233 F1800.000
G1 X118.677 Y114.243 E8.68891
G1 X118.677 Y147.308 E12.53731 F1800.000
G1 X117.358 Y149.287 E12.81415
G1 X55.901 Y174.894 E20.56317
G1 X55.138 Y175.047 E20.65371
G1 X28.968 Y175.047 E23.69966
G1 X27.524 Y174.449 E23.88153
G1 X21.419 Y168.344 E24.88640
G1 X20.821 Y166.900 E25.06828
G1 X20.821 Y134.492 E28.84027
G1 X23.122 Y132.191 E29.21900
G1 X33.530 Y132.191 E30.43042
G1 X34.974 Y132.789 E30.61229
G1 X38.079 Y135.894 E31.12336
G1 X38.677 Y137.338 E31.30523
G1 X38.677 Y156.773 E33.56728
G1 X39.095 Y157.191 E33.63614
G1 X40.403 Y157.191 E33.78833
G1 X40.821 Y156.773 E33.85719
G1 X40.821 Y129.730 E37.00470
G1 X42.568 Y127.569 E37.32806
G1 X54.774 Y124.954 E38.78096
G1 X54.982 Y125.639 F7200.000
G1 X115.576 Y112.655 E45.99360 F1800.000
G1 X117.963 Y114.584 E46.35080 F1800.000
G1 X117.963 Y147.092 E50.13435
G1 X116.883 Y148.711 E50.36085
G1 X55.691 Y174.208 E58.07648
G1 X55.067 Y174.333 E58.15056
G1 X29.110 Y174.333 E61.17174
G1 X27.929 Y173.843 E61.32055
G1 X22.025 Y167.939 E62.29235
G1 X21.535 Y166.758 E62.44116
G1 X21.535 Y134.788 E66.16219
G1 X23.418 Y132.905 E66.47206
G1 X33.388 Y132.905 E67.63251
G1 X34.569 Y133.394 E67.78131
G1 X37.473 Y136.298 E68.25932
G1 X37.963 Y137.480 E68.40812
G1 X37.963 Y157.487 E70.73676
G1 X38.381 Y157.905 E70.80562
G1 X41.117 Y157.905 E71.12404
G1 X41.535 Y157.487 E71.19290
G1 X41.535 Y129.982 E74.39415
G1 X42.964 Y128.215 E74.65871
G1 X54.923 Y125.652 E76.08222
G1 X55.132 Y126.338 F7200.000
G1 X115.392 Y113.425 E83.25517 F1800.000
G1 X117.249 Y114.925 E83.53299
G1 X117.249 Y146.876 E87.25168 F1800.000
G1 X116.409 Y148.135 E87.42785
G1 X55.482 Y173.521 E95.11008
G1 X54.997 Y173.618 E95.16770
G1 X29.252 Y173.618 E98.16412
G1 X28.333 Y173.238 E98.27986
G1 X22.630 Y167.535 E99.21859
G1 X22.249 Y166.616 E99.33433
G1 X22.249 Y135.084 E103.00440
G1 X23.714 Y133.619 E103.24541
G1 X33.246 Y133.619 E104.35490
G1 X34.165 Y134.000 E104.47063
G1 X36.868 Y136.703 E104.91557
G1 X37.249 Y137.622 E105.03131
G1 X37.249 Y158.201 E107.42653
G1 X37.667 Y158.619 E107.49539
G1 X41.831 Y158.619 E107.98006
G1 X42.249 Y158.201 E108.04892
G1 X42.249 Y130.235 E111.30389
G1 X43.361 Y128.860 E111.50966
G1 X55.073 Y126.350 E112.90377
G1 X55.281 Y127.036 F7200.000
G1 X115.209 Y114.194 E120.03703 F1800.000
G1 X116.534 Y115.266 E120.23547 F1800.000
G1 X116.534 Y146.659 E123.88931
G1 X115.935 Y147.559 E124.01514
G1 X55.273 Y172.835 E131.66398
G1 X54.926 Y172.904 E131.70513
G1 X29.394 Y172.904 E134.67679
G1 X28.738 Y172.632 E134.75946
G1 X23.235 Y167.130 E135.66513
G1 X22.964 Y166.474 E135.74780
G1 X22.964 Y135.379 E139.36690
G1 X24.009 Y134.333 E139.53905
G1 X33.104 Y134.333 E140.59758
G1 X33.760 Y134.605 E140.68025
G1 X36.263 Y137.108 E141.09212
G1 X36.534 Y137.764 E141.17479
G1 X36.534 Y158.915 E143.63659
G1 X36.953 Y159.333 E143.70545
G1 X42.545 Y159.333 E144.35637
G1 X42.964 Y158.915 E144.42523
G1 X42.964 Y130.487 E147.73392
G1 X43.758 Y129.505 E147.88090
G1 X55.223 Y127.049 E149.24561
G1 X55.431 Y127.734 F7200.000
G1 X115.025 Y114.964 E156.33918 F1800.000
G1 X115.820 Y115.607 E156.45825
G1 X115.820 Y146.443 E160.04723 F1800.000
G1 X115.460 Y146.983 E160.12273
G1 X55.063 Y172.148 E167.73817
G1 X54.855 Y172.190 E167.76286
G1 X29.536 Y172.190 E170.70975
G1 X29.142 Y172.027 E170.75936
G1 X23.841 Y166.726 E171.63196
G1 X23.678 Y166.332 E171.68156
G1 X23.678 Y135.675 E175.24970
G1 X24.305 Y135.048 E175.35299
G1 X32.962 Y135.048 E176.36055
G1 X33.356 Y135.211 E176.41016
G1 X35.657 Y137.512 E176.78896
G1 X35.820 Y137.906 E176.83856
G1 X35.820 Y159.629 E179.36695
G1 X36.239 Y160.048 E179.43581
G1 X43.259 Y160.048 E180.25297
G1 X43.678 Y159.629 E180.32183
G1 X43.678 Y130.740 E183.68425
G1 X44.154 Y130.151 E183.77243
G1 X55.372 Y127.747 E185.10775
G1 E184.10775 F2400.00000
G92 E0
G1 X55.022 Y123.446 F7200.000
G1 X43.361 Y124.681 F7200.000
G1 X44.531 Y130.143 F7200.000
G1 X44.551 Y130.796 F7200.000
G1 E1.00000 F2400.00000
G1 X114.841 Y115.734 E9.36679 F1800.000
G1 X115.106 Y115.948 E9.40648
G1 X115.106 Y146.227 E12.93060
G1 X114.986 Y146.407 E12.95577
G1 X54.854 Y171.462 E20.53781
G1 X54.784 Y171.476 E20.54604
G1 X29.678 Y171.476 E23.46817
G1 X29.547 Y171.422 E23.48470
G1 X24.446 Y166.321 E24.32424
G1 X24.392 Y166.190 E24.34077
G1 X24.392 Y135.971 E27.85795
G1 X24.601 Y135.762 E27.89238
G1 X32.820 Y135.762 E28.84898
G1 X32.951 Y135.816 E28.86551
G1 X35.052 Y137.917 E29.21125
G1 X35.106 Y138.048 E29.22778
G1 X35.106 Y160.343 E31.82276
G1 X35.524 Y160.762 E31.89162
G1 X43.974 Y160.762 E32.87502
G1 X44.392 Y160.343 E32.94388
G1 X44.392 Y130.993 E36.36002
G1 X44.513 Y130.843 E36.38243
G1 E35.38243 F2400.00000
G92 E0
G1 X45.149 Y161.519 F7200.000
G1 E1.00000 F2400.00000
G1 X45.149 Y131.442 E4.50062 F1800.000
G1 X114.349 Y116.614 E12.73764
G1 X114.349 Y145.852 E16.14071
G1 X54.669 Y170.719 E23.66570
G1 X29.915 Y170.719 E26.54685
G1 X25.149 Y165.953 E27.33128
G1 X25.149 Y136.519 E30.75714
G1 X32.583 Y136.519 E31.62242
G1 X34.349 Y138.285 E31.91305
G1 X34.349 Y161.519 E34.61729
G1 X45.089 Y161.519 E35.86732
G1 X45.549 Y161.519 F7200.000
G1 X45.863 Y162.233 F7200.000
G1 X45.863 Y132.020 E39.38386 F1800.000
G1 X113.635 Y117.497 E47.45086
G1 X113.635 Y145.376 E50.69570
G1 X54.526 Y170.005 E58.14865
G1 X30.211 Y170.005 E60.97875
G1 X25.863 Y165.657 E61.69433
G1 X25.863 Y137.233 E65.00263
G1 X32.288 Y137.233 E65.75036
G1 X33.635 Y138.580 E65.97213
G1 X33.635 Y162.233 E68.72506
G1 X45.803 Y162.233 E70.14133
G1 X46.577 Y162.947 F7200.000
G1 X46.577 Y132.597 E73.67380 F1800.000
G1 X58.738 Y129.991 E75.12132
G1 X58.852 Y130.370 E75.16734
G1 X57.989 Y130.706 E75.27519
G1 X56.739 Y131.317 E75.43709
G1 X55.544 Y132.029 E75.59898
G1 X54.412 Y132.838 E75.76088
G1 X53.350 Y133.737 E75.92278
G1 X52.367 Y134.720 E76.08467
G1 X51.467 Y135.783 E76.24679
G1 X50.643 Y136.942 E76.41228
G1 X49.948 Y138.109 E76.57035
G1 X49.337 Y139.358 E76.73225
G1 X48.831 Y140.654 E76.89415
G1 X48.434 Y141.987 E77.05604
G1 X48.149 Y143.349 E77.21794
G1 X47.977 Y144.729 E77.37984
G1 X47.919 Y146.119 E77.54174
G1 X47.977 Y147.511 E77.70386
G1 X48.157 Y148.933 E77.87079
G1 X48.432 Y150.242 E78.02642
G1 X48.814 Y151.532 E78.18302
G1 X49.328 Y152.860 E78.34871
G1 X49.941 Y154.118 E78.51159
G1 X50.659 Y155.324 E78.67495
G1 X51.468 Y156.456 E78.83689
G1 X52.367 Y157.517 E78.99879
G1 X53.350 Y158.501 E79.16069
G1 X54.412 Y159.400 E79.32258
G1 X55.544 Y160.208 E79.48448
G1 X56.740 Y160.921 E79.64659
G1 X58.019 Y161.543 E79.81208
G1 X59.284 Y162.037 E79.97016
G1 X60.618 Y162.434 E80.13206
G1 X61.979 Y162.719 E80.29395
G1 X63.359 Y162.891 E80.45585
G1 X64.749 Y162.949 E80.61775
G1 X66.139 Y162.891 E80.77964
G1 X67.519 Y162.719 E80.94154
G1 X68.848 Y162.440 E81.09962
G1 X70.212 Y162.038 E81.26511
G1 X71.510 Y161.531 E81.42722
G1 X72.759 Y160.920 E81.58912
G1 X73.954 Y160.208 E81.75101
G1 X75.086 Y159.400 E81.91291
G1 X76.148 Y158.501 E82.07481
G1 X77.131 Y157.517 E82.23671
G1 X78.030 Y156.456 E82.39860
G1 X78.838 Y155.324 E82.56050
G1 X79.550 Y154.129 E82.72240
G1 X80.161 Y152.879 E82.88429
G1 X80.667 Y151.584 E83.04619
G1 X81.064 Y150.250 E83.20809
G1 X81.349 Y148.889 E83.36998
G1 X81.521 Y147.509 E83.53188
G1 X81.579 Y146.117 E83.69399
G1 X81.517 Y144.696 E83.85949
G1 X81.349 Y143.349 E84.01756
G1 X81.064 Y141.987 E84.17946
G1 X80.667 Y140.654 E84.34135
G1 X80.161 Y139.358 E84.50325
G1 X79.550 Y138.107 E84.66536
G1 X78.819 Y136.887 E84.83086
G1 X78.030 Y135.782 E84.98893
G1 X77.131 Y134.720 E85.15083
G1 X76.148 Y133.737 E85.31272
G1 X75.086 Y132.838 E85.47462
G1 X73.954 Y132.029 E85.63652
G1 X72.759 Y131.317 E85.79842
G1 X71.539 Y130.721 E85.95649
G1 X70.215 Y130.201 E86.12198
G1 X68.881 Y129.804 E86.28410
G1 X67.519 Y129.519 E86.44599
G1 X66.137 Y129.346 E86.60810
G1 X64.716 Y129.290 E86.77360
G1 X63.680 Y129.333 E86.89436
G1 X63.630 Y128.943 E86.94017
G1 X87.783 Y123.767 E89.81509
G1 X87.912 Y124.113 E89.85806
G1 X87.468 Y124.360 E89.91723
G1 X86.414 Y125.082 E90.06592
G1 X85.432 Y125.898 E90.21460
G1 X84.528 Y126.801 E90.36328
G1 X83.712 Y127.784 E90.51197
G1 X82.990 Y128.838 E90.66065
G1 X82.369 Y129.954 E90.80933
G1 X81.853 Y131.123 E90.95802
G1 X81.447 Y132.334 E91.10670
G1 X81.154 Y133.578 E91.25538
G1 X80.978 Y134.843 E91.40407
G1 X80.919 Y136.119 E91.55275
G1 X80.978 Y137.395 E91.70143
G1 X81.154 Y138.660 E91.85012
G1 X81.447 Y139.904 E91.99880
G1 X81.853 Y141.115 E92.14748
G1 X82.369 Y142.284 E92.29617
G1 X82.990 Y143.400 E92.44485
G1 X83.712 Y144.453 E92.59353
G1 X84.528 Y145.436 E92.74222
G1 X85.432 Y146.340 E92.89090
G1 X86.414 Y147.156 E93.03958
G1 X87.468 Y147.878 E93.18827
G1 X88.584 Y148.499 E93.33695
G1 X89.753 Y149.015 E93.48563
G1 X90.964 Y149.421 E93.63432
G1 X92.208 Y149.714 E93.78300
G1 X93.473 Y149.890 E93.93168
G1 X94.749 Y149.949 E94.08037
G1 X96.025 Y149.890 E94.22905
G1 X97.290 Y149.714 E94.37773
G1 X98.534 Y149.421 E94.52642
G1 X99.745 Y149.015 E94.67510
G1 X100.914 Y148.499 E94.82378
G1 X102.030 Y147.878 E94.97247
G1 X103.084 Y147.156 E95.12115
G1 X104.066 Y146.340 E95.26983
G1 X104.970 Y145.436 E95.41852
G1 X105.786 Y144.453 E95.56720
G1 X106.508 Y143.400 E95.71588
G1 X107.129 Y142.284 E95.86457
G1 X107.645 Y141.115 E96.01325
G1 X108.052 Y139.902 E96.16216
G1 X108.350 Y138.623 E96.31499
G1 X108.521 Y137.388 E96.46009
G1 X108.579 Y136.119 E96.60801
G1 X108.520 Y134.840 E96.75698
G1 X108.349 Y133.610 E96.90149
G1 X108.052 Y132.336 E97.05382
G1 X107.645 Y131.123 E97.20270
G1 X107.129 Y129.954 E97.35138
G1 X106.508 Y128.838 E97.50007
G1 X105.785 Y127.784 E97.64885
G1 X104.957 Y126.788 E97.79956
G1 X104.077 Y125.908 E97.94440
G1 X103.095 Y125.090 E98.09320
G1 X102.047 Y124.371 E98.24117
G1 X100.897 Y123.730 E98.39435
G1 X99.733 Y123.218 E98.54236
G1 X98.539 Y122.818 E98.68887
G1 X97.317 Y122.529 E98.83509
G1 X96.068 Y122.353 E98.98187
G1 X96.055 Y121.995 E99.02367
G1 X112.921 Y118.380 E101.03123
G1 X112.921 Y144.900 E104.11783
G1 X54.383 Y169.291 E111.49875
G1 X30.506 Y169.291 E114.27779
G1 X26.577 Y165.362 E114.92450
G1 X26.577 Y137.947 E118.11526
G1 X31.992 Y137.947 E118.74544
G1 X32.921 Y138.876 E118.89835
