; generated by Slic3r 1.0.0RC3 on 2014-03-14 at 17:50:01

; layer_height = 0.3
; perimeters = 1
; top_solid_layers = 3
; bottom_solid_layers = 3
; fill_density = 0.1
; perimeter_speed = 60
; infill_speed = 60
; travel_speed = 120
; nozzle_diameter = 0.4
; filament_diameter = 1.75
; extrusion_multiplier = 0.98
; perimeters extrusion width = 0.40mm
; infill extrusion width = 0.42mm
; solid infill extrusion width = 0.42mm
; top infill extrusion width = 0.42mm
; first layer extrusion width = 0.60mm

G21 ; set units to millimeters
M107
M104 S220 ; set temperature
G28 ; home all axes
M106 S255;
G1 Z200 F1200 ; lift nozzle
M109 S220 ; wait for temperature to be reached
G90 ; use absolute coordinates
G92 E0
M82 ; use absolute distances for extrusion
G1 F1800.000 E-1.00000
G92 E0
G1 Z0.300 F7200.000
G1 X106.386 Y72.276 F7200.000
G1 E1.00000 F1800.000
G1 X107.756 Y70.506 E1.15241 F1080.000
G1 X109.446 Y68.536 E1.32915
G1 X111.206 Y66.686 E1.50302
G1 X112.046 Y65.946 E1.57924
G1 X112.996 Y65.366 E1.65504
G1 X127.896 Y57.856 E2.79120
G1 X129.936 Y56.956 E2.94303
G1 X132.286 Y56.036 E3.11487
G1 X134.726 Y55.216 E3.29015
G1 X135.046 Y55.126 E3.31278
G1 X137.476 Y54.466 E3.48424
G1 X140.036 Y53.886 E3.66297
G1 X142.496 Y53.476 E3.83279
G1 X144.716 Y53.196 E3.98515
G1 X147.616 Y52.986 E4.18314
G1 X149.806 Y52.936 E4.33230
G1 X152.376 Y52.986 E4.50733
G1 X155.276 Y53.196 E4.70532
G1 X157.496 Y53.476 E4.85768
G1 X159.966 Y53.886 E5.02817
G1 X162.526 Y54.466 E5.20690
G1 X165.266 Y55.216 E5.40034
G1 X167.386 Y55.916 E5.55236
G1 X170.066 Y56.956 E5.74811
G1 X172.106 Y57.856 E5.89993
G1 X174.706 Y59.166 E6.09818
G1 X176.646 Y60.276 E6.25037
G1 X179.056 Y61.796 E6.44439
G1 X180.886 Y63.086 E6.59684
G1 X183.156 Y64.856 E6.79285
G1 X184.846 Y66.316 E6.94492
G1 X186.696 Y68.066 E7.11832
G1 X188.676 Y70.146 E7.31386
G1 X190.136 Y71.836 E7.46593
G1 X191.906 Y74.106 E7.66194
G1 X193.196 Y75.936 E7.81440
G1 X194.566 Y78.086 E7.98799
G1 X195.986 Y80.606 E8.18495
G1 X197.116 Y82.866 E8.35700
G1 X198.026 Y84.906 E8.50911
G1 X199.076 Y87.606 E8.70637
G1 X199.776 Y89.726 E8.85839
G1 X200.536 Y92.496 E9.05398
G1 X201.026 Y94.676 E9.20612
G1 X201.516 Y97.496 E9.40102
G1 X201.796 Y99.706 E9.55271
G1 X202.006 Y102.606 E9.75069
G1 X202.056 Y105.146 E9.92368
G1 X201.986 Y107.696 E10.09738
G1 X201.796 Y110.276 E10.27353
G1 X201.516 Y112.486 E10.42522
G1 X201.026 Y115.306 E10.62012
G1 X200.536 Y117.486 E10.77226
G1 X199.786 Y120.206 E10.96439
G1 X194.786 Y135.696 E12.07273
G1 X194.426 Y136.586 E12.13810
G1 X193.946 Y137.406 E12.20280
G1 X192.476 Y139.526 E12.37846
G1 X191.116 Y141.296 E12.53045
G1 X189.496 Y143.226 E12.70203
G1 X188.476 Y144.196 E12.79788
G1 X187.286 Y144.936 E12.89330
G1 X172.266 Y152.056 E14.02514
G1 X170.066 Y153.026 E14.18885
G1 X167.386 Y154.066 E14.38460
G1 X165.266 Y154.766 E14.53662
G1 X162.526 Y155.516 E14.73006
G1 X160.346 Y156.016 E14.88235
G1 X157.466 Y156.516 E15.08139
G1 X154.956 Y156.816 E15.25352
G1 X152.376 Y157.006 E15.42968
G1 X150.146 Y157.056 E15.58156
G1 X147.616 Y157.006 E15.75387
G1 X145.036 Y156.816 E15.93002
G1 X142.526 Y156.516 E16.10215
G1 X140.006 Y156.086 E16.27622
G1 X137.476 Y155.516 E16.45282
G1 X134.726 Y154.766 E16.64691
G1 X132.606 Y154.066 E16.79893
G1 X129.936 Y153.026 E16.99404
G1 X127.896 Y152.126 E17.14587
G1 X125.326 Y150.836 E17.34167
G1 X123.376 Y149.736 E17.49412
G1 X123.066 Y149.556 E17.51853
G1 X120.936 Y148.186 E17.69098
G1 X119.106 Y146.896 E17.84344
G1 X116.836 Y145.126 E18.03944
G1 X115.146 Y143.666 E18.19151
G1 X113.066 Y141.686 E18.38706
G1 X111.536 Y140.076 E18.53829
G1 X109.666 Y137.906 E18.73335
G1 X108.286 Y136.146 E18.88564
G1 X106.806 Y134.066 E19.05946
G1 X105.416 Y131.876 E19.23609
G1 X104.166 Y129.676 E19.40838
G1 X102.856 Y127.096 E19.60541
G1 X101.956 Y125.056 E19.75724
G1 X100.926 Y122.376 E19.95274
G1 X100.136 Y119.956 E20.12608
G1 X99.456 Y117.486 E20.30052
G1 X98.966 Y115.306 E20.45267
G1 X98.476 Y112.466 E20.64891
G1 X98.176 Y109.956 E20.82104
G1 X97.986 Y107.376 E20.99719
G1 X97.936 Y105.146 E21.14907
G1 X97.986 Y102.606 E21.32206
G1 X98.176 Y100.026 E21.49822
G1 X98.476 Y97.516 E21.67035
G1 X98.966 Y94.676 E21.86658
G1 X99.536 Y92.176 E22.04118
G1 X100.226 Y89.726 E22.21450
G1 X105.346 Y74.226 E23.32602
G1 X105.786 Y73.206 E23.40166
G1 X106.341 Y72.346 E23.47134
G1 F1800.000 E22.47134
G92 E0
G1 X149.291 Y72.547 F7200.000
G1 E1.00000 F1800.000
G1 X149.715 Y71.477 E1.07835 F540.000
G1 X150.711 Y70.804 E1.16025
G1 X152.000 Y70.579 E1.24935
G1 X153.381 Y70.606 E1.34339
G1 X154.741 Y70.848 E1.43748
G1 X155.965 Y71.325 E1.52691
G1 X156.809 Y72.178 E1.60863
G1 X157.008 Y73.316 E1.68726
G1 X156.476 Y74.316 E1.76442
G1 X155.490 Y74.939 E1.84382
G1 X154.244 Y75.173 E1.93019
G1 X152.938 Y75.152 E2.01911
G1 X151.640 Y74.919 E2.10891
G1 X150.475 Y74.449 E2.19446
G1 X149.624 Y73.645 E2.27415
G1 X149.316 Y72.627 E2.34658
G1 X149.881 Y72.571 F7200.000
G1 X150.170 Y71.842 E2.40003 F540.000
G1 X150.920 Y71.333 E2.46180
G1 X152.043 Y71.137 E2.53938
G1 X153.326 Y71.162 E2.62679
G1 X154.591 Y71.387 E2.71425
G1 X155.652 Y71.800 E2.79177
G1 X156.290 Y72.446 E2.85362
G1 X156.427 Y73.223 E2.90732
G1 X156.053 Y73.924 E2.96144
G1 X155.282 Y74.412 E3.02352
G1 X154.198 Y74.615 E3.09863
G1 X152.992 Y74.596 E3.18079
G1 X151.796 Y74.381 E3.26352
G1 X150.779 Y73.971 E3.33817
G1 X150.114 Y73.342 E3.40048
G1 X149.905 Y72.651 E3.44963
G1 F1800.000 E2.44963
G92 E0
G1 X144.384 Y73.040 F7200.000
G1 E1.00000 F1800.000
G1 X144.273 Y74.175 E1.07771 F540.000
G1 X143.596 Y75.122 E1.15693
G1 X142.542 Y75.817 E1.24291
G1 X141.319 Y76.302 E1.33251
G1 X140.038 Y76.575 E1.42169
G1 X138.772 Y76.590 E1.50795
G1 X137.683 Y76.175 E1.58730
G1 X136.959 Y75.295 E1.66489
G1 X136.935 Y74.135 E1.74388
G1 X137.599 Y73.136 E1.82555
G1 X138.703 Y72.430 E1.91478
G1 X139.991 Y71.924 E2.00906
G1 X141.343 Y71.627 E2.10330
G1 X142.656 Y71.603 E2.19271
G1 X143.762 Y72.065 E2.27432
G1 X144.339 Y72.969 E2.34736
G1 X143.811 Y73.177 F7200.000
G1 X143.733 Y73.973 E2.40181 F540.000
G1 X143.203 Y74.714 E2.46383
G1 X142.284 Y75.320 E2.53881
G1 X141.157 Y75.767 E2.62135
G1 X139.975 Y76.019 E2.70366
G1 X138.872 Y76.032 E2.77877
G1 X138.019 Y75.707 E2.84095
G1 X137.512 Y75.091 E2.89530
G1 X137.496 Y74.298 E2.94926
G1 X137.997 Y73.543 E3.01102
G1 X138.957 Y72.929 E3.08863
G1 X140.154 Y72.459 E3.17616
G1 X141.408 Y72.183 E3.26358
G1 X142.550 Y72.163 E3.34139
G1 X143.386 Y72.512 E3.40307
G1 X143.766 Y73.107 E3.45111
G1 F1800.000 E2.45111
G92 E0
G1 X161.733 Y74.752 F7200.000
G1 E1.00000 F1800.000
G1 X162.531 Y73.918 E1.07862 F540.000
G1 X163.706 Y73.678 E1.16026
G1 X164.992 Y73.964 E1.24999
G1 X166.254 Y74.517 E1.34377
G1 X167.419 Y75.264 E1.43799
G1 X168.368 Y76.177 E1.52768
G1 X168.819 Y77.280 E1.60886
G1 X168.574 Y78.413 E1.68781
G1 X167.697 Y79.139 E1.76531
G1 X166.545 Y79.329 E1.84481
G1 X165.304 Y79.075 E1.93107
G1 X164.103 Y78.549 E2.02036
G1 X162.995 Y77.837 E2.11003
G1 X162.102 Y76.953 E2.19562
G1 X161.624 Y75.892 E2.27482
G1 X161.725 Y74.835 E2.34711
G1 X162.268 Y74.998 F7200.000
G1 X162.813 Y74.429 E2.40077 F540.000
G1 X163.701 Y74.248 E2.46244
G1 X164.818 Y74.496 E2.54040
G1 X165.990 Y75.010 E2.62750
G1 X167.073 Y75.704 E2.71511
G1 X167.897 Y76.496 E2.79293
G1 X168.238 Y77.331 E2.85436
G1 X168.070 Y78.106 E2.90837
G1 X167.455 Y78.614 E2.96269
G1 X166.556 Y78.763 E3.02473
G1 X165.474 Y78.541 E3.09995
G1 X164.366 Y78.056 E3.18226
G1 X163.346 Y77.401 E3.26482
G1 X162.565 Y76.627 E3.33969
G1 X162.191 Y75.796 E3.40178
G1 X162.260 Y75.081 E3.45063
G1 F1800.000 E2.45063
G92 E0
G1 X132.943 Y78.722 F7200.000
G1 E1.00000 F1800.000
G1 X132.682 Y79.856 E1.07929 F540.000
G1 X131.971 Y80.898 E1.16516
G1 X131.023 Y81.819 E1.25515
G1 X129.945 Y82.562 E1.34428
G1 X128.784 Y83.063 E1.43043
G1 X127.620 Y83.091 E1.50968
G1 X126.610 Y82.558 E1.58744
G1 X126.150 Y81.497 E1.66619
G1 X126.380 Y80.319 E1.74788
G1 X127.133 Y79.243 E1.83732
G1 X128.129 Y78.286 E1.93141
G1 X129.263 Y77.490 E2.02570
G1 X130.468 Y76.962 E2.11531
G1 X131.657 Y76.964 E2.19629
G1 X132.610 Y77.622 E2.27513
G1 X132.919 Y78.642 E2.34765
G1 X132.367 Y78.741 F7200.000
G1 X132.162 Y79.630 E2.40976 F540.000
G1 X131.543 Y80.537 E2.48457
G1 X130.668 Y81.386 E2.56756
G1 X129.674 Y82.072 E2.64979
G1 X128.663 Y82.509 E2.72482
G1 X127.752 Y82.530 E2.78685
G1 X127.043 Y82.157 E2.84141
G1 X126.730 Y81.434 E2.89504
G1 X126.904 Y80.542 E2.95694
G1 X127.558 Y79.607 E3.03463
G1 X128.484 Y78.718 E3.12207
G1 X129.537 Y77.978 E3.20964
G1 X130.583 Y77.520 E3.28742
G1 X131.484 Y77.521 E3.34872
G1 X132.133 Y77.970 E3.40249
G1 X132.343 Y78.661 E3.45167
G1 F1800.000 E2.45167
G92 E0
G1 X171.848 Y82.563 F7200.000
G1 E1.00000 F1800.000
G1 X172.383 Y81.557 E1.07760 F540.000
G1 X173.448 Y81.090 E1.15675
G1 X174.620 Y81.320 E1.23815
G1 X175.699 Y82.074 E1.32777
G1 X176.656 Y83.078 E1.42220
G1 X177.445 Y84.210 E1.51616
G1 X177.970 Y85.413 E1.60556
G1 X177.970 Y86.609 E1.68700
G1 X177.312 Y87.562 E1.76586
G1 X176.210 Y87.895 E1.84423
G1 X175.085 Y87.634 E1.92283
G1 X174.035 Y86.916 E2.00950
G1 X173.121 Y85.974 E2.09886
G1 X172.376 Y84.888 E2.18851
G1 X171.884 Y83.726 E2.27445
G1 X171.850 Y82.647 E2.34796
G1 X172.409 Y82.693 F7200.000
G1 X172.784 Y81.990 E2.40224 F540.000
G1 X173.512 Y81.670 E2.45636
G1 X174.398 Y81.844 E2.51790
G1 X175.334 Y82.499 E2.59565
G1 X176.223 Y83.431 E2.68340
G1 X176.956 Y84.484 E2.77070
G1 X177.413 Y85.529 E2.84842
G1 X177.413 Y86.436 E2.91014
G1 X176.964 Y87.085 E2.96392
G1 X176.192 Y87.319 E3.01884
G1 X175.311 Y87.114 E3.08046
G1 X174.397 Y86.488 E3.15590
G1 X173.554 Y85.620 E3.23830
G1 X172.867 Y84.619 E3.32092
G1 X172.438 Y83.604 E3.39602
G1 X172.412 Y82.777 E3.45235
G1 F1800.000 E2.45235
G92 E0
G1 X124.401 Y88.419 F7200.000
G1 E1.00000 F1800.000
G1 X124.139 Y89.655 E1.08603 F540.000
G1 X123.622 Y90.859 E1.17524
G1 X122.912 Y91.966 E1.26481
G1 X122.022 Y92.872 E1.35127
G1 X120.965 Y93.349 E1.43019
G1 X119.826 Y93.237 E1.50814
G1 X118.995 Y92.430 E1.58702
G1 X118.756 Y91.261 E1.66826
G1 X119.042 Y89.971 E1.75823
G1 X119.594 Y88.707 E1.85213
G1 X120.336 Y87.539 E1.94635
G1 X121.246 Y86.592 E2.03576
G1 X122.349 Y86.132 E2.11720
G1 X123.483 Y86.380 E2.19620
G1 X124.204 Y87.267 E2.27406
G1 X124.387 Y88.337 E2.34796
G1 X123.834 Y88.408 F7200.000
G1 X123.606 Y89.485 E2.42290 F540.000
G1 X123.128 Y90.597 E2.50533
G1 X122.474 Y91.617 E2.58784
G1 X121.698 Y92.406 E2.66321
G1 X120.871 Y92.780 E2.72498
G1 X120.075 Y92.702 E2.77950
G1 X119.507 Y92.150 E2.83342
G1 X119.325 Y91.264 E2.89495
G1 X119.574 Y90.145 E2.97300
G1 X120.087 Y88.969 E3.06038
G1 X120.776 Y87.885 E3.14785
G1 X121.567 Y87.062 E3.22557
G1 X122.402 Y86.713 E3.28719
G1 X123.173 Y86.882 E3.34096
G1 X123.680 Y87.505 E3.39562
G1 X123.821 Y88.325 E3.45229
G1 F1800.000 E2.45229
G92 E0
G1 X178.338 Y93.744 F7200.000
G1 E1.00000 F1800.000
G1 X178.754 Y92.651 E1.07963 F540.000
G1 X179.633 Y91.929 E1.15709
G1 X180.787 Y91.905 E1.23568
G1 X181.785 Y92.567 E1.31722
G1 X182.495 Y93.677 E1.40692
G1 X182.992 Y94.969 E1.50121
G1 X183.289 Y96.314 E1.59501
G1 X183.317 Y97.635 E1.68500
G1 X182.857 Y98.738 E1.76635
G1 X181.883 Y99.360 E1.84508
G1 X180.750 Y99.251 E1.92260
G1 X179.799 Y98.572 E2.00216
G1 X179.109 Y97.515 E2.08809
G1 X178.626 Y96.288 E2.17789
G1 X178.347 Y95.009 E2.26700
G1 X178.339 Y93.827 E2.34748
G1 X178.896 Y93.843 F7200.000
G1 X179.221 Y92.988 E2.40976 F540.000
G1 X179.838 Y92.482 E2.46407
G1 X180.624 Y92.466 E2.51762
G1 X181.379 Y92.967 E2.57933
G1 X181.995 Y93.929 E2.65713
G1 X182.458 Y95.131 E2.74480
G1 X182.733 Y96.382 E2.83206
G1 X182.759 Y97.528 E2.91009
G1 X182.410 Y98.362 E2.97168
G1 X181.745 Y98.787 E3.02540
G1 X180.951 Y98.710 E3.07977
G1 X180.208 Y98.179 E3.14192
G1 X179.607 Y97.259 E3.21675
G1 X179.161 Y96.127 E3.29960
G1 X178.904 Y94.946 E3.38194
G1 X178.897 Y93.927 E3.45133
G1 F1800.000 E2.45133
G92 E0
G1 X120.256 Y100.739 F7200.000
G1 E1.00000 F1800.000
G1 X120.229 Y102.058 E1.08985 F540.000
G1 X119.997 Y103.353 E1.17939
G1 X119.525 Y104.528 E1.26562
G1 X118.724 Y105.375 E1.34503
G1 X117.632 Y105.709 E1.42277
G1 X116.559 Y105.285 E1.50134
G1 X115.890 Y104.289 E1.58302
G1 X115.662 Y102.993 E1.67266
G1 X115.690 Y101.613 E1.76659
G1 X115.931 Y100.248 E1.86102
G1 X116.408 Y99.018 E1.95085
G1 X117.254 Y98.173 E2.03223
G1 X118.391 Y97.974 E2.11087
G1 X119.403 Y98.508 E2.18878
G1 X120.018 Y99.500 E2.26824
G1 X120.240 Y100.657 E2.34847
G1 X119.698 Y100.788 F7200.000
G1 X119.673 Y102.003 E2.43122 F540.000
G1 X119.459 Y103.198 E2.51386
G1 X119.048 Y104.222 E2.58901
G1 X118.420 Y104.885 E2.65120
G1 X117.655 Y105.119 E2.70566
G1 X116.925 Y104.830 E2.75917
G1 X116.417 Y104.076 E2.82107
G1 X116.220 Y102.951 E2.89885
G1 X116.246 Y101.668 E2.98623
G1 X116.471 Y100.398 E3.07407
G1 X116.884 Y99.331 E3.15196
G1 X117.523 Y98.692 E3.21354
G1 X118.300 Y98.556 E3.26722
G1 X119.009 Y98.930 E3.32183
G1 X119.490 Y99.706 E3.38402
G1 X119.682 Y100.706 E3.45334
G1 F1800.000 E2.45334
G92 E0
G1 X146.084 Y104.229 F7200.000
G1 E1.00000 F1800.000
G1 X146.186 Y103.837 E1.02764 F540.000
G1 X146.318 Y103.464 E1.05455
G1 X146.679 Y102.788 E1.10674
G1 X146.920 Y102.469 E1.13397
G1 X147.183 Y102.175 E1.16083
G1 X147.781 Y101.683 E1.21356
G1 X148.130 Y101.481 E1.24102
G1 X148.477 Y101.315 E1.26721
G1 X148.841 Y101.186 E1.29348
G1 X149.219 Y101.086 E1.32014
G1 X149.611 Y101.032 E1.34703
G1 X150.000 Y101.009 E1.37361
G1 X150.390 Y101.032 E1.40017
G1 X150.779 Y101.086 E1.42691
G1 X151.163 Y101.186 E1.45399
G1 X151.529 Y101.315 E1.48039
G1 X151.880 Y101.483 E1.50687
G1 X152.218 Y101.683 E1.53363
G1 X152.531 Y101.920 E1.56035
G1 X152.821 Y102.179 E1.58684
G1 X153.080 Y102.469 E1.61332
G1 X153.317 Y102.782 E1.64005
G1 X153.517 Y103.120 E1.66681
G1 X153.685 Y103.471 E1.69329
G1 X153.814 Y103.837 E1.71969
G1 X153.914 Y104.221 E1.74676
G1 X153.968 Y104.610 E1.77349
G1 X153.991 Y105.000 E1.80007
G1 X153.968 Y105.391 E1.82673
G1 X153.914 Y105.774 E1.85306
G1 X153.814 Y106.157 E1.88004
G1 X153.685 Y106.523 E1.90645
G1 X153.519 Y106.870 E1.93264
G1 X153.317 Y107.219 E1.96010
G1 X152.825 Y107.817 E2.01284
G1 X152.526 Y108.085 E2.04016
G1 X152.212 Y108.314 E2.06664
G1 X151.886 Y108.507 E2.09243
G1 X151.529 Y108.686 E2.11964
G1 X151.156 Y108.810 E2.14642
G1 X150.779 Y108.908 E2.17294
G1 X150.390 Y108.962 E2.19969
G1 X150.000 Y108.985 E2.22626
G1 X149.610 Y108.962 E2.25283
G1 X149.219 Y108.908 E2.27972
G1 X148.477 Y108.686 E2.33247
G1 X147.787 Y108.314 E2.38585
G1 X147.481 Y108.085 E2.41191
G1 X147.179 Y107.821 E2.43920
G1 X146.679 Y107.213 E2.49281
G1 X146.318 Y106.530 E2.54542
G1 X146.186 Y106.157 E2.57235
G1 X146.084 Y105.766 E2.59991
G1 X146.008 Y105.000 E2.65228
G1 X146.074 Y104.312 E2.69933
G1 X146.629 Y104.359 F7200.000
G1 X146.719 Y104.000 E2.72450 F540.000
G1 X146.831 Y103.682 E2.74744
G1 X147.145 Y103.095 E2.79279
G1 X147.350 Y102.823 E2.81597
G1 X147.575 Y102.572 E2.83891
G1 X148.092 Y102.146 E2.88454
G1 X148.390 Y101.974 E2.90795
G1 X148.691 Y101.830 E2.93066
G1 X149.005 Y101.719 E2.95337
G1 X149.329 Y101.633 E2.97617
G1 X149.665 Y101.587 E2.99925
G1 X150.000 Y101.567 E3.02212
G1 X150.335 Y101.587 E3.04498
G1 X150.670 Y101.633 E3.06802
G1 X151.000 Y101.719 E3.09121
G1 X151.315 Y101.831 E3.11397
G1 X151.617 Y101.975 E3.13679
G1 X151.907 Y102.146 E3.15972
G1 X152.177 Y102.350 E3.18272
G1 X152.426 Y102.574 E3.20553
G1 X152.650 Y102.823 E3.22835
G1 X152.854 Y103.093 E3.25135
G1 X153.025 Y103.383 E3.27429
G1 X153.169 Y103.685 E3.29710
G1 X153.281 Y104.000 E3.31986
G1 X153.367 Y104.330 E3.34306
G1 X153.413 Y104.665 E3.36608
G1 X153.433 Y105.000 E3.38895
G1 X153.413 Y105.336 E3.41185
G1 X153.367 Y105.665 E3.43447
G1 X153.281 Y105.994 E3.45764
G1 X153.170 Y106.309 E3.48040
G1 X153.026 Y106.610 E3.50311
G1 X152.854 Y106.908 E3.52652
G1 X152.428 Y107.425 E3.57215
G1 X152.175 Y107.651 E3.59525
G1 X151.905 Y107.849 E3.61801
G1 X151.315 Y108.170 E3.66376
G1 X150.670 Y108.361 E3.70955
G1 X150.335 Y108.407 E3.73258
G1 X150.000 Y108.427 E3.75545
G1 X149.665 Y108.407 E3.77832
G1 X149.329 Y108.361 E3.80140
G1 X148.691 Y108.170 E3.84675
G1 X148.094 Y107.849 E3.89288
G1 X147.573 Y107.427 E3.93853
G1 X147.145 Y106.906 E3.98447
G1 X146.831 Y106.312 E4.03021
