; generated by Slic3r 1.0.0RC2 on 2014-05-19 at 18:16:28

; layer_height = 0.3
; perimeters = 4
; top_solid_layers = 3
; bottom_solid_layers = 3
; fill_density = 0.1
; perimeter_speed = 60
; infill_speed = 60
; travel_speed = 120
; nozzle_diameter = 0.4
; filament_diameter = 1.75
; extrusion_multiplier = 0.98
; perimeters extrusion width = 0.40mm
; infill extrusion width = 0.42mm
; solid infill extrusion width = 0.42mm
; top infill extrusion width = 0.42mm
; first layer extrusion width = 0.80mm

G21 ; set units to millimeters
M107
M104 S220 ; set temperature
G28 ; home all axes
M106 S255;
G1 Z200 F1200 ; lift nozzle
M109 S220 ; wait for temperature to be reached
G90 ; use absolute coordinates
G92 E0
M82 ; use absolute distances for extrusion
G1 F1800.000 E-1.00000
G92 E0
G1 Z0.400 F7200.000
G1 X120.206 Y79.154 F7200.000
G1 E1.00000 F1800.000
G1 X121.146 Y78.124 E1.16230 F1080.000
G1 X122.276 Y77.314 E1.32412
G1 X123.556 Y76.754 E1.48673
G1 X124.926 Y76.474 E1.64948
G1 X166.646 Y72.274 E6.52981
G1 X167.316 Y72.244 E6.60787
G1 X176.756 Y72.244 E7.70659
G1 X178.066 Y72.364 E7.85970
G1 X179.326 Y72.754 E8.01322
G1 X180.486 Y73.374 E8.16630
G1 X181.506 Y74.204 E8.31936
G1 X182.336 Y75.224 E8.47242
G1 X182.956 Y76.384 E8.62550
G1 X183.346 Y77.644 E8.77902
G1 X183.466 Y78.954 E8.93213
G1 X183.466 Y107.644 E12.27135
G1 X183.446 Y109.774 E12.51927
G1 X183.286 Y111.184 E12.68444
G1 X182.836 Y112.524 E12.84896
G1 X182.116 Y113.734 E13.01284
G1 X181.146 Y114.774 E13.17836
G1 X179.996 Y115.584 E13.34208
G1 X141.246 Y137.074 E18.49932
G1 X139.666 Y137.704 E18.69730
G1 X137.986 Y137.914 E18.89435
G1 X133.006 Y137.914 E19.47397
G1 X131.706 Y137.794 E19.62592
G1 X130.456 Y137.414 E19.77799
G1 X129.296 Y136.804 E19.93053
G1 X128.286 Y135.974 E20.08268
G1 X123.236 Y130.974 E20.90981
G1 X122.546 Y130.184 E21.03189
G1 X117.826 Y123.764 E21.95933
G1 X117.116 Y122.534 E22.12463
G1 X116.676 Y121.194 E22.28878
G1 X116.526 Y119.784 E22.45382
G1 X116.526 Y88.304 E26.11777
G1 X116.676 Y86.874 E26.28512
G1 X117.136 Y85.504 E26.45332
G1 X119.496 Y80.354 E27.11267
G1 X120.151 Y79.246 E27.26249
G1 F1800.000 E26.26249
G92 E0
G1 X128.530 Y86.606 F7200.000
G1 E1.00000 F1800.000
G1 X139.802 Y86.606 E2.31196 F1080.000
G1 X139.822 Y88.623 E2.54681
G1 X139.820 Y113.618 E5.45593
G1 X128.523 Y113.618 E6.77081
G1 X128.529 Y86.713 E9.90231
G1 X129.241 Y87.320 F7200.000
G1 X139.095 Y87.320 E11.04914 F1080.000
G1 X139.108 Y88.627 E11.20129
G1 X139.106 Y112.904 E14.02687
G1 X129.237 Y112.904 E15.17550
G1 X129.241 Y87.427 E18.14075
G1 X129.953 Y88.034 F7200.000
G1 X138.388 Y88.034 E19.12245 F756.000
G1 X138.392 Y112.190 E21.93393
G1 X129.952 Y112.190 E22.91631
G1 X129.953 Y88.141 E25.71532
G1 X129.953 Y87.320 F7200.000
G1 X127.809 Y88.625 F7200.000
G1 X127.809 Y114.332 E28.70733 F1080.000
G1 X140.534 Y114.332 E30.18846
G1 X140.537 Y88.620 E33.18113
G1 X140.507 Y85.700 E33.52103
G1 X144.890 Y85.700 E34.03115
G1 X144.890 Y90.976 E34.64532
G1 X169.862 Y90.976 E37.55192
G1 X169.862 Y81.498 E38.65513
G1 X174.222 Y81.498 E39.16248
G1 X174.222 Y107.172 E42.15063
G1 X155.882 Y107.172 E44.28520
G1 X137.587 Y127.767 E47.49147
G1 X136.821 Y128.664 E47.62872
G1 X134.057 Y128.664 E47.95036
G1 X129.894 Y124.543 E48.63215
G1 X125.782 Y118.955 E49.43959
G1 X125.782 Y88.866 E52.94171
G1 X127.495 Y85.126 E53.42042
G1 X127.820 Y85.198 E53.45910
G1 X127.809 Y88.518 E53.84559
G1 X125.068 Y88.710 F7200.000
G1 X126.774 Y84.986 E54.32233 F1080.000
G1 X145.604 Y84.985 E56.51389
G1 X145.604 Y90.262 E57.12806
G1 X169.148 Y90.262 E59.86842
G1 X169.148 Y80.784 E60.97163
G1 X174.936 Y80.784 E61.64522
G1 X174.936 Y107.886 E64.79961
G1 X156.203 Y107.886 E66.97995
G1 X138.126 Y128.237 E70.14810
G1 X137.150 Y129.378 E70.32285
G1 X133.764 Y129.378 E70.71696
G1 X129.352 Y125.011 E71.43943
G1 X125.068 Y119.190 E72.28067
G1 X125.068 Y88.817 E75.81575
G1 X124.354 Y88.809 F7200.000
G1 X124.354 Y88.554 E75.84546 F1080.000
G1 X126.316 Y84.272 E76.39367
G1 X146.318 Y84.271 E78.72169
G1 X146.318 Y89.548 E79.33587
G1 X168.434 Y89.548 E81.90998
G1 X168.434 Y80.070 E83.01319
G1 X175.650 Y80.070 E83.85303
G1 X175.641 Y108.600 E87.17366
G1 X156.523 Y108.600 E89.39875
G1 X138.664 Y128.706 E92.52878
G1 X137.479 Y130.092 E92.74103
G1 X133.470 Y130.092 E93.20760
G1 X128.810 Y125.479 E93.97076
G1 X124.354 Y119.424 E94.84578
G1 X124.354 Y88.916 E98.39659
G1 X123.640 Y88.930 F7200.000
G1 X123.640 Y88.398 E98.45860 F756.000
G1 X125.858 Y83.558 E99.07826
G1 X147.032 Y83.557 E101.54275
G1 X147.032 Y88.834 E102.15693
G1 X167.720 Y88.834 E104.56480
G1 X167.720 Y79.355 E105.66801
G1 X176.364 Y79.355 E106.67409
G1 X176.364 Y107.584 E109.95959
G1 X176.348 Y109.314 E110.16097
G1 X156.844 Y109.314 E112.43101
G1 X139.202 Y129.175 E115.52291
G1 X137.808 Y130.806 E115.77266
G1 X133.176 Y130.806 E116.31170
G1 X128.268 Y125.948 E117.11555
G1 X123.640 Y119.659 E118.02434
G1 X123.640 Y89.038 E121.58832
G1 X124.101 Y88.664 F7200.000
G1 X143.820 Y86.181 F7200.000
G1 X144.408 Y86.770 E121.68620 F1080.000
G1 X144.408 Y87.791 E121.80633
G1 X142.799 Y86.181 E122.07411
G1 X141.778 Y86.181 E122.19424
G1 X144.408 Y88.812 E122.63191
G1 X144.408 Y89.833 E122.75204
G1 X140.996 Y86.420 E123.31982
G1 X141.006 Y87.452 E123.44120
G1 X159.887 Y106.333 E126.58290
G1 X158.866 Y106.333 E126.70303
G1 X141.017 Y88.483 E129.67310
G1 X141.018 Y89.506 E129.79338
G1 X157.845 Y106.333 E132.59334
G1 X156.824 Y106.333 E132.71347
G1 X141.018 Y90.527 E135.34355
G1 X141.018 Y91.548 E135.46367
G1 X155.803 Y106.333 E137.92387
G1 X155.165 Y106.716 E138.01144
G1 X141.018 Y92.568 E140.36545
G1 X141.018 Y93.589 E140.48557
G1 X154.685 Y107.256 E142.75969
G1 X154.204 Y107.797 E142.84478
G1 X141.018 Y94.610 E145.03899
G1 X141.018 Y95.631 E145.15911
G1 X153.724 Y108.338 E147.27341
G1 X153.244 Y108.878 E147.35851
G1 X141.018 Y96.652 E149.39290
G1 X141.017 Y97.673 E149.51302
G1 X152.763 Y109.419 E151.46752
G1 X152.283 Y109.960 E151.55261
G1 X141.017 Y98.694 E153.42720
G1 X141.017 Y99.715 E153.54732
G1 X151.803 Y110.500 E155.34201
G1 X151.323 Y111.041 E155.42710
G1 X141.017 Y100.736 E157.14189
G1 X141.017 Y101.757 E157.26201
G1 X150.842 Y111.582 E158.89688
G1 X150.362 Y112.123 E158.98198
G1 X141.017 Y102.778 E160.53695
G1 X141.017 Y103.798 E160.65707
G1 X149.882 Y112.663 E162.13214
G1 X149.401 Y113.204 E162.21723
G1 X141.017 Y104.819 E163.61240
G1 X141.017 Y105.840 E163.73252
G1 X148.921 Y113.745 E165.04778
G1 X148.441 Y114.285 E165.13287
G1 X141.017 Y106.861 E166.36823
G1 X141.017 Y107.882 E166.48835
G1 X147.961 Y114.826 E167.64380
G1 X147.480 Y115.367 E167.72889
G1 X141.017 Y108.903 E168.80444
G1 X141.016 Y109.924 E168.92456
G1 X147.000 Y115.908 E169.92020
G1 X146.520 Y116.448 E170.00530
G1 X141.016 Y110.945 E170.92104
G1 X141.016 Y111.966 E171.04116
G1 X146.039 Y116.989 E171.87699
G1 X145.559 Y117.530 E171.96208
G1 X141.016 Y112.987 E172.71801
G1 X141.016 Y114.008 E172.83813
G1 X145.079 Y118.070 E173.51416
G1 X144.599 Y118.611 E173.59925
G1 X140.801 Y114.814 E174.23109
G1 X139.780 Y114.814 E174.35122
G1 X144.118 Y119.152 E175.07303
G1 X143.638 Y119.692 E175.15812
G1 X138.759 Y114.814 E175.96990
G1 X137.738 Y114.814 E176.09003
G1 X143.158 Y120.233 E176.99178
G1 X142.677 Y120.774 E177.07687
G1 X136.717 Y114.814 E178.06859
G1 X135.696 Y114.814 E178.18872
G1 X142.197 Y121.315 E179.27041
G1 X141.717 Y121.855 E179.35551
G1 X134.675 Y114.814 E180.52717
G1 X133.654 Y114.814 E180.64730
G1 X141.237 Y122.396 E181.90894
G1 X140.756 Y122.937 E181.99403
G1 X132.633 Y114.814 E183.34564
G1 X131.612 Y114.814 E183.46577
G1 X140.276 Y123.477 E184.90734
G1 X139.796 Y124.018 E184.99244
G1 X130.592 Y114.814 E186.52399
G1 X129.571 Y114.814 E186.64412
G1 X139.315 Y124.559 E188.26564
G1 X138.835 Y125.100 E188.35073
G1 X128.550 Y114.814 E190.06222
G1 X127.886 Y115.171 E190.15092
G1 X138.355 Y125.640 E191.89297
G1 X137.856 Y126.163 E191.97793
G1 X126.865 Y115.171 E193.80688
G1 X126.621 Y115.948 E193.90274
G1 X137.386 Y126.713 E195.69390
G1 X136.914 Y127.262 E195.77909
G1 X126.621 Y116.969 E197.49180
G1 X126.621 Y117.990 E197.61193
G1 X136.434 Y127.803 E199.24472
G1 X135.434 Y127.825 E199.36232
G1 X127.544 Y119.935 E200.67519
G1 X130.388 Y123.800 F7200.000
G1 X134.413 Y127.825 E201.34496 F1080.000
G1 X146.033 Y91.458 F7200.000
G1 X160.908 Y106.333 E203.82005 F1080.000
G1 X161.929 Y106.333 E203.94018
G1 X147.054 Y91.458 E206.41526
G1 X148.075 Y91.458 E206.53539
G1 X162.950 Y106.333 E209.01048
G1 X163.971 Y106.333 E209.13061
G1 X149.096 Y91.458 E211.60569
G1 X150.117 Y91.458 E211.72582
G1 X164.992 Y106.333 E214.20090
G1 X166.013 Y106.333 E214.32103
G1 X151.138 Y91.458 E216.79612
G1 X152.159 Y91.458 E216.91625
G1 X167.034 Y106.333 E219.39133
G1 X168.055 Y106.333 E219.51146
G1 X153.180 Y91.458 E221.98655
G1 X154.201 Y91.458 E222.10668
G1 X169.076 Y106.333 E224.58176
G1 X170.097 Y106.333 E224.70189
G1 X155.222 Y91.458 E227.17698
G1 X156.243 Y91.458 E227.29711
G1 X171.118 Y106.333 E229.77219
G1 X172.139 Y106.333 E229.89232
G1 X157.264 Y91.458 E232.36741
G1 X158.285 Y91.458 E232.48754
G1 X173.160 Y106.333 E234.96262
G1 X173.383 Y105.535 E235.06013
G1 X159.306 Y91.458 E237.40239
G1 X160.327 Y91.458 E237.52252
G1 X173.383 Y104.514 E239.69489
G1 X173.383 Y103.493 E239.81502
G1 X161.348 Y91.458 E241.81750
G1 X162.369 Y91.458 E241.93763
G1 X173.383 Y102.472 E243.77022
G1 X173.383 Y101.451 E243.89035
G1 X163.390 Y91.458 E245.55305
G1 X164.411 Y91.458 E245.67318
G1 X173.383 Y100.430 E247.16600
G1 X173.383 Y99.409 E247.28613
G1 X165.432 Y91.458 E248.60905
G1 X166.453 Y91.458 E248.72918
G1 X173.383 Y98.388 E249.88222
G1 X173.383 Y97.367 E250.00234
G1 X167.474 Y91.458 E250.98549
G1 X168.495 Y91.458 E251.10562
G1 X173.383 Y96.346 E251.91888
G1 X173.383 Y95.325 E252.03901
G1 X169.516 Y91.458 E252.68238
G1 X170.344 Y91.265 E252.78239
G1 X173.383 Y94.304 E253.28802
G1 X173.383 Y93.283 E253.40815
G1 X170.344 Y90.244 E253.91377
G1 X170.344 Y89.223 E254.03390
G1 X173.383 Y92.262 E254.53952
G1 X173.383 Y91.241 E254.65965
G1 X170.344 Y88.202 E255.16527
G1 X170.344 Y87.181 E255.28540
G1 X173.383 Y90.220 E255.79102
G1 X173.383 Y89.199 E255.91115
G1 X170.344 Y86.160 E256.41677
G1 X170.344 Y85.139 E256.53690
G1 X173.383 Y88.178 E257.04253
G1 X173.383 Y87.157 E257.16266
G1 X170.344 Y84.118 E257.66828
G1 X170.344 Y83.097 E257.78841
G1 X173.383 Y86.136 E258.29403
G1 X173.383 Y85.115 E258.41416
G1 X170.344 Y82.076 E258.91978
G1 X171.269 Y81.980 E259.02915
G1 X173.383 Y84.094 E259.38094
G1 X173.383 Y83.073 E259.50107
G1 X172.290 Y81.980 E259.68296
G1 X173.311 Y81.980 E259.80309
G1 X173.383 Y82.052 E259.81510
G1 F1800.000 E258.81510
G92 E0
G1 X139.787 Y85.779 F7200.000
G1 E1.00000 F1800.000
G1 X139.714 Y85.706 E1.01218 F360.000
G1 X138.867 Y85.885 E1.11448 F360.000
G1 X138.688 Y85.706 E1.14434 F360.000
G1 X137.841 Y85.885 E1.24663 F360.000
G1 X137.663 Y85.707 E1.27643 F360.000
G1 X136.816 Y85.885 E1.37876 F360.000
G1 X136.637 Y85.707 E1.40856 F360.000
G1 X135.790 Y85.885 E1.51088 F360.000
G1 X135.612 Y85.707 E1.54068 F360.000
G1 X134.765 Y85.885 E1.64301 F360.000
G1 X134.586 Y85.707 E1.67281 F360.000
G1 X133.739 Y85.885 E1.77514 F360.000
G1 X133.561 Y85.707 E1.80493 F360.000
G1 X132.713 Y85.885 E1.90726 F360.000
G1 X132.535 Y85.707 E1.93706 F360.000
G1 X131.688 Y85.885 E2.03939 F360.000
G1 X131.510 Y85.707 E2.06919 F360.000
G1 X130.662 Y85.885 E2.17152 F360.000
G1 X130.484 Y85.707 E2.20131 F360.000
G1 X129.637 Y85.885 E2.30364 F360.000
G1 X129.458 Y85.707 E2.33344 F360.000
G1 X128.539 Y85.813 E2.44285 F360.000
G1 X128.611 Y85.885 E2.45495 F360.000
G1 X127.054 Y87.907 F7200.000
G1 X127.091 Y87.944 E2.46110 F360.000
G1 X126.702 Y88.589 E2.55094 F360.000
G1 X127.088 Y88.975 E2.61608 F360.000
G1 X126.503 Y89.425 E2.70403 F360.000
G1 X127.088 Y90.010 E2.80267 F360.000
G1 X126.503 Y90.459 E2.89063 F360.000
G1 X127.088 Y91.044 E2.98927 F360.000
G1 X126.503 Y91.494 E3.07722 F360.000
G1 X127.088 Y92.079 E3.17586 F360.000
G1 X126.503 Y92.528 E3.26382 F360.000
G1 X127.088 Y93.113 E3.36246 F360.000
G1 X126.503 Y93.563 E3.45041 F360.000
G1 X127.088 Y94.148 E3.54905 F360.000
G1 X126.503 Y94.597 E3.63701 F360.000
G1 X127.088 Y95.182 E3.73565 F360.000
G1 X126.503 Y95.632 E3.82360 F360.000
G1 X127.088 Y96.217 E3.92224 F360.000
G1 X126.503 Y96.666 E4.01020 F360.000
G1 X127.088 Y97.251 E4.10884 F360.000
G1 X126.503 Y97.701 E4.19679 F360.000
G1 X127.088 Y98.286 E4.29543 F360.000
G1 X126.503 Y98.735 E4.38338 F360.000
G1 X127.088 Y99.320 E4.48203 F360.000
G1 X126.503 Y99.770 E4.56998 F360.000
G1 X127.088 Y100.355 E4.66862 F360.000
G1 X126.503 Y100.804 E4.75657 F360.000
G1 X127.088 Y101.389 E4.85522 F360.000
G1 X126.503 Y101.839 E4.94317 F360.000
G1 X127.088 Y102.424 E5.04181 F360.000
G1 X126.503 Y102.873 E5.12976 F360.000
G1 X127.088 Y103.458 E5.22841 F360.000
G1 X126.503 Y103.908 E5.31636 F360.000
G1 X127.088 Y104.493 E5.41500 F360.000
G1 X126.503 Y104.942 E5.50295 F360.000
G1 X127.088 Y105.527 E5.60160 F360.000
G1 X126.503 Y105.977 E5.68955 F360.000
G1 X127.088 Y106.562 E5.78819 F360.000
G1 X126.503 Y107.011 E5.87614 F360.000
G1 X127.088 Y107.596 E5.97479 F360.000
G1 X126.503 Y108.046 E6.06274 F360.000
G1 X127.088 Y108.631 E6.16138 F360.000
G1 X126.503 Y109.080 E6.24933 F360.000
G1 X127.088 Y109.665 E6.34798 F360.000
G1 X126.503 Y110.115 E6.43593 F360.000
G1 X127.088 Y110.700 E6.53457 F360.000
G1 X126.503 Y111.149 E6.62252 F360.000
G1 X127.089 Y111.735 E6.72130 F360.000
G1 X126.503 Y112.184 E6.80927 F360.000
G1 X127.089 Y112.769 E6.90802 F360.000
G1 X126.503 Y113.218 E6.99599 F360.000
G1 X127.088 Y113.804 E7.09471 F360.000
G1 X126.503 Y114.253 E7.18268 F360.000
G1 X126.576 Y114.326 E7.19501 F360.000
G1 F1800.000 E6.19501
G92 E0
G1 Z0.700 F7200.000
G1 X128.953 Y113.357 F7200.000
G1 E1.00000 F1800.000
G1 X128.957 Y87.034 E2.28700 F3600
G1 X139.378 Y87.034 E2.79652
G1 X139.400 Y92.790 E3.07795
G1 X139.392 Y113.357 E4.08353
G1 X129.013 Y113.357 E4.59098
G1 X129.352 Y112.957 F7200.000
G1 X129.355 Y87.434 E5.83887 F3600
G1 X138.982 Y87.434 E6.30954
G1 X138.998 Y88.976 E6.38491
G1 X139.002 Y97.417 E6.79763
G1 X138.992 Y112.957 E7.55743
G1 X129.412 Y112.957 E8.02580
G1 X129.752 Y112.557 F7200.000
G1 X129.754 Y87.834 E9.23457 F3600
G1 X138.586 Y87.834 E9.66639
G1 X138.602 Y97.418 E10.13496
G1 X138.592 Y112.557 E10.87516
G1 X129.812 Y112.557 E11.30444
G1 X130.151 Y112.157 F7200.000
G1 X130.153 Y88.234 E12.47410 F2520
G1 X138.190 Y88.234 E12.86707
G1 X138.192 Y112.157 E14.03673
G1 X130.211 Y112.157 E14.42691
G1 X129.847 Y112.158 F7200.000
G1 X124.640 Y110.920 F7200.000
G1 X124.640 Y88.400 E15.52799 F3600
G1 X126.417 Y84.522 E15.73656
G1 X146.032 Y84.521 E16.69560
G1 X146.032 Y89.834 E16.95538
G1 X168.720 Y89.834 E18.06465
G1 X168.720 Y80.638 E18.51427
G1 X175.364 Y80.638 E18.83911
G1 X175.358 Y108.314 E20.19226
G1 X156.395 Y108.314 E21.11941
G1 X138.449 Y128.518 E22.44066
G1 X137.347 Y129.806 E22.52352
G1 X133.588 Y129.806 E22.70733
G1 X129.027 Y125.292 E23.02108
G1 X124.640 Y119.330 E23.38297
G1 X124.640 Y110.980 E23.79121
G1 X124.240 Y110.920 F7200.000
G1 X124.240 Y88.313 E24.89654 F3600
G1 X126.160 Y84.122 E25.12195
G1 X146.432 Y84.121 E26.11309
G1 X146.432 Y89.434 E26.37288
G1 X168.320 Y89.434 E27.44304
G1 X168.320 Y80.238 E27.89265
G1 X175.764 Y80.238 E28.25661
G1 X175.754 Y108.714 E29.64887
G1 X156.575 Y108.714 E30.58660
G1 X138.750 Y128.781 E31.89888
G1 X137.531 Y130.206 E31.99056
G1 X133.423 Y130.206 E32.19142
G1 X128.723 Y125.554 E32.51474
G1 X124.240 Y119.462 E32.88458
G1 X124.240 Y110.980 E33.29924
G1 X123.840 Y110.921 F7200.000
G1 X123.840 Y88.226 E34.40884 F3600
G1 X125.903 Y83.722 E34.65107
G1 X146.832 Y83.721 E35.67432
G1 X146.832 Y89.034 E35.93411
G1 X167.920 Y89.034 E36.96515
G1 X167.920 Y79.838 E37.41477
G1 X176.164 Y79.838 E37.81784
G1 X176.164 Y107.321 E39.16157
G1 X176.150 Y109.114 E39.24922
G1 X156.754 Y109.114 E40.19751
G1 X139.052 Y129.044 E41.50083
G1 X137.716 Y130.606 E41.60133
G1 X133.259 Y130.606 E41.81924
G1 X128.419 Y125.817 E42.15213
G1 X123.840 Y119.593 E42.52992
G1 X123.840 Y110.981 E42.95100
G1 X123.440 Y110.921 F7200.000
G1 X123.440 Y88.139 E44.06487 F2520
G1 X125.647 Y83.322 E44.32392
