; generated by Slic3r 1.0.0RC3 on 2014-03-11 at 19:51:10

; layer_height = 0.3
; perimeters = 2
; top_solid_layers = 3
; bottom_solid_layers = 3
; fill_density = 0.1
; perimeter_speed = 60
; infill_speed = 60
; travel_speed = 120
; nozzle_diameter = 0.4
; filament_diameter = 1.75
; extrusion_multiplier = 0.98
; perimeters extrusion width = 0.40mm
; infill extrusion width = 0.42mm
; solid infill extrusion width = 0.42mm
; top infill extrusion width = 0.42mm
; first layer extrusion width = 0.60mm

G21 ; set units to millimeters
M107
M104 S220 ; set temperature
G28 ; home all axes
M106 S255;
G1 Z200 F1200 ; lift nozzle
M109 S220 ; wait for temperature to be reached
G90 ; use absolute coordinates
G92 E0
M82 ; use absolute distances for extrusion
G1 F1800.000 E-1.00000
G92 E0
G1 Z0.300 F7200.000
G1 X97.493 Y75.534 F7200.000
G1 E1.00000 F1800.000
G1 X98.293 Y74.554 E1.08614 F1080.000
G1 X99.273 Y73.754 E1.17228
G1 X100.393 Y73.164 E1.25848
G1 X145.583 Y54.344 E4.59176
G1 X146.503 Y54.034 E4.65787
G1 X147.463 Y53.864 E4.72425
G1 X155.273 Y53.104 E5.25857
G1 X155.913 Y53.074 E5.30219
G1 X156.553 Y53.104 E5.34582
G1 X164.353 Y53.864 E5.87946
G1 X165.603 Y54.114 E5.96626
G1 X166.783 Y54.594 E6.05300
G1 X167.843 Y55.304 E6.13987
G1 X182.253 Y66.994 E7.40336
G1 X188.343 Y71.984 E7.93947
G1 X188.823 Y72.414 E7.98335
G1 X189.263 Y72.894 E8.02769
G1 X206.053 Y93.374 E9.83096
G1 X206.763 Y94.444 E9.91840
G1 X207.253 Y95.634 E10.00603
G1 X207.513 Y96.894 E10.09363
G1 X208.283 Y104.694 E10.62733
G1 X208.313 Y105.334 E10.67096
G1 X208.283 Y105.974 E10.71459
G1 X207.513 Y113.774 E11.24829
G1 X207.063 Y115.594 E11.37595
G1 X206.123 Y117.204 E11.50290
G1 X189.853 Y137.744 E13.28713
G1 X189.453 Y138.204 E13.32864
G1 X189.013 Y138.624 E13.37006
G1 X183.013 Y143.844 E13.91159
G1 X182.163 Y144.474 E13.98363
G1 X163.683 Y155.894 E15.46286
G1 X162.033 Y156.624 E15.58572
G1 X160.243 Y156.874 E15.70879
G1 X136.723 Y156.924 E17.31033
G1 X135.143 Y156.734 E17.41869
G1 X133.653 Y156.164 E17.52732
G1 X99.653 Y138.224 E20.14497
G1 X98.503 Y137.454 E20.23921
G1 X97.543 Y136.464 E20.33311
G1 X96.813 Y135.294 E20.42702
G1 X96.343 Y133.994 E20.52114
G1 X92.583 Y118.764 E21.58933
G1 X92.413 Y117.664 E21.66512
G1 X91.703 Y107.884 E22.33282
G1 X91.703 Y106.914 E22.39886
G1 X92.463 Y97.034 E23.07361
G1 X92.593 Y96.164 E23.13350
G1 X96.503 Y77.844 E24.40905
G1 X96.883 Y76.644 E24.49476
G1 X97.452 Y75.607 E24.57532
G1 F1800.000 E23.57532
G92 E0
G1 X153.646 Y64.765 F7200.000
G1 E1.00000 F1800.000
G1 X153.810 Y63.938 E1.05742 F540.000
G1 X154.279 Y63.237 E1.11485
G1 X154.980 Y62.768 E1.17227
G1 X155.807 Y62.604 E1.22968
G1 X156.634 Y62.768 E1.28711
G1 X157.335 Y63.237 E1.34453
G1 X157.804 Y63.938 E1.40195
G1 X157.968 Y64.765 E1.45937
G1 X157.804 Y65.592 E1.51679
G1 X157.335 Y66.293 E1.57421
G1 X156.634 Y66.762 E1.63163
G1 X155.807 Y66.926 E1.68905
G1 X154.980 Y66.762 E1.74647
G1 X154.279 Y66.293 E1.80390
G1 X153.810 Y65.592 E1.86132
G1 X153.662 Y64.847 E1.91304
G1 X154.214 Y64.765 F7200.000
G1 X154.335 Y64.155 E1.95538 F540.000
G1 X154.680 Y63.638 E1.99771
G1 X155.197 Y63.293 E2.04004
G1 X155.807 Y63.172 E2.08237
G1 X156.417 Y63.293 E2.12470
G1 X156.934 Y63.638 E2.16703
G1 X157.279 Y64.155 E2.20936
G1 X157.400 Y64.765 E2.25169
G1 X157.279 Y65.375 E2.29402
G1 X156.934 Y65.891 E2.33635
G1 X156.417 Y66.237 E2.37868
G1 X155.807 Y66.358 E2.42101
G1 X155.197 Y66.237 E2.46334
G1 X154.680 Y65.891 E2.50567
G1 X154.335 Y65.375 E2.54800
G1 X154.230 Y64.847 E2.58464
G1 X153.751 Y64.455 F7200.000
G1 F1800.000 E1.58464
G92 E0
G1 X195.420 Y103.363 F7200.000
G1 E1.00000 F1800.000
G1 X196.122 Y102.894 E1.05742 F540.000
G1 X196.949 Y102.730 E1.11484
G1 X197.776 Y102.894 E1.17226
G1 X198.477 Y103.363 E1.22968
G1 X198.945 Y104.064 E1.28710
G1 X199.110 Y104.891 E1.34452
G1 X198.945 Y105.718 E1.40194
G1 X198.477 Y106.419 E1.45936
G1 X197.776 Y106.888 E1.51678
G1 X196.949 Y107.052 E1.57420
G1 X196.122 Y106.888 E1.63163
G1 X195.420 Y106.419 E1.68905
G1 X194.952 Y105.718 E1.74647
G1 X194.787 Y104.891 E1.80389
G1 X194.952 Y104.064 E1.86132
G1 X195.374 Y103.432 E1.91304
G1 X195.822 Y103.764 F7200.000
G1 X196.339 Y103.419 E1.95537 F540.000
G1 X196.949 Y103.298 E1.99770
G1 X197.558 Y103.419 E2.04003
G1 X198.075 Y103.764 E2.08236
G1 X198.421 Y104.281 E2.12469
G1 X198.542 Y104.891 E2.16702
G1 X198.421 Y105.501 E2.20935
G1 X198.075 Y106.018 E2.25168
G1 X197.558 Y106.363 E2.29401
G1 X196.949 Y106.484 E2.33634
G1 X196.339 Y106.363 E2.37867
G1 X195.822 Y106.018 E2.42100
G1 X195.477 Y105.501 E2.46333
G1 X195.355 Y104.891 E2.50566
G1 X195.477 Y104.281 E2.54800
G1 X195.776 Y103.834 E2.58463
G1 X195.713 Y103.218 F7200.000
G1 F1800.000 E1.58463
G92 E0
G1 X104.091 Y107.670 F7200.000
G1 E1.00000 F1800.000
G1 X104.030 Y107.670 E1.00417 F540.000
G1 X103.896 Y108.343 E1.05091
G1 X103.427 Y109.044 E1.10833
G1 X102.726 Y109.513 E1.16575
G1 X101.899 Y109.677 E1.22317
G1 X101.072 Y109.513 E1.28059
G1 X100.371 Y109.044 E1.33801
G1 X99.902 Y108.343 E1.39543
G1 X99.738 Y107.516 E1.45285
G1 X99.902 Y106.689 E1.51027
G1 X100.371 Y105.988 E1.56770
G1 X102.331 Y104.678 E1.72823
G1 X102.331 Y105.441 E1.78016
G1 X102.726 Y105.519 E1.80759
G1 X103.427 Y105.988 E1.86501
G1 X103.896 Y106.689 E1.92243
G1 X104.075 Y107.588 E1.98484
G1 X103.492 Y107.516 F7200.000
G1 X103.371 Y108.126 E2.02717 F540.000
G1 X103.026 Y108.643 E2.06950
G1 X102.509 Y108.988 E2.11183
G1 X101.899 Y109.109 E2.15416
G1 X101.289 Y108.988 E2.19649
G1 X100.773 Y108.643 E2.23882
G1 X100.427 Y108.126 E2.28115
G1 X100.306 Y107.516 E2.32348
G1 X100.427 Y106.906 E2.36581
G1 X100.773 Y106.389 E2.40814
G1 X101.774 Y105.720 E2.49016
G1 X101.774 Y105.898 E2.50225
G1 X102.509 Y106.044 E2.55327
G1 X103.026 Y106.389 E2.59560
G1 X103.371 Y106.906 E2.63793
G1 X103.476 Y107.434 E2.67457
G1 X103.956 Y107.825 F7200.000
G1 F1800.000 E1.67457
G92 E0
G1 X134.988 Y105.340 F7200.000
G1 E1.00000 F1800.000
G1 X135.391 Y101.259 E1.27924 F1080.000
G1 X136.581 Y97.334 E1.55856
G1 X138.515 Y93.716 E1.83787
G1 X141.117 Y90.545 E2.11719
G1 X144.288 Y87.943 E2.39650
G1 X147.906 Y86.009 E2.67582
G1 X151.831 Y84.819 E2.95513
G1 X155.913 Y84.417 E3.23445
G1 X159.996 Y84.819 E3.51376
G1 X163.921 Y86.009 E3.79308
G1 X167.539 Y87.943 E4.07239
G1 X170.710 Y90.545 E4.35170
G1 X173.312 Y93.716 E4.63102
G1 X175.246 Y97.334 E4.91033
G1 X176.436 Y101.258 E5.18957
G1 X176.839 Y105.342 E5.46896
G1 X176.436 Y109.425 E5.74835
G1 X175.246 Y113.349 E6.02759
G1 X173.312 Y116.967 E6.30691
G1 X170.710 Y120.138 E6.58622
G1 X167.539 Y122.740 E6.86554
G1 X163.921 Y124.674 E7.14485
G1 X159.996 Y125.864 E7.42417
G1 X155.913 Y126.266 E7.70348
G1 X151.831 Y125.864 E7.98280
G1 X147.906 Y124.674 E8.26211
G1 X144.288 Y122.740 E8.54143
G1 X141.117 Y120.138 E8.82074
G1 X138.515 Y116.967 E9.10006
G1 X136.804 Y113.766 E9.34720
G1 X136.708 Y113.766 E9.35376
G1 X135.391 Y109.425 E9.66265
G1 X134.996 Y105.424 E9.93642
G1 X135.548 Y105.341 F7200.000
G1 X135.940 Y101.368 E10.20824 F540.000
G1 X137.099 Y97.548 E10.48009
G1 X138.980 Y94.027 E10.75193
G1 X141.513 Y90.941 E11.02377
G1 X144.599 Y88.409 E11.29561
G1 X148.120 Y86.527 E11.56746
G1 X151.940 Y85.368 E11.83930
G1 X155.913 Y84.976 E12.11114
G1 X159.887 Y85.368 E12.38298
G1 X163.707 Y86.527 E12.65483
G1 X167.228 Y88.409 E12.92667
G1 X170.314 Y90.941 E13.19851
G1 X172.846 Y94.027 E13.47035
G1 X174.728 Y97.548 E13.74220
G1 X175.887 Y101.368 E14.01401
G1 X176.279 Y105.342 E14.28588
G1 X175.887 Y109.315 E14.55775
G1 X174.728 Y113.135 E14.82957
G1 X172.846 Y116.656 E15.10141
G1 X170.314 Y119.742 E15.37325
G1 X167.228 Y122.274 E15.64510
G1 X163.707 Y124.156 E15.91694
G1 X159.887 Y125.315 E16.18878
G1 X155.913 Y125.707 E16.46062
G1 X151.940 Y125.315 E16.73247
G1 X148.120 Y124.156 E17.00431
G1 X144.599 Y122.274 E17.27615
G1 X141.513 Y119.742 E17.54799
G1 X138.981 Y116.656 E17.81984
G1 X137.138 Y113.209 E18.08598
G1 X137.121 Y113.209 E18.08714
G1 X135.940 Y109.315 E18.36421
G1 X135.556 Y105.424 E18.63042
G1 X135.075 Y105.047 F7200.000
G1 F1800.000 E17.63042
G92 E0
G1 X142.858 Y142.935 F7200.000
G1 E1.00000 F1800.000
G1 X143.037 Y142.899 E1.01243 F540.000
G1 X143.864 Y143.064 E1.06985
G1 X144.565 Y143.532 E1.12727
G1 X145.034 Y144.234 E1.18469
G1 X145.198 Y145.061 E1.24211
G1 X145.034 Y145.888 E1.29954
G1 X144.565 Y146.589 E1.35696
G1 X143.864 Y147.057 E1.41437
G1 X143.037 Y147.222 E1.47180
G1 X142.210 Y147.057 E1.52922
G1 X141.509 Y146.589 E1.58664
G1 X141.040 Y145.888 E1.64406
G1 X140.876 Y145.061 E1.70148
G1 X141.040 Y144.234 E1.75890
G1 X141.509 Y143.532 E1.81632
G1 X142.210 Y143.064 E1.87374
G1 X142.776 Y142.951 E1.91304
G1 X142.967 Y143.481 F7200.000
G1 X143.037 Y143.467 E1.91793 F540.000
G1 X143.647 Y143.589 E1.96026
G1 X144.164 Y143.934 E2.00259
G1 X144.509 Y144.451 E2.04492
G1 X144.630 Y145.061 E2.08725
G1 X144.509 Y145.670 E2.12958
G1 X144.164 Y146.187 E2.17191
G1 X143.647 Y146.533 E2.21424
G1 X143.037 Y146.654 E2.25657
G1 X142.427 Y146.533 E2.29890
G1 X141.910 Y146.187 E2.34123
G1 X141.565 Y145.670 E2.38356
G1 X141.444 Y145.061 E2.42589
G1 X141.565 Y144.451 E2.46822
G1 X141.910 Y143.934 E2.51055
G1 X142.427 Y143.589 E2.55288
G1 X142.885 Y143.498 E2.58464
G1 X142.990 Y143.413 F7200.000
G1 F1800.000 E1.58464
G92 E0
G1 X137.567 Y138.447 F7200.000
G1 E1.00000 F1800.000
G1 X134.004 Y134.324 E1.37106 F1080.000
G1 X124.667 Y131.640 E2.03260
G1 X120.395 Y131.651 E2.32351
G1 X120.395 Y127.535 E2.60372
G1 X122.836 Y127.465 E2.77000
G1 X122.857 Y123.806 E3.01916
G1 X127.491 Y123.806 E3.33465
G1 X127.491 Y85.757 E5.92548
G1 X105.107 Y85.757 E7.44964
G1 X105.107 Y123.806 E10.04046
G1 X109.672 Y123.806 E10.35131
G1 X109.692 Y127.466 E10.60057
G1 X112.285 Y127.536 E10.77723
G1 X112.285 Y131.647 E11.05712
G1 X103.388 Y131.576 E11.66298
G1 X99.810 Y117.068 E12.68043
G1 X99.102 Y107.418 E13.33929
G1 X99.861 Y97.662 E14.00559
G1 X103.609 Y80.081 E15.22962
G1 X124.670 Y80.101 E16.66375
G1 X128.147 Y77.750 E16.94954
G1 X134.173 Y72.805 E17.48034
G1 X141.137 Y69.082 E18.01803
G1 X148.516 Y61.224 E18.75203
G1 X155.913 Y60.495 E19.25820
G1 X163.311 Y61.224 E19.76438
G1 X170.690 Y69.082 E20.49837
G1 X177.654 Y72.805 E21.03607
G1 X183.584 Y77.671 E21.55842
G1 X188.450 Y83.601 E22.08077
G1 X192.167 Y90.555 E22.61765
G1 X200.168 Y97.949 E23.35950
G1 X200.896 Y105.342 E23.86529
G1 X200.165 Y112.760 E24.37291
G1 X192.133 Y120.995 E25.15619
G1 X188.820 Y127.070 E25.62736
G1 X184.092 Y133.081 E26.14810
G1 X178.229 Y138.182 E26.67729
G1 X171.109 Y141.848 E27.22261
G1 X159.434 Y142.038 E28.01770
G1 X159.385 Y149.464 E28.52337
G1 X148.110 Y149.451 E29.29112
G1 X137.576 Y149.504 E30.00842
G1 X137.567 Y138.531 E30.75559
G1 X137.010 Y138.655 F7200.000
G1 X133.691 Y134.814 E31.10126 F540.000
G1 X124.589 Y132.197 E31.74613
G1 X119.838 Y132.209 E32.06967
G1 X119.838 Y126.994 E32.42476
G1 X122.282 Y126.923 E32.59127
G1 X122.304 Y123.249 E32.84151
G1 X126.934 Y123.249 E33.15677
G1 X126.934 Y86.314 E35.67173
G1 X105.664 Y86.314 E37.12003
G1 X105.664 Y123.249 E39.63498
G1 X110.226 Y123.249 E39.94561
G1 X110.246 Y126.924 E40.19588
G1 X112.842 Y126.994 E40.37271
G1 X112.842 Y132.208 E40.72776
G1 X102.951 Y132.129 E41.40134
G1 X99.258 Y117.156 E42.45146
G1 X98.544 Y107.417 E43.11639
G1 X99.309 Y97.582 E43.78808
G1 X103.158 Y79.524 E45.04535
G1 X124.500 Y79.544 E46.49856
G1 X127.814 Y77.303 E46.77095
G1 X133.862 Y72.339 E47.30373
G1 X140.794 Y68.634 E47.83892
G1 X148.253 Y60.690 E48.58093
G1 X155.913 Y59.935 E49.10509
G1 X163.574 Y60.690 E49.62925
G1 X171.033 Y68.634 E50.37126
G1 X177.965 Y72.339 E50.90645
G1 X183.980 Y77.275 E51.43627
G1 X188.916 Y83.290 E51.96610
G1 X192.619 Y90.218 E52.50100
G1 X200.702 Y97.684 E53.25023
G1 X201.456 Y105.342 E53.77419
G1 X200.701 Y113.010 E54.29885
G1 X192.586 Y121.329 E55.09022
G1 X189.287 Y127.378 E55.55934
G1 X184.490 Y133.476 E56.08767
G1 X178.544 Y138.646 E56.62421
G1 X171.248 Y142.403 E57.18298
G1 X159.987 Y142.586 E57.94987
G1 X159.938 Y150.021 E58.45619
G1 X148.111 Y150.008 E59.26154
G1 X137.019 Y150.063 E60.01682
G1 X137.011 Y138.738 E60.78798
G1 X137.312 Y138.186 F7200.000
G1 X137.962 Y138.781 F7200.000
G1 X141.947 Y142.766 E61.17388 F1080.000
G1 X141.472 Y143.084 E61.21299
G1 X137.962 Y139.574 E61.55284
G1 X137.963 Y140.367 E61.60713
G1 X141.072 Y143.477 E61.90826
G1 X140.755 Y143.951 E61.94737
G1 X137.963 Y141.160 E62.21773
G1 X137.964 Y141.952 E62.27201
G1 X140.573 Y144.562 E62.52471
G1 X140.523 Y145.303 E62.57559
G1 X137.964 Y142.745 E62.82330
G1 F1800.000 E61.82330
G92 E0
G1 X137.989 Y149.108 F7200.000
G1 E1.00000 F1800.000
G1 X137.969 Y149.088 E1.00193 F1080.000
G1 X137.969 Y148.295 E1.05622
G1 X138.777 Y149.104 E1.13454
G1 X139.566 Y149.100 E1.18852
G1 X137.968 Y147.502 E1.34323
G1 X137.967 Y146.709 E1.39752
G1 X140.354 Y149.096 E1.62862
G1 X141.142 Y149.092 E1.68259
G1 X137.967 Y145.916 E1.99009
G1 X137.966 Y145.124 E2.04437
G1 X141.930 Y149.088 E2.42825
G1 X142.719 Y149.084 E2.48223
G1 X137.966 Y144.331 E2.94250
G1 X137.965 Y143.538 E2.99679
G1 X143.507 Y149.080 E3.53345
G1 X144.295 Y149.076 E3.58743
G1 X142.795 Y147.575 E3.73276
G1 X143.536 Y147.524 E3.78363
G1 X145.084 Y149.072 E3.93352
G1 X145.872 Y149.068 E3.98750
G1 X144.146 Y147.343 E4.15459
G1 X144.621 Y147.025 E4.19370
G1 X146.660 Y149.064 E4.39115
G1 X147.448 Y149.060 E4.44512
G1 X145.014 Y146.626 E4.68085
G1 X145.332 Y146.151 E4.71996
G1 X148.238 Y149.057 E5.00136
G1 X149.031 Y149.058 E5.05567
G1 X145.506 Y145.533 E5.39698
G1 X145.544 Y144.779 E5.44869
G1 X149.824 Y149.059 E5.86313
G1 X150.617 Y149.060 E5.91744
G1 X125.757 Y124.199 E8.32479
G1 X126.549 Y124.199 E8.37904
G1 X151.410 Y149.061 E10.78648
G1 X152.203 Y149.062 E10.84078
G1 X127.341 Y124.199 E13.24831
G1 X127.884 Y123.951 E13.28924
G1 X152.996 Y149.063 E15.72093
G1 X153.789 Y149.063 E15.77524
G1 X127.884 Y123.159 E18.28374
G1 X127.884 Y122.366 E18.33799
G1 X154.583 Y149.064 E20.92329
G1 X155.376 Y149.065 E20.97759
G1 X127.884 Y121.574 E23.63970
G1 X127.884 Y120.782 E23.69394
G1 X156.169 Y149.066 E26.43285
G1 X156.962 Y149.067 E26.48716
G1 X127.884 Y119.990 E29.30286
G1 X127.884 Y119.197 E29.35711
G1 X157.755 Y149.068 E32.24962
G1 X158.548 Y149.069 E32.30393
G1 X127.884 Y118.405 E35.27324
G1 X127.884 Y117.613 E35.32748
G1 X158.996 Y148.724 E38.34013
G1 X159.001 Y147.937 E38.39402
G1 X127.884 Y116.821 E41.40717
G1 X127.884 Y116.028 E41.46142
G1 X159.006 Y147.150 E44.47507
G1 X159.011 Y146.363 E44.52896
G1 X127.884 Y115.236 E47.54311
G1 X127.884 Y114.444 E47.59736
G1 X159.016 Y145.576 E50.61201
G1 X159.022 Y144.789 E50.66590
G1 X127.884 Y113.652 E53.68106
G1 X127.884 Y112.860 E53.73531
G1 X159.027 Y144.002 E56.75097
G1 X159.032 Y143.215 E56.80486
G1 X127.884 Y112.067 E59.82102
G1 X127.884 Y111.275 E59.87527
G1 X159.037 Y142.428 E62.89193
G1 X159.051 Y141.650 E62.94521
G1 X127.884 Y110.483 E65.96325
G1 X127.884 Y109.691 E66.01750
G1 X159.831 Y141.637 E69.11103
G1 X160.611 Y141.625 E69.16442
G1 X127.884 Y108.898 E72.33345
G1 X127.884 Y108.106 E72.38770
G1 X161.390 Y141.612 E75.63221
G1 X162.170 Y141.599 E75.68560
G1 X141.677 Y121.106 E77.67003
G1 F1800.000 E76.67003
G92 E0
G1 X140.149 Y119.578 F7200.000
G1 E1.00000 F1800.000
G1 X127.884 Y107.314 E2.18760 F1080.000
G1 X127.884 Y106.522 E2.24185
G1 X137.769 Y116.406 E3.19899
G1 X136.859 Y114.704 F7200.000
G1 X127.884 Y105.729 E4.06804 F1080.000
G1 X127.884 Y104.937 E4.12229
G1 X136.115 Y113.168 E4.91926
G1 X135.770 Y112.030 E5.00063
G1 X127.884 Y104.145 E5.76420
G1 X127.884 Y103.353 E5.81845
G1 X135.425 Y110.893 E6.54861
G1 X135.080 Y109.756 E6.62998
G1 X127.884 Y102.561 E7.32675
G1 X127.884 Y101.768 E7.38099
G1 X134.935 Y108.819 E8.06377
G1 X134.849 Y107.940 E8.12425
G1 X127.884 Y100.976 E8.79863
G1 X127.884 Y100.184 E8.85288
G1 X134.762 Y107.062 E9.51887
G1 X134.675 Y106.183 E9.57935
G1 X127.884 Y99.392 E10.23694
G1 X127.884 Y98.599 E10.29119
G1 X134.595 Y105.310 E10.94103
G1 X134.666 Y104.589 E10.99064
G1 X127.884 Y97.807 E11.64737
G1 X127.884 Y97.015 E11.70162
G1 X134.738 Y103.868 E12.36523
G1 X134.809 Y103.147 E12.41485
G1 X127.884 Y96.223 E13.08535
G1 X127.884 Y95.431 E13.13959
G1 X134.880 Y102.426 E13.81699
G1 X134.951 Y101.705 E13.86660
G1 X127.884 Y94.638 E14.55088
