; generated by Slic3r 1.0.0RC2 on 2014-05-19 at 22:31:50

; layer_height = 0.3
; perimeters = 2
; top_solid_layers = 3
; bottom_solid_layers = 3
; fill_density = 0.1
; perimeter_speed = 60
; infill_speed = 60
; travel_speed = 120
; nozzle_diameter = 0.4
; filament_diameter = 1.75
; extrusion_multiplier = 0.98
; perimeters extrusion width = 0.40mm
; infill extrusion width = 0.42mm
; solid infill extrusion width = 0.42mm
; top infill extrusion width = 0.42mm
; first layer extrusion width = 0.80mm

G21 ; set units to millimeters
M107
M104 S220 ; set temperature
G28 ; home all axes
M106 S255;
G1 Z200 F1200 ; lift nozzle
M109 S220 ; wait for temperature to be reached
G90 ; use absolute coordinates
G92 E0
M82 ; use absolute distances for extrusion
G1 F1800.000 E-1.00000
G92 E0
G1 Z0.400 F7200.000
G1 X57.042 Y91.885 F7200.000
G1 E1.00000 F1800.000
G1 X177.422 Y35.575 E16.46810 F1080.000
G1 X178.482 Y35.185 E16.59956
G1 X179.602 Y34.975 E16.73219
G1 X187.332 Y34.205 E17.63634
G1 X188.082 Y34.175 E17.72370
G1 X188.712 Y34.205 E17.79711
G1 X196.502 Y34.975 E18.70820
G1 X197.622 Y35.185 E18.84083
G1 X198.682 Y35.575 E18.97229
G1 X247.622 Y58.465 E25.26066
G1 X248.922 Y59.255 E25.43771
G1 X250.002 Y60.325 E25.61466
G1 X250.822 Y61.605 E25.79159
G1 X251.322 Y63.035 E25.96790
G1 X251.492 Y64.545 E26.14476
G1 X251.492 Y151.375 E36.25090
G1 X251.352 Y152.735 E36.41002
G1 X250.942 Y154.045 E36.56979
G1 X250.272 Y155.245 E36.72975
G1 X249.372 Y156.275 E36.88895
G1 X248.272 Y157.105 E37.04933
G1 X247.032 Y157.695 E37.20916
G1 X245.702 Y158.025 E37.36865
G1 X118.122 Y175.715 E52.35974
G1 X117.212 Y175.775 E52.46588
G1 X93.692 Y175.825 E55.20338
G1 X92.072 Y175.635 E55.39322
G1 X90.552 Y175.055 E55.58258
G1 X56.552 Y157.115 E60.05692
G1 X55.372 Y156.325 E60.22220
G1 X54.392 Y155.315 E60.38599
G1 X53.642 Y154.115 E60.55070
G1 X53.162 Y152.785 E60.71527
G1 X49.402 Y137.555 E62.54111
G1 X49.222 Y136.435 E62.67314
G1 X48.512 Y126.655 E63.81443
G1 X48.522 Y125.655 E63.93082
G1 X49.282 Y115.775 E65.08415
G1 X49.402 Y114.885 E65.18867
G1 X53.312 Y96.565 E67.36896
G1 X53.812 Y95.095 E67.54968
G1 X54.622 Y93.785 E67.72894
G1 X55.722 Y92.695 E67.90918
G1 X56.951 Y91.941 E68.07697
G1 F1800.000 E67.07697
G92 E0
G1 X163.951 Y86.799 F7200.000
G1 E1.00000 F1800.000
G1 X164.414 Y82.096 E1.55003 F1080.000
G1 X165.786 Y77.573 E2.10007
G1 X168.014 Y73.405 E2.65010
G1 X171.012 Y69.752 E3.20014
G1 X174.665 Y66.754 E3.75017
G1 X178.832 Y64.527 E4.30021
G1 X183.355 Y63.155 E4.85024
G1 X188.058 Y62.692 E5.40028
G1 X192.761 Y63.155 E5.95034
G1 X197.945 Y64.727 E6.58079
G1 X197.945 Y64.880 E6.59858
G1 X201.451 Y66.754 E7.06136
G1 X205.104 Y69.752 E7.61139
G1 X208.102 Y73.406 E8.16143
G1 X210.330 Y77.573 E8.71146
G1 X211.702 Y82.096 E9.26149
G1 X212.165 Y86.799 E9.81153
G1 X211.702 Y91.502 E10.36156
G1 X210.330 Y96.024 E10.91159
G1 X208.102 Y100.192 E11.46163
G1 X205.104 Y103.845 E12.01166
G1 X201.451 Y106.843 E12.56169
G1 X197.283 Y109.070 E13.11173
G1 X192.761 Y110.442 E13.66176
G1 X188.058 Y110.905 E14.21180
G1 X183.355 Y110.442 E14.76183
G1 X178.832 Y109.070 E15.31187
G1 X174.665 Y106.843 E15.86190
G1 X171.012 Y103.845 E16.41194
G1 X168.014 Y100.192 E16.96197
G1 X165.786 Y96.024 E17.51200
G1 X164.414 Y91.502 E18.06204
G1 X163.961 Y86.905 E18.59960
G1 X164.668 Y86.799 F7200.000
G1 X165.118 Y82.236 E19.13326 F756.000
G1 X166.449 Y77.848 E19.66692
G1 X168.610 Y73.804 E20.20058
G1 X171.519 Y70.260 E20.73424
G1 X175.063 Y67.351 E21.26790
G1 X179.107 Y65.190 E21.80157
G1 X183.495 Y63.859 E22.33523
G1 X188.058 Y63.409 E22.86889
G1 X192.621 Y63.859 E23.40258
G1 X197.230 Y65.257 E23.96320
G1 X197.230 Y65.308 E23.96917
G1 X201.052 Y67.351 E24.47357
G1 X204.597 Y70.260 E25.00724
G1 X207.506 Y73.804 E25.54090
G1 X209.667 Y77.848 E26.07456
G1 X210.998 Y82.236 E26.60822
G1 X211.447 Y86.799 E27.14188
G1 X210.998 Y91.362 E27.67553
G1 X209.667 Y95.749 E28.20919
G1 X207.505 Y99.793 E28.74285
G1 X204.597 Y103.337 E29.27651
G1 X201.052 Y106.246 E29.81018
G1 X197.009 Y108.407 E30.34384
G1 X192.621 Y109.738 E30.87750
G1 X188.058 Y110.188 E31.41116
G1 X183.495 Y109.738 E31.94482
G1 X179.107 Y108.407 E32.47848
G1 X175.063 Y106.246 E33.01215
G1 X171.519 Y103.337 E33.54581
G1 X168.610 Y99.793 E34.07947
G1 X166.449 Y95.749 E34.61313
G1 X165.118 Y91.362 E35.14679
G1 X164.679 Y86.905 E35.66798
G1 X164.062 Y86.421 F7200.000
G1 F1800.000 E34.66798
G92 E0
G1 X216.891 Y108.585 F7200.000
G1 E1.00000 F1800.000
G1 X221.003 Y104.933 E1.64011 F1080.000
G1 X229.864 Y104.983 E2.67137
G1 X229.864 Y143.578 E7.16347
G1 X214.085 Y143.578 E8.99992
G1 X214.085 Y117.929 E11.98527
G1 X216.860 Y108.688 E13.10825
G1 X217.517 Y108.985 F7200.000
G1 X221.273 Y105.649 E13.69293 F756.000
G1 X229.149 Y105.693 E14.60969
G1 X229.149 Y142.864 E18.93601
G1 X214.799 Y142.864 E20.60622
G1 X214.799 Y118.034 E23.49624
G1 X217.486 Y109.087 E24.58343
G1 X217.248 Y108.324 F7200.000
G1 X221.046 Y105.048 F7200.000
G1 X231.997 Y99.619 F7200.000
G1 X231.884 Y107.460 F7200.000
G1 X231.983 Y141.712 E28.56997 F1080.000
G1 X243.674 Y141.716 E29.93061
G1 X243.674 Y150.271 E30.92635
G1 X228.897 Y150.271 E32.64622
G1 X200.257 Y142.548 E36.09863
G1 X190.233 Y143.435 E37.26991
G1 X180.426 Y142.624 E38.41522
G1 X162.960 Y139.004 E40.49128
G1 X162.960 Y118.197 E42.91301
G1 X160.736 Y114.398 E43.42534
G1 X155.783 Y108.363 E44.33402
G1 X152.055 Y101.388 E45.25460
G1 X144.046 Y94.056 E46.51836
G1 X143.332 Y86.799 E47.36712
G1 X144.046 Y79.541 E48.21588
G1 X152.055 Y72.209 E49.47965
G1 X155.783 Y65.234 E50.40022
G1 X160.611 Y59.352 E51.28586
G1 X166.493 Y54.524 E52.17150
G1 X173.470 Y50.795 E53.09237
G1 X180.803 Y42.717 E54.36217
G1 X188.058 Y42.002 E55.21062
G1 X195.347 Y42.720 E56.06316
G1 X203.366 Y50.622 E57.37344
G1 X209.594 Y54.096 E58.20353
G1 X215.501 Y58.728 E59.07713
G1 X220.156 Y63.992 E59.89500
G1 X225.621 Y65.742 E60.56298
G1 X225.621 Y65.657 E60.57296
G1 X243.674 Y65.657 E62.67407
G1 X243.674 Y73.601 E63.59870
G1 X231.882 Y73.601 E64.97108
G1 X231.884 Y107.353 E68.89947
G1 X232.598 Y107.458 F7200.000
G1 X232.696 Y140.998 E72.80318 F756.000
G1 X244.388 Y141.002 E74.16402
G1 X244.388 Y150.985 E75.32598
G1 X228.802 Y150.985 E77.13997
G1 X200.194 Y143.271 E80.58859
G1 X190.234 Y144.152 E81.75237
G1 X180.324 Y143.332 E82.90975
G1 X162.246 Y139.585 E85.05854
G1 X162.246 Y118.391 E87.52538
G1 X160.148 Y114.808 E88.00863
G1 X155.187 Y108.762 E88.91892
G1 X151.483 Y101.832 E89.83347
G1 X143.363 Y94.398 E91.11485
G1 X142.614 Y86.799 E92.00362
G1 X143.363 Y79.199 E92.89239
G1 X151.483 Y71.765 E94.17377
G1 X155.187 Y64.835 E95.08833
G1 X160.103 Y58.844 E95.99034
G1 X166.094 Y53.928 E96.89235
G1 X173.025 Y50.223 E97.80701
G1 X180.459 Y42.033 E99.09446
G1 X188.058 Y41.284 E99.98312
G1 X195.669 Y42.034 E100.87325
G1 X203.798 Y50.045 E102.20166
G1 X209.991 Y53.499 E103.02700
G1 X215.992 Y58.206 E103.91468
G1 X220.561 Y63.371 E104.71726
G1 X225.465 Y64.943 E105.31668
G1 X244.388 Y64.943 E107.51908
G1 X244.388 Y74.315 E108.60995
G1 X232.597 Y74.315 E109.98234
G1 X232.598 Y107.351 E113.82735
G1 X231.981 Y107.816 F7200.000
G1 X232.190 Y72.762 F7200.000
G1 X232.007 Y72.579 E113.85753 F1080.000
G1 X232.007 Y71.567 E113.97544
G1 X233.202 Y72.762 E114.17237
G1 X242.763 Y66.139 F7200.000
G1 X242.835 Y66.210 E114.18415 F1080.000
G1 X242.835 Y67.222 E114.30206
G1 X241.752 Y66.139 E114.48060
G1 X240.740 Y66.139 E114.59851
G1 X242.835 Y68.233 E114.94380
G1 X242.835 Y69.245 E115.06171
G1 X239.729 Y66.139 E115.57376
G1 X238.717 Y66.139 E115.69167
G1 X242.835 Y70.256 E116.37046
G1 X242.835 Y71.268 E116.48838
G1 X237.706 Y66.139 E117.33393
G1 X236.694 Y66.139 E117.45184
G1 X242.835 Y72.279 E118.46414
G1 X242.306 Y72.762 E118.54761
G1 X235.682 Y66.139 E119.63945
G1 X234.671 Y66.139 E119.75736
G1 X241.294 Y72.762 E120.84921
G1 X240.283 Y72.762 E120.96712
G1 X233.659 Y66.139 E122.05897
G1 X232.648 Y66.139 E122.17688
G1 X239.271 Y72.762 E123.26872
G1 X238.260 Y72.762 E123.38664
G1 X231.636 Y66.139 E124.47848
G1 X230.625 Y66.139 E124.59640
G1 X237.248 Y72.762 E125.68824
G1 X236.236 Y72.762 E125.80615
G1 X229.613 Y66.139 E126.89800
G1 X228.602 Y66.139 E127.01591
G1 X235.225 Y72.762 E128.10776
G1 X234.213 Y72.762 E128.22567
G1 X227.590 Y66.139 E129.31752
G1 X226.579 Y66.139 E129.43543
G1 X231.774 Y71.334 E130.29181
G1 X231.043 Y71.615 E130.38303
G1 X225.703 Y66.275 E131.26334
G1 X224.215 Y65.798 E131.44551
G1 X231.043 Y72.626 E132.57116
G1 X231.043 Y73.638 E132.68908
G1 X222.727 Y65.321 E134.06007
G1 X221.239 Y64.845 E134.24224
G1 X231.043 Y74.649 E135.85858
G1 X231.043 Y75.661 E135.97649
G1 X211.895 Y56.513 E139.13312
G1 X208.292 Y53.921 F7200.000
G1 X231.043 Y76.672 E142.88370 F1080.000
G1 X231.043 Y77.684 E143.00161
G1 X206.005 Y52.646 E147.12920
G1 X203.718 Y51.371 F7200.000
G1 X231.043 Y78.696 E151.63380 F1080.000
G1 X231.043 Y79.707 E151.75171
G1 X194.452 Y43.116 E157.78384
G1 X193.330 Y43.006 E157.91526
G1 X231.043 Y80.719 E164.13236
G1 X231.043 Y81.730 E164.25027
G1 X192.208 Y42.895 E170.65234
G1 X191.086 Y42.785 E170.78376
G1 X231.043 Y82.742 E177.37080
G1 X231.043 Y83.753 E177.48871
G1 X189.964 Y42.674 E184.26072
G1 X188.842 Y42.564 E184.39215
G1 X231.043 Y84.765 E191.34913
G1 X231.043 Y85.776 E191.46704
G1 X187.781 Y42.514 E198.59901
G1 X186.860 Y42.604 E198.70687
G1 X231.043 Y86.788 E205.99065
G1 X231.043 Y87.799 E206.10856
G1 X185.939 Y42.695 E213.54413
G1 X185.018 Y42.786 E213.65199
G1 X231.043 Y88.811 E221.23937
G1 X231.043 Y89.822 E221.35729
G1 X184.097 Y42.876 E229.09647
G1 X183.177 Y42.967 E229.20433
G1 X231.043 Y90.834 E237.09531
G1 X231.043 Y91.845 E237.21322
G1 X182.256 Y43.058 E245.25601
G1 X181.335 Y43.148 E245.36387
G1 X231.043 Y92.857 E253.55846
G1 X231.043 Y93.868 E253.67637
G1 X180.711 Y43.536 E261.97388
G1 X180.229 Y44.066 E262.05736
G1 X231.043 Y94.880 E270.43421
G1 X231.043 Y95.891 E270.55212
G1 X208.754 Y73.602 E274.22667
G1 X209.915 Y75.775 F7200.000
G1 X231.043 Y96.903 E277.70974 F1080.000
G1 X231.043 Y97.914 E277.82765
G1 X210.891 Y77.762 E281.14986
G1 X211.331 Y79.214 E281.32673
G1 X231.043 Y98.926 E284.57633
G1 X231.043 Y99.938 E284.69424
G1 X211.772 Y80.666 E287.87123
G1 X212.186 Y82.091 E288.04425
G1 X231.043 Y100.949 E291.15301
G1 X231.043 Y101.961 E291.27092
G1 X212.296 Y83.213 E294.36146
G1 X212.407 Y84.335 E294.49288
G1 X231.400 Y103.329 E297.62407
G1 X231.211 Y104.152 E297.72243
G1 X212.517 Y85.457 E300.80420
G1 X212.628 Y86.579 E300.93563
G1 X230.194 Y104.146 E303.83149
G1 X229.177 Y104.140 E303.95007
G1 X212.576 Y87.540 E306.68671
G1 X212.486 Y88.460 E306.79457
G1 X228.159 Y104.134 E309.37847
G1 X227.142 Y104.129 E309.49705
G1 X212.395 Y89.381 E311.92820
G1 X212.304 Y90.302 E312.03606
G1 X226.484 Y104.482 E314.37367
G1 X225.467 Y104.476 E314.49225
G1 X212.213 Y91.223 E316.67712
G1 X212.037 Y92.058 E316.77659
G1 X224.450 Y104.471 E318.82291
G1 X223.432 Y104.465 E318.94149
G1 X211.801 Y92.834 E320.85892
G1 X211.566 Y93.610 E320.95346
G1 X222.415 Y104.459 E322.74201
G1 X221.398 Y104.454 E322.86059
G1 X211.330 Y94.386 E324.52026
G1 X211.095 Y95.162 E324.61480
G1 X220.589 Y104.656 E326.17997
G1 X220.054 Y105.132 E326.26349
G1 X210.860 Y95.938 E327.77916
G1 X210.548 Y96.638 E327.86847
G1 X219.518 Y105.608 E329.34717
G1 X218.982 Y106.084 E329.43070
G1 X210.196 Y97.297 E330.87917
G1 X209.843 Y97.957 E330.96630
G1 X218.446 Y106.560 E332.38454
G1 X217.911 Y107.035 E332.46806
G1 X209.491 Y98.616 E333.85607
G1 X209.139 Y99.275 E333.94320
G1 X217.375 Y107.511 E335.30098
G1 X216.839 Y107.987 E335.38450
G1 X208.786 Y99.934 E336.71205
G1 X208.413 Y100.572 E336.79824
G1 X216.397 Y108.556 E338.11438
G1 X216.163 Y109.334 E338.20906
G1 X207.957 Y101.128 E339.56184
G1 X207.501 Y101.684 E339.64562
G1 X215.930 Y110.112 E341.03506
G1 X215.696 Y110.890 E341.12974
G1 X207.045 Y102.239 E342.55583
G1 X206.589 Y102.795 E342.63961
G1 X215.462 Y111.668 E344.10235
G1 X215.229 Y112.446 E344.19703
G1 X206.133 Y103.350 E345.69642
G1 X205.677 Y103.906 E345.78020
G1 X214.995 Y113.224 E347.31624
G1 X214.761 Y114.001 E347.41092
G1 X205.172 Y104.412 E348.99171
G1 X204.617 Y104.868 E349.07549
G1 X214.528 Y114.779 E350.70937
G1 X214.294 Y115.557 E350.80405
G1 X204.061 Y105.324 E352.49099
G1 X203.506 Y105.780 E352.57477
G1 X214.061 Y116.335 E354.31479
G1 X213.827 Y117.113 E354.40947
G1 X202.950 Y106.236 E356.20257
G1 X202.394 Y106.692 E356.28635
G1 X213.603 Y117.901 E358.13415
G1 X213.603 Y118.912 E358.25207
G1 X201.839 Y107.148 E360.19146
G1 X201.202 Y107.522 E360.27760
G1 X213.603 Y119.924 E362.32201
G1 X213.603 Y120.935 E362.43992
G1 X200.543 Y107.875 E364.59300
G1 X199.883 Y108.227 E364.68013
G1 X213.603 Y121.947 E366.94188
G1 X213.603 Y122.958 E367.05979
G1 X199.224 Y108.579 E369.43021
G1 X198.565 Y108.932 E369.51734
G1 X213.603 Y123.970 E371.99643
G1 X213.603 Y124.982 E372.11434
G1 X197.906 Y109.284 E374.70210
G1 X197.207 Y109.597 E374.79132
G1 X213.603 Y125.993 E377.49424
G1 X213.603 Y127.005 E377.61215
G1 X196.431 Y109.833 E380.44301
G1 X195.655 Y110.068 E380.53755
G1 X213.603 Y128.016 E383.49634
G1 X213.603 Y129.028 E383.61426
G1 X194.879 Y110.303 E386.70100
G1 X194.103 Y110.539 E386.79554
G1 X213.603 Y130.039 E390.01022
G1 X213.603 Y131.051 E390.12813
G1 X193.327 Y110.774 E393.47076
G1 X192.494 Y110.953 E393.57006
G1 X213.603 Y132.062 E397.05000
G1 X213.603 Y133.074 E397.16791
G1 X191.573 Y111.044 E400.79965
G1 X190.652 Y111.134 E400.90751
G1 X213.603 Y134.085 E404.69105
G1 X213.603 Y135.097 E404.80896
G1 X189.731 Y111.225 E408.74430
G1 X188.811 Y111.316 E408.85216
G1 X213.603 Y136.108 E412.93931
G1 X213.603 Y137.120 E413.05722
G1 X187.853 Y111.370 E417.30223
G1 X186.731 Y111.259 E417.43365
G1 X213.603 Y138.131 E421.86363
G1 X213.603 Y139.143 E421.98154
G1 X185.609 Y111.149 E426.59649
G1 X184.487 Y111.038 E426.72792
G1 X213.603 Y140.154 E431.52784
G1 X213.603 Y141.166 E431.64575
G1 X183.365 Y110.928 E436.63064
G1 X181.944 Y110.518 E436.80306
G1 X213.603 Y142.177 E442.02225
G1 X213.603 Y143.189 E442.14016
G1 X180.492 Y110.077 E447.59871
G1 X179.040 Y109.637 E447.77558
G1 X215.079 Y145.676 E453.71675
G1 X213.694 Y145.303 E453.88396
G1 X177.061 Y108.670 E459.92290
G1 X174.888 Y107.509 F7200.000
G1 X212.309 Y144.929 E466.09175 F1080.000
G1 X210.924 Y144.556 E466.25897
G1 X145.360 Y78.992 E477.06735
G1 X144.832 Y79.475 E477.15081
G1 X209.539 Y144.182 E487.81792
G1 X208.154 Y143.809 E487.98513
G1 X144.473 Y80.128 E498.48311
G1 X144.382 Y81.049 E498.59097
G1 X206.769 Y143.435 E508.87557
G1 X205.384 Y143.062 E509.04279
G1 X144.292 Y81.970 E519.11403
G1 X144.201 Y82.890 E519.22189
G1 X203.999 Y142.688 E529.07975
G1 X202.614 Y142.315 E529.24697
G1 X144.110 Y83.811 E538.89147
G1 X144.020 Y84.732 E538.99933
G1 X201.229 Y141.941 E548.43046
G1 X200.004 Y141.728 E548.57533
G1 X143.929 Y85.653 E557.81956
G1 X143.838 Y86.574 E557.92742
G1 X199.075 Y141.811 E567.03340
G1 X198.146 Y141.893 E567.14215
G1 X143.900 Y87.647 E576.08480
G1 X144.010 Y88.769 E576.21623
G1 X197.216 Y141.975 E584.98746
G1 X196.287 Y142.057 E585.09621
G1 X144.121 Y89.891 E593.69603
G1 X144.231 Y91.013 E593.82745
G1 X195.358 Y142.139 E602.25584
G1 X194.428 Y142.222 E602.36460
G1 X144.342 Y92.135 E610.62157
G1 X144.452 Y93.257 E610.75299
G1 X150.571 Y99.376 E611.76174
G1 X152.623 Y101.427 F7200.000
G1 X193.499 Y142.304 E618.50037 F1080.000
G1 X192.570 Y142.386 E618.60913
G1 X153.784 Y103.600 E625.00307
G1 X154.946 Y105.773 F7200.000
G1 X191.640 Y142.468 E631.05233 F1080.000
G1 X190.711 Y142.550 E631.16109
G1 X156.107 Y107.947 E636.86566
G1 X160.501 Y113.352 F7200.000
G1 X189.782 Y142.633 E641.69274 F1080.000
G1 X188.852 Y142.715 E641.80150
G1 X162.367 Y116.229 E646.16775
G1 X163.442 Y118.316 F7200.000
G1 X187.883 Y142.757 E650.19688 F1080.000
G1 X186.780 Y142.666 E650.32585
G1 X163.442 Y119.328 E654.17320
G1 X163.442 Y120.339 E654.29111
G1 X185.678 Y142.575 E657.95668
G1 X184.575 Y142.484 E658.08566
G1 X163.442 Y121.351 E661.56944
G1 X163.442 Y122.363 E661.68736
G1 X183.472 Y142.393 E664.98936
G1 X182.370 Y142.301 E665.11834
G1 X163.442 Y123.374 E668.23856
G1 X163.442 Y124.386 E668.35648
G1 X181.267 Y142.210 E671.29492
G1 X180.112 Y142.067 E671.43055
