; generated by Slic3r 1.0.0RC2 on 2014-05-19 at 22:49:49

; layer_height = 0.3
; perimeters = 4
; top_solid_layers = 3
; bottom_solid_layers = 3
; fill_density = 0.1
; perimeter_speed = 60
; infill_speed = 60
; travel_speed = 120
; nozzle_diameter = 0.4
; filament_diameter = 1.75
; extrusion_multiplier = 0.98
; perimeters extrusion width = 0.40mm
; infill extrusion width = 0.42mm
; solid infill extrusion width = 0.42mm
; top infill extrusion width = 0.42mm
; first layer extrusion width = 0.80mm

G21 ; set units to millimeters
M107
M104 S220 ; set temperature
G28 ; home all axes
M106 S255;
G1 Z200 F1200 ; lift nozzle
M109 S220 ; wait for temperature to be reached
G90 ; use absolute coordinates
G92 E0
M82 ; use absolute distances for extrusion
G1 F1800.000 E-1.00000
G92 E0
G1 Z0.400 F7200.000
G1 X108.163 Y64.792 F7200.000
G1 E1.00000 F1800.000
G1 X108.543 Y64.212 E1.08070 F1080.000
G1 X108.983 Y63.672 E1.16178
G1 X117.763 Y53.902 E2.69062
G1 X118.243 Y53.412 E2.77045
G1 X118.783 Y52.972 E2.85152
G1 X119.943 Y52.122 E3.01890
G1 X120.543 Y51.732 E3.10219
G1 X121.173 Y51.412 E3.18444
G1 X133.163 Y46.062 E4.71257
G1 X133.843 Y45.802 E4.79730
G1 X134.553 Y45.612 E4.88285
G1 X135.963 Y45.322 E5.05039
G1 X136.633 Y45.222 E5.12924
G1 X137.313 Y45.192 E5.20846
G1 X150.433 Y45.192 E6.73550
G1 X151.113 Y45.222 E6.81472
G1 X151.783 Y45.322 E6.89356
G1 X153.193 Y45.612 E7.06111
G1 X153.903 Y45.802 E7.14665
G1 X154.583 Y46.062 E7.23139
G1 X166.563 Y51.412 E8.75846
G1 X167.183 Y51.732 E8.83966
G1 X167.773 Y52.112 E8.92135
G1 X168.943 Y52.962 E9.08966
G1 X169.483 Y53.402 E9.17074
G1 X169.983 Y53.902 E9.25304
G1 X178.763 Y63.672 E10.78188
G1 X179.203 Y64.212 E10.86295
G1 X179.583 Y64.792 E10.94365
G1 X180.303 Y66.032 E11.11054
G1 X180.583 Y66.572 E11.18134
G1 X180.813 Y67.132 E11.25180
G1 X197.253 Y112.912 E16.91328
G1 X197.543 Y114.032 E17.04794
G1 X197.643 Y115.182 E17.18229
G1 X197.643 Y131.082 E19.03289
G1 X197.503 Y132.472 E19.19549
G1 X197.073 Y133.792 E19.35707
G1 X196.383 Y135.002 E19.51919
G1 X195.453 Y136.042 E19.68158
G1 X194.333 Y136.872 E19.84383
G1 X149.773 Y163.072 E25.86022
G1 X148.133 Y163.762 E26.06730
G1 X146.373 Y163.992 E26.27389
G1 X126.003 Y163.992 E28.64475
G1 X124.713 Y163.872 E28.79554
G1 X123.473 Y163.502 E28.94615
G1 X122.323 Y162.902 E29.09713
G1 X105.373 Y151.802 E31.45531
G1 X104.343 Y150.962 E31.61001
G1 X103.493 Y149.942 E31.76454
G1 X102.863 Y148.772 E31.91921
G1 X102.473 Y147.502 E32.07383
G1 X102.343 Y146.182 E32.22821
G1 X102.343 Y83.332 E39.54331
G1 X102.373 Y82.632 E39.62486
G1 X102.523 Y81.202 E39.79221
G1 X102.633 Y80.512 E39.87354
G1 X102.813 Y79.832 E39.95541
G1 X106.863 Y67.332 E41.48474
G1 X107.123 Y66.662 E41.56838
G1 X107.443 Y66.032 E41.65063
G1 X108.110 Y64.885 E41.80505
G1 F1800.000 E40.80505
G92 E0
G1 X134.803 Y133.703 F7200.000
G1 E1.00000 F1800.000
G1 X136.816 Y134.148 E1.23996 F1080.000
G1 X141.234 Y135.363 E1.77326
G1 X140.499 Y138.679 E2.16856
G1 X140.604 Y138.795 E2.18683
G1 X141.096 Y139.637 E2.30035
G1 X141.206 Y139.923 E2.33601
G1 X144.433 Y140.798 E2.72508
G1 X143.987 Y142.812 E2.96516
G1 X142.785 Y147.231 E3.49816
G1 X139.449 Y146.502 E3.89565
G1 X138.733 Y146.974 E3.99543
G1 X138.211 Y147.200 E4.06161
G1 X137.343 Y150.429 E4.45081
G1 X135.327 Y149.985 E4.69107
G1 X130.906 Y148.783 E5.22432
G1 X131.639 Y145.434 E5.62340
G1 X131.262 Y144.897 E5.69975
G1 X130.922 Y144.210 E5.78899
G1 X127.716 Y143.337 E6.17573
G1 X128.155 Y141.326 E6.41528
G1 X129.346 Y136.900 E6.94876
G1 X132.697 Y137.637 E7.34807
G1 X132.997 Y137.398 E7.39282
G1 X133.927 Y136.903 E7.51537
G1 X134.774 Y133.807 E7.88906
G1 X135.312 Y134.547 F7200.000
G1 X136.644 Y134.842 E8.04781 F756.000
G1 X140.390 Y135.871 E8.49994
G1 X139.724 Y138.874 E8.85786
G1 X140.024 Y139.219 E8.91111
G1 X140.423 Y139.898 E9.00281
G1 X140.670 Y140.514 E9.07999
G1 X143.588 Y141.309 E9.43206
G1 X143.294 Y142.641 E9.59085
G1 X142.275 Y146.387 E10.04269
G1 X139.252 Y145.728 E10.40278
G1 X139.071 Y145.895 E10.43149
G1 X138.387 Y146.346 E10.52674
G1 X137.615 Y146.679 E10.62459
G1 X136.831 Y149.585 E10.97492
G1 X135.498 Y149.291 E11.13376
G1 X131.749 Y148.272 E11.58592
G1 X132.405 Y145.277 E11.94283
G1 X131.884 Y144.545 E12.04736
G1 X131.533 Y143.836 E12.13946
G1 X131.464 Y143.619 E12.16588
G1 X128.559 Y142.826 E12.51643
G1 X128.849 Y141.495 E12.67499
G1 X129.858 Y137.745 E13.12705
G1 X132.873 Y138.407 E13.48627
G1 X133.393 Y137.997 E13.56333
G1 X134.111 Y137.615 E13.65798
G1 X134.510 Y137.476 E13.70715
G1 X135.284 Y134.651 E14.04812
G1 X135.478 Y133.853 F7200.000
G1 F1800.000 E13.04812
G92 E0
G1 X129.927 Y145.419 F7200.000
G1 E1.00000 F1800.000
G1 X130.109 Y145.745 E1.04345 F1080.000
G1 X129.220 Y149.805 E1.52723
G1 X134.986 Y151.372 E2.22268
G1 X138.368 Y152.117 E2.62575
G1 X139.410 Y148.241 E3.09290
G1 X139.738 Y148.026 E3.13856
G1 X143.987 Y148.958 E3.64479
G1 X143.987 Y154.740 E4.31780
G1 X128.396 Y154.740 E6.13244
G1 X128.396 Y145.002 E7.26585
G1 X129.823 Y145.391 E7.43804
G1 X130.640 Y145.249 F7200.000
G1 X130.875 Y145.585 E7.48571 F1080.000
G1 X130.063 Y149.294 E7.92770
G1 X135.157 Y150.679 E8.54206
G1 X137.856 Y151.273 E8.86372
G1 X138.811 Y147.719 E9.29205
G1 X139.080 Y147.602 E9.32611
G1 X139.591 Y147.263 E9.39750
G1 X143.296 Y148.074 E9.83895
G1 X144.246 Y144.583 E10.26008
G1 X144.701 Y144.644 E10.31357
G1 X144.701 Y155.455 E11.57182
G1 X127.682 Y155.455 E13.55270
G1 X127.682 Y144.068 E14.87800
G1 X130.424 Y144.814 E15.20885
G1 X130.592 Y145.153 E15.25287
G1 X126.853 Y145.759 F7200.000
G1 X136.329 Y156.283 F7200.000
G1 X145.247 Y143.624 F7200.000
G1 X145.375 Y143.154 E15.30954 F540.000
G1 X145.998 Y140.332 E15.64584
G1 X160.687 Y140.332 E17.35544
G1 X160.687 Y143.624 E17.73848
G1 X145.354 Y143.624 E19.52310
G1 X143.987 Y139.197 F7200.000
G1 X142.212 Y138.716 E19.73708 F1080.000
G1 X142.025 Y138.395 E19.78035
G1 X142.923 Y134.345 E20.26314
G1 X137.159 Y132.762 E20.95878
G1 X133.784 Y132.015 E21.36115
G1 X132.712 Y135.934 E21.83399
G1 X132.382 Y136.106 E21.87723
G1 X128.396 Y135.227 E22.35238
G1 X128.396 Y130.426 E22.91124
G1 X143.987 Y130.426 E24.72588
G1 X143.987 Y139.090 E25.73432
G1 X144.701 Y139.618 F7200.000
G1 X161.401 Y139.618 E27.67803 F1080.000
G1 X161.401 Y144.338 E28.22732
G1 X144.312 Y144.338 E30.21627
G1 X144.681 Y142.983 E30.37970
G1 X145.277 Y140.287 E30.70106
G1 X141.742 Y139.328 E31.12733
G1 X141.267 Y138.514 E31.23708
G1 X142.078 Y134.854 E31.67341
G1 X136.988 Y133.455 E32.28789
G1 X134.293 Y132.859 E32.60905
G1 X133.319 Y136.419 E33.03861
G1 X132.482 Y136.859 E33.14866
G1 X128.834 Y136.055 E33.58351
G1 X128.140 Y138.635 E33.89443
G1 X127.682 Y138.575 E33.94820
G1 X127.682 Y129.711 E34.97976
G1 X144.701 Y129.711 E36.96064
G1 X144.701 Y139.511 E38.10123
G1 X145.415 Y138.904 F7200.000
G1 X162.115 Y138.904 E40.04494 F1080.000
G1 X162.115 Y145.052 E40.76047
G1 X145.415 Y145.052 E42.70418
G1 X145.415 Y156.169 E43.99807
G1 X126.968 Y156.169 E46.14519
G1 X126.968 Y128.997 E49.30766
G1 X145.415 Y128.997 E51.45478
G1 X145.415 Y138.797 E52.59537
G1 X146.129 Y138.190 F7200.000
G1 X162.829 Y138.190 E54.53908 F756.000
G1 X162.829 Y145.766 E55.42085
G1 X146.129 Y145.766 E57.36456
G1 X146.129 Y156.883 E58.65845
G1 X126.253 Y156.883 E60.97181
G1 X126.253 Y128.283 E64.30052
G1 X146.129 Y128.283 E66.61389
G1 X146.129 Y138.083 E67.75447
G1 X146.129 Y138.904 F7200.000
G1 X143.150 Y149.699 F7200.000
G1 X143.063 Y149.612 E67.76949 F1080.000
G1 X141.702 Y149.312 E67.93998
G1 X143.150 Y150.760 E68.19046
G1 X143.150 Y151.822 E68.32032
G1 X140.341 Y149.013 E68.80627
G1 X139.611 Y149.345 E68.90433
G1 X143.150 Y152.883 E69.51651
G1 X143.091 Y153.886 E69.63944
G1 X139.386 Y150.181 E70.28044
G1 X139.161 Y151.018 E70.38641
G1 X142.046 Y153.903 E70.88557
G1 X140.985 Y153.903 E71.01543
G1 X138.936 Y151.854 E71.36987
G1 X138.703 Y152.682 E71.47512
G1 X139.923 Y153.903 E71.68629
G1 X138.862 Y153.903 E71.81614
G1 X137.341 Y152.383 E72.07917
G1 X135.980 Y152.083 E72.24967
G1 X137.800 Y153.903 E72.56455
G1 X136.739 Y153.903 E72.69440
G1 X134.601 Y151.765 E73.06423
G1 X133.143 Y151.369 E73.24902
G1 X135.677 Y153.903 E73.68739
G1 X134.616 Y153.903 E73.81724
G1 X131.686 Y150.973 E74.32415
G1 X130.228 Y150.577 E74.50895
G1 X133.554 Y153.903 E75.08440
G1 X132.493 Y153.903 E75.21426
G1 X129.233 Y150.643 E75.77817
G1 X129.233 Y151.705 E75.90802
G1 X131.431 Y153.903 E76.28829
G1 X130.370 Y153.903 E76.41815
G1 X129.233 Y152.766 E76.61478
G1 X129.233 Y153.828 E76.74463
G1 X129.308 Y153.903 E76.75762
G1 X128.913 Y148.790 F7200.000
G1 X128.893 Y148.770 E76.75951 F360.000
G1 X129.033 Y148.337 E76.78960 F360.000
G1 X128.893 Y148.197 E76.80271 F360.000
G1 X129.136 Y147.867 E76.82981 F360.000
G1 X129.096 Y147.827 E76.83354 F360.000
G1 X129.153 Y146.572 F7200.000
G1 X129.117 Y146.536 E76.83942 F360.000
G1 X127.485 Y141.974 F7200.000
G1 X127.454 Y141.943 E76.84369 F360.000
G1 X127.664 Y141.293 E76.91145 F360.000
G1 X127.603 Y141.232 E76.91999 F360.000
G1 X127.725 Y140.013 F7200.000
G1 X127.689 Y139.977 E76.92587 F360.000
G1 X134.073 Y131.340 F7200.000
G1 X133.997 Y131.264 E76.93838 F360.000
G1 X143.466 Y134.288 F7200.000
G1 X143.489 Y134.311 E76.94040 F360.000
G1 X143.350 Y134.718 E76.96746 F360.000
G1 X143.489 Y134.857 E76.97984 F360.000
G1 X143.251 Y135.165 E77.00433 F360.000
G1 X143.289 Y135.203 E77.00771 F360.000
G1 X143.230 Y136.457 F7200.000
G1 X143.301 Y136.528 E77.03116 F360.000
G1 X142.804 Y138.048 E77.40286 F360.000
G1 X142.965 Y138.210 E77.45584 F360.000
G1 X144.184 Y146.779 F7200.000
G1 X144.202 Y146.797 E77.45733 F360.000
G1 X144.061 Y147.164 E77.48033 F360.000
G1 X144.202 Y147.305 E77.49201 F360.000
G1 X143.952 Y147.563 E77.51304 F360.000
G1 X144.202 Y147.813 E77.53372 F360.000
G1 X144.202 Y148.321 E77.56344 F360.000
G1 X143.843 Y147.962 E77.59311 F360.000
G1 X143.735 Y148.362 E77.61733 F360.000
G1 X143.773 Y148.400 E77.62049 F360.000
G1 X136.329 Y156.283 F7200.000
G1 X126.853 Y145.759 F7200.000
G1 X128.961 Y134.858 F7200.000
G1 X128.878 Y134.775 E77.63424 F1080.000
G1 X128.878 Y133.760 E77.75310
G1 X130.264 Y135.146 E77.98246
G1 X131.566 Y135.433 E78.13859
G1 X128.878 Y132.744 E78.58358
G1 X128.878 Y131.729 E78.70243
G1 X132.108 Y134.959 E79.23715
G1 X132.327 Y134.162 E79.33390
G1 X129.072 Y130.907 E79.87256
G1 X130.088 Y130.907 E79.99142
G1 X132.545 Y133.365 E80.39811
G1 X132.763 Y132.567 E80.49486
G1 X131.103 Y130.907 E80.76958
G1 X132.119 Y130.907 E80.88843
G1 X132.981 Y131.770 E81.03118
G1 X133.199 Y130.973 E81.12793
G1 X133.134 Y130.907 E81.13871
G1 X135.609 Y131.560 F7200.000
G1 X135.529 Y131.480 E81.15190 F1080.000
G1 X135.972 Y130.908 E81.23651
G1 X136.912 Y131.848 E81.39201
G1 X136.987 Y130.908 E81.50232
G1 X138.278 Y132.199 E81.71593
G1 X138.002 Y130.908 E81.87041
G1 X139.678 Y132.584 E82.14765
G1 X141.077 Y132.968 E82.31740
G1 X139.017 Y130.908 E82.65826
G1 X140.031 Y130.908 E82.77696
G1 X142.900 Y133.776 E83.25144
G1 X143.148 Y133.009 E83.34573
G1 X141.046 Y130.908 E83.69333
G1 X142.061 Y130.908 E83.81203
G1 X143.148 Y131.994 E83.99176
G1 X143.148 Y130.979 E84.11046
G1 X143.076 Y130.908 E84.12233
G1 X145.952 Y143.142 F7200.000
G1 X145.885 Y143.075 E84.13361 F1080.000
G1 X146.072 Y142.230 E84.23651
G1 X146.984 Y143.142 E84.38989
G1 X148.016 Y143.142 E84.51259
G1 X146.258 Y141.385 E84.80806
G1 X146.719 Y140.814 E84.89532
G1 X149.047 Y143.142 E85.28689
G1 X150.079 Y143.142 E85.40958
G1 X147.751 Y140.814 E85.80115
G1 X148.782 Y140.814 E85.92385
G1 X151.111 Y143.142 E86.31542
G1 X152.143 Y143.142 E86.43811
G1 X149.814 Y140.814 E86.82968
G1 X150.846 Y140.814 E86.95238
G1 X153.175 Y143.142 E87.34395
G1 X154.207 Y143.142 E87.46664
G1 X151.878 Y140.814 E87.85821
G1 X152.910 Y140.814 E87.98090
G1 X155.238 Y143.142 E88.37247
G1 X156.270 Y143.142 E88.49517
G1 X153.942 Y140.814 E88.88674
G1 X154.973 Y140.814 E89.00943
G1 X157.302 Y143.142 E89.40100
G1 X158.334 Y143.142 E89.52370
G1 X156.005 Y140.814 E89.91527
G1 X157.037 Y140.814 E90.03796
G1 X159.366 Y143.142 E90.42953
G1 X160.206 Y142.950 E90.53198
G1 X158.069 Y140.814 E90.89128
G1 X159.101 Y140.814 E91.01397
G1 X160.206 Y141.919 E91.19976
G1 X160.206 Y140.887 E91.32245
G1 X160.133 Y140.814 E91.33472
G1 F1800.000 E90.33472
G92 E0
G1 X123.131 Y140.356 F7200.000
G1 E1.00000 F1800.000
G1 X123.131 Y143.644 E1.38258 F540.000
G1 X111.596 Y143.644 E2.72514
G1 X111.596 Y140.356 E3.10772
G1 X123.024 Y140.356 E4.43781
G1 X123.845 Y139.642 F7200.000
G1 X123.845 Y144.358 E4.98663 F540.000
G1 X110.882 Y144.358 E6.49544
G1 X110.882 Y139.642 E7.04426
G1 X123.738 Y139.642 E8.54059
G1 X124.559 Y138.928 F7200.000
G1 X124.559 Y145.072 E9.25566 F1080.000
G1 X110.168 Y145.072 E10.93070
G1 X110.168 Y138.928 E11.64576
G1 X124.452 Y138.928 E13.30834
G1 X125.273 Y138.214 F7200.000
G1 X125.273 Y145.786 E14.18965 F756.000
G1 X109.453 Y145.786 E16.03093
G1 X109.453 Y138.214 E16.91224
G1 X125.166 Y138.214 E18.74106
G1 X124.916 Y138.832 F7200.000
G1 X122.576 Y140.837 F7200.000
G1 X122.651 Y140.912 E18.75407 F1080.000
G1 X122.651 Y141.974 E18.88419
G1 X121.513 Y140.837 E19.08121
G1 X120.450 Y140.837 E19.21133
G1 X122.651 Y143.037 E19.59237
G1 X121.714 Y143.163 E19.70805
G1 X119.388 Y140.837 E20.11098
G1 X118.325 Y140.837 E20.24110
G1 X120.652 Y143.163 E20.64403
G1 X119.589 Y143.163 E20.77414
G1 X117.263 Y140.837 E21.17707
G1 X116.200 Y140.837 E21.30719
G1 X118.527 Y143.163 E21.71011
G1 X117.464 Y143.163 E21.84023
G1 X115.137 Y140.837 E22.24316
G1 X114.075 Y140.837 E22.37328
G1 X116.402 Y143.163 E22.77620
G1 X115.339 Y143.163 E22.90632
G1 X113.012 Y140.837 E23.30925
G1 X112.076 Y140.963 E23.42493
G1 X114.276 Y143.163 E23.80597
G1 X113.214 Y143.163 E23.93609
G1 X112.076 Y142.026 E24.13312
G1 X112.076 Y143.088 E24.26324
G1 X112.151 Y143.163 E24.27625
G1 F1800.000 E23.27625
G92 E0
G1 X169.605 Y128.542 F7200.000
G1 E1.00000 F1800.000
G1 X169.605 Y117.732 E2.25816 F1080.000
G1 X188.398 Y117.732 E4.44554
G1 X188.398 Y128.542 E5.70370
G1 X169.712 Y128.542 E7.87861
G1 X168.891 Y129.256 F7200.000
G1 X168.891 Y117.018 E9.30301 F1080.000
G1 X189.113 Y117.018 E11.65663
G1 X189.113 Y129.256 E13.08103
G1 X168.998 Y129.256 E15.42218
G1 X168.177 Y129.970 F7200.000
G1 X168.177 Y116.304 E17.01283 F1080.000
G1 X189.827 Y116.304 E19.53268
G1 X189.827 Y129.970 E21.12333
G1 X168.284 Y129.970 E23.63072
G1 X167.462 Y130.685 F7200.000
G1 X167.462 Y115.590 E25.38761 F756.000
G1 X190.541 Y115.590 E28.07371
G1 X190.541 Y130.685 E29.83060
G1 X167.569 Y130.685 E32.50423
G1 X167.819 Y130.066 F7200.000
G1 X170.159 Y128.060 F7200.000
G1 X170.087 Y127.988 E32.51621 F1080.000
G1 X170.087 Y126.969 E32.63604
G1 X171.178 Y128.060 E32.81749
G1 X172.198 Y128.060 E32.93732
G1 X170.087 Y125.949 E33.28824
G1 X170.087 Y124.929 E33.40807
G1 X173.218 Y128.060 E33.92845
G1 X174.238 Y128.060 E34.04828
G1 X170.087 Y123.909 E34.73813
G1 X170.087 Y122.890 E34.85796
G1 X175.257 Y128.060 E35.71727
G1 X176.277 Y128.060 E35.83710
G1 X170.087 Y121.870 E36.86588
G1 X170.087 Y120.850 E36.98571
G1 X177.297 Y128.060 E38.18395
G1 X178.316 Y128.060 E38.30378
G1 X170.087 Y119.830 E39.67149
G1 X170.087 Y118.811 E39.79132
G1 X179.336 Y128.060 E41.32850
G1 X180.356 Y128.060 E41.44833
G1 X170.509 Y118.214 E43.08470
G1 X171.529 Y118.214 E43.20453
G1 X181.376 Y128.060 E44.84091
G1 X182.395 Y128.060 E44.96074
G1 X172.549 Y118.214 E46.59712
G1 X173.568 Y118.214 E46.71695
G1 X183.415 Y128.060 E48.35332
G1 X184.435 Y128.060 E48.47315
G1 X174.588 Y118.214 E50.10953
G1 X175.608 Y118.214 E50.22936
G1 X185.454 Y128.060 E51.86574
G1 X186.474 Y128.060 E51.98557
G1 X176.628 Y118.214 E53.62194
G1 X177.647 Y118.214 E53.74177
G1 X187.494 Y128.060 E55.37815
G1 X187.917 Y127.463 E55.46411
G1 X178.667 Y118.214 E57.00128
G1 X179.687 Y118.214 E57.12111
G1 X187.917 Y126.444 E58.48882
G1 X187.917 Y125.424 E58.60865
G1 X180.707 Y118.214 E59.80689
G1 X181.726 Y118.214 E59.92672
G1 X187.917 Y124.404 E60.95550
G1 X187.917 Y123.385 E61.07533
G1 X182.746 Y118.214 E61.93464
G1 X183.766 Y118.214 E62.05447
G1 X187.917 Y122.365 E62.74431
G1 X187.917 Y121.345 E62.86414
G1 X184.785 Y118.214 E63.38452
G1 X185.805 Y118.214 E63.50435
G1 X187.917 Y120.325 E63.85527
G1 X187.917 Y119.306 E63.97510
