; generated by Slic3r 1.0.0RC2 on 2014-05-19 at 21:21:52

; layer_height = 0.3
; perimeters = 2
; top_solid_layers = 3
; bottom_solid_layers = 3
; fill_density = 0.1
; perimeter_speed = 60
; infill_speed = 60
; travel_speed = 120
; nozzle_diameter = 0.4
; filament_diameter = 1.75
; extrusion_multiplier = 0.98
; perimeters extrusion width = 0.40mm
; infill extrusion width = 0.42mm
; solid infill extrusion width = 0.42mm
; top infill extrusion width = 0.42mm
; first layer extrusion width = 0.80mm

G21 ; set units to millimeters
M107
M104 S220 ; set temperature
G28 ; home all axes
M106 S255;
G1 Z200 F1200 ; lift nozzle
M109 S220 ; wait for temperature to be reached
G90 ; use absolute coordinates
G92 E0
M82 ; use absolute distances for extrusion
G1 F1800.000 E-1.00000
G92 E0
G1 Z0.400 F7200.000
G1 X108.486 Y56.410 F7200.000
G1 E1.00000 F1800.000
G1 X109.106 Y55.270 E1.15104 F1080.000
G1 X109.946 Y54.280 E1.30215
G1 X110.956 Y53.460 E1.45357
G1 X112.106 Y52.850 E1.60508
G1 X113.356 Y52.480 E1.75681
G1 X114.646 Y52.360 E1.90760
G1 X188.856 Y52.360 E10.54489
G1 X190.166 Y52.480 E10.69800
G1 X191.426 Y52.870 E10.85152
G1 X192.586 Y53.490 E11.00461
G1 X193.606 Y54.320 E11.15766
G1 X194.436 Y55.340 E11.31072
G1 X195.056 Y56.500 E11.46380
G1 X195.446 Y57.760 E11.61732
G1 X195.566 Y59.070 E11.77043
G1 X195.566 Y142.740 E21.50877
G1 X195.436 Y144.050 E21.66199
G1 X195.056 Y145.320 E21.81628
G1 X194.436 Y146.480 E21.96937
G1 X193.596 Y147.500 E22.12316
G1 X192.566 Y148.330 E22.27712
G1 X191.406 Y148.950 E22.43021
G1 X187.576 Y150.520 E22.91198
G1 X186.476 Y150.860 E23.04598
G1 X182.016 Y151.850 E23.57772
G1 X181.336 Y151.970 E23.65809
G1 X140.556 Y156.680 E28.43602
G1 X134.256 Y157.280 E29.17259
G1 X129.336 Y157.480 E29.74570
G1 X128.796 Y157.480 E29.80855
G1 X123.876 Y157.280 E30.38166
G1 X123.356 Y157.240 E30.44237
G1 X118.636 Y156.680 E30.99558
G1 X118.026 Y156.580 E31.06752
G1 X113.666 Y155.650 E31.58640
G1 X112.996 Y155.470 E31.66715
G1 X109.176 Y154.230 E32.13459
G1 X107.906 Y153.660 E32.29661
G1 X106.776 Y152.850 E32.45843
G1 X105.846 Y151.830 E32.61909
G1 X105.136 Y150.630 E32.78137
G1 X104.696 Y149.310 E32.94332
G1 X104.536 Y147.930 E33.10501
G1 X104.426 Y140.090 E34.01760
G1 X104.426 Y67.200 E42.50125
G1 X104.556 Y65.840 E42.66027
G1 X104.976 Y64.540 E42.81927
G1 X108.444 Y56.508 E43.83748
G1 F1800.000 E42.83748
G92 E0
G1 X118.065 Y64.313 F7200.000
G1 E1.00000 F1800.000
G1 X118.379 Y64.038 E1.04854 F540.000
G1 X118.699 Y63.865 E1.09090
G1 X119.047 Y63.759 E1.13323
G1 X119.409 Y63.723 E1.17555
G1 X119.771 Y63.759 E1.21787
G1 X120.119 Y63.865 E1.26021
G1 X120.439 Y64.038 E1.30256
G1 X120.719 Y64.271 E1.34495
G1 X120.949 Y64.554 E1.38737
G1 X121.119 Y64.876 E1.42982
G1 X121.224 Y65.226 E1.47229
G1 X121.260 Y65.589 E1.51477
G1 X121.224 Y65.952 E1.55726
G1 X121.119 Y66.302 E1.59973
G1 X120.949 Y66.624 E1.64217
G1 X120.719 Y66.907 E1.68459
G1 X120.439 Y67.140 E1.72698
G1 X120.119 Y67.313 E1.76934
G1 X119.771 Y67.419 E1.81167
G1 X119.409 Y67.455 E1.85399
G1 X119.047 Y67.419 E1.89632
G1 X118.699 Y67.313 E1.93865
G1 X118.379 Y67.140 E1.98101
G1 X118.099 Y66.907 E2.02340
G1 X117.869 Y66.624 E2.06581
G1 X117.699 Y66.302 E2.10826
G1 X117.594 Y65.952 E2.15073
G1 X117.558 Y65.589 E2.19321
G1 X117.594 Y65.226 E2.23570
G1 X117.699 Y64.876 E2.27817
G1 X117.869 Y64.554 E2.32062
G1 X117.998 Y64.396 E2.34431
G1 X117.961 Y63.909 F7200.000
G1 X136.740 Y65.586 F7200.000
G1 X136.777 Y65.217 E2.38743 F540.000
G1 X136.885 Y64.863 E2.43057
G1 X137.061 Y64.536 E2.47372
G1 X137.298 Y64.251 E2.51691
G1 X137.586 Y64.017 E2.56013
G1 X137.915 Y63.843 E2.60337
G1 X138.271 Y63.736 E2.64665
G1 X139.081 Y63.657 E2.74138
G1 X139.081 Y63.757 E2.75302
G1 X139.367 Y63.843 E2.78780
G1 X139.696 Y64.017 E2.83105
G1 X139.984 Y64.251 E2.87426
G1 X140.221 Y64.536 E2.91745
G1 X140.397 Y64.863 E2.96061
G1 X140.505 Y65.217 E3.00374
G1 X140.542 Y65.586 E3.04686
G1 X140.505 Y65.954 E3.08999
G1 X140.397 Y66.309 E3.13312
G1 X140.221 Y66.635 E3.17627
G1 X139.984 Y66.920 E3.21946
G1 X139.696 Y67.155 E3.26268
G1 X139.367 Y67.328 E3.30593
G1 X139.011 Y67.435 E3.34920
G1 X138.641 Y67.471 E3.39248
G1 X138.271 Y67.435 E3.43577
G1 X137.919 Y67.329 E3.47858
G1 X137.586 Y67.161 E3.52194
G1 X137.296 Y66.918 E3.56601
G1 X137.061 Y66.635 E3.60880
G1 X136.885 Y66.309 E3.65196
G1 X136.777 Y65.954 E3.69509
G1 X136.750 Y65.692 E3.72574
G1 X136.425 Y65.390 F7200.000
G1 F1800.000 E2.72574
G92 E0
G1 X142.667 Y68.719 F7200.000
G1 E1.00000 F1800.000
G1 X144.604 Y68.719 E1.22543 F756.000
G1 X144.603 Y137.916 E9.27929
G1 X113.423 Y137.916 E12.90837
G1 X113.385 Y68.719 E20.96223
G1 X142.560 Y68.719 E24.35790
G1 X143.024 Y68.100 F7200.000
G1 X112.139 Y68.431 F7200.000
G1 X112.823 Y137.561 F7200.000
G1 X138.766 Y139.311 F7200.000
G1 X139.163 Y139.347 E24.40428 F540.000
G1 X139.545 Y139.455 E24.45057
G1 X139.900 Y139.632 E24.49666
G1 X140.213 Y139.870 E24.54249
G1 X140.472 Y140.164 E24.58807
G1 X140.666 Y140.502 E24.63340
G1 X140.787 Y140.870 E24.67855
G1 X140.828 Y141.255 E24.72361
G1 X140.787 Y141.640 E24.76867
G1 X140.666 Y142.009 E24.81382
G1 X140.472 Y142.347 E24.85915
G1 X140.213 Y142.640 E24.90472
G1 X139.900 Y142.879 E24.95056
G1 X139.545 Y143.055 E24.99665
G1 X139.163 Y143.163 E25.04293
G1 X138.766 Y143.199 E25.08932
G1 X138.369 Y143.163 E25.13571
G1 X137.986 Y143.055 E25.18199
G1 X137.631 Y142.879 E25.22808
G1 X137.318 Y142.640 E25.27391
G1 X137.059 Y142.347 E25.31948
G1 X136.865 Y142.009 E25.36482
G1 X136.745 Y141.640 E25.40997
G1 X136.704 Y141.255 E25.45503
G1 X136.745 Y140.870 E25.50009
G1 X136.865 Y140.502 E25.54524
G1 X137.059 Y140.164 E25.59057
G1 X137.318 Y139.870 E25.63614
G1 X137.631 Y139.632 E25.68198
G1 X137.986 Y139.455 E25.72807
G1 X138.369 Y139.347 E25.77435
G1 X138.659 Y139.321 E25.80827
G1 X138.975 Y138.972 F7200.000
G1 X121.396 Y140.990 F7200.000
G1 X121.434 Y141.365 E25.85217 F540.000
G1 X121.396 Y141.740 E25.89607
G1 X121.281 Y142.100 E25.94002
G1 X121.097 Y142.431 E25.98408
G1 X120.849 Y142.719 E26.02828
G1 X120.550 Y142.954 E26.07261
G1 X120.209 Y143.128 E26.11710
G1 X119.841 Y143.235 E26.16169
G1 X119.459 Y143.271 E26.20634
G1 X119.078 Y143.235 E26.25099
G1 X118.710 Y143.128 E26.29558
G1 X118.369 Y142.954 E26.34007
G1 X118.069 Y142.719 E26.38441
G1 X117.822 Y142.431 E26.42860
G1 X117.637 Y142.100 E26.47266
G1 X117.523 Y141.740 E26.51661
G1 X117.485 Y141.365 E26.56051
G1 X117.523 Y140.990 E26.60441
G1 X117.638 Y140.630 E26.64836
G1 X117.822 Y140.300 E26.69242
G1 X118.070 Y140.012 E26.73661
G1 X118.369 Y139.776 E26.78096
G1 X118.710 Y139.602 E26.82544
G1 X119.078 Y139.496 E26.87003
G1 X119.459 Y139.460 E26.91468
G1 X119.841 Y139.496 E26.95933
G1 X120.209 Y139.602 E27.00392
G1 X120.550 Y139.776 E27.04841
G1 X120.849 Y140.012 E27.09275
G1 X121.097 Y140.300 E27.13694
G1 X121.281 Y140.630 E27.18100
G1 X121.363 Y140.888 E27.21249
G1 X121.750 Y141.120 F7200.000
G1 X122.140 Y141.242 F7200.000
G1 X122.099 Y140.844 E27.25907 F1080.000
G1 X121.940 Y140.345 E27.32000
G1 X121.685 Y139.889 E27.38084
G1 X121.346 Y139.493 E27.44153
G1 X120.458 Y138.797 E27.57281
G1 X120.516 Y138.630 E27.59335
G1 X137.479 Y138.630 E29.56766
G1 X137.538 Y138.805 E29.58912
G1 X136.829 Y139.345 E29.69281
G1 X136.476 Y139.745 E29.75495
G1 X136.209 Y140.210 E29.81728
G1 X136.042 Y140.720 E29.87980
G1 X135.986 Y141.255 E29.94243
G1 X136.042 Y141.790 E30.00506
G1 X136.209 Y142.301 E30.06757
G1 X136.476 Y142.765 E30.12992
G1 X136.829 Y143.165 E30.19205
G1 X137.253 Y143.488 E30.25400
G1 X137.728 Y143.724 E30.31580
G1 X138.238 Y143.868 E30.37748
G1 X138.766 Y143.917 E30.43913
G1 X139.293 Y143.868 E30.50078
G1 X139.803 Y143.724 E30.56247
G1 X140.279 Y143.488 E30.62427
G1 X140.702 Y143.165 E30.68622
G1 X141.332 Y142.451 E30.79709
G1 X141.332 Y146.359 E31.25189
G1 X145.781 Y146.363 E31.76960
G1 X145.781 Y147.037 E31.84807
G1 X142.751 Y148.022 E32.21881
G1 X139.623 Y148.908 E32.59719
G1 X133.901 Y149.467 E33.26637
G1 X129.072 Y149.656 E33.82883
G1 X124.243 Y149.467 E34.39130
G1 X119.609 Y148.911 E34.93458
G1 X115.357 Y148.010 E35.44037
G1 X112.364 Y147.037 E35.80674
G1 X112.364 Y146.304 E35.89214
G1 X116.970 Y146.304 E36.42824
G1 X116.970 Y142.764 E36.84023
G1 X117.983 Y143.559 E36.99007
G1 X118.445 Y143.795 E37.05052
G1 X118.943 Y143.939 E37.11089
G1 X119.459 Y143.988 E37.17123
G1 X119.976 Y143.939 E37.23156
G1 X120.474 Y143.795 E37.29193
G1 X120.936 Y143.559 E37.35239
G1 X121.345 Y143.237 E37.41293
G1 X121.685 Y142.842 E37.47364
G1 X121.940 Y142.386 E37.53446
G1 X122.099 Y141.887 E37.59539
G1 X122.151 Y141.349 E37.65828
G1 X118.461 Y138.797 F7200.000
G1 X116.970 Y139.967 E37.87887 F540.000
G1 X116.970 Y138.630 E38.03446
G1 X118.403 Y138.630 E38.20128
G1 X118.426 Y138.696 E38.20935
G1 X139.994 Y138.805 F7200.000
G1 X140.053 Y138.630 E38.23082 F540.000
G1 X141.332 Y138.630 E38.37977
G1 X141.332 Y140.059 E38.54611
G1 X140.702 Y139.345 E38.65698
G1 X140.079 Y138.870 E38.74819
G1 F1800.000 E37.74819
G92 E0
G1 X140.013 Y68.005 F7200.000
G1 E1.00000 F1800.000
G1 X140.816 Y67.036 E1.14640 F1080.000
G1 X141.059 Y66.586 E1.20602
G1 X141.209 Y66.096 E1.26566
G1 X141.260 Y65.586 E1.32532
G1 X141.209 Y65.076 E1.38498
G1 X141.059 Y64.586 E1.44461
G1 X140.816 Y64.135 E1.50424
G1 X140.489 Y63.741 E1.56383
G1 X140.092 Y63.418 E1.62339
G1 X139.795 Y63.261 E1.66242
G1 X139.795 Y62.870 E1.70799
G1 X138.132 Y63.032 E1.90245
G1 X137.643 Y63.179 E1.96196
G1 X137.191 Y63.418 E2.02148
G1 X136.793 Y63.741 E2.08105
G1 X136.467 Y64.135 E2.14065
G1 X136.223 Y64.586 E2.20026
G1 X136.073 Y65.075 E2.25990
G1 X136.022 Y65.586 E2.31956
G1 X136.073 Y66.096 E2.37922
G1 X136.223 Y66.586 E2.43887
G1 X136.467 Y67.036 E2.49849
G1 X137.269 Y68.005 E2.64488
G1 X120.748 Y68.004 E4.56777
G1 X121.547 Y67.020 E4.71537
G1 X121.783 Y66.574 E4.77409
G1 X121.928 Y66.091 E4.83278
G1 X121.977 Y65.589 E4.89148
G1 X121.928 Y65.087 E4.95016
G1 X121.783 Y64.604 E5.00886
G1 X121.547 Y64.158 E5.06758
G1 X121.229 Y63.766 E5.12635
G1 X120.840 Y63.444 E5.18515
G1 X120.396 Y63.203 E5.24397
G1 X119.912 Y63.055 E5.30282
G1 X119.409 Y63.005 E5.36168
G1 X118.906 Y63.055 E5.42055
G1 X118.422 Y63.203 E5.47940
G1 X117.978 Y63.444 E5.53823
G1 X117.589 Y63.766 E5.59702
G1 X117.271 Y64.158 E5.65578
G1 X117.035 Y64.604 E5.71451
G1 X116.890 Y65.087 E5.77319
G1 X116.841 Y65.589 E5.83189
G1 X116.890 Y66.091 E5.89058
G1 X117.035 Y66.574 E5.94927
G1 X117.271 Y67.020 E6.00800
G1 X118.070 Y68.004 E6.15560
G1 X115.761 Y68.004 E6.42428
G1 X115.762 Y60.185 E7.33442
G1 X142.230 Y60.185 E10.41506
G1 X142.230 Y68.005 E11.32521
G1 X140.120 Y68.005 E11.57078
G1 X142.944 Y67.607 F7200.000
G1 X146.479 Y67.607 E11.98227 F756.000
G1 X146.479 Y139.615 E20.36321
G1 X142.047 Y139.734 E20.87926
G1 X142.047 Y145.645 E21.56725
G1 X145.414 Y145.649 E21.95922
G1 X145.414 Y142.166 E22.36454
G1 X146.495 Y142.167 E22.49028
G1 X146.495 Y147.556 E23.11747
G1 X142.959 Y148.706 E23.55021
G1 X139.728 Y149.615 E23.94085
G1 X133.958 Y150.180 E24.61568
G1 X129.072 Y150.370 E25.18473
G1 X124.187 Y150.180 E25.75379
G1 X119.492 Y149.616 E26.30412
G1 X115.173 Y148.701 E26.81801
G1 X111.650 Y147.556 E27.24916
G1 X111.650 Y142.622 E27.82341
G1 X112.907 Y142.622 E27.96979
G1 X112.907 Y145.589 E28.31512
G1 X116.256 Y145.589 E28.70484
G1 X116.256 Y139.826 E29.37560
G1 X115.637 Y139.779 E29.44777
G1 X111.536 Y139.620 E29.92544
G1 X111.539 Y67.607 E38.30695
G1 X115.047 Y67.607 E38.71528
G1 X115.047 Y59.470 E39.66233
G1 X142.944 Y59.471 E42.90921
G1 X142.944 Y67.500 E43.84379
G1 X142.944 Y68.322 F7200.000
G1 F1800.000 E42.84379
G92 E0
G1 X137.089 Y68.119 F7200.000
G1 X137.381 Y71.119 F7200.000
G1 X121.424 Y135.516 F7200.000
G1 X121.868 Y138.516 F7200.000
G1 X119.459 Y138.857 F7200.000
G1 X136.186 Y139.111 F7200.000
G1 E1.00000 F1800.000
G1 X136.249 Y139.174 E1.01057 F1080.000
G1 X135.873 Y139.828 E1.09997
G1 X135.157 Y139.111 E1.22014
G1 X134.128 Y139.111 E1.34220
G1 X135.585 Y140.569 E1.58669
G1 X135.532 Y141.545 E1.70264
G1 X133.098 Y139.111 E2.11086
G1 X132.069 Y139.111 E2.23292
G1 X140.692 Y147.734 E3.67913
G1 X139.889 Y147.961 E3.77800
G1 X131.040 Y139.111 E5.26229
G1 X130.011 Y139.111 E5.38435
G1 X139.023 Y148.124 E6.89598
G1 X138.086 Y148.215 E7.00770
G1 X128.982 Y139.111 E8.53470
G1 X127.953 Y139.111 E8.65676
G1 X137.148 Y148.307 E10.19915
G1 X136.211 Y148.399 E10.31086
G1 X126.923 Y139.111 E11.86863
G1 X125.894 Y139.111 E11.99069
G1 X135.273 Y148.490 E13.56383
G1 X134.336 Y148.582 E13.67555
G1 X124.865 Y139.111 E15.26406
G1 X123.836 Y139.111 E15.38612
G1 X133.373 Y148.649 E16.98583
G1 X132.383 Y148.687 E17.10340
G1 X122.807 Y139.111 E18.70958
G1 X121.778 Y139.111 F7200.000
G1 X131.392 Y148.726 E20.32225 F1080.000
G1 X138.349 Y144.362 F7200.000
G1 X141.494 Y147.507 E20.84973 F1080.000
G1 X140.851 Y145.835 F7200.000
G1 X139.362 Y144.345 E21.09956 F1080.000
G1 X140.140 Y144.095 E21.19655
G1 X140.851 Y144.806 E21.31581
G1 X140.851 Y143.777 E21.43788
G1 X140.828 Y143.753 E21.44181
G1 X122.594 Y140.957 F7200.000
G1 X130.402 Y148.765 E22.75138 F1080.000
G1 X129.411 Y148.803 E22.86895
G1 X122.574 Y141.966 E24.01571
G1 X122.303 Y142.724 E24.11116
G1 X128.368 Y148.789 E25.12847
G1 X127.297 Y148.747 E25.25559
G1 X121.891 Y143.341 E26.16235
G1 X121.359 Y143.839 E26.24870
G1 X126.226 Y148.706 E27.06502
G1 X125.155 Y148.664 E27.19213
G1 X120.707 Y144.216 E27.93814
G1 X119.893 Y144.431 E28.03804
G1 X124.063 Y148.601 E28.73755
G1 X122.894 Y148.461 E28.87728
G1 X118.845 Y144.412 E29.55635
G1 X117.451 Y144.048 E29.72721
G1 X121.724 Y148.320 E30.44385
G1 X120.554 Y148.180 E30.58357
G1 X117.451 Y145.077 E31.10403
G1 X117.451 Y146.106 E31.22609
G1 X119.342 Y147.997 E31.54330
G1 X118.037 Y147.721 E31.70158
G1 X117.101 Y146.785 E31.85853
G1 X116.651 Y147.364 E31.94551
G1 X116.731 Y147.444 E31.95898
G1 X114.940 Y147.116 F7200.000
G1 X114.885 Y147.061 E31.96814 F360.000
G1 X113.396 Y146.847 F7200.000
G1 X113.370 Y146.821 E31.97018 F360.000
G1 X112.184 Y145.803 F7200.000
G1 X112.150 Y145.770 E31.97282 F360.000
G1 X112.407 Y145.549 E31.99152 F360.000
G1 X112.150 Y145.291 E32.01159 F360.000
G1 X112.407 Y145.070 E32.03030 F360.000
G1 X112.150 Y144.813 E32.05036 F360.000
G1 X112.407 Y144.592 E32.06907 F360.000
G1 X112.150 Y144.334 E32.08914 F360.000
G1 X112.407 Y144.113 E32.10784 F360.000
G1 X112.150 Y143.856 E32.12791 F360.000
G1 X112.407 Y143.635 E32.14662 F360.000
G1 X112.150 Y143.377 E32.16669 F360.000
G1 X112.373 Y143.123 E32.18538 F360.000
G1 X112.407 Y143.156 E32.18802 F360.000
G1 F1800.000 E31.18802
G92 E0
G1 X112.250 Y143.361 F7200.000
G1 X109.137 Y138.381 F7200.000
G1 X112.137 Y138.431 F7200.000
G1 X112.823 Y137.561 F7200.000
G1 X112.331 Y138.929 F7200.000
G1 E1.00000 F1800.000
G1 X112.258 Y138.856 E1.01205 F360.000
G1 X112.702 Y138.287 E1.09618 F360.000
G1 X112.258 Y137.843 E1.16943 F360.000
G1 X112.701 Y137.274 E1.25357 F360.000
G1 X112.258 Y136.831 E1.32672 F360.000
G1 X112.701 Y136.262 E1.41087 F360.000
G1 X112.258 Y135.819 E1.48393 F360.000
G1 X112.700 Y135.249 E1.56809 F360.000
G1 X112.258 Y134.807 E1.64105 F360.000
G1 X112.700 Y134.236 E1.72523 F360.000
G1 X112.258 Y133.794 E1.79809 F360.000
G1 X112.699 Y133.223 E1.88228 F360.000
G1 X112.258 Y132.782 E1.95504 F360.000
G1 X112.698 Y132.210 E2.03924 F360.000
G1 X112.258 Y131.770 E2.11191 F360.000
G1 X112.698 Y131.197 E2.19612 F360.000
G1 X112.258 Y130.758 E2.26869 F360.000
G1 X112.697 Y130.185 E2.35292 F360.000
G1 X112.258 Y129.745 E2.42539 F360.000
G1 X112.697 Y129.172 E2.50963 F360.000
G1 X112.258 Y128.733 E2.58201 F360.000
G1 X112.696 Y128.159 E2.66626 F360.000
G1 X112.258 Y127.721 E2.73855 F360.000
G1 X112.696 Y127.146 E2.82281 F360.000
G1 X112.258 Y126.709 E2.89500 F360.000
G1 X112.695 Y126.133 E2.97928 F360.000
G1 X112.258 Y125.696 E3.05136 F360.000
G1 X112.695 Y125.120 E3.13566 F360.000
G1 X112.258 Y124.684 E3.20765 F360.000
G1 X112.694 Y124.108 E3.29195 F360.000
G1 X112.258 Y123.672 E3.36385 F360.000
G1 X112.694 Y123.095 E3.44817 F360.000
G1 X112.258 Y122.660 E3.51997 F360.000
G1 X112.693 Y122.082 E3.60430 F360.000
G1 X112.258 Y121.647 E3.67600 F360.000
G1 X112.692 Y121.069 E3.76035 F360.000
G1 X112.258 Y120.635 E3.83195 F360.000
