; generated by Slic3r 1.0.0RC2 on 2014-05-19 at 20:18:46

; layer_height = 0.3
; perimeters = 4
; top_solid_layers = 3
; bottom_solid_layers = 3
; fill_density = 0.1
; perimeter_speed = 60
; infill_speed = 60
; travel_speed = 120
; nozzle_diameter = 0.4
; filament_diameter = 1.75
; extrusion_multiplier = 0.98
; perimeters extrusion width = 0.40mm
; infill extrusion width = 0.42mm
; solid infill extrusion width = 0.42mm
; top infill extrusion width = 0.42mm
; first layer extrusion width = 0.80mm

G21 ; set units to millimeters
M107
M104 S220 ; set temperature
G28 ; home all axes
M106 S255;
G1 Z200 F1200 ; lift nozzle
M109 S220 ; wait for temperature to be reached
G90 ; use absolute coordinates
G92 E0
M82 ; use absolute distances for extrusion
G1 F1800.000 E-1.00000
G92 E0
G1 Z0.400 F7200.000
G1 X92.423 Y96.344 F7200.000
G1 E1.00000 F1800.000
G1 X134.973 Y55.234 E7.88624 F1080.000
G1 X136.213 Y54.294 E8.06735
G1 X137.633 Y53.654 E8.24863
G1 X150.463 Y49.634 E9.81350
G1 X151.543 Y49.394 E9.94227
G1 X152.643 Y49.334 E10.07049
G1 X174.283 Y49.914 E12.59007
G1 X175.223 Y50.004 E12.69997
G1 X208.543 Y55.654 E16.63344
G1 X209.803 Y55.994 E16.78534
G1 X210.963 Y56.564 E16.93577
G1 X211.993 Y57.354 E17.08685
G1 X212.853 Y58.324 E17.23774
G1 X213.513 Y59.444 E17.38904
G1 X213.943 Y60.674 E17.54070
G1 X214.133 Y61.954 E17.69131
G1 X214.063 Y63.254 E17.84284
G1 X212.533 Y73.664 E19.06747
G1 X212.363 Y74.474 E19.16380
G1 X208.023 Y90.174 E21.05965
G1 X187.413 Y155.964 E29.08388
G1 X186.873 Y157.214 E29.24237
G1 X186.093 Y158.334 E29.40122
G1 X185.103 Y159.274 E29.56011
G1 X183.943 Y159.994 E29.71902
G1 X182.663 Y160.464 E29.87772
G1 X181.313 Y160.664 E30.03657
G1 X179.943 Y160.584 E30.19629
G1 X164.703 Y158.154 E31.99248
G1 X160.483 Y157.414 E32.49114
G1 X159.693 Y157.234 E32.58544
G1 X110.443 Y142.294 E38.57558
G1 X109.253 Y141.804 E38.72537
G1 X108.183 Y141.094 E38.87483
G1 X107.273 Y140.204 E39.02298
G1 X92.183 Y122.384 E41.74078
G1 X88.583 Y117.944 E42.40607
G1 X87.853 Y116.824 E42.56167
G1 X87.353 Y115.584 E42.71729
G1 X86.123 Y111.354 E43.23001
G1 X85.883 Y110.044 E43.38502
G1 X85.903 Y108.704 E43.54100
G1 X86.193 Y107.404 E43.69602
G1 X87.653 Y102.934 E44.24333
G1 X88.123 Y101.824 E44.38363
G1 X88.783 Y100.834 E44.52211
G1 X91.843 Y96.994 E45.09360
G1 X92.351 Y96.424 E45.18253
G1 F1800.000 E44.18253
G92 E0
G1 X158.977 Y80.730 F7200.000
G1 E1.00000 F1800.000
G1 X158.831 Y78.452 E1.26572 F1080.000
G1 X159.132 Y76.188 E1.53146
G1 X159.870 Y74.028 E1.79719
G1 X161.014 Y72.052 E2.06292
G1 X162.522 Y70.338 E2.32864
G1 X164.336 Y68.951 E2.59438
G1 X166.385 Y67.944 E2.86012
G1 X168.591 Y67.357 E3.12585
G1 X170.870 Y67.211 E3.39158
G1 X173.133 Y67.513 E3.65730
G1 X175.294 Y68.250 E3.92305
G1 X177.269 Y69.394 E4.18878
G1 X178.983 Y70.902 E4.45450
G1 X180.370 Y72.716 E4.72025
G1 X181.216 Y74.438 E4.94354
G1 X181.399 Y74.414 E4.96498
G1 X182.599 Y68.353 E5.68415
G1 X191.689 Y69.959 E6.75847
G1 X189.800 Y80.064 E7.95502
G1 X189.324 Y82.734 E8.27061
G1 X181.874 Y81.322 E9.15311
G1 X181.072 Y83.674 E9.44236
G1 X179.927 Y85.649 E9.70809
G1 X178.419 Y87.364 E9.97383
G1 X176.605 Y88.750 E10.23958
G1 X174.556 Y89.757 E10.50527
G1 X172.350 Y90.345 E10.77102
G1 X170.072 Y90.490 E11.03675
G1 X167.808 Y90.189 E11.30248
G1 X165.648 Y89.452 E11.56820
G1 X163.672 Y88.307 E11.83395
G1 X161.958 Y86.799 E12.09968
G1 X160.571 Y84.985 E12.36541
G1 X159.564 Y82.936 E12.63112
G1 X159.004 Y80.834 E12.88440
G1 X159.685 Y80.614 F7200.000
G1 X159.548 Y78.476 E13.13375 F1080.000
G1 X159.831 Y76.353 E13.38311
G1 X160.523 Y74.325 E13.63247
G1 X161.597 Y72.471 E13.88182
G1 X163.012 Y70.863 E14.13117
G1 X164.714 Y69.561 E14.38054
G1 X166.637 Y68.616 E14.62990
G1 X168.707 Y68.065 E14.87926
G1 X168.922 Y68.051 E14.90435
G1 X170.845 Y67.928 E15.12861
G1 X172.969 Y68.211 E15.37796
G1 X174.996 Y68.903 E15.62734
G1 X176.850 Y69.977 E15.87670
G1 X178.459 Y71.392 E16.12605
G1 X179.760 Y73.094 E16.37542
G1 X180.705 Y75.017 E16.62475
G1 X181.275 Y77.157 E16.88252
G1 X181.586 Y77.147 E16.91872
G1 X183.164 Y69.178 E17.86423
G1 X190.854 Y70.537 E18.77318
G1 X189.097 Y79.936 E19.88611
G1 X188.747 Y81.898 E20.11811
G1 X181.227 Y80.472 E21.00899
G1 X181.110 Y81.349 E21.11199
G1 X180.418 Y83.377 E21.36135
G1 X179.344 Y85.230 E21.61070
G1 X177.929 Y86.839 E21.86007
G1 X176.227 Y88.140 E22.10944
G1 X174.305 Y89.085 E22.35876
G1 X172.234 Y89.636 E22.60814
G1 X170.096 Y89.773 E22.85749
G1 X167.972 Y89.490 E23.10685
G1 X165.945 Y88.798 E23.35620
G1 X164.091 Y87.724 E23.60557
G1 X162.482 Y86.309 E23.85493
G1 X161.181 Y84.607 E24.10428
G1 X160.236 Y82.685 E24.35362
G1 X159.713 Y80.718 E24.59053
G1 F1800.000 E23.59053
G92 E0
G1 X181.774 Y79.849 F7200.000
G1 E1.00000 F1800.000
G1 X183.728 Y70.003 E2.16830 F540.000
G1 X190.020 Y71.114 E2.91187
G1 X188.171 Y81.063 E4.08959
G1 X181.879 Y79.869 E4.83492
G1 X182.617 Y79.282 F7200.000
G1 X184.293 Y70.828 E5.83801 F540.000
G1 X189.185 Y71.692 E6.41621
G1 X187.594 Y80.228 E7.42673
G1 X182.722 Y79.302 E8.00393
G1 X181.916 Y79.145 F7200.000
G1 X180.676 Y79.201 F7200.000
G1 X180.411 Y81.185 E8.23690 F1080.000
G1 X179.765 Y83.079 E8.46988
G1 X178.762 Y84.811 E8.70287
G1 X177.439 Y86.314 E8.93585
G1 X175.849 Y87.530 E9.16885
G1 X174.053 Y88.413 E9.40181
G1 X172.118 Y88.928 E9.63481
G1 X170.121 Y89.056 E9.86779
G1 X168.136 Y88.792 E10.10077
G1 X166.242 Y88.145 E10.33375
G1 X164.510 Y87.142 E10.56675
G1 X163.007 Y85.819 E10.79973
G1 X161.791 Y84.229 E11.03271
G1 X160.908 Y82.433 E11.26568
G1 X160.393 Y80.498 E11.49868
G1 X160.265 Y78.501 E11.73166
G1 X160.530 Y76.517 E11.96465
G1 X161.176 Y74.622 E12.19763
G1 X162.180 Y72.890 E12.43061
G1 X163.502 Y71.387 E12.66359
G1 X165.092 Y70.171 E12.89658
G1 X166.888 Y69.288 E13.12957
G1 X168.823 Y68.773 E13.36255
G1 X170.820 Y68.646 E13.59553
G1 X172.805 Y68.910 E13.82851
G1 X174.699 Y69.556 E14.06151
G1 X176.431 Y70.560 E14.29449
G1 X177.934 Y71.882 E14.52747
G1 X179.150 Y73.472 E14.76047
G1 X180.033 Y75.269 E14.99343
G1 X180.548 Y77.203 E15.22642
G1 X180.669 Y79.094 E15.44696
G1 X179.959 Y79.176 F7200.000
G1 X179.713 Y81.021 E15.66356 F756.000
G1 X179.112 Y82.782 E15.88017
G1 X178.179 Y84.392 E16.09678
G1 X176.950 Y85.790 E16.31339
G1 X175.471 Y86.920 E16.53000
G1 X173.801 Y87.741 E16.74660
G1 X172.003 Y88.220 E16.96322
G1 X170.145 Y88.339 E17.17983
G1 X168.301 Y88.093 E17.39644
G1 X166.539 Y87.492 E17.61304
G1 X164.929 Y86.559 E17.82967
G1 X163.531 Y85.330 E18.04628
G1 X162.401 Y83.851 E18.26288
G1 X161.580 Y82.181 E18.47949
G1 X161.101 Y80.383 E18.69611
G1 X160.982 Y78.525 E18.91271
G1 X161.228 Y76.681 E19.12933
G1 X161.829 Y74.919 E19.34594
G1 X162.762 Y73.309 E19.56254
G1 X163.991 Y71.912 E19.77915
G1 X165.470 Y70.781 E19.99577
G1 X167.140 Y69.960 E20.21238
G1 X168.939 Y69.482 E20.42899
G1 X170.796 Y69.363 E20.64560
G1 X172.641 Y69.608 E20.86221
G1 X174.402 Y70.209 E21.07883
G1 X176.012 Y71.142 E21.29544
G1 X177.410 Y72.372 E21.51205
G1 X178.540 Y73.850 E21.72866
G1 X179.361 Y75.520 E21.94526
G1 X179.840 Y77.319 E22.16187
G1 X179.952 Y79.069 E22.36603
G1 X180.552 Y79.574 F7200.000
G1 X181.043 Y93.176 F7200.000
G1 X138.050 Y103.963 F7200.000
G1 X138.050 Y115.004 E23.65110 F1080.000
G1 X120.879 Y115.004 E25.64962
G1 X120.879 Y103.963 E26.93468
G1 X137.943 Y103.963 E28.92074
G1 X137.336 Y104.677 F7200.000
G1 X137.336 Y114.289 E30.03956 F1080.000
G1 X121.593 Y114.289 E31.87184
G1 X121.593 Y104.677 E32.99066
G1 X137.229 Y104.677 E34.81047
G1 X136.622 Y105.391 F7200.000
G1 X136.622 Y113.575 E35.76305 F1080.000
G1 X122.308 Y113.575 E37.42909
G1 X122.308 Y105.391 E38.38167
G1 X136.515 Y105.391 E40.03524
G1 X135.908 Y106.105 F7200.000
G1 X135.908 Y112.861 E40.82158 F540.000
G1 X123.022 Y112.861 E42.32137
G1 X123.022 Y106.105 E43.10771
G1 X135.801 Y106.105 E44.59504
G1 X136.622 Y106.105 F7200.000
G1 X141.768 Y132.996 F7200.000
G1 X110.786 Y108.393 F7200.000
G1 X110.868 Y109.673 E44.74424 F1080.000
G1 X110.699 Y110.943 E44.89340
G1 X110.285 Y112.156 E45.04256
G1 X109.643 Y113.265 E45.19173
G1 X108.796 Y114.227 E45.34091
G1 X107.778 Y115.006 E45.49012
G1 X106.628 Y115.571 E45.63924
G1 X105.389 Y115.901 E45.78843
G1 X104.110 Y115.983 E45.93761
G1 X102.839 Y115.813 E46.08680
G1 X101.627 Y115.399 E46.23596
G1 X100.517 Y114.757 E46.38515
G1 X99.555 Y113.910 E46.53432
G1 X98.777 Y112.892 E46.68349
G1 X98.212 Y111.742 E46.83263
G1 X97.882 Y110.503 E46.98183
G1 X97.800 Y109.225 E47.13099
G1 X97.969 Y107.954 E47.28018
G1 X98.383 Y106.741 E47.42936
G1 X99.025 Y105.632 E47.57852
G1 X99.872 Y104.670 E47.72769
G1 X100.890 Y103.891 E47.87686
G1 X102.041 Y103.326 E48.02606
G1 X103.279 Y102.996 E48.17523
G1 X104.558 Y102.914 E48.32441
G1 X105.828 Y103.083 E48.47356
G1 X107.042 Y103.497 E48.62276
G1 X108.151 Y104.140 E48.77194
G1 X109.113 Y104.986 E48.92111
G1 X109.892 Y106.005 E49.07029
G1 X110.457 Y107.155 E49.21946
G1 X110.759 Y108.290 E49.35617
G1 X110.078 Y108.509 F7200.000
G1 X110.151 Y109.648 E49.48899 F540.000
G1 X110.000 Y110.779 E49.62178
G1 X109.632 Y111.859 E49.75458
G1 X109.060 Y112.846 E49.88737
G1 X108.306 Y113.703 E50.02018
G1 X107.400 Y114.396 E50.15300
G1 X106.376 Y114.899 E50.28577
G1 X105.273 Y115.193 E50.41857
G1 X104.135 Y115.265 E50.55138
G1 X103.004 Y115.115 E50.68419
G1 X101.924 Y114.746 E50.81698
G1 X100.936 Y114.174 E50.94980
G1 X100.080 Y113.421 E51.08260
G1 X99.387 Y112.514 E51.21540
G1 X98.884 Y111.490 E51.34817
G1 X98.590 Y110.388 E51.48099
G1 X98.517 Y109.249 E51.61378
G1 X98.668 Y108.118 E51.74659
G1 X99.036 Y107.038 E51.87939
G1 X99.608 Y106.051 E52.01219
G1 X100.362 Y105.194 E52.14499
G1 X101.268 Y104.501 E52.27779
G1 X102.292 Y103.998 E52.41061
G1 X103.395 Y103.704 E52.54340
G1 X104.534 Y103.631 E52.67621
G1 X105.664 Y103.782 E52.80900
G1 X106.744 Y104.150 E52.94181
G1 X107.732 Y104.723 E53.07461
G1 X108.588 Y105.476 E53.20742
G1 X109.282 Y106.383 E53.34022
G1 X109.785 Y107.407 E53.47302
G1 X110.051 Y108.406 E53.59335
G1 X109.370 Y108.625 F7200.000
G1 X109.434 Y109.623 E53.70980 F540.000
G1 X109.302 Y110.615 E53.82622
G1 X108.979 Y111.562 E53.94264
G1 X108.477 Y112.427 E54.05906
G1 X107.817 Y113.178 E54.17549
G1 X107.022 Y113.786 E54.29194
G1 X106.124 Y114.227 E54.40834
G1 X105.158 Y114.484 E54.52477
G1 X104.159 Y114.548 E54.64120
G1 X103.168 Y114.416 E54.75764
G1 X102.221 Y114.093 E54.87406
G1 X101.355 Y113.592 E54.99050
G1 X100.604 Y112.931 E55.10692
G1 X99.997 Y112.136 E55.22335
G1 X99.556 Y111.239 E55.33976
G1 X99.298 Y110.272 E55.45620
G1 X99.234 Y109.274 E55.57262
G1 X99.366 Y108.282 E55.68906
G1 X99.689 Y107.335 E55.80549
G1 X100.191 Y106.470 E55.92191
G1 X100.852 Y105.719 E56.03834
G1 X101.646 Y105.111 E56.15476
G1 X102.544 Y104.670 E56.27120
G1 X103.511 Y104.412 E56.38763
G1 X104.509 Y104.349 E56.50406
G1 X105.500 Y104.481 E56.62048
G1 X106.447 Y104.804 E56.73691
G1 X107.313 Y105.305 E56.85334
G1 X108.064 Y105.966 E56.96977
G1 X108.672 Y106.760 E57.08620
G1 X109.113 Y107.658 E57.20263
G1 X109.342 Y108.521 E57.30659
G1 X108.662 Y108.741 F7200.000
G1 X108.717 Y109.599 E57.40665 F540.000
G1 X108.603 Y110.451 E57.50670
G1 X108.326 Y111.264 E57.60675
G1 X107.895 Y112.008 E57.70681
G1 X107.327 Y112.654 E57.80686
G1 X106.644 Y113.176 E57.90692
G1 X105.872 Y113.555 E58.00697
G1 X105.042 Y113.776 E58.10703
G1 X104.184 Y113.831 E58.20708
G1 X103.332 Y113.717 E58.30714
G1 X102.518 Y113.440 E58.40719
G1 X101.774 Y113.009 E58.50725
G1 X101.129 Y112.441 E58.60730
G1 X100.607 Y111.758 E58.70736
G1 X100.228 Y110.987 E58.80740
G1 X100.006 Y110.156 E58.90747
G1 X99.951 Y109.298 E59.00751
G1 X100.065 Y108.446 E59.10758
G1 X100.343 Y107.632 E59.20763
G1 X100.773 Y106.889 E59.30768
G1 X101.341 Y106.243 E59.40773
G1 X102.024 Y105.721 E59.50779
G1 X102.796 Y105.342 E59.60785
G1 X103.626 Y105.121 E59.70790
G1 X104.484 Y105.066 E59.80796
G1 X105.336 Y105.179 E59.90801
G1 X106.150 Y105.457 E60.00807
G1 X106.894 Y105.888 E60.10813
G1 X107.539 Y106.456 E60.20818
G1 X108.062 Y107.138 E60.30824
G1 X108.441 Y107.910 E60.40828
G1 X108.634 Y108.637 E60.49587
G1 X109.321 Y109.015 F7200.000
G1 X122.422 Y105.505 F7200.000
G1 X136.506 Y105.505 F7200.000
G1 X167.753 Y113.339 F7200.000
G1 X173.538 Y113.322 E61.16921 F540.000
G1 X173.518 Y117.193 E61.61970
G1 X167.738 Y117.173 E62.29238
G1 X167.753 Y113.446 E62.72619
G1 X167.753 Y112.625 F7200.000
G1 X164.648 Y119.925 F7200.000
G1 X172.365 Y122.274 E63.66506 F1080.000
G1 X168.438 Y134.776 E65.19020
G1 X160.815 Y132.127 E66.12946
G1 X164.616 Y120.027 E67.60558
G1 X165.117 Y120.814 F7200.000
G1 X171.468 Y122.748 E68.37820 F540.000
G1 X167.977 Y133.860 E69.73382
G1 X161.704 Y131.679 E70.50676
G1 X165.085 Y120.916 E71.81983
G1 X165.586 Y121.704 F7200.000
G1 X170.570 Y123.221 E72.42620 F540.000
G1 X167.516 Y132.943 E73.61230
G1 X162.593 Y131.232 E74.21892
G1 X165.554 Y121.806 E75.36894
G1 X165.796 Y121.021 F7200.000
G1 X154.195 Y136.186 F7200.000
G1 X151.515 Y144.064 E76.33739 F1080.000
G1 X138.241 Y139.732 E77.96259
G1 X141.282 Y131.966 E78.93330
G1 X154.093 Y136.153 E80.50192
G1 X153.286 Y136.641 F7200.000
G1 X151.066 Y143.166 E81.30414 F540.000
G1 X139.181 Y139.288 E82.75917
G1 X141.701 Y132.854 E83.56333
G1 X153.184 Y136.607 E84.96934
G1 X152.377 Y137.095 F7200.000
G1 X150.617 Y142.268 E85.60536 F540.000
G1 X140.122 Y138.844 E86.89021
G1 X142.120 Y133.743 E87.52782
G1 X152.275 Y137.062 E88.77122
G1 X153.054 Y137.322 F7200.000
G1 X154.245 Y138.255 F7200.000
G1 X155.103 Y135.732 E89.08137 F1080.000
G1 X140.863 Y131.078 E90.82505
G1 X137.093 Y140.703 E92.02826
G1 X114.144 Y133.742 E94.81941
G1 X105.803 Y118.212 E96.87124
G1 X98.906 Y115.974 E97.71522
G1 X96.107 Y112.512 E98.23343
G1 X95.234 Y109.527 E98.59532
G1 X96.311 Y106.243 E98.99761
G1 X98.674 Y103.280 E99.43865
G1 X103.652 Y101.230 E100.06526
G1 X132.920 Y101.230 E103.47184
G1 X132.920 Y72.270 E106.84242
G1 X146.907 Y67.810 E108.55112
G1 X144.628 Y61.171 E109.36804
G1 X149.268 Y59.714 E109.93400
G1 X151.546 Y66.354 E110.75098
G1 X174.218 Y59.257 E113.51604
G1 X179.601 Y60.468 E114.15824
G1 X189.623 Y62.144 E115.34088
G1 X199.424 Y63.631 E116.49462
G1 X192.220 Y85.175 E119.13859
G1 X198.850 Y83.421 E119.93681
G1 X199.862 Y83.794 E120.06234
G1 X199.448 Y85.967 E120.31983
G1 X187.802 Y87.991 E121.69561
G1 X183.758 Y87.421 E122.17097
G1 X181.718 Y87.595 E122.40927
G1 X178.807 Y94.513 E123.28285
G1 X173.032 Y110.356 E125.24549
G1 X173.076 Y111.181 E125.34171
G1 X165.619 Y111.202 E126.20968
G1 X165.587 Y119.464 E127.17126
G1 X164.179 Y119.035 E127.34253
G1 X159.926 Y132.574 E128.99416
G1 X168.899 Y135.692 E130.09974
G1 X173.262 Y121.801 E131.79440
G1 X166.506 Y119.744 E132.61636
G1 X166.571 Y119.312 E132.66724
G1 X173.590 Y119.336 E133.48419
G1 X173.765 Y121.077 E133.68792
G1 X181.680 Y128.449 E134.94679
G1 X181.116 Y130.844 E135.23319
G1 X180.045 Y130.767 E135.35813
G1 X174.735 Y126.427 E136.15630
G1 X172.438 Y149.576 E138.86378
G1 X178.820 Y145.791 E139.72737
G1 X179.310 Y145.825 E139.78450
G1 X178.761 Y151.024 E140.39300
G1 X166.185 Y149.024 E141.87509
G1 X162.241 Y148.332 E142.34117
G1 X151.886 Y145.191 E143.60058
G1 X154.211 Y138.356 E144.44083
G1 X151.333 Y142.026 F7200.000
G1 X177.635 Y85.919 F7200.000
G1 X188.243 Y89.480 F7200.000
G1 X188.790 Y77.075 F7200.000
G1 X203.791 Y62.734 F7200.000
G1 X203.832 Y69.243 F7200.000
G1 X199.975 Y63.715 E145.22535 F540.000
G1 X204.543 Y64.408 E145.76313
G1 X203.848 Y69.137 E146.31943
G1 X203.361 Y69.816 F7200.000
G1 X199.810 Y64.727 E147.04165 F1080.000
G1 X193.317 Y84.146 E149.42491
G1 X198.885 Y82.673 E150.09527
G1 X200.677 Y83.333 E150.31751
G1 X200.057 Y86.586 E150.70299
G1 X187.813 Y88.714 E152.14940
G1 X183.744 Y88.139 E152.62773
G1 X182.208 Y88.269 E152.80706
G1 X179.472 Y94.774 E153.62837
G1 X173.753 Y110.463 E155.57199
G1 X173.830 Y111.893 E155.73868
G1 X166.330 Y111.914 E156.61155
G1 X166.304 Y118.597 E157.38929
G1 X174.237 Y118.624 E158.31257
G1 X174.449 Y120.738 E158.55990
G1 X182.470 Y128.209 E159.83572
G1 X181.672 Y131.600 E160.24121
G1 X179.768 Y131.463 E160.46329
G1 X175.314 Y127.823 E161.13278
G1 X173.289 Y148.241 E163.52096
G1 X178.648 Y145.063 E164.24615
G1 X180.098 Y145.164 E164.41537
G1 X179.392 Y151.848 E165.19761
