; generated by Slic3r 1.0.0RC3 on 2014-03-11 at 20:24:17

; layer_height = 0.3
; perimeters = 2
; top_solid_layers = 3
; bottom_solid_layers = 3
; fill_density = 0.1
; perimeter_speed = 60
; infill_speed = 60
; travel_speed = 120
; nozzle_diameter = 0.4
; filament_diameter = 1.75
; extrusion_multiplier = 0.98
; perimeters extrusion width = 0.40mm
; infill extrusion width = 0.42mm
; solid infill extrusion width = 0.42mm
; top infill extrusion width = 0.42mm
; first layer extrusion width = 0.60mm

G21 ; set units to millimeters
M107
M104 S220 ; set temperature
G28 ; home all axes
M106 S255;
G1 Z200 F1200 ; lift nozzle
M109 S220 ; wait for temperature to be reached
G90 ; use absolute coordinates
G92 E0
M82 ; use absolute distances for extrusion
G1 F1800.000 E-1.00000
G92 E0
G1 Z0.300 F7200.000
G1 X93.392 Y71.051 F7200.000
G1 E1.00000 F1800.000
G1 X94.272 Y70.041 E1.09122 F1080.000
G1 X122.902 Y43.491 E3.74994
G1 X124.232 Y42.541 E3.86124
G1 X125.742 Y41.951 E3.97162
G1 X127.362 Y41.741 E4.08286
G1 X183.832 Y41.741 E7.92804
G1 X185.122 Y41.871 E8.01632
G1 X186.352 Y42.251 E8.10398
G1 X187.492 Y42.861 E8.19202
G1 X188.482 Y43.681 E8.27955
G1 X189.302 Y44.681 E8.36761
G1 X189.902 Y45.831 E8.45593
G1 X206.512 Y86.611 E11.45424
G1 X206.802 Y87.471 E11.51604
G1 X206.962 Y88.361 E11.57761
G1 X207.822 Y96.141 E12.11060
G1 X207.862 Y96.781 E12.15426
G1 X207.832 Y97.431 E12.19857
G1 X207.152 Y105.231 E12.73171
G1 X206.992 Y106.221 E12.79999
G1 X206.672 Y107.181 E12.86890
G1 X187.702 Y152.741 E16.22936
G1 X187.102 Y153.861 E16.31588
G1 X186.302 Y154.851 E16.40255
G1 X185.322 Y155.661 E16.48912
G1 X184.202 Y156.261 E16.57564
G1 X182.982 Y156.641 E16.66265
G1 X164.252 Y160.521 E17.96510
G1 X115.772 Y168.171 E21.30706
G1 X114.752 Y168.251 E21.37673
G1 X98.712 Y168.251 E22.46893
G1 X97.432 Y168.121 E22.55654
G1 X96.202 Y167.751 E22.64400
G1 X95.072 Y167.141 E22.73144
G1 X94.072 Y166.331 E22.81907
G1 X93.262 Y165.331 E22.90670
G1 X92.652 Y164.201 E22.99414
G1 X92.282 Y162.971 E23.08160
G1 X92.152 Y161.691 E23.16920
G1 X92.132 Y84.991 E28.39189
G1 X92.172 Y74.821 E29.08440
G1 X92.322 Y73.491 E29.17553
G1 X92.732 Y72.221 E29.26641
G1 X93.351 Y71.124 E29.35219
G1 F1800.000 E28.35219
G92 E0
G1 X133.411 Y87.985 F7200.000
G1 E1.00000 F1800.000
G1 X135.615 Y83.862 E1.31834 F1080.000
G1 X138.581 Y80.248 E1.63668
G1 X142.195 Y77.283 E1.95502
G1 X146.318 Y75.079 E2.27335
G1 X150.792 Y73.722 E2.59169
G1 X155.445 Y73.263 E2.91005
G1 X160.097 Y73.722 E3.22839
G1 X164.571 Y75.079 E3.54673
G1 X168.694 Y77.282 E3.86507
G1 X172.308 Y80.248 E4.18341
G1 X175.274 Y83.862 E4.50175
G1 X177.478 Y87.985 E4.82009
G1 X178.835 Y92.459 E5.13842
G1 X179.207 Y96.240 E5.39713
G1 X179.379 Y96.240 E5.40882
G1 X178.835 Y101.764 E5.78679
G1 X177.478 Y106.238 E6.10513
G1 X175.274 Y110.361 E6.42347
G1 X172.308 Y113.975 E6.74180
G1 X168.694 Y116.941 E7.06014
G1 X164.571 Y119.145 E7.37848
G1 X160.097 Y120.502 E7.69682
G1 X155.445 Y120.960 E8.01516
G1 X150.792 Y120.502 E8.33350
G1 X146.318 Y119.145 E8.65184
G1 X142.195 Y116.941 E8.97018
G1 X138.581 Y113.975 E9.28852
G1 X135.615 Y110.361 E9.60685
G1 X133.411 Y106.238 E9.92519
G1 X132.265 Y102.458 E10.19417
G1 X132.123 Y102.458 E10.20385
G1 X131.596 Y97.112 E10.56965
G1 X132.054 Y92.459 E10.88799
G1 X133.387 Y88.065 E11.20063
G1 X133.928 Y88.200 F7200.000
G1 X136.081 Y84.173 E11.51150 F540.000
G1 X138.977 Y80.644 E11.82237
G1 X142.506 Y77.748 E12.13323
G1 X146.532 Y75.596 E12.44410
G1 X150.901 Y74.271 E12.75497
G1 X155.445 Y73.823 E13.06585
G1 X159.988 Y74.271 E13.37672
G1 X164.357 Y75.596 E13.68758
G1 X168.383 Y77.748 E13.99845
G1 X171.912 Y80.644 E14.30932
G1 X174.808 Y84.173 E14.62019
G1 X176.960 Y88.200 E14.93105
G1 X178.286 Y92.568 E15.24192
G1 X178.702 Y96.797 E15.53127
G1 X178.764 Y96.797 E15.53549
G1 X178.286 Y101.655 E15.86787
G1 X176.960 Y106.024 E16.17873
G1 X174.808 Y110.050 E16.48960
G1 X171.912 Y113.579 E16.80047
G1 X168.383 Y116.475 E17.11133
G1 X164.357 Y118.627 E17.42220
G1 X159.988 Y119.953 E17.73307
G1 X155.445 Y120.400 E18.04394
G1 X150.901 Y119.953 E18.35480
G1 X146.532 Y118.627 E18.66567
G1 X142.506 Y116.475 E18.97654
G1 X138.977 Y113.579 E19.28740
G1 X136.081 Y110.050 E19.59827
G1 X133.929 Y106.024 E19.90914
G1 X132.678 Y101.901 E20.20251
G1 X132.628 Y101.901 E20.20594
G1 X132.156 Y97.112 E20.53362
G1 X132.603 Y92.568 E20.84449
G1 X133.904 Y88.280 E21.14967
G1 X133.604 Y87.747 F7200.000
G1 F1800.000 E20.14967
G92 E0
G1 X122.402 Y115.504 F7200.000
G1 E1.00000 F1800.000
G1 X126.386 Y119.042 E1.36282 F1080.000
G1 X129.091 Y128.050 E2.00321
G1 X129.160 Y128.188 E2.01377
G1 X129.160 Y153.634 E3.74643
G1 X113.896 Y153.634 E4.78581
G1 X113.896 Y115.552 E7.37894
G1 X122.318 Y115.505 E7.95246
G1 X122.192 Y116.062 F7200.000
G1 X125.898 Y119.354 E8.28998 F540.000
G1 X128.603 Y128.319 E8.92765
G1 X128.603 Y153.077 E10.61347
G1 X114.453 Y153.077 E11.57698
G1 X114.453 Y116.106 E14.09446
G1 X122.108 Y116.063 E14.61573
G1 X122.662 Y115.764 F7200.000
G1 F1800.000 E13.61573
G92 E0
G1 X111.363 Y117.228 F7200.000
G1 E1.00000 F1800.000
G1 X111.363 Y84.171 E3.25089 F1080.000
G1 X99.553 Y84.171 E4.05507
G1 X99.593 Y75.710 E4.63122
G1 X116.871 Y75.707 E5.80775
G1 X123.182 Y74.103 E6.25118
G1 X128.255 Y68.347 E6.77356
G1 X128.223 Y49.159 E8.08017
G1 X182.983 Y49.159 E11.80893
G1 X183.019 Y69.410 E13.18791
G1 X188.065 Y75.347 E13.71844
G1 X191.596 Y81.513 E14.20226
G1 X199.629 Y89.480 E14.97263
G1 X200.443 Y96.876 E15.47932
G1 X199.801 Y104.262 E15.98416
G1 X191.767 Y111.724 E16.73076
G1 X188.131 Y118.718 E17.26753
G1 X182.980 Y124.855 E17.81306
G1 X180.799 Y128.580 E18.10700
G1 X180.799 Y149.527 E19.53330
G1 X163.113 Y153.192 E20.76319
G1 X153.269 Y154.006 E21.43578
G1 X143.268 Y153.121 E22.11945
G1 X114.639 Y160.841 E24.13845
G1 X99.572 Y160.841 E25.16445
G1 X99.572 Y151.772 E25.78200
G1 X111.263 Y151.768 E26.57807
G1 X111.363 Y117.311 E28.92431
G1 X110.806 Y117.227 F7200.000
G1 X110.806 Y84.728 E31.13721 F540.000
G1 X98.993 Y84.728 E31.94157
G1 X99.038 Y75.153 E32.59357
G1 X116.801 Y75.150 E33.80309
G1 X122.879 Y73.605 E34.23008
G1 X127.699 Y68.136 E34.72647
G1 X127.665 Y48.601 E36.05663
G1 X183.539 Y48.601 E39.86125
G1 X183.576 Y69.205 E41.26421
G1 X188.523 Y75.026 E41.78432
G1 X192.042 Y81.170 E42.26650
G1 X200.161 Y89.223 E43.04516
G1 X201.003 Y96.870 E43.56900
G1 X200.337 Y104.524 E44.09219
G1 X192.217 Y112.067 E44.84684
G1 X188.597 Y119.030 E45.38121
G1 X183.437 Y125.177 E45.92770
G1 X181.356 Y128.731 E46.20815
G1 X181.356 Y149.980 E47.65504
G1 X163.422 Y153.697 E48.90217
G1 X163.422 Y153.726 E48.90411
G1 X153.268 Y154.565 E49.59789
G1 X143.317 Y153.685 E50.27813
G1 X114.713 Y161.398 E52.29539
G1 X99.014 Y161.398 E53.36436
G1 X99.014 Y151.215 E54.05776
G1 X110.707 Y151.211 E54.85392
G1 X110.806 Y117.310 E57.16230
G1 X111.289 Y116.949 F7200.000
G1 F1800.000 E56.16230
G92 E0
G1 X122.657 Y115.204 F7200.000
G1 E1.00000 F1800.000
G1 X111.757 Y104.303 E2.05222 F1080.000
G1 X111.757 Y103.514 E2.10612
G1 X161.198 Y152.955 E6.87860
G1 X161.928 Y152.895 E6.92855
G1 X111.757 Y102.724 E11.77144
G1 X111.757 Y101.934 E11.82535
G1 X162.657 Y152.835 E16.73864
G1 X163.353 Y152.740 E16.78654
G1 X111.757 Y101.145 E21.76696
G1 X111.757 Y100.355 E21.82086
G1 X164.007 Y152.605 E26.86442
G1 X164.661 Y152.469 E26.91001
G1 X111.757 Y99.565 E32.01671
G1 X111.757 Y98.775 E32.07062
G1 X165.315 Y152.334 E37.24046
G1 X165.969 Y152.198 E37.28606
G1 X111.757 Y97.986 E42.51904
G1 X111.757 Y97.196 E42.57294
G1 X166.623 Y152.062 E47.86907
G1 X167.277 Y151.927 E47.91467
G1 X111.757 Y96.406 E53.27393
G1 X111.757 Y95.617 E53.32784
G1 X167.931 Y151.791 E58.75025
G1 X168.586 Y151.656 E58.79584
G1 X111.757 Y94.827 E64.28139
G1 X111.757 Y94.037 E64.33530
G1 X169.240 Y151.520 E69.88399
G1 X169.894 Y151.385 E69.92959
G1 X111.757 Y93.247 E75.54142
G1 X111.757 Y92.458 E75.59532
G1 X170.548 Y151.249 E81.27030
G1 X171.202 Y151.113 E81.31590
G1 X111.757 Y91.668 E87.05402
G1 X111.757 Y90.878 E87.10792
G1 X171.856 Y150.978 E92.90918
G1 X172.510 Y150.842 E92.95478
G1 X111.757 Y90.089 E98.81918
G1 X111.757 Y89.299 E98.87308
G1 X173.165 Y150.707 E104.80062
G1 X173.819 Y150.571 E104.84622
G1 X111.757 Y88.509 E110.83691
G1 X111.757 Y87.719 E110.89081
G1 X174.473 Y150.436 E116.94464
G1 X175.127 Y150.300 E116.99023
G1 X142.237 Y117.410 E120.16504
G1 X143.933 Y118.317 F7200.000
G1 X175.781 Y150.164 E123.23924 F1080.000
G1 X176.435 Y150.029 E123.28483
G1 X145.630 Y119.223 E126.25841
G1 X146.941 Y119.745 F7200.000
G1 X177.089 Y149.893 E129.16851 F1080.000
G1 X177.743 Y149.758 E129.21411
G1 X148.075 Y120.089 E132.07792
G1 X149.209 Y120.433 E132.15878
G1 X178.398 Y149.622 E134.97631
G1 X179.052 Y149.486 E135.02191
G1 X150.342 Y120.777 E137.79317
G1 X151.303 Y120.948 E137.85977
G1 X179.706 Y149.351 E140.60144
G1 X180.360 Y149.215 E140.64703
G1 X152.179 Y121.034 E143.36729
G1 X153.055 Y121.120 E143.42737
G1 X180.405 Y148.471 E146.06743
G1 X180.405 Y147.681 E146.12133
G1 X153.931 Y121.207 E148.67683
G1 X154.807 Y121.293 E148.73691
G1 X180.405 Y146.891 E151.20785
G1 X180.405 Y146.102 E151.26175
G1 X155.640 Y121.337 E153.65227
G1 X156.359 Y121.266 E153.70157
G1 X180.405 Y145.312 E156.02269
G1 X180.405 Y144.522 E156.07659
G1 X157.078 Y121.195 E158.32831
G1 X157.797 Y121.124 E158.37762
G1 X180.405 Y143.732 E160.55995
G1 X180.405 Y142.943 E160.61385
G1 X158.516 Y121.053 E162.72678
G1 X159.235 Y120.982 E162.77609
G1 X180.405 Y142.153 E164.81963
G1 X180.405 Y141.363 E164.87353
G1 X159.953 Y120.912 E166.84767
G1 X160.594 Y120.763 E166.89257
G1 X180.405 Y140.574 E168.80488
G1 X180.405 Y139.784 E168.85878
G1 X161.200 Y120.579 E170.71260
G1 X161.806 Y120.395 E170.75581
G1 X180.405 Y138.994 E172.55115
G1 X180.405 Y138.204 E172.60505
G1 X162.412 Y120.211 E174.34189
G1 X163.018 Y120.027 E174.38511
G1 X180.405 Y137.415 E176.06347
G1 X180.405 Y136.625 E176.11737
G1 X163.624 Y119.844 E177.73724
G1 X164.230 Y119.660 E177.78046
G1 X180.405 Y135.835 E179.34184
G1 X180.405 Y135.046 E179.39574
G1 X164.818 Y119.459 E180.90028
G1 X165.333 Y119.184 E180.94011
G1 X180.405 Y134.256 E182.39498
G1 X180.405 Y133.466 E182.44888
G1 X165.848 Y118.909 E183.85407
G1 X166.362 Y118.634 E183.89390
G1 X180.405 Y132.676 E185.24941
G1 X180.405 Y131.887 E185.30331
G1 X166.877 Y118.359 E186.60914
G1 X167.392 Y118.084 E186.64897
G1 X180.405 Y131.097 E187.90513
G1 X180.405 Y130.307 E187.95903
G1 X167.906 Y117.808 E189.16551
G1 X168.421 Y117.533 E189.20534
G1 X180.405 Y129.518 E190.36214
G1 X180.405 Y128.728 E190.41604
G1 X168.932 Y117.255 E191.52350
G1 X169.366 Y116.899 E191.56180
G1 X180.603 Y128.136 E192.64645
G1 X180.894 Y127.638 E192.68585
G1 X169.800 Y116.543 E193.75679
G1 X170.233 Y116.187 E193.79509
G1 X181.186 Y127.140 E194.85231
G1 X181.478 Y126.641 E194.89171
G1 X170.667 Y115.831 E195.93521
G1 X171.101 Y115.475 E195.97351
G1 X181.769 Y126.143 E197.00329
G1 X182.061 Y125.645 E197.04269
G1 X171.535 Y115.119 E198.05876
G1 X171.968 Y114.763 E198.09705
G1 X182.352 Y125.147 E199.09940
G1 X182.644 Y124.649 E199.13880
G1 X172.402 Y114.407 E200.12743
G1 X172.791 Y114.007 E200.16555
G1 X183.001 Y124.217 E201.15110
G1 X183.362 Y123.787 E201.18936
G1 X173.147 Y113.573 E202.17533
G1 X173.503 Y113.139 E202.21363
G1 X183.722 Y123.358 E203.20003
G1 X184.083 Y122.929 E203.23829
G1 X173.859 Y112.705 E204.22512
G1 X174.215 Y112.272 E204.26342
G1 X184.443 Y122.499 E205.25067
G1 X184.803 Y122.070 E205.28893
G1 X174.571 Y111.838 E206.27661
G1 X174.927 Y111.404 E206.31491
G1 X185.164 Y121.641 E207.30301
G1 X185.524 Y121.211 E207.34127
G1 X175.283 Y110.970 E208.32980
G1 X175.631 Y110.528 E208.36819
G1 X185.884 Y120.782 E209.35794
G1 X186.245 Y120.353 E209.39620
G1 X175.906 Y110.014 E210.39419
G1 X176.181 Y109.499 E210.43402
G1 X186.605 Y119.923 E211.44024
G1 X186.966 Y119.494 E211.47850
G1 X176.456 Y108.985 E212.49295
G1 X176.731 Y108.470 E212.53278
G1 X187.326 Y119.065 E213.55547
G1 X187.686 Y118.635 E213.59373
G1 X177.006 Y107.955 E214.62465
G1 X177.281 Y107.441 E214.66448
G1 X187.985 Y118.145 E215.69771
G1 X188.255 Y117.625 E215.73768
G1 X177.556 Y106.926 E216.77043
G1 X177.832 Y106.411 E216.81026
G1 X188.526 Y117.105 E217.84253
G1 X188.796 Y116.586 E217.88250
G1 X178.019 Y105.809 E218.92273
G1 X178.203 Y105.203 E218.96595
G1 X189.066 Y116.066 E220.01451
G1 X189.336 Y115.547 E220.05448
G1 X178.387 Y104.598 E221.11137
G1 X178.571 Y103.992 E221.15459
G1 X189.606 Y115.027 E222.21982
G1 X189.876 Y114.508 E222.25979
G1 X178.754 Y103.386 E223.33335
G1 X178.938 Y102.780 E223.37657
G1 X190.146 Y113.988 E224.45846
G1 X190.416 Y113.468 E224.49843
G1 X179.122 Y102.174 E225.58865
G1 X179.255 Y101.517 E225.63440
G1 X190.687 Y112.949 E226.73788
G1 X190.957 Y112.429 E226.77785
G1 X179.326 Y100.798 E227.90057
G1 X179.396 Y100.079 E227.94988
G1 X191.227 Y111.910 E229.09184
G1 X191.522 Y111.415 E229.13116
G1 X179.467 Y99.360 E230.29474
G1 X179.538 Y98.641 E230.34405
G1 X191.931 Y111.034 E231.54031
G1 X192.341 Y110.654 E231.57845
G1 X179.609 Y97.922 E232.80741
G1 X179.680 Y97.204 E232.85671
G1 X192.750 Y110.274 E234.11835
G1 X193.159 Y109.894 E234.15649
G1 X179.751 Y96.485 E235.45082
G1 X179.527 Y95.472 E235.52162
G1 X193.569 Y109.513 E236.87702
G1 X193.978 Y109.133 E236.91516
G1 X179.441 Y94.596 E238.31841
G1 X179.355 Y93.720 E238.37849
G1 X194.388 Y108.753 E239.82959
G1 X194.797 Y108.372 E239.86773
G1 X179.268 Y92.844 E241.36668
G1 X179.060 Y91.846 E241.43625
G1 X195.207 Y107.992 E242.99480
G1 X195.616 Y107.612 E243.03295
G1 X178.716 Y90.712 E244.66421
G1 X178.373 Y89.579 E244.74507
G1 X196.025 Y107.232 E246.44905
G1 X196.435 Y106.851 E246.48719
G1 X178.029 Y88.445 E248.26389
G1 X177.425 Y87.052 F7200.000
G1 X196.844 Y106.471 E250.13834 F1080.000
G1 X197.254 Y106.091 E250.17648
G1 X176.519 Y85.356 E252.17799
G1 X175.612 Y83.659 F7200.000
G1 X197.663 Y105.710 E254.30654 F1080.000
G1 X198.073 Y105.330 E254.34468
G1 X142.295 Y49.552 E259.72877
G1 X143.085 Y49.552 E259.78267
G1 X198.482 Y104.950 E265.13005
G1 X198.891 Y104.570 E265.16819
G1 X143.874 Y49.552 E270.47887
G1 X144.664 Y49.552 E270.53277
G1 X199.301 Y104.189 E275.80674
G1 X199.466 Y103.565 E275.85082
G1 X145.454 Y49.552 E281.06452
G1 X146.243 Y49.552 E281.11842
G1 X199.529 Y102.838 E286.26199
G1 X199.593 Y102.112 E286.31177
G1 X147.033 Y49.552 E291.38521
G1 X147.823 Y49.552 E291.43911
G1 X199.656 Y101.385 E296.44242
G1 X199.719 Y100.659 E296.49220
G1 X148.613 Y49.552 E301.42538
G1 X149.402 Y49.552 E301.47928
G1 X199.782 Y99.932 E306.34233
G1 X199.845 Y99.206 E306.39211
G1 X150.192 Y49.552 E311.18502
G1 X150.982 Y49.552 E311.23893
G1 X199.908 Y98.479 E315.96171
G1 X199.972 Y97.753 E316.01149
G1 X151.771 Y49.552 E320.66414
G1 X152.561 Y49.552 E320.71805
G1 X200.035 Y97.026 E325.30057
G1 X199.969 Y96.171 E325.35911
G1 X153.351 Y49.552 E329.85909
G1 X154.141 Y49.552 E329.91299
G1 X199.872 Y95.284 E334.32731
G1 X199.774 Y94.396 E334.38824
G1 X154.930 Y49.552 E338.71691
G1 X155.720 Y49.552 E338.77081
G1 X199.676 Y93.509 E343.01382
G1 X199.579 Y92.622 E343.07476
G1 X156.510 Y49.552 E347.23211
G1 X157.299 Y49.552 E347.28602
G1 X199.481 Y91.734 E351.35772
G1 X199.383 Y90.847 E351.41865
G1 X158.089 Y49.552 E355.40469
G1 X158.879 Y49.552 E355.45860
G1 X199.286 Y89.959 E359.35899
G1 F1800.000 E358.35899
G92 E0
G1 X190.490 Y80.374 F7200.000
G1 E1.00000 F1800.000
G1 X159.669 Y49.552 E3.97512 F1080.000
G1 X160.458 Y49.552 E4.02902
G1 X189.431 Y78.525 E6.82571
G1 F1800.000 E5.82571
G92 E0
G1 X188.372 Y76.677 F7200.000
G1 E1.00000 F1800.000
G1 X161.248 Y49.552 E3.61826 F1080.000
G1 X162.038 Y49.552 E3.67216
G1 X185.937 Y73.452 E5.97913
G1 F1800.000 E4.97913
G92 E0
G1 X182.625 Y69.350 F7200.000
G1 E1.00000 F1800.000
G1 X162.827 Y49.552 E2.91105 F1080.000
G1 X163.617 Y49.552 E2.96496
G1 X182.624 Y68.559 E4.79965
G1 X182.623 Y67.768 E4.85364
G1 X164.407 Y49.552 E6.61197
G1 X165.197 Y49.552 E6.66587
G1 X182.621 Y66.977 E8.34783
G1 X182.620 Y66.186 E8.40183
G1 X165.986 Y49.552 E10.00742
G1 X166.776 Y49.552 E10.06132
G1 X182.618 Y65.395 E11.59055
G1 X182.617 Y64.604 E11.64455
G1 X167.566 Y49.552 E13.09741
G1 X168.355 Y49.552 E13.15131
G1 X182.616 Y63.813 E14.52780
G1 X182.614 Y63.021 E14.58180
