; generated by Slic3r 1.0.0RC2 on 2014-05-19 at 20:08:46

; layer_height = 0.3
; perimeters = 4
; top_solid_layers = 3
; bottom_solid_layers = 3
; fill_density = 0.1
; perimeter_speed = 60
; infill_speed = 60
; travel_speed = 120
; nozzle_diameter = 0.4
; filament_diameter = 1.75
; extrusion_multiplier = 0.98
; perimeters extrusion width = 0.40mm
; infill extrusion width = 0.42mm
; solid infill extrusion width = 0.42mm
; top infill extrusion width = 0.42mm
; first layer extrusion width = 0.80mm

G21 ; set units to millimeters
M107
M104 S220 ; set temperature
G28 ; home all axes
M106 S255;
G1 Z200 F1200 ; lift nozzle
M109 S220 ; wait for temperature to be reached
G90 ; use absolute coordinates
G92 E0
M82 ; use absolute distances for extrusion
G1 F1800.000 E-1.00000
G92 E0
G1 Z0.400 F7200.000
G1 X113.120 Y86.152 F7200.000
G1 E1.00000 F1800.000
G1 X120.860 Y75.522 E2.53045 F1080.000
G1 X121.310 Y74.972 E2.61316
G1 X121.800 Y74.472 E2.69464
G1 X122.880 Y73.502 E2.86360
G1 X123.430 Y73.062 E2.94558
G1 X124.020 Y72.682 E3.02726
G1 X135.430 Y66.112 E4.55969
G1 X136.060 Y65.792 E4.64193
G1 X136.730 Y65.542 E4.72516
G1 X138.100 Y65.102 E4.89264
G1 X138.770 Y64.922 E4.97338
G1 X139.450 Y64.812 E5.05356
G1 X152.550 Y63.442 E6.58658
G1 X153.250 Y63.412 E6.66813
G1 X153.950 Y63.442 E6.74968
G1 X155.390 Y63.592 E6.91818
G1 X156.080 Y63.702 E6.99951
G1 X156.760 Y63.882 E7.08138
G1 X169.280 Y67.942 E8.61328
G1 X169.930 Y68.192 E8.69434
G1 X170.540 Y68.502 E8.77398
G1 X171.800 Y69.222 E8.94288
G1 X172.400 Y69.612 E9.02617
G1 X172.960 Y70.052 E9.10907
G1 X182.750 Y78.842 E10.64041
G1 X183.250 Y79.342 E10.72271
G1 X183.690 Y79.892 E10.80469
G1 X184.540 Y81.062 E10.97301
G1 X184.920 Y81.652 E11.05469
G1 X185.240 Y82.272 E11.13590
G1 X190.600 Y94.272 E12.66557
G1 X190.850 Y94.932 E12.74771
G1 X191.040 Y95.612 E12.82989
G1 X191.340 Y97.022 E12.99767
G1 X191.450 Y97.722 E13.08015
G1 X191.480 Y98.432 E13.16286
G1 X191.470 Y111.572 E14.69222
G1 X191.440 Y112.242 E14.77028
G1 X191.340 Y112.912 E14.84913
G1 X191.050 Y114.322 E15.01667
G1 X190.860 Y115.032 E15.10221
G1 X190.600 Y115.712 E15.18695
G1 X185.240 Y127.722 E16.71768
G1 X184.920 Y128.342 E16.79889
G1 X184.540 Y128.932 E16.88057
G1 X183.690 Y130.102 E17.04889
G1 X183.250 Y130.652 E17.13087
G1 X182.750 Y131.152 E17.21317
G1 X172.960 Y139.942 E18.74452
G1 X172.420 Y140.372 E18.82486
G1 X171.840 Y140.752 E18.90556
G1 X170.580 Y141.482 E19.07505
G1 X169.940 Y141.802 E19.15833
G1 X169.280 Y142.062 E19.24089
G1 X156.760 Y146.112 E20.77244
G1 X156.080 Y146.292 E20.85431
G1 X155.390 Y146.402 E20.93563
G1 X153.950 Y146.552 E21.10414
G1 X153.250 Y146.582 E21.18569
G1 X152.550 Y146.552 E21.26724
G1 X139.450 Y145.182 E22.80026
G1 X138.750 Y145.072 E22.88273
G1 X138.050 Y144.882 E22.96715
G1 X136.680 Y144.432 E23.13499
G1 X136.040 Y144.182 E23.21496
G1 X135.430 Y143.872 E23.29460
G1 X124.020 Y137.302 E24.82703
G1 X123.440 Y136.922 E24.90774
G1 X122.900 Y136.492 E24.98808
G1 X121.870 Y135.572 E25.14882
G1 X121.880 Y135.562 E25.15046
G1 X121.440 Y135.162 E25.21967
G1 X120.860 Y134.472 E25.32459
G1 X113.120 Y123.842 E26.85503
G1 X112.740 Y123.252 E26.93671
G1 X112.420 Y122.632 E27.01792
G1 X111.830 Y121.312 E27.18620
G1 X111.580 Y120.652 E27.26835
G1 X111.390 Y119.962 E27.35165
G1 X108.660 Y107.102 E28.88177
G1 X108.550 Y106.412 E28.96310
G1 X108.520 Y105.712 E29.04465
G1 X108.520 Y104.272 E29.21225
G1 X108.550 Y103.572 E29.29379
G1 X108.660 Y102.872 E29.37627
G1 X111.390 Y90.022 E30.90526
G1 X111.580 Y89.342 E30.98743
G1 X111.830 Y88.682 E31.06958
G1 X112.420 Y87.362 E31.23786
G1 X112.740 Y86.742 E31.31907
G1 X113.062 Y86.242 E31.38828
G1 F1800.000 E30.38828
G92 E0
G1 X146.018 Y101.474 F7200.000
G1 E1.00000 F1800.000
G1 X154.582 Y101.474 E1.99687 F540.000
G1 X154.582 Y108.562 E2.82196
G1 X146.018 Y108.562 E3.81883
G1 X146.018 Y101.581 E4.63145
G1 X146.732 Y102.188 F7200.000
G1 X153.868 Y102.188 E5.46208 F540.000
G1 X153.868 Y107.848 E6.12092
G1 X146.732 Y107.848 E6.95155
G1 X146.732 Y102.295 E7.59793
G1 X147.446 Y102.902 F7200.000
G1 X153.154 Y102.902 E8.26232 F540.000
G1 X153.154 Y107.134 E8.75491
G1 X147.446 Y107.134 E9.41931
G1 X147.446 Y103.009 E9.89944
G1 X148.160 Y103.616 F7200.000
G1 X152.440 Y103.616 E10.39759 F540.000
G1 X152.440 Y106.420 E10.72394
G1 X148.160 Y106.420 E11.22209
G1 X148.160 Y103.723 E11.53598
G1 X148.160 Y102.902 F7200.000
G1 X131.113 Y89.660 F7200.000
G1 X132.932 Y87.306 E11.88219 F1080.000
G1 X130.854 Y85.606 E12.19463
G1 X130.209 Y84.758 E12.31868
G1 X129.634 Y83.604 E12.46876
G1 X129.153 Y82.205 E12.64096
G1 X128.932 Y81.212 E12.75933
G1 X129.890 Y81.534 E12.87693
G1 X131.231 Y82.160 E13.04920
G1 X132.321 Y82.853 E13.19957
G1 X133.102 Y83.590 E13.32449
G1 X134.585 Y85.830 E13.63716
G1 X138.097 Y83.654 E14.11804
G1 X141.620 Y81.769 E14.58311
G1 X140.418 Y79.364 E14.89600
G1 X140.170 Y78.321 E15.02077
G1 X140.115 Y77.031 E15.17104
G1 X140.244 Y75.556 E15.34344
G1 X140.445 Y74.564 E15.46122
G1 X141.190 Y75.251 E15.57926
G1 X142.168 Y76.373 E15.75252
G1 X142.882 Y77.441 E15.90198
G1 X143.293 Y78.432 E16.02685
G1 X143.737 Y81.066 E16.33770
G1 X147.850 Y80.519 E16.82060
G1 X151.787 Y80.231 E17.28007
G1 X151.693 Y77.554 E17.59178
G1 X151.891 Y76.493 E17.71745
G1 X152.363 Y75.297 E17.86706
G1 X153.084 Y73.999 E18.03991
G1 X153.671 Y73.174 E18.15777
G1 X154.073 Y74.106 E18.27597
G1 X154.511 Y75.523 E18.44858
G1 X154.724 Y76.788 E18.59787
G1 X154.696 Y77.863 E18.72307
G1 X154.031 Y80.458 E19.03480
G1 X157.943 Y81.603 E19.50913
G1 X161.748 Y82.975 E19.97998
G1 X162.729 Y80.476 E20.29246
G1 X163.341 Y79.592 E20.41757
G1 X164.261 Y78.690 E20.56758
G1 X165.444 Y77.800 E20.73993
G1 X166.318 Y77.282 E20.85817
G1 X166.305 Y78.292 E20.97569
G1 X166.126 Y79.769 E21.14890
G1 X165.807 Y81.021 E21.29922
G1 X165.351 Y81.980 E21.42285
G1 X163.668 Y84.076 E21.73575
G1 X166.789 Y86.718 E22.21161
G1 X169.693 Y89.504 E22.68009
G1 X171.618 Y87.643 E22.99172
G1 X172.544 Y87.076 E23.11810
G1 X173.745 Y86.628 E23.26735
G1 X175.191 Y86.300 E23.43983
G1 X176.199 Y86.183 E23.55793
G1 X175.779 Y87.103 E23.67564
G1 X175.013 Y88.376 E23.84845
G1 X174.217 Y89.382 E23.99781
G1 X173.401 Y90.081 E24.12291
G1 X171.023 Y91.318 E24.43484
G1 X172.787 Y94.979 E24.90789
G1 X174.325 Y98.720 E25.37861
G1 X176.831 Y97.800 E25.68937
G1 X177.902 Y97.659 E25.81502
G1 X179.183 Y97.741 E25.96445
G1 X180.640 Y98.024 E26.13721
G1 X181.608 Y98.329 E26.25531
G1 X180.847 Y98.999 E26.37338
G1 X179.634 Y99.854 E26.54614
G1 X178.496 Y100.448 E26.69543
G1 X177.471 Y100.751 E26.81987
G1 X174.780 Y100.909 E27.13368
G1 X174.913 Y104.979 E27.60759
G1 X174.779 Y109.043 E28.08081
G1 X177.467 Y109.201 E28.39412
G1 X178.492 Y109.508 E28.51876
G1 X179.637 Y110.105 E28.66900
G1 X180.849 Y110.955 E28.84135
G1 X181.611 Y111.626 E28.95949
G1 X180.640 Y111.928 E29.07787
G1 X179.183 Y112.216 E29.25070
G1 X177.901 Y112.294 E29.40016
G1 X176.841 Y112.158 E29.52457
G1 X174.335 Y111.207 E29.83655
G1 X172.772 Y115.010 E30.31511
G1 X171.044 Y118.616 E30.78056
G1 X173.394 Y119.869 E31.09054
G1 X174.217 Y120.571 E31.21642
G1 X175.012 Y121.580 E31.36591
G1 X175.780 Y122.856 E31.53924
G1 X176.200 Y123.775 E31.65687
G1 X175.195 Y123.659 E31.77468
G1 X173.749 Y123.326 E31.94732
G1 X172.540 Y122.874 E32.09753
G1 X171.624 Y122.318 E32.22229
G1 X169.704 Y120.429 E32.53578
G1 X166.746 Y123.275 E33.01352
G1 X163.684 Y125.866 E33.48041
G1 X165.347 Y127.969 E33.79250
G1 X165.808 Y128.938 E33.91737
G1 X166.126 Y130.184 E34.06701
G1 X166.305 Y131.660 E34.24008
G1 X166.318 Y132.672 E34.35788
G1 X165.442 Y132.156 E34.47630
G1 X164.264 Y131.270 E34.64787
G1 X163.341 Y130.361 E34.79869
G1 X162.728 Y129.479 E34.92360
G1 X161.747 Y126.980 E35.23613
G1 X157.862 Y128.379 E35.71676
G1 X154.029 Y129.485 E36.18104
G1 X154.696 Y132.089 E36.49392
G1 X154.724 Y133.164 E36.61912
G1 X154.511 Y134.429 E36.76841
G1 X154.073 Y135.848 E36.94120
G1 X153.671 Y136.782 E37.05961
G1 X153.084 Y135.953 E37.17779
G1 X152.363 Y134.660 E37.35011
G1 X151.891 Y133.461 E37.50013
G1 X151.693 Y132.398 E37.62599
G1 X151.788 Y129.711 E37.93892
G1 X147.801 Y129.429 E38.40413
G1 X143.733 Y128.881 E38.88181
G1 X143.292 Y131.526 E39.19395
G1 X142.882 Y132.512 E39.31818
G1 X142.167 Y133.586 E39.46844
G1 X141.190 Y134.707 E39.64140
G1 X140.446 Y135.393 E39.75928
G1 X140.244 Y134.396 E39.87766
G1 X140.115 Y132.921 E40.05006
G1 X140.170 Y131.632 E40.20020
G1 X140.417 Y130.595 E40.32429
G1 X141.548 Y128.333 E40.61858
G1 X139.468 Y127.033 E40.90404
G1 X138.017 Y126.255 E41.09569
G1 X134.573 Y124.146 E41.56575
G1 X133.102 Y126.368 E41.87597
G1 X132.321 Y127.105 E42.00089
G1 X131.234 Y127.796 E42.15081
G1 X129.893 Y128.417 E42.32278
G1 X128.933 Y128.740 E42.44077
G1 X129.153 Y127.754 E42.55832
G1 X129.635 Y126.353 E42.73086
G1 X130.210 Y125.193 E42.88156
G1 X130.854 Y124.346 E43.00538
G1 X132.944 Y122.636 E43.31959
G1 X130.457 Y119.450 E43.79000
G1 X129.617 Y118.214 E43.96393
G1 X128.125 Y116.083 E44.26669
G1 X125.886 Y117.514 E44.57601
G1 X124.883 Y117.868 E44.69980
G1 X123.610 Y118.055 E44.84955
G1 X122.119 Y118.080 E45.02307
G1 X121.114 Y117.986 E45.14061
G1 X121.718 Y117.170 E45.25874
G1 X122.726 Y116.088 E45.43086
G1 X123.723 Y115.264 E45.58147
G1 X124.666 Y114.750 E45.70638
G1 X127.251 Y114.025 E46.01890
G1 X126.264 Y109.995 E46.50189
G1 X125.560 Y106.109 E46.96147
G1 X122.913 Y106.487 E47.27269
G1 X121.837 Y106.403 E47.39834
G1 X120.598 Y106.058 E47.54802
G1 X119.237 Y105.477 E47.72021
G1 X118.352 Y104.977 E47.83856
G1 X119.234 Y104.483 E47.95629
G1 X120.598 Y103.900 E48.12890
G1 X121.841 Y103.554 E48.27914
G1 X122.903 Y103.467 E48.40309
G1 X125.558 Y103.878 E48.71582
G1 X126.268 Y99.935 E49.18201
G1 X127.257 Y95.899 E49.66568
G1 X124.657 Y95.202 E49.97904
G1 X123.723 Y94.689 E50.10299
G1 X122.725 Y93.869 E50.25331
G1 X121.720 Y92.784 E50.42554
G1 X121.118 Y91.972 E50.54320
G1 X122.123 Y91.878 E50.66075
G1 X123.609 Y91.898 E50.83374
G1 X124.878 Y92.088 E50.98309
G1 X125.898 Y92.448 E51.10889
G1 X128.168 Y93.867 E51.42045
G1 X130.430 Y90.542 E51.88854
G1 X131.047 Y89.744 E52.00592
G1 X130.548 Y89.223 F7200.000
G1 X131.942 Y87.419 E52.27125 F1080.000
G1 X130.337 Y86.106 E52.51265
G1 X129.600 Y85.137 E52.65435
G1 X128.974 Y83.880 E52.81771
G1 X128.464 Y82.399 E53.00004
G1 X128.123 Y80.863 E53.18318
G1 X128.125 Y80.366 E53.24096
G1 X128.723 Y80.388 E53.31059
G1 X130.156 Y80.870 E53.48655
G1 X131.575 Y81.533 E53.66887
G1 X132.762 Y82.287 E53.83257
G1 X133.652 Y83.127 E53.97499
G1 X134.797 Y84.858 E54.21653
G1 X137.742 Y83.034 E54.61962
G1 X140.671 Y81.467 E55.00624
G1 X139.742 Y79.610 E55.24791
G1 X139.459 Y78.420 E55.39026
G1 X139.400 Y77.015 E55.55388
G1 X139.536 Y75.454 E55.73633
G1 X139.842 Y73.939 E55.91613
G1 X140.065 Y73.480 E55.97557
G1 X140.599 Y73.735 E56.04448
G1 X141.703 Y74.752 E56.21921
G1 X142.737 Y75.939 E56.40233
G1 X143.514 Y77.103 E56.56525
G1 X143.984 Y78.233 E56.70772
G1 X144.327 Y80.267 E56.94777
G1 X147.777 Y79.809 E57.35286
G1 X151.049 Y79.569 E57.73474
G1 X150.976 Y77.501 E57.97559
G1 X151.201 Y76.294 E58.11843
G1 X151.716 Y74.991 E58.28149
G1 X152.479 Y73.618 E58.46436
G1 X153.357 Y72.381 E58.64095
G1 X153.786 Y72.040 E58.70466
G1 X154.145 Y72.470 E58.76990
G1 X154.744 Y73.858 E58.94590
G1 X155.207 Y75.357 E59.12853
G1 X155.440 Y76.737 E59.29138
G1 X155.408 Y77.962 E59.43400
G1 X154.894 Y79.966 E59.67478
G1 X158.165 Y80.924 E60.07147
G1 X161.337 Y82.068 E60.46388
G1 X162.094 Y80.138 E60.70523
G1 X162.792 Y79.130 E60.84793
G1 X163.794 Y78.147 E61.01129
G1 X165.047 Y77.206 E61.19364
G1 X166.349 Y76.434 E61.36984
G1 X166.906 Y76.296 E61.43664
G1 X167.039 Y76.810 E61.49850
G1 X167.019 Y78.340 E61.67650
G1 X166.829 Y79.901 E61.85955
G1 X166.482 Y81.264 E62.02331
G1 X165.960 Y82.362 E62.16477
G1 X164.661 Y83.981 E62.40639
G1 X167.267 Y86.187 E62.80385
G1 X169.691 Y88.513 E63.19482
G1 X171.178 Y87.075 E63.43557
G1 X172.230 Y86.431 E63.57910
G1 X173.540 Y85.942 E63.74192
G1 X175.070 Y85.595 E63.92448
G1 X176.584 Y85.420 E64.10180
G1 X177.155 Y85.514 E64.16917
G1 X177.058 Y86.021 E64.22924
G1 X176.412 Y87.437 E64.41037
G1 X175.602 Y88.783 E64.59324
G1 X174.734 Y89.879 E64.75595
G1 X173.804 Y90.677 E64.89863
G1 X171.967 Y91.632 E65.13953
G1 X173.440 Y94.688 E65.53440
G1 X174.724 Y97.813 E65.92757
G1 X176.660 Y97.102 E66.16755
G1 X177.878 Y96.942 E66.31053
G1 X179.274 Y97.031 E66.47341
G1 X180.816 Y97.331 E66.65620
G1 X182.281 Y97.791 E66.83491
G1 X182.765 Y98.101 E66.90175
G1 X182.464 Y98.526 E66.96238
G1 X181.290 Y99.561 E67.14455
G1 X180.006 Y100.465 E67.32734
G1 X178.765 Y101.113 E67.49024
G1 X177.595 Y101.459 E67.63229
G1 X175.516 Y101.581 E67.87466
G1 X175.628 Y104.979 E68.27031
G1 X175.516 Y108.371 E68.66527
G1 X177.592 Y108.493 E68.90728
G1 X178.762 Y108.843 E69.04953
G1 X180.008 Y109.494 E69.21310
G1 X181.292 Y110.393 E69.39549
G1 X182.453 Y111.416 E69.57557
G1 X182.766 Y111.876 E69.64045
G1 X182.302 Y112.159 E69.70374
G1 X180.816 Y112.621 E69.88490
G1 X179.274 Y112.926 E70.06777
G1 X177.877 Y113.011 E70.23066
G1 X176.667 Y112.856 E70.37273
G1 X174.732 Y112.121 E70.61365
G1 X173.424 Y115.302 E71.01388
G1 X171.982 Y118.307 E71.40187
G1 X173.798 Y119.276 E71.64146
G1 X174.734 Y120.074 E71.78457
G1 X175.601 Y121.173 E71.94752
G1 X176.412 Y122.522 E72.13077
G1 X177.056 Y123.928 E72.31067
G1 X177.155 Y124.465 E72.37422
G1 X176.607 Y124.541 E72.43870
G1 X175.073 Y124.363 E72.61838
G1 X173.543 Y124.011 E72.80110
G1 X172.227 Y123.520 E72.96461
G1 X171.182 Y122.885 E73.10687
G1 X169.699 Y121.426 E73.34909
G1 X167.218 Y123.812 E73.74969
G1 X164.672 Y125.965 E74.13775
G1 X165.958 Y127.590 E74.37893
G1 X166.482 Y128.694 E74.52128
G1 X166.829 Y130.052 E74.68436
G1 X167.019 Y131.612 E74.86731
G1 X167.039 Y133.154 E75.04670
G1 X166.906 Y133.683 E75.11028
G1 X166.372 Y133.533 E75.17481
G1 X165.045 Y132.751 E75.35414
G1 X163.796 Y131.812 E75.53593
G1 X162.792 Y130.823 E75.70001
G1 X162.094 Y129.818 E75.84240
G1 X161.336 Y127.888 E76.08379
G1 X158.081 Y129.059 E76.48641
G1 X154.893 Y129.979 E76.87264
G1 X155.408 Y131.990 E77.11424
G1 X155.440 Y133.215 E77.25686
G1 X155.207 Y134.595 E77.41971
G1 X154.744 Y136.095 E77.60248
G1 X154.138 Y137.503 E77.78090
G1 X153.786 Y137.939 E77.84616
G1 X153.370 Y137.594 E77.90910
G1 X152.479 Y136.334 E78.08864
G1 X151.716 Y134.966 E78.27095
G1 X151.201 Y133.659 E78.43449
G1 X150.976 Y132.451 E78.57748
G1 X151.050 Y130.376 E78.81920
G1 X147.726 Y130.140 E79.20705
G1 X144.324 Y129.681 E79.60655
G1 X143.983 Y131.725 E79.84772
G1 X143.514 Y132.850 E79.98955
G1 X142.735 Y134.021 E80.15320
G1 X141.703 Y135.206 E80.33611
G1 X140.584 Y136.237 E80.51332
G1 X140.067 Y136.499 E80.58070
G1 X139.845 Y136.025 E80.64168
G1 X139.536 Y134.498 E80.82288
G1 X139.400 Y132.937 E81.00534
G1 X139.459 Y131.533 E81.16887
G1 X139.742 Y130.349 E81.31053
G1 X140.619 Y128.595 E81.53882
G1 X139.110 Y127.652 E81.74595
G1 X137.662 Y126.875 E81.93711
G1 X134.789 Y125.113 E82.32941
G1 X133.652 Y126.831 E82.56920
G1 X132.762 Y127.671 E82.71161
G1 X131.577 Y128.424 E82.87498
G1 X130.158 Y129.081 E83.05701
G1 X128.698 Y129.573 E83.23639
G1 X128.125 Y129.610 E83.30318
G1 X128.123 Y129.090 E83.36366
G1 X128.464 Y127.560 E83.54613
G1 X128.974 Y126.077 E83.72870
G1 X129.601 Y124.814 E83.89269
G1 X130.337 Y123.846 E84.03422
G1 X131.950 Y122.526 E84.27690
G1 X129.880 Y119.873 E84.66859
G1 X127.933 Y117.054 E85.06740
G1 X126.201 Y118.160 E85.30660
G1 X125.055 Y118.565 E85.44804
G1 X123.668 Y118.768 E85.61123
G1 X122.092 Y118.794 E85.79467
G1 X120.547 Y118.650 E85.97522
G1 X120.016 Y118.465 E86.04072
G1 X120.234 Y117.974 E86.10326
G1 X121.168 Y116.713 E86.28592
G1 X122.235 Y115.567 E86.46813
G1 X123.321 Y114.669 E86.63216
G1 X124.395 Y114.085 E86.77448
G1 X126.392 Y113.524 E87.01592
G1 X125.563 Y110.133 E87.42222
G1 X124.981 Y106.913 E87.80308
G1 X122.936 Y107.205 E88.04353
G1 X121.712 Y107.109 E88.18641
G1 X120.361 Y106.733 E88.34964
G1 X118.921 Y106.118 E88.53191
G1 X117.545 Y105.342 E88.71574
G1 X117.150 Y104.987 E88.77761
G1 X117.560 Y104.602 E88.84308
G1 X118.918 Y103.841 E89.02431
G1 X120.361 Y103.225 E89.20687
G1 X121.715 Y102.848 E89.37050
G1 X122.928 Y102.748 E89.51218
