; generated by Slic3r 1.0.0RC3 on 2014-03-11 at 20:25:48

; layer_height = 0.3
; perimeters = 2
; top_solid_layers = 3
; bottom_solid_layers = 3
; fill_density = 0.1
; perimeter_speed = 60
; infill_speed = 60
; travel_speed = 120
; nozzle_diameter = 0.4
; filament_diameter = 1.75
; extrusion_multiplier = 0.98
; perimeters extrusion width = 0.40mm
; infill extrusion width = 0.42mm
; solid infill extrusion width = 0.42mm
; top infill extrusion width = 0.42mm
; first layer extrusion width = 0.60mm

G21 ; set units to millimeters
M107
M104 S220 ; set temperature
G28 ; home all axes
M106 S255;
G1 Z200 F1200 ; lift nozzle
M109 S220 ; wait for temperature to be reached
G90 ; use absolute coordinates
G92 E0
M82 ; use absolute distances for extrusion
G1 F1800.000 E-1.00000
G92 E0
G1 Z0.300 F7200.000
G1 X117.838 Y83.168 F7200.000
G1 E1.00000 F1800.000
G1 X118.658 Y82.178 E1.08753 F1080.000
G1 X119.648 Y81.358 E1.17507
G1 X123.068 Y79.078 E1.45495
G1 X123.958 Y78.588 E1.52413
G1 X124.908 Y78.238 E1.59307
G1 X125.508 Y78.088 E1.63518
G1 X129.468 Y77.308 E1.91001
G1 X130.248 Y77.198 E1.96364
G1 X131.038 Y77.188 E2.01744
G1 X180.108 Y79.448 E5.36228
G1 X181.518 Y79.668 E5.45945
G1 X182.848 Y80.188 E5.55669
G1 X184.028 Y80.978 E5.65338
G1 X185.018 Y82.008 E5.75066
G1 X185.748 Y83.228 E5.84747
G1 X186.208 Y84.578 E5.94458
G1 X186.368 Y85.998 E6.04189
G1 X186.368 Y96.178 E6.73507
G1 X186.198 Y97.658 E6.83651
G1 X185.698 Y99.058 E6.93773
G1 X171.978 Y127.168 E9.06763
G1 X171.568 Y127.878 E9.12346
G1 X170.978 Y128.778 E9.19674
G1 X170.218 Y129.738 E9.28011
G1 X169.288 Y130.538 E9.36364
G1 X167.778 Y131.608 E9.48966
G1 X166.608 Y132.268 E9.58113
G1 X165.328 Y132.678 E9.67265
G1 X163.988 Y132.818 E9.76439
G1 X143.978 Y132.818 E11.12692
G1 X120.038 Y132.268 E12.75748
G1 X118.778 Y132.108 E12.84397
G1 X117.578 Y131.718 E12.92988
G1 X116.468 Y131.108 E13.01613
G1 X115.498 Y130.288 E13.10262
G1 X114.708 Y129.298 E13.18886
G1 X114.118 Y128.178 E13.27506
G1 X113.748 Y126.968 E13.36122
G1 X113.628 Y125.708 E13.44740
G1 X113.638 Y94.268 E15.58823
G1 X113.668 Y93.628 E15.63185
G1 X113.768 Y92.988 E15.67596
G1 X114.568 Y88.958 E15.95573
G1 X114.938 Y87.728 E16.04319
G1 X115.548 Y86.588 E16.13123
G1 X117.792 Y83.237 E16.40580
G1 F1800.000 E15.40580
G92 E0
G1 X169.883 Y90.937 F7200.000
G1 E1.00000 F1800.000
G1 X170.137 Y89.648 E1.08941 F540.000
G1 X170.864 Y88.555 E1.17883
G1 X171.954 Y87.823 E1.26825
G1 X173.241 Y87.564 E1.35767
G1 X174.530 Y87.817 E1.44709
G1 X175.623 Y88.545 E1.53651
G1 X176.355 Y89.635 E1.62592
G1 X176.614 Y90.922 E1.71533
G1 X176.361 Y92.211 E1.80475
G1 X175.633 Y93.304 E1.89417
G1 X174.543 Y94.036 E1.98359
G1 X173.256 Y94.295 E2.07300
G1 X171.967 Y94.041 E2.16241
G1 X170.874 Y93.314 E2.25183
G1 X170.142 Y92.224 E2.34124
G1 X169.900 Y91.019 E2.42497
G1 X170.451 Y90.935 F7200.000
G1 X170.662 Y89.864 E2.49929 F540.000
G1 X171.266 Y88.955 E2.57362
G1 X172.173 Y88.347 E2.64795
G1 X173.243 Y88.132 E2.72227
G1 X174.314 Y88.343 E2.79660
G1 X175.223 Y88.947 E2.87093
G1 X175.831 Y89.853 E2.94525
G1 X176.046 Y90.923 E3.01957
G1 X175.835 Y91.995 E3.09390
G1 X175.231 Y92.903 E3.16823
G1 X174.325 Y93.512 E3.24255
G1 X173.255 Y93.727 E3.31688
G1 X172.184 Y93.516 E3.39120
G1 X171.275 Y92.912 E3.46553
G1 X170.666 Y92.005 E3.53985
G1 X170.468 Y91.017 E3.60849
G1 X169.987 Y90.627 F7200.000
G1 F1800.000 E2.60849
G92 E0
G1 X157.248 Y90.922 F7200.000
G1 E1.00000 F1800.000
G1 X156.995 Y92.211 E1.08942 F540.000
G1 X156.267 Y93.304 E1.17883
G1 X155.177 Y94.036 E1.26826
G1 X153.890 Y94.295 E1.35766
G1 X152.601 Y94.041 E1.44708
G1 X151.508 Y93.314 E1.53650
G1 X150.776 Y92.224 E1.62591
G1 X150.517 Y90.937 E1.71533
G1 X150.771 Y89.648 E1.80475
G1 X151.498 Y88.555 E1.89416
G1 X152.588 Y87.823 E1.98358
G1 X153.875 Y87.564 E2.07300
G1 X155.164 Y87.817 E2.16241
G1 X156.257 Y88.545 E2.25183
G1 X156.989 Y89.635 E2.34124
G1 X157.232 Y90.840 E2.42497
G1 X156.680 Y90.923 F7200.000
G1 X156.469 Y91.995 E2.49930 F540.000
G1 X155.865 Y92.903 E2.57362
G1 X154.959 Y93.512 E2.64795
G1 X153.889 Y93.727 E2.72227
G1 X152.818 Y93.516 E2.79660
G1 X151.909 Y92.912 E2.87092
G1 X151.300 Y92.006 E2.94525
G1 X151.085 Y90.935 E3.01957
G1 X151.296 Y89.864 E3.09390
G1 X151.900 Y88.955 E3.16822
G1 X152.807 Y88.347 E3.24255
G1 X153.877 Y88.132 E3.31688
G1 X154.948 Y88.343 E3.39120
G1 X155.857 Y88.947 E3.46553
G1 X156.465 Y89.853 E3.53985
G1 X156.664 Y90.842 E3.60849
G1 X157.144 Y91.232 F7200.000
G1 F1800.000 E2.60849
G92 E0
G1 X154.527 Y104.204 F7200.000
G1 E1.00000 F1800.000
G1 X155.119 Y104.598 E1.04840 F1080.000
G1 X155.515 Y105.188 E1.09680
G1 X155.656 Y105.885 E1.14520
G1 X155.487 Y106.739 E1.20447
G1 X156.755 Y106.988 E1.29246
G1 X159.232 Y108.635 E1.49498
G1 X160.890 Y111.105 E1.69750
G1 X161.476 Y114.021 E1.90003
G1 X160.902 Y116.939 E2.10255
G1 X159.255 Y119.416 E2.30508
G1 X156.785 Y121.073 E2.50761
G1 X155.286 Y121.375 E2.61171
G1 X155.551 Y121.768 E2.64399
G1 X155.691 Y122.465 E2.69239
G1 X155.554 Y123.162 E2.74078
G1 X155.160 Y123.754 E2.78919
G1 X154.570 Y124.150 E2.83758
G1 X153.873 Y124.291 E2.88598
G1 X153.175 Y124.153 E2.93438
G1 X152.584 Y123.760 E2.98278
G1 X152.188 Y123.170 E3.03118
G1 X152.047 Y122.473 E3.07958
G1 X152.184 Y121.775 E3.12798
G1 X152.447 Y121.380 E3.16031
G1 X150.951 Y121.086 E3.26416
G1 X148.475 Y119.438 E3.46669
G1 X146.817 Y116.969 E3.66921
G1 X146.230 Y114.053 E3.87174
G1 X146.804 Y111.135 E4.07426
G1 X148.452 Y108.658 E4.27679
G1 X150.921 Y107.001 E4.47931
G1 X152.184 Y106.747 E4.56702
G1 X152.012 Y105.892 E4.62634
G1 X152.149 Y105.195 E4.67473
G1 X152.543 Y104.603 E4.72314
G1 X153.133 Y104.207 E4.77155
G1 X153.830 Y104.067 E4.81994
G1 X154.445 Y104.188 E4.86265
G1 X154.311 Y104.729 F7200.000
G1 X154.718 Y105.000 E4.89596 F540.000
G1 X154.991 Y105.406 E4.92926
G1 X155.088 Y105.886 E4.96257
G1 X154.993 Y106.366 E4.99588
G1 X154.497 Y107.112 E5.05687
G1 X156.539 Y107.513 E5.19858
G1 X158.831 Y109.038 E5.38601
G1 X160.365 Y111.323 E5.57344
G1 X160.908 Y114.022 E5.76088
G1 X160.377 Y116.723 E5.94831
G1 X158.852 Y119.015 E6.13575
G1 X156.567 Y120.549 E6.32318
G1 X153.984 Y121.068 E6.50260
G1 X154.754 Y121.581 E6.56556
G1 X155.026 Y121.987 E6.59887
G1 X155.123 Y122.466 E6.63218
G1 X155.028 Y122.946 E6.66548
G1 X154.757 Y123.354 E6.69880
G1 X154.351 Y123.626 E6.73210
G1 X153.872 Y123.723 E6.76541
G1 X153.392 Y123.628 E6.79872
G1 X152.984 Y123.357 E6.83203
G1 X152.712 Y122.951 E6.86534
G1 X152.615 Y122.472 E6.89865
G1 X152.710 Y121.992 E6.93195
G1 X152.981 Y121.584 E6.96526
G1 X153.749 Y121.068 E7.02831
G1 X151.167 Y120.560 E7.20750
G1 X148.875 Y119.036 E7.39493
G1 X147.341 Y116.750 E7.58237
G1 X146.798 Y114.052 E7.76980
G1 X147.330 Y111.351 E7.95724
G1 X148.854 Y109.059 E8.14467
G1 X151.140 Y107.525 E8.33210
G1 X153.176 Y107.115 E8.47356
G1 X152.677 Y106.371 E8.53461
G1 X152.580 Y105.891 E8.56792
G1 X152.675 Y105.411 E8.60122
G1 X152.945 Y105.004 E8.63453
G1 X153.352 Y104.731 E8.66785
G1 X153.831 Y104.635 E8.70115
G1 X154.229 Y104.713 E8.72877
G1 X154.717 Y104.457 F7200.000
G1 F1800.000 E7.72877
G92 E0
G1 X165.241 Y102.395 F7200.000
G1 E1.00000 F1800.000
G1 X165.241 Y124.037 E2.47364 F1080.000
G1 X164.875 Y124.590 E2.51884
G1 X163.724 Y125.405 E2.61485
G1 X144.404 Y125.405 E3.93043
G1 X143.253 Y124.590 E4.02644
G1 X142.887 Y124.037 E4.07164
G1 X142.887 Y86.860 E6.60312
G1 X178.955 Y86.860 E9.05904
G1 X178.955 Y95.981 E9.68018
G1 X175.817 Y102.395 E10.16634
G1 X165.325 Y102.395 E10.88081
G1 X165.798 Y102.952 F7200.000
G1 X165.798 Y124.204 E12.32793 F540.000
G1 X165.282 Y124.985 E12.39163
G1 X163.902 Y125.962 E12.50683
G1 X144.226 Y125.962 E13.84656
G1 X142.846 Y124.985 E13.96175
G1 X142.330 Y124.204 E14.02545
G1 X142.330 Y86.302 E16.60627
G1 X179.512 Y86.302 E19.13806
G1 X179.512 Y96.110 E19.80591
G1 X176.165 Y102.952 E20.32452
G1 X165.882 Y102.952 E21.02474
G1 X165.241 Y102.952 F7200.000
G1 F1800.000 E20.02474
G92 E0
G1 X133.319 Y96.378 F7200.000
G1 E1.00000 F1800.000
G1 X128.105 Y96.378 E1.35504 F540.000
G1 X128.105 Y92.664 E1.60795
G1 X133.319 Y92.664 E1.96300
G1 X133.319 Y96.295 E2.21021
G1 X132.762 Y95.821 F7200.000
G1 X128.662 Y95.821 E2.48939 F540.000
G1 X128.662 Y93.221 E2.66643
G1 X132.762 Y93.221 E2.94561
G1 X132.762 Y95.738 E3.11696
G1 X132.762 Y96.378 F7200.000
G1 F1800.000 E2.11696
G92 E0
G1 X140.422 Y94.625 F7200.000
G1 E1.00000 F1800.000
G1 X140.379 Y113.688 E2.29809 F1080.000
G1 X140.379 Y124.852 E3.05821
G1 X121.045 Y124.852 E4.37470
G1 X121.060 Y94.361 E6.45089
G1 X121.812 Y90.578 E6.71355
G1 X123.907 Y87.442 E6.97032
G1 X127.043 Y85.347 E7.22709
G1 X130.741 Y84.611 E7.48387
G1 X134.440 Y85.347 E7.74064
G1 X137.575 Y87.442 E7.99741
G1 X139.670 Y90.578 E8.25419
G1 X140.422 Y94.360 E8.51675
G1 X140.422 Y94.541 E8.52913
G1 X140.979 Y94.626 F7200.000
G1 X140.936 Y113.689 E9.82718 F540.000
G1 X140.936 Y125.409 E10.62519
G1 X120.488 Y125.409 E12.01755
G1 X120.503 Y94.306 E14.13542
G1 X121.287 Y90.360 E14.40934
G1 X123.506 Y87.041 E14.68120
G1 X126.825 Y84.822 E14.95306
G1 X130.741 Y84.043 E15.22493
G1 X134.657 Y84.822 E15.49680
G1 X137.977 Y87.041 E15.76866
G1 X140.195 Y90.360 E16.04052
G1 X140.980 Y94.305 E16.31441
G1 X140.979 Y94.542 E16.33057
G1 X140.496 Y94.904 F7200.000
G1 F1800.000 E15.33057
G92 E0
G1 X153.976 Y107.257 F7200.000
G1 E1.00000 F1800.000
G1 X153.887 Y107.071 E1.01405 F540.000
G1 X154.255 Y106.893 E1.04189
G1 X153.887 Y107.071 F7200.000
G1 X153.401 Y106.791 E1.08009 F540.000
G1 F1800.000 E0.08009
G92 E0
G1 X156.158 Y106.469 F7200.000
G1 E1.00000 F1800.000
G1 X155.978 Y106.289 E1.01756 F1080.000
G1 X155.979 Y105.495 E1.07203
G1 X157.482 Y106.998 E1.21802
G1 F1800.000 E0.21802
G92 E0
G1 X154.227 Y103.744 F7200.000
G1 E1.00000 F1800.000
G1 X143.281 Y92.797 E2.06317 F1080.000
G1 X143.281 Y93.592 E2.11774
G1 X153.434 Y103.745 E3.10384
G1 X152.830 Y103.936 F7200.000
G1 X143.281 Y94.387 E4.03134 F1080.000
G1 X143.281 Y95.181 E4.08591
G1 X152.355 Y104.255 E4.96722
G1 X152.005 Y104.700 E5.00608
G1 X143.281 Y95.976 E5.85345
G1 X143.281 Y96.771 E5.90802
G1 X151.741 Y105.230 E6.72971
G1 X151.611 Y105.895 E6.77622
G1 X143.281 Y97.565 E7.58528
G1 X143.281 Y98.360 E7.63985
G1 X151.420 Y106.499 E8.43034
G1 X150.761 Y106.634 E8.47656
G1 X143.281 Y99.154 E9.20303
G1 X143.281 Y99.949 E9.25760
G1 X150.285 Y106.953 E9.93788
G1 X149.810 Y107.272 E9.97721
G1 X143.281 Y100.744 E10.61132
G1 X143.281 Y101.538 E10.66589
G1 X149.334 Y107.591 E11.25382
G1 X148.859 Y107.911 E11.29314
G1 X143.281 Y102.333 E11.83489
G1 X143.281 Y103.127 E11.88946
G1 X148.383 Y108.230 E12.38503
G1 X147.994 Y108.635 E12.42363
G1 X143.281 Y103.922 E12.88138
G1 X143.281 Y104.717 E12.93595
G1 X147.677 Y109.112 E13.36288
G1 X147.359 Y109.589 E13.40224
G1 X143.281 Y105.511 E13.79834
G1 X143.281 Y106.306 E13.85292
G1 X147.042 Y110.067 E14.21819
G1 X146.724 Y110.544 E14.25755
G1 X143.281 Y107.101 E14.59199
G1 X143.281 Y107.895 E14.64657
G1 X146.422 Y111.037 E14.95168
G1 X146.292 Y111.701 E14.99815
G1 X143.281 Y108.690 E15.29058
G1 X143.281 Y109.484 E15.34515
G1 X146.161 Y112.365 E15.62489
G1 X146.031 Y113.029 E15.67137
G1 X143.281 Y110.279 E15.93842
G1 X143.281 Y111.074 E15.99299
G1 X145.900 Y113.693 E16.24736
G1 X145.920 Y114.507 E16.30333
G1 X143.281 Y111.868 E16.55964
G1 X143.281 Y112.663 E16.61422
G1 X146.120 Y115.502 E16.88996
G1 X146.320 Y116.497 E16.95965
G1 X143.281 Y113.457 E17.25482
G1 X143.281 Y114.252 E17.30940
G1 X147.046 Y118.017 E17.67508
G1 F1800.000 E16.67508
G92 E0
G1 X149.866 Y120.837 F7200.000
G1 E1.00000 F1800.000
G1 X151.682 Y122.653 E1.17638 F1080.000
G1 X151.957 Y123.723 E1.25225
G1 X143.281 Y115.047 E2.09492
G1 X143.281 Y115.841 E2.14950
G1 X152.173 Y124.733 E3.01312
G1 X151.378 Y124.733 E3.06769
G1 X143.281 Y116.636 E3.85413
G1 X143.281 Y117.431 E3.90870
G1 X150.583 Y124.733 E4.61796
G1 X149.789 Y124.733 E4.67254
G1 X143.281 Y118.225 E5.30462
G1 X143.281 Y119.020 E5.35919
G1 X148.994 Y124.733 E5.91410
G1 X148.200 Y124.733 E5.96867
G1 X143.281 Y119.814 E6.44640
G1 X143.281 Y120.609 E6.50097
G1 X147.405 Y124.733 E6.90152
G1 X146.610 Y124.733 E6.95610
G1 X143.281 Y121.404 E7.27947
G1 X143.281 Y122.198 E7.33404
G1 X145.816 Y124.733 E7.58023
G1 X145.021 Y124.733 E7.63480
G1 X143.281 Y122.993 E7.80382
G1 X143.281 Y123.787 E7.85839
G1 X143.327 Y123.834 E7.86287
G1 F1800.000 E6.86287
G92 E0
G1 X151.399 Y121.575 F7200.000
G1 E1.00000 F1800.000
G1 X151.753 Y121.929 E1.03440 F1080.000
G1 F1800.000 E0.03440
G92 E0
G1 X156.050 Y122.253 F7200.000
G1 E1.00000 F1800.000
G1 X158.530 Y124.733 E1.24085 F1080.000
G1 X159.324 Y124.733 E1.29543
G1 X156.187 Y121.595 E1.60017
G1 X156.848 Y121.462 E1.64652
G1 X160.119 Y124.733 E1.96418
G1 X160.913 Y124.733 E2.01876
G1 X157.349 Y121.169 E2.36492
G1 X157.825 Y120.850 E2.40425
G1 X161.708 Y124.733 E2.78141
G1 X162.503 Y124.733 E2.83598
G1 X158.300 Y120.531 E3.24414
G1 X158.776 Y120.211 E3.28347
G1 X163.297 Y124.733 E3.72263
G1 X163.851 Y124.492 E3.76409
G1 X159.251 Y119.892 E4.21083
G1 X159.664 Y119.511 E4.24945
G1 X164.316 Y124.162 E4.70124
G1 X164.569 Y123.620 E4.74231
G1 X159.982 Y119.034 E5.18780
G1 X160.299 Y118.556 E5.22716
G1 X164.569 Y122.826 E5.64182
G1 X164.569 Y122.031 E5.69640
G1 X160.617 Y118.079 E6.08023
G1 X160.934 Y117.602 E6.11960
G1 X164.569 Y121.236 E6.47260
G1 X164.569 Y120.442 E6.52718
G1 X161.251 Y117.125 E6.84936
G1 X161.395 Y116.474 E6.89515
G1 X164.569 Y119.647 E7.20339
G1 X164.569 Y118.853 E7.25797
G1 X161.526 Y115.810 E7.55353
G1 X161.656 Y115.146 E7.60000
G1 X164.569 Y118.058 E7.88288
G1 X164.569 Y117.263 E7.93745
G1 X161.787 Y114.482 E8.20764
G1 X161.817 Y113.717 E8.26020
G1 X164.569 Y116.469 E8.52748
G1 X164.569 Y115.674 E8.58206
G1 X161.617 Y112.722 E8.86877
G1 X161.417 Y111.728 E8.93845
G1 X164.569 Y114.880 E9.24460
G1 X164.569 Y114.085 E9.29917
G1 X160.905 Y110.422 E9.65495
G1 F1800.000 E8.65495
G92 E0
G1 X164.569 Y110.112 F7200.000
G1 E1.00000 F1800.000
G1 X143.281 Y88.824 E3.06758 F1080.000
G1 X143.281 Y88.030 E3.12216
G1 X164.569 Y109.317 E5.18974
G1 X164.569 Y108.523 E5.24431
G1 X143.300 Y87.254 E7.31004
G1 X144.094 Y87.253 E7.36455
G1 X164.569 Y107.728 E9.35318
G1 X164.569 Y106.933 E9.40776
G1 X144.889 Y87.253 E11.31921
G1 X145.683 Y87.253 E11.37378
G1 X150.304 Y91.874 E11.82258
G1 X150.123 Y90.899 E11.89071
G1 X146.478 Y87.253 E12.24477
G1 X147.272 Y87.253 E12.29935
G1 X150.017 Y89.998 E12.56588
G1 X150.123 Y89.310 E12.61368
G1 X148.067 Y87.253 E12.81340
G1 X148.862 Y87.253 E12.86797
G1 X150.214 Y88.606 E12.99937
G1 X150.690 Y88.287 E13.03870
G1 X149.656 Y87.253 E13.13910
G1 X150.451 Y87.253 E13.19367
G1 X151.114 Y87.917 E13.25811
G1 X151.432 Y87.440 E13.29747
G1 X151.245 Y87.253 E13.31556
G1 F1800.000 E12.31556
G92 E0
G1 X156.033 Y87.273 F7200.000
G1 E1.00000 F1800.000
G1 X170.482 Y101.722 E2.40345 F1080.000
G1 X171.277 Y101.722 E2.45802
G1 X156.808 Y87.253 E3.86336
G1 X157.602 Y87.253 E3.91793
G1 X172.071 Y101.722 E5.32326
G1 X172.866 Y101.722 E5.37784
G1 X158.397 Y87.253 E6.78317
G1 X159.192 Y87.253 E6.83774
G1 X173.661 Y101.722 E8.24308
G1 X174.455 Y101.722 E8.29765
G1 X159.986 Y87.253 E9.70298
G1 X160.781 Y87.253 E9.75756
G1 X175.250 Y101.722 E11.16289
G1 X175.610 Y101.288 E11.20165
G1 X161.575 Y87.253 E12.56479
G1 X162.370 Y87.253 E12.61936
G1 X175.871 Y100.755 E13.93068
G1 X176.132 Y100.221 E13.97147
G1 X163.165 Y87.253 E15.23097
G1 X163.959 Y87.253 E15.28554
G1 X176.393 Y99.687 E16.49321
G1 X176.654 Y99.154 E16.53400
G1 X171.938 Y94.437 E16.99212
G1 X172.927 Y94.632 E17.06136
G1 X176.915 Y98.620 E17.44876
G1 X177.176 Y98.087 E17.48955
G1 X173.698 Y94.608 E17.82743
G1 X174.359 Y94.475 E17.87378
G1 X177.437 Y97.553 E18.17276
G1 X177.698 Y97.019 E18.21355
G1 X174.930 Y94.251 E18.48246
G1 X175.405 Y93.932 E18.52178
G1 X177.959 Y96.486 E18.76986
G1 X178.220 Y95.952 E18.81066
G1 X175.881 Y93.613 E19.03790
G1 X176.211 Y93.148 E19.07704
G1 X178.282 Y95.219 E19.27827
G1 X178.282 Y94.425 E19.33284
G1 X176.528 Y92.671 E19.50323
G1 X176.779 Y92.127 E19.54437
G1 X178.282 Y93.630 E19.69041
G1 X178.282 Y92.836 E19.74498
G1 X176.909 Y91.463 E19.87834
G1 X176.979 Y90.737 E19.92838
G1 X178.282 Y92.041 E20.05499
G1 X178.282 Y91.246 E20.10957
G1 X176.779 Y89.743 E20.25561
