; generated by Slic3r 1.0.0RC3 on 2014-03-11 at 20:26:21

; layer_height = 0.3
; perimeters = 2
; top_solid_layers = 3
; bottom_solid_layers = 3
; fill_density = 0.1
; perimeter_speed = 60
; infill_speed = 60
; travel_speed = 120
; nozzle_diameter = 0.4
; filament_diameter = 1.75
; extrusion_multiplier = 0.98
; perimeters extrusion width = 0.40mm
; infill extrusion width = 0.42mm
; solid infill extrusion width = 0.42mm
; top infill extrusion width = 0.42mm
; first layer extrusion width = 0.60mm

G21 ; set units to millimeters
M107
M104 S220 ; set temperature
G28 ; home all axes
M106 S255;
G1 Z200 F1200 ; lift nozzle
M109 S220 ; wait for temperature to be reached
G90 ; use absolute coordinates
G92 E0
M82 ; use absolute distances for extrusion
G1 F1800.000 E-1.00000
G92 E0
G1 Z0.300 F7200.000
G1 X118.165 Y55.393 F7200.000
G1 E1.00000 F1800.000
G1 X118.755 Y54.273 E1.08620 F1080.000
G1 X119.555 Y53.293 E1.17234
G1 X120.535 Y52.493 E1.25848
G1 X121.645 Y51.883 E1.34473
G1 X122.845 Y51.503 E1.43043
G1 X141.165 Y47.593 E2.70598
G1 X142.035 Y47.463 E2.76588
G1 X151.915 Y46.703 E3.44062
G1 X152.885 Y46.703 E3.50667
G1 X162.665 Y47.413 E4.17437
G1 X163.765 Y47.583 E4.25016
G1 X178.995 Y51.343 E5.31834
G1 X180.295 Y51.813 E5.41247
G1 X181.465 Y52.543 E5.50637
G1 X182.455 Y53.503 E5.60027
G1 X183.225 Y54.653 E5.69451
G1 X201.165 Y88.653 E8.31217
G1 X201.735 Y90.143 E8.42080
G1 X201.925 Y91.723 E8.52916
G1 X201.875 Y115.243 E10.13070
G1 X201.625 Y117.033 E10.25376
G1 X200.895 Y118.683 E10.37662
G1 X189.475 Y137.163 E11.85585
G1 X188.845 Y138.013 E11.92790
G1 X183.625 Y144.013 E12.46943
G1 X183.205 Y144.453 E12.51085
G1 X182.745 Y144.853 E12.55235
G1 X162.205 Y161.123 E14.33659
G1 X160.595 Y162.063 E14.46354
G1 X158.775 Y162.513 E14.59120
G1 X150.975 Y163.283 E15.12490
G1 X150.335 Y163.313 E15.16852
G1 X149.695 Y163.283 E15.21215
G1 X141.895 Y162.513 E15.74585
G1 X140.635 Y162.253 E15.83346
G1 X139.445 Y161.763 E15.92109
G1 X138.375 Y161.053 E16.00853
G1 X117.895 Y144.263 E17.81180
G1 X117.415 Y143.823 E17.85614
G1 X116.985 Y143.343 E17.90002
G1 X111.995 Y137.253 E18.43613
G1 X100.305 Y122.843 E19.69961
G1 X99.595 Y121.783 E19.78649
G1 X99.115 Y120.603 E19.87323
G1 X98.865 Y119.353 E19.96003
G1 X98.105 Y111.553 E20.49367
G1 X98.075 Y110.913 E20.53729
G1 X98.105 Y110.273 E20.58092
G1 X98.865 Y102.463 E21.11523
G1 X99.035 Y101.503 E21.18162
G1 X99.345 Y100.583 E21.24772
G1 X118.132 Y55.470 E24.57532
G1 F1800.000 E23.57532
G92 E0
G1 X150.355 Y56.899 F7200.000
G1 E1.00000 F1800.000
G1 X150.520 Y56.072 E1.05742 F540.000
G1 X150.988 Y55.371 E1.11484
G1 X151.689 Y54.902 E1.17226
G1 X152.516 Y54.738 E1.22968
G1 X153.344 Y54.902 E1.28710
G1 X154.045 Y55.371 E1.34453
G1 X154.513 Y56.072 E1.40195
G1 X154.678 Y56.899 E1.45937
G1 X154.513 Y57.726 E1.51679
G1 X154.045 Y58.427 E1.57421
G1 X153.344 Y58.896 E1.63163
G1 X152.516 Y59.060 E1.68905
G1 X151.689 Y58.896 E1.74647
G1 X150.988 Y58.427 E1.80389
G1 X150.520 Y57.726 E1.86131
G1 X150.371 Y56.981 E1.91304
G1 X150.923 Y56.899 F7200.000
G1 X151.044 Y56.289 E1.95537 F540.000
G1 X151.390 Y55.773 E1.99770
G1 X151.907 Y55.427 E2.04003
G1 X152.516 Y55.306 E2.08236
G1 X153.126 Y55.427 E2.12469
G1 X153.643 Y55.773 E2.16702
G1 X153.988 Y56.289 E2.20935
G1 X154.110 Y56.899 E2.25168
G1 X153.988 Y57.509 E2.29401
G1 X153.643 Y58.026 E2.33634
G1 X153.126 Y58.371 E2.37867
G1 X152.516 Y58.492 E2.42100
G1 X151.907 Y58.371 E2.46334
G1 X151.390 Y58.026 E2.50567
G1 X151.044 Y57.509 E2.54800
G1 X150.939 Y56.981 E2.58463
G1 X150.460 Y56.590 F7200.000
G1 F1800.000 E1.58463
G92 E0
G1 X188.533 Y96.509 F7200.000
G1 E1.00000 F1800.000
G1 X189.234 Y96.040 E1.05742 F540.000
G1 X190.061 Y95.876 E1.11484
G1 X190.888 Y96.040 E1.17226
G1 X191.589 Y96.509 E1.22968
G1 X192.058 Y97.210 E1.28710
G1 X192.222 Y98.037 E1.34452
G1 X192.058 Y98.864 E1.40194
G1 X191.589 Y99.565 E1.45936
G1 X190.888 Y100.034 E1.51679
G1 X190.061 Y100.198 E1.57421
G1 X189.234 Y100.034 E1.63163
G1 X188.533 Y99.565 E1.68905
G1 X188.064 Y98.864 E1.74647
G1 X187.900 Y98.037 E1.80389
G1 X188.064 Y97.210 E1.86131
G1 X188.487 Y96.578 E1.91304
G1 X188.935 Y96.910 F7200.000
G1 X189.451 Y96.565 E1.95537 F540.000
G1 X190.061 Y96.444 E1.99770
G1 X190.671 Y96.565 E2.04003
G1 X191.188 Y96.910 E2.08236
G1 X191.533 Y97.427 E2.12469
G1 X191.654 Y98.037 E2.16702
G1 X191.533 Y98.647 E2.20935
G1 X191.188 Y99.164 E2.25168
G1 X190.671 Y99.509 E2.29401
G1 X190.061 Y99.630 E2.33634
G1 X189.451 Y99.509 E2.37867
G1 X188.935 Y99.164 E2.42100
G1 X188.589 Y98.647 E2.46333
G1 X188.468 Y98.037 E2.50567
G1 X188.589 Y97.427 E2.54800
G1 X188.888 Y96.980 E2.58464
G1 X188.826 Y96.364 F7200.000
G1 F1800.000 E1.58464
G92 E0
G1 X111.927 Y110.807 F7200.000
G1 E1.00000 F1800.000
G1 X111.762 Y111.634 E1.05742 F540.000
G1 X111.294 Y112.335 E1.11484
G1 X110.593 Y112.804 E1.17226
G1 X109.765 Y112.968 E1.22968
G1 X108.938 Y112.804 E1.28710
G1 X108.237 Y112.335 E1.34453
G1 X107.769 Y111.634 E1.40195
G1 X107.604 Y110.807 E1.45937
G1 X107.769 Y109.980 E1.51679
G1 X108.237 Y109.279 E1.57421
G1 X108.938 Y108.810 E1.63163
G1 X109.765 Y108.646 E1.68905
G1 X110.593 Y108.810 E1.74647
G1 X111.294 Y109.279 E1.80389
G1 X111.762 Y109.980 E1.86131
G1 X111.910 Y110.725 E1.91304
G1 X111.359 Y110.807 F7200.000
G1 X111.237 Y111.417 E1.95537 F540.000
G1 X110.892 Y111.934 E1.99770
G1 X110.375 Y112.279 E2.04003
G1 X109.765 Y112.400 E2.08236
G1 X109.156 Y112.279 E2.12469
G1 X108.639 Y111.934 E2.16703
G1 X108.293 Y111.417 E2.20936
G1 X108.172 Y110.807 E2.25169
G1 X108.293 Y110.197 E2.29401
G1 X108.639 Y109.681 E2.33635
G1 X109.156 Y109.335 E2.37868
G1 X109.765 Y109.214 E2.42101
G1 X110.375 Y109.335 E2.46334
G1 X110.892 Y109.681 E2.50567
G1 X111.237 Y110.197 E2.54800
G1 X111.342 Y110.725 E2.58464
G1 X111.822 Y111.117 F7200.000
G1 F1800.000 E1.58464
G92 E0
G1 X129.417 Y110.914 F7200.000
G1 E1.00000 F1800.000
G1 X129.819 Y106.831 E1.27932 F1080.000
G1 X131.010 Y102.906 E1.55863
G1 X132.944 Y99.288 E1.83794
G1 X135.546 Y96.117 E2.11726
G1 X138.717 Y93.515 E2.39657
G1 X142.334 Y91.581 E2.67589
G1 X146.260 Y90.391 E2.95520
G1 X150.341 Y89.988 E3.23445
G1 X154.425 Y90.391 E3.51391
G1 X158.350 Y91.581 E3.79315
G1 X161.967 Y93.515 E4.07247
G1 X165.138 Y96.117 E4.35178
G1 X167.740 Y99.288 E4.63110
G1 X169.674 Y102.906 E4.91041
G1 X170.865 Y106.831 E5.18973
G1 X171.267 Y110.913 E5.46904
G1 X170.865 Y114.996 E5.74836
G1 X169.674 Y118.921 E6.02767
G1 X167.740 Y122.539 E6.30699
G1 X165.138 Y125.710 E6.58630
G1 X161.967 Y128.312 E6.86562
G1 X158.350 Y130.246 E7.14493
G1 X154.425 Y131.436 E7.42417
G1 X150.342 Y131.839 E7.70356
G1 X146.259 Y131.436 E7.98295
G1 X142.334 Y130.246 E8.26219
G1 X138.717 Y128.312 E8.54150
G1 X135.546 Y125.710 E8.82082
G1 X132.944 Y122.539 E9.10013
G1 X131.010 Y118.921 E9.37945
G1 X129.819 Y114.996 E9.65876
G1 X129.425 Y110.997 E9.93239
G1 X129.977 Y110.914 F7200.000
G1 X130.368 Y106.940 E10.20423 F540.000
G1 X131.527 Y103.120 E10.47607
G1 X133.409 Y99.599 E10.74791
G1 X135.942 Y96.513 E11.01976
G1 X139.028 Y93.981 E11.29160
G1 X142.549 Y92.099 E11.56344
G1 X146.369 Y90.940 E11.83528
G1 X150.342 Y90.548 E12.10710
G1 X154.315 Y90.940 E12.37900
G1 X158.135 Y92.099 E12.65082
G1 X161.656 Y93.980 E12.92266
G1 X164.742 Y96.513 E13.19450
G1 X167.275 Y99.599 E13.46635
G1 X169.157 Y103.120 E13.73819
G1 X170.316 Y106.940 E14.01003
G1 X170.707 Y110.913 E14.28187
G1 X170.316 Y114.886 E14.55372
G1 X169.157 Y118.707 E14.82556
G1 X167.275 Y122.228 E15.09740
G1 X164.742 Y125.314 E15.36924
G1 X161.656 Y127.846 E15.64109
G1 X158.135 Y129.728 E15.91293
G1 X154.315 Y130.887 E16.18475
G1 X150.342 Y131.279 E16.45661
G1 X146.369 Y130.887 E16.72849
G1 X142.549 Y129.728 E17.00030
G1 X139.028 Y127.846 E17.27214
G1 X135.942 Y125.314 E17.54399
G1 X133.409 Y122.228 E17.81583
G1 X131.527 Y118.707 E18.08767
G1 X130.368 Y114.887 E18.35951
G1 X129.985 Y110.997 E18.62567
G1 X129.504 Y110.619 F7200.000
G1 F1800.000 E17.62567
G92 E0
G1 X149.065 Y149.952 F7200.000
G1 E1.00000 F1800.000
G1 X149.892 Y149.787 E1.05742 F540.000
G1 X150.719 Y149.952 E1.11484
G1 X151.420 Y150.420 E1.17226
G1 X151.888 Y151.122 E1.22968
G1 X152.053 Y151.949 E1.28710
G1 X151.888 Y152.776 E1.34452
G1 X151.420 Y153.477 E1.40195
G1 X150.719 Y153.945 E1.45937
G1 X149.892 Y154.110 E1.51679
G1 X149.065 Y153.945 E1.57421
G1 X148.363 Y153.477 E1.63163
G1 X147.895 Y152.776 E1.68905
G1 X147.730 Y151.949 E1.74647
G1 X147.895 Y151.122 E1.80389
G1 X148.363 Y150.420 E1.86131
G1 X148.995 Y149.998 E1.91304
G1 X149.282 Y150.477 F7200.000
G1 X149.892 Y150.355 E1.95537 F540.000
G1 X150.501 Y150.477 E1.99770
G1 X151.018 Y150.822 E2.04003
G1 X151.364 Y151.339 E2.08236
G1 X151.485 Y151.949 E2.12469
G1 X151.364 Y152.558 E2.16702
G1 X151.018 Y153.075 E2.20935
G1 X150.501 Y153.421 E2.25168
G1 X149.892 Y153.542 E2.29401
G1 X149.282 Y153.421 E2.33634
G1 X148.765 Y153.075 E2.37867
G1 X148.420 Y152.558 E2.42100
G1 X148.298 Y151.949 E2.46333
G1 X148.420 Y151.339 E2.50566
G1 X148.765 Y150.822 E2.54799
G1 X149.212 Y150.523 E2.58463
G1 X149.391 Y149.930 F7200.000
G1 F1800.000 E1.58463
G92 E0
G1 X150.342 Y155.896 F7200.000
G1 E1.00000 F1800.000
G1 X142.949 Y155.168 E1.50582 F1080.000
G1 X135.555 Y147.167 E2.24765
G1 X128.602 Y143.450 E2.78453
G1 X122.672 Y138.584 E3.30688
G1 X117.805 Y132.654 E3.82923
G1 X114.083 Y125.690 E4.36692
G1 X106.224 Y118.311 E5.10092
G1 X105.496 Y110.914 E5.60709
G1 X106.224 Y103.516 E6.11327
G1 X114.083 Y96.137 E6.84726
G1 X117.805 Y89.173 E7.38496
G1 X122.750 Y83.147 E7.91576
G1 X125.101 Y79.670 E8.20154
G1 X125.082 Y58.609 E9.63567
G1 X142.663 Y54.861 E10.85970
G1 X152.419 Y54.102 E11.52600
G1 X162.069 Y54.810 E12.18487
G1 X176.580 Y58.389 E13.20259
G1 X176.642 Y62.777 E13.50140
G1 X172.537 Y62.778 E13.78087
G1 X172.467 Y60.122 E13.96179
G1 X167.951 Y60.095 E14.26930
G1 X161.977 Y60.091 E14.67612
G1 X130.757 Y60.105 E16.80193
G1 X130.757 Y82.493 E18.32634
G1 X167.953 Y82.487 E20.85910
G1 X172.468 Y82.442 E21.16651
G1 X172.538 Y79.753 E21.34969
G1 X176.758 Y79.754 E21.63708
G1 X177.099 Y82.027 E21.79360
G1 X179.337 Y89.014 E22.29319
G1 X183.448 Y92.567 E22.66316
G1 X194.504 Y92.576 E23.41602
G1 X194.451 Y103.110 E24.13331
G1 X194.464 Y114.385 E24.90106
G1 X187.038 Y114.434 E25.40673
G1 X186.849 Y126.109 E26.20183
G1 X183.182 Y133.229 E26.74714
G1 X178.081 Y139.092 E27.27633
G1 X172.070 Y143.820 E27.79707
G1 X165.996 Y147.133 E28.26824
G1 X157.761 Y155.165 E29.05153
G1 X150.425 Y155.888 E29.55346
G1 X150.342 Y156.456 F7200.000
G1 X142.684 Y155.702 E30.07744 F540.000
G1 X135.219 Y147.619 E30.82665
G1 X128.291 Y143.916 E31.36156
G1 X122.276 Y138.980 E31.89138
G1 X117.340 Y132.965 E32.42120
G1 X113.635 Y126.033 E32.95639
G1 X105.690 Y118.574 E33.69840
G1 X104.936 Y110.914 E34.22256
G1 X105.690 Y103.253 E34.74672
G1 X113.635 Y95.794 E35.48873
G1 X117.340 Y88.862 E36.02392
G1 X122.303 Y82.814 E36.55670
G1 X124.544 Y79.500 E36.82909
G1 X124.524 Y58.158 E38.28230
G1 X142.583 Y54.309 E39.53958
G1 X152.417 Y53.544 E40.21126
G1 X162.156 Y54.258 E40.87620
G1 X177.131 Y57.951 E41.92641
G1 X177.207 Y63.334 E42.29297
G1 X171.995 Y63.335 E42.64785
G1 X171.925 Y60.676 E42.82901
G1 X167.950 Y60.652 E43.09967
G1 X161.977 Y60.648 E43.50639
G1 X131.314 Y60.662 E45.59426
G1 X131.315 Y81.936 E47.04283
G1 X160.956 Y81.938 E49.06120
G1 X167.951 Y81.930 E49.53746
G1 X171.925 Y81.890 E49.80809
G1 X171.995 Y79.195 E49.99166
G1 X177.239 Y79.197 E50.34872
G1 X177.641 Y81.893 E50.53433
G1 X179.819 Y88.694 E51.02062
G1 X183.655 Y92.010 E51.36591
G1 X195.064 Y92.019 E52.14276
G1 X195.008 Y103.111 E52.89803
G1 X195.022 Y114.938 E53.70339
G1 X187.586 Y114.987 E54.20971
G1 X187.404 Y126.248 E54.97660
G1 X183.647 Y133.544 E55.53536
G1 X178.467 Y139.497 E56.07272
G1 X172.378 Y144.287 E56.60022
G1 X166.330 Y147.586 E57.06934
G1 X158.010 Y155.701 E57.86071
G1 X150.425 Y156.448 E58.37969
G1 X150.080 Y155.965 F7200.000
G1 X149.368 Y154.407 F7200.000
G1 X150.450 Y155.490 E58.48450 F1080.000
G1 X151.172 Y155.419 E58.53412
G1 X150.203 Y154.450 E58.62796
G1 X150.863 Y154.318 E58.67409
G1 X151.893 Y155.348 E58.77377
G1 X152.614 Y155.277 E58.82339
G1 X151.341 Y154.003 E58.94668
G1 X151.779 Y153.649 E58.98525
G1 X153.335 Y155.206 E59.13598
G1 X154.056 Y155.135 E59.18561
G1 X152.096 Y153.174 E59.37545
G1 X152.323 Y152.609 E59.41715
G1 X154.778 Y155.063 E59.65482
G1 X155.499 Y154.992 E59.70445
G1 X152.454 Y151.948 E59.99925
G1 X152.245 Y150.947 F7200.000
G1 X156.220 Y154.921 E60.38415 F1080.000
G1 X156.941 Y154.850 E60.43377
G1 X112.187 Y110.096 E64.76755
G1 F1800.000 E63.76755
G92 E0
G1 X110.476 Y108.386 F7200.000
G1 E1.00000 F1800.000
G1 X106.529 Y104.438 E1.38223 F1080.000
G1 X106.600 Y103.717 E1.43186
G1 X157.628 Y154.745 E6.37312
G1 X158.029 Y154.354 E6.41148
G1 X107.001 Y103.326 E11.35273
G1 X107.410 Y102.943 E11.39111
G1 X158.430 Y153.963 E16.33162
G1 X158.831 Y153.571 E16.36998
G1 X107.819 Y102.559 E21.30977
G1 X108.227 Y102.175 E21.34815
G1 X159.232 Y153.180 E26.28720
G1 X159.633 Y152.789 E26.32556
G1 X108.636 Y101.792 E31.26389
G1 X109.044 Y101.408 E31.30226
G1 X160.034 Y152.398 E36.23986
G1 X160.435 Y152.007 E36.27822
G1 X109.453 Y101.024 E41.21509
G1 X109.862 Y100.641 E41.25346
G1 X160.836 Y151.616 E46.18960
G1 X161.237 Y151.224 E46.22796
G1 X138.834 Y128.821 E48.39735
G1 X140.536 Y129.731 F7200.000
G1 X161.638 Y150.833 E50.44078 F1080.000
G1 X162.040 Y150.442 E50.47914
G1 X142.220 Y130.622 E52.39837
G1 X143.357 Y130.967 E52.47974
G1 X162.441 Y150.051 E54.32769
G1 X162.842 Y149.660 E54.36605
G1 X144.494 Y131.312 E56.14271
G1 X145.631 Y131.657 E56.22408
G1 X163.243 Y149.268 E57.92946
G1 X163.644 Y148.877 E57.96782
G1 X146.635 Y131.869 E59.61483
G1 X147.514 Y131.956 E59.67530
G1 X164.045 Y148.486 E61.27603
G1 X164.446 Y148.095 E61.31439
G1 X148.393 Y132.042 E62.86885
G1 X149.272 Y132.129 E62.92932
G1 X164.847 Y147.704 E64.43750
G1 X165.248 Y147.313 E64.47586
G1 X150.151 Y132.216 E65.93777
G1 X150.906 Y132.179 E65.98955
G1 X165.649 Y146.921 E67.41714
G1 X166.131 Y146.611 E67.45639
G1 X151.628 Y132.108 E68.86081
G1 X152.349 Y132.037 E68.91043
G1 X166.643 Y146.331 E70.29466
G1 X167.156 Y146.052 E70.33464
G1 X153.070 Y131.965 E71.69869
G1 X153.791 Y131.894 E71.74830
G1 X167.669 Y145.772 E73.09216
G1 X168.181 Y145.493 E73.13214
G1 X154.510 Y131.822 E74.45595
G1 X155.118 Y131.637 E74.49944
G1 X168.694 Y145.213 E75.81403
G1 X169.206 Y144.933 E75.85402
G1 X155.726 Y131.453 E77.15938
G1 X156.334 Y131.269 E77.20288
G1 X169.719 Y144.654 E78.49902
G1 X170.232 Y144.374 E78.53901
G1 X156.942 Y131.084 E79.82593
G1 X157.550 Y130.900 E79.86942
G1 X170.744 Y144.094 E81.14713
G1 X171.257 Y143.815 E81.18711
G1 X158.158 Y130.715 E82.45559
G1 X158.726 Y130.491 E82.49741
G1 X171.770 Y143.535 E83.76052
G1 X172.224 Y143.198 E83.79930
G1 X159.242 Y130.215 E85.05645
G1 X159.758 Y129.939 E85.09653
G1 X172.668 Y142.849 E86.34663
G1 X173.111 Y142.500 E86.38526
G1 X160.274 Y129.663 E87.62831
G1 X160.791 Y129.387 E87.66840
G1 X173.555 Y142.151 E88.90439
G1 X173.998 Y141.803 E88.94302
G1 X161.307 Y129.111 E90.17197
G1 X161.823 Y128.836 E90.21205
G1 X174.441 Y141.454 E91.43394
G1 X174.885 Y141.105 E91.47257
G1 X162.316 Y128.536 E92.68973
G1 X162.751 Y128.179 E92.72827
G1 X175.328 Y140.756 E93.94624
G1 X175.772 Y140.407 E93.98487
G1 X163.186 Y127.821 E95.20364
G1 X163.621 Y127.464 E95.24218
G1 X176.215 Y140.059 E96.46175
G1 X176.659 Y139.710 E96.50038
G1 X164.056 Y127.107 E97.72076
G1 X164.491 Y126.750 E97.75931
G1 X177.102 Y139.361 E98.98049
G1 X177.546 Y139.012 E99.01912
G1 X164.926 Y126.393 E100.24111
G1 X165.361 Y126.036 E100.27966
G1 X177.959 Y138.633 E101.49951
G1 X178.327 Y138.209 E101.53796
G1 X165.729 Y125.611 E102.75793
G1 X166.086 Y125.176 E102.79648
G1 X178.696 Y137.786 E104.01756
G1 X179.064 Y137.362 E104.05601
G1 X166.443 Y124.741 E105.27821
G1 X166.800 Y124.306 E105.31675
G1 X179.433 Y136.938 E106.54006
G1 X179.801 Y136.515 E106.57851
G1 X167.157 Y123.870 E107.80293
G1 X167.514 Y123.435 E107.84148
G1 X180.170 Y136.091 E109.06701
G1 X180.539 Y135.668 E109.10546
G1 X167.871 Y123.000 E110.33210
G1 X168.192 Y122.529 E110.37114
G1 X180.907 Y135.244 E111.60238
G1 X181.276 Y134.820 E111.64083
