; generated by Slic3r 1.0.0RC3 on 2014-03-11 at 20:28:15

; layer_height = 0.3
; perimeters = 2
; top_solid_layers = 3
; bottom_solid_layers = 3
; fill_density = 0.1
; perimeter_speed = 60
; infill_speed = 60
; travel_speed = 120
; nozzle_diameter = 0.4
; filament_diameter = 1.75
; extrusion_multiplier = 0.98
; perimeters extrusion width = 0.40mm
; infill extrusion width = 0.42mm
; solid infill extrusion width = 0.42mm
; top infill extrusion width = 0.42mm
; first layer extrusion width = 0.60mm

G21 ; set units to millimeters
M107
M104 S220 ; set temperature
G28 ; home all axes
M106 S255;
G1 Z200 F1200 ; lift nozzle
M109 S220 ; wait for temperature to be reached
G90 ; use absolute coordinates
G92 E0
M82 ; use absolute distances for extrusion
G1 F1800.000 E-1.00000
G92 E0
G1 Z0.300 F7200.000
G1 X103.617 Y65.396 F7200.000
G1 E1.00000 F1800.000
G1 X104.627 Y64.366 E1.09823 F1080.000
G1 X121.787 Y50.276 E2.61011
G1 X122.997 Y49.486 E2.70851
G1 X124.357 Y48.986 E2.80718
G1 X124.627 Y48.916 E2.82617
G1 X137.967 Y45.556 E3.76289
G1 X138.997 Y45.386 E3.83398
G1 X140.047 Y45.376 E3.90548
G1 X191.887 Y49.216 E7.44506
G1 X193.267 Y49.466 E7.54056
G1 X194.567 Y50.006 E7.63641
G1 X195.707 Y50.806 E7.73124
G1 X196.667 Y51.836 E7.82712
G1 X197.377 Y53.046 E7.92264
G1 X197.817 Y54.376 E8.01803
G1 X197.967 Y55.766 E8.11323
G1 X197.867 Y115.426 E12.17563
G1 X197.767 Y140.586 E13.88885
G1 X197.597 Y142.016 E13.98691
G1 X197.127 Y143.376 E14.08489
G1 X196.377 Y144.596 E14.18240
G1 X195.367 Y145.626 E14.28063
G1 X178.197 Y159.716 E15.79304
G1 X176.987 Y160.506 E15.89144
G1 X175.637 Y161.006 E15.98947
G1 X162.017 Y164.436 E16.94584
G1 X160.987 Y164.606 E17.01693
G1 X159.937 Y164.616 E17.08843
G1 X108.107 Y160.776 E20.62733
G1 X106.727 Y160.526 E20.72283
G1 X105.427 Y159.986 E20.81868
G1 X104.287 Y159.186 E20.91351
G1 X103.327 Y158.156 E21.00939
G1 X102.617 Y156.946 E21.10491
G1 X102.177 Y155.616 E21.20030
G1 X102.027 Y154.226 E21.29550
G1 X102.117 Y94.566 E25.35790
G1 X102.227 Y69.406 E27.07112
G1 X102.397 Y67.976 E27.16918
G1 X102.867 Y66.616 E27.26716
G1 X103.574 Y65.467 E27.35898
G1 F1800.000 E26.35898
G92 E0
G1 X174.540 Y88.464 F7200.000
G1 E1.00000 F1800.000
G1 X174.961 Y87.414 E1.07703 F1080.000
G1 X176.402 Y87.695 E1.17699
G1 X176.300 Y126.458 E3.81650
G1 X164.279 Y119.182 E4.77327
G1 X164.279 Y114.032 E5.12398
G1 X174.509 Y88.542 E6.99420
G1 X175.057 Y88.672 F7200.000
G1 X175.307 Y88.049 E7.03987 F540.000
G1 X175.844 Y88.154 E7.07714
G1 X175.745 Y125.472 E9.61821
G1 X164.837 Y118.868 E10.48650
G1 X164.837 Y114.139 E10.80850
G1 X175.026 Y88.749 E12.67139
G1 X174.713 Y88.234 F7200.000
G1 F1800.000 E11.67139
G92 E0
G1 X162.194 Y131.179 F7200.000
G1 E1.00000 F1800.000
G1 X165.118 Y133.133 E1.23941 F1080.000
G1 X167.071 Y136.056 E1.47883
G1 X167.757 Y139.505 E1.71824
G1 X167.071 Y142.953 E1.95766
G1 X165.118 Y145.877 E2.19707
G1 X162.194 Y147.830 E2.43649
G1 X158.746 Y148.516 E2.67591
G1 X155.297 Y147.830 E2.91532
G1 X152.374 Y145.877 E3.15474
G1 X150.420 Y142.953 E3.39415
G1 X149.734 Y139.505 E3.63357
G1 X150.420 Y136.056 E3.87298
G1 X152.374 Y133.133 E4.11240
G1 X155.297 Y131.179 E4.35181
G1 X158.746 Y130.493 E4.59123
G1 X162.112 Y131.163 E4.82495
G1 X161.977 Y131.704 F7200.000
G1 X164.716 Y133.534 E5.04928 F540.000
G1 X166.546 Y136.273 E5.27360
G1 X167.189 Y139.505 E5.49793
G1 X166.546 Y142.736 E5.72225
G1 X164.716 Y145.475 E5.94658
G1 X161.977 Y147.305 E6.17090
G1 X158.746 Y147.948 E6.39523
G1 X155.514 Y147.305 E6.61955
G1 X152.775 Y145.475 E6.84387
G1 X150.945 Y142.736 E7.06820
G1 X150.302 Y139.505 E7.29252
G1 X150.945 Y136.273 E7.51685
G1 X152.775 Y133.534 E7.74117
G1 X155.514 Y131.704 E7.96550
G1 X158.746 Y131.061 E8.18982
G1 X161.895 Y131.688 E8.40846
G1 X162.440 Y131.394 F7200.000
G1 F1800.000 E7.40846
G92 E0
G1 X145.021 Y120.783 F7200.000
G1 E1.00000 F1800.000
G1 X154.242 Y111.731 E1.87985 F1080.000
G1 X163.954 Y89.524 E3.53031
G1 X167.383 Y80.598 E4.18136
G1 X175.702 Y56.620 E5.90962
G1 X190.546 Y56.620 E6.92038
G1 X190.504 Y60.682 E7.19694
G1 X189.328 Y60.680 E7.27700
G1 X185.634 Y58.693 E7.56264
G1 X185.592 Y77.026 E8.81101
G1 X189.273 Y74.886 E9.10094
G1 X190.501 Y74.887 E9.18457
G1 X190.452 Y102.088 E11.03677
G1 X189.267 Y102.087 E11.11744
G1 X185.524 Y100.056 E11.40739
G1 X185.519 Y118.488 E12.66245
G1 X189.248 Y116.252 E12.95850
G1 X190.454 Y116.253 E13.04061
G1 X190.355 Y140.157 E14.66830
G1 X173.773 Y153.764 E16.12889
G1 X173.773 Y153.834 E16.13368
G1 X160.405 Y157.206 E17.07246
G1 X146.057 Y154.305 E18.06918
G1 X138.322 Y142.359 E19.03824
G1 X139.171 Y130.638 E19.83847
G1 X144.978 Y120.855 E20.61312
G1 X144.579 Y120.436 F7200.000
G1 X153.774 Y111.409 E21.49057 F540.000
G1 X163.439 Y89.312 E23.13283
G1 X166.860 Y80.407 E23.78239
G1 X175.306 Y56.063 E25.53702
G1 X191.109 Y56.063 E26.61310
G1 X191.055 Y61.239 E26.96557
G1 X189.187 Y61.237 E27.09275
G1 X186.189 Y59.624 E27.32459
G1 X186.151 Y76.056 E28.44352
G1 X189.123 Y74.328 E28.67759
G1 X191.059 Y74.330 E28.80943
G1 X191.008 Y102.646 E30.73750
G1 X189.125 Y102.644 E30.86568
G1 X186.081 Y100.992 E31.10152
G1 X186.077 Y117.504 E32.22586
G1 X189.094 Y115.695 E32.46544
G1 X191.014 Y115.697 E32.59616
G1 X190.911 Y140.422 E34.27975
G1 X173.906 Y154.375 E35.77758
G1 X160.418 Y157.777 E36.72477
G1 X145.717 Y154.805 E37.74606
G1 X137.753 Y142.505 E38.74380
G1 X138.625 Y130.466 E39.56570
G1 X144.536 Y120.508 E40.35424
G1 X145.126 Y120.539 F7200.000
G1 F1800.000 E39.35424
G92 E0
G1 X141.254 Y79.507 F7200.000
G1 E1.00000 F1800.000
G1 X137.806 Y78.821 E1.23942 F1080.000
G1 X134.882 Y76.867 E1.47883
G1 X132.929 Y73.944 E1.71825
G1 X132.243 Y70.495 E1.95766
G1 X132.929 Y67.047 E2.19708
G1 X134.882 Y64.123 E2.43649
G1 X137.806 Y62.170 E2.67591
G1 X141.254 Y61.484 E2.91532
G1 X144.703 Y62.170 E3.15474
G1 X147.626 Y64.123 E3.39415
G1 X149.580 Y67.047 E3.63357
G1 X150.266 Y70.495 E3.87298
G1 X149.580 Y73.944 E4.11240
G1 X147.626 Y76.867 E4.35181
G1 X144.703 Y78.821 E4.59123
G1 X141.336 Y79.490 E4.82495
G1 X141.254 Y78.939 F7200.000
G1 X138.023 Y78.296 E5.04928 F540.000
G1 X135.284 Y76.466 E5.27360
G1 X133.454 Y73.727 E5.49793
G1 X132.811 Y70.495 E5.72225
G1 X133.454 Y67.264 E5.94658
G1 X135.284 Y64.525 E6.17090
G1 X138.023 Y62.695 E6.39522
G1 X141.254 Y62.052 E6.61955
G1 X144.486 Y62.695 E6.84387
G1 X147.225 Y64.525 E7.06820
G1 X149.055 Y67.264 E7.29252
G1 X149.698 Y70.495 E7.51685
G1 X149.055 Y73.727 E7.74117
G1 X147.225 Y76.466 E7.96550
G1 X144.486 Y78.296 E8.18982
G1 X141.336 Y78.922 E8.40845
G1 X140.945 Y79.402 F7200.000
G1 F1800.000 E7.40845
G92 E0
G1 X135.101 Y90.443 F7200.000
G1 E1.00000 F1800.000
G1 X135.721 Y90.818 E1.04932 F1080.000
G1 X135.721 Y95.968 E1.40002
G1 X125.039 Y122.586 E3.35295
G1 X123.598 Y122.305 E3.45292
G1 X123.700 Y83.542 E6.09243
G1 X135.030 Y90.400 E6.99419
G1 X134.813 Y90.919 F7200.000
G1 X135.164 Y91.132 E7.02213 F540.000
G1 X135.164 Y95.861 E7.34413
G1 X124.693 Y121.951 E9.25839
G1 X124.156 Y121.846 E9.29565
G1 X124.255 Y84.528 E11.83672
G1 X134.741 Y90.876 E12.67139
G1 X135.172 Y90.722 F7200.000
G1 F1800.000 E11.67139
G92 E0
G1 X145.758 Y98.269 F7200.000
G1 E1.00000 F1800.000
G1 X136.046 Y120.476 E2.65047 F1080.000
G1 X132.617 Y129.402 E3.30152
G1 X124.298 Y153.380 E5.02977
G1 X109.454 Y153.380 E6.04053
G1 X109.496 Y149.318 E6.31709
G1 X110.672 Y149.320 E6.39716
G1 X114.366 Y151.307 E6.68279
G1 X114.408 Y132.974 E7.93117
G1 X110.727 Y135.114 E8.22110
G1 X109.499 Y135.113 E8.30473
G1 X109.548 Y107.912 E10.15693
G1 X110.733 Y107.913 E10.23760
G1 X114.476 Y109.944 E10.52755
G1 X114.481 Y91.512 E11.78261
G1 X110.752 Y93.748 E12.07866
G1 X109.546 Y93.747 E12.16077
G1 X109.645 Y69.843 E13.78846
G1 X126.351 Y56.135 E15.25995
G1 X139.595 Y52.794 E16.19004
G1 X153.943 Y55.695 E17.18675
G1 X161.678 Y67.641 E18.15582
G1 X160.829 Y79.362 E18.95605
G1 X154.979 Y89.217 E19.73639
G1 X145.818 Y98.210 E20.61055
G1 X146.226 Y98.591 F7200.000
G1 X136.561 Y120.688 E22.25281 F540.000
G1 X133.140 Y129.593 E22.90237
G1 X124.694 Y153.937 E24.65700
G1 X108.891 Y153.937 E25.73308
G1 X108.945 Y148.761 E26.08555
G1 X110.813 Y148.763 E26.21273
G1 X113.811 Y150.376 E26.44457
G1 X113.849 Y133.944 E27.56351
G1 X110.877 Y135.672 E27.79758
G1 X108.941 Y135.670 E27.92942
G1 X108.992 Y107.354 E29.85748
G1 X110.875 Y107.356 E29.98566
G1 X113.919 Y109.008 E30.22150
G1 X113.923 Y92.496 E31.34585
G1 X110.906 Y94.305 E31.58543
G1 X108.986 Y94.303 E31.71615
G1 X109.089 Y69.578 E33.39974
G1 X126.094 Y55.625 E34.89757
G1 X139.582 Y52.223 E35.84475
G1 X154.283 Y55.195 E36.86604
G1 X162.247 Y67.495 E37.86379
G1 X161.375 Y79.534 E38.68568
G1 X155.421 Y89.564 E39.47991
G1 X146.285 Y98.532 E40.35167
G1 X145.668 Y98.582 F7200.000
G1 F1800.000 E39.35167
G92 E0
G1 X163.886 Y118.545 F7200.000
G1 E1.00000 F1800.000
G1 X155.402 Y110.061 E1.81996 F1080.000
G1 X155.643 Y109.511 E1.86100
G1 X163.886 Y117.754 E2.65771
G1 X163.886 Y116.963 E2.71175
G1 X155.883 Y108.961 E3.48520
G1 X156.124 Y108.411 E3.52624
G1 X163.886 Y116.172 E4.27644
G1 X163.886 Y115.382 E4.33048
G1 X156.364 Y107.860 E5.05742
G1 X156.605 Y107.310 E5.09846
G1 X163.886 Y114.591 E5.80214
G1 X163.930 Y113.845 E5.85323
G1 X156.846 Y106.760 E6.53797
G1 X157.086 Y106.210 E6.57901
G1 X164.157 Y113.280 E7.26238
G1 X164.383 Y112.716 E7.30393
G1 X157.327 Y105.660 E7.98593
G1 X157.568 Y105.110 E8.02697
G1 X164.609 Y112.152 E8.70761
G1 X164.836 Y111.587 E8.74916
G1 X157.808 Y104.560 E9.42843
G1 X158.049 Y104.009 E9.46947
G1 X165.062 Y111.023 E10.14737
G1 X165.289 Y110.459 E10.18892
G1 X158.289 Y103.459 E10.86546
G1 X158.530 Y102.909 E10.90649
G1 X165.515 Y109.895 E11.58166
G1 X165.742 Y109.330 E11.62322
G1 X158.771 Y102.359 E12.29702
G1 X159.011 Y101.809 E12.33805
G1 X165.968 Y108.766 E13.01049
G1 X166.195 Y108.202 E13.05204
G1 X159.252 Y101.259 E13.72311
G1 X159.492 Y100.709 E13.76415
G1 X166.421 Y107.637 E14.43385
G1 X166.648 Y107.073 E14.47540
G1 X159.733 Y100.158 E15.14373
G1 X159.974 Y99.608 E15.18477
G1 X166.874 Y106.509 E15.85174
G1 X167.101 Y105.944 E15.89329
G1 X160.214 Y99.058 E16.55889
G1 X160.455 Y98.508 E16.59993
G1 X167.327 Y105.380 E17.26416
G1 X167.553 Y104.816 E17.30571
G1 X160.695 Y97.958 E17.96858
G1 X160.936 Y97.408 E18.00962
G1 X167.780 Y104.252 E18.67111
G1 X168.006 Y103.687 E18.71267
G1 X161.177 Y96.858 E19.37280
G1 X161.417 Y96.307 E19.41384
G1 X168.233 Y103.123 E20.07260
G1 X168.459 Y102.559 E20.11416
G1 X161.658 Y95.757 E20.77155
G1 X161.898 Y95.207 E20.81259
G1 X168.686 Y101.994 E21.46862
G1 X168.912 Y101.430 E21.51018
G1 X162.139 Y94.657 E22.16484
G1 X162.380 Y94.107 E22.20588
G1 X169.139 Y100.866 E22.85917
G1 X169.365 Y100.302 E22.90073
G1 X162.620 Y93.557 E23.55266
G1 X162.861 Y93.006 E23.59369
G1 X169.592 Y99.737 E24.24425
G1 X169.818 Y99.173 E24.28581
G1 X163.101 Y92.456 E24.93501
G1 X163.342 Y91.906 E24.97604
G1 X170.044 Y98.609 E25.62387
G1 X170.271 Y98.044 E25.66543
G1 X163.583 Y91.356 E26.31189
G1 X163.823 Y90.806 E26.35293
G1 X170.497 Y97.480 E26.99802
G1 X170.724 Y96.916 E27.03957
G1 X164.064 Y90.256 E27.68330
G1 X164.304 Y89.706 E27.72434
G1 X170.950 Y96.352 E28.36670
G1 X171.177 Y95.787 E28.40825
G1 X164.525 Y89.136 E29.05117
G1 X164.745 Y88.564 E29.09300
G1 X171.403 Y95.223 E29.73659
G1 X171.630 Y94.659 E29.77814
G1 X164.964 Y87.993 E30.42241
G1 X165.183 Y87.422 E30.46423
G1 X171.856 Y94.094 E31.10918
G1 X172.083 Y93.530 E31.15073
G1 X165.403 Y86.850 E31.79635
G1 X165.622 Y86.279 E31.83818
G1 X172.309 Y92.966 E32.48447
G1 X172.536 Y92.402 E32.52602
G1 X165.842 Y85.708 E33.17299
G1 X166.061 Y85.137 E33.21482
G1 X172.762 Y91.837 E33.86246
G1 X172.988 Y91.273 E33.90402
G1 X166.281 Y84.565 E34.55234
G1 X166.500 Y83.994 E34.59416
G1 X173.215 Y90.709 E35.24316
G1 X173.441 Y90.144 E35.28471
G1 X166.720 Y83.423 E35.93439
G1 X166.939 Y82.852 E35.97621
G1 X173.668 Y89.580 E36.62656
G1 X173.894 Y89.016 E36.66811
G1 X167.159 Y82.280 E37.31913
G1 X167.378 Y81.709 E37.36096
G1 X174.121 Y88.452 E38.01266
G1 X174.347 Y87.887 E38.05421
G1 X167.598 Y81.138 E38.70659
G1 X167.813 Y80.562 E38.74860
G1 X174.574 Y87.323 E39.40209
G1 X175.077 Y87.036 E39.44171
G1 X168.016 Y79.975 E40.12418
G1 X168.220 Y79.388 E40.16665
G1 X176.059 Y87.227 E40.92432
G1 F1800.000 E39.92432
G92 E0
G1 X185.199 Y76.598 F7200.000
G1 E1.00000 F1800.000
G1 X173.312 Y64.711 E2.14896 F1080.000
G1 F1800.000 E1.14896
G92 E0
G1 X185.384 Y57.014 F7200.000
G1 E1.00000 F1800.000
G1 X187.758 Y59.388 E1.22950 F1080.000
G1 F1800.000 E0.22950
G92 E0
G1 X190.140 Y57.816 F7200.000
G1 E1.00000 F1800.000
G1 X189.338 Y57.014 E1.07754 F1080.000
G1 X188.547 Y57.014 E1.13159
G1 X190.132 Y58.599 E1.28477
G1 X190.123 Y59.381 E1.33825
G1 X187.756 Y57.014 E1.56707
G1 X186.965 Y57.014 E1.62111
G1 X190.115 Y60.164 E1.92557
G1 X189.447 Y60.287 E1.97198
G1 X186.174 Y57.014 E2.28830
G1 X186.046 Y58.467 E2.38799
G1 X184.593 Y57.014 E2.52843
G1 X183.802 Y57.014 E2.58248
G1 X185.241 Y58.452 E2.72151
G1 X185.239 Y59.241 E2.77543
G1 X183.011 Y57.014 E2.99073
G1 X182.221 Y57.014 E3.04477
G1 X185.237 Y60.030 E3.33632
G1 X185.235 Y60.819 E3.39025
G1 X181.430 Y57.014 E3.75806
G1 X180.639 Y57.014 E3.81210
G1 X185.233 Y61.608 E4.25618
G1 X185.232 Y62.397 E4.31010
G1 X179.848 Y57.014 E4.83043
G1 X179.057 Y57.014 E4.88448
G1 X185.230 Y63.186 E5.48107
G1 X185.228 Y63.975 E5.53499
G1 X178.267 Y57.014 E6.20784
G1 X177.476 Y57.014 E6.26189
G1 X185.226 Y64.764 E7.01100
G1 X185.224 Y65.553 E7.06492
G1 X176.685 Y57.014 E7.89029
G1 X175.960 Y57.079 E7.94005
G1 X185.223 Y66.342 E8.83533
G1 X185.221 Y67.131 E8.88925
G1 X175.756 Y57.666 E9.80404
G1 X175.553 Y58.253 E9.84651
G1 X185.219 Y67.920 E10.78082
G1 X185.217 Y68.709 E10.83474
G1 X175.349 Y58.840 E11.78856
G1 X175.145 Y59.427 E11.83103
G1 X185.215 Y69.498 E12.80436
G1 X185.214 Y70.287 E12.85828
G1 X174.941 Y60.015 E13.85113
G1 X174.738 Y60.602 E13.89360
G1 X185.212 Y71.076 E14.90596
G1 X185.210 Y71.865 E14.95988
G1 X174.534 Y61.189 E15.99176
G1 X174.330 Y61.776 E16.03422
G1 X185.208 Y72.654 E17.08561
G1 X185.206 Y73.443 E17.13953
G1 X174.127 Y62.363 E18.21044
G1 X173.923 Y62.950 E18.25290
G1 X185.205 Y74.231 E19.34332
G1 X185.203 Y75.020 E19.39724
G1 X173.719 Y63.537 E20.50717
G1 X173.516 Y64.124 E20.54964
G1 X185.201 Y75.809 E21.67908
G1 F1800.000 E20.67908
G92 E0
G1 X190.105 Y75.969 F7200.000
G1 E1.00000 F1800.000
G1 X189.416 Y75.280 E1.06665 F1080.000
G1 X188.902 Y75.557 E1.10653
G1 X190.104 Y76.759 E1.22268
G1 X190.103 Y77.548 E1.27663
G1 X188.402 Y75.848 E1.44096
G1 X187.902 Y76.138 E1.48049
G1 X190.101 Y78.337 E1.69302
G1 X190.100 Y79.126 E1.74696
G1 X187.402 Y76.429 E2.00767
G1 X186.902 Y76.720 E2.04720
G1 X190.098 Y79.916 E2.35611
G1 X190.097 Y80.705 E2.41005
G1 X186.402 Y77.011 E2.76714
G1 X185.902 Y77.301 E2.80667
G1 X190.095 Y81.494 E3.21195
G1 X190.094 Y82.284 E3.26589
G1 X173.108 Y65.298 E4.90762
G1 X172.905 Y65.885 E4.95009
G1 X190.092 Y83.073 E6.61136
G1 X190.091 Y83.862 E6.66530
G1 X172.701 Y66.472 E8.34612
G1 X172.497 Y67.059 E8.38859
G1 X190.090 Y84.652 E10.08896
G1 X190.088 Y85.441 E10.14290
G1 X172.294 Y67.646 E11.86282
G1 X172.090 Y68.233 E11.90529
G1 X190.087 Y86.230 E13.64475
G1 X190.085 Y87.020 E13.69869
G1 X171.886 Y68.820 E15.45770
G1 X171.683 Y69.408 E15.50017
G1 X190.084 Y87.809 E17.27873
G1 X190.082 Y88.598 E17.33268
G1 X171.479 Y69.995 E19.13078
G1 X171.275 Y70.582 E19.17325
G1 X190.081 Y89.387 E20.99091
G1 X190.079 Y90.177 E21.04485
G1 X171.071 Y71.169 E22.88205
G1 X170.868 Y71.756 E22.92452
G1 X190.078 Y90.966 E24.78127
G1 X190.077 Y91.755 E24.83522
G1 X170.664 Y72.343 E26.71151
G1 X170.460 Y72.930 E26.75398
G1 X190.075 Y92.545 E28.64983
G1 X190.074 Y93.334 E28.70377
G1 X170.257 Y73.517 E30.61917
G1 X170.053 Y74.104 E30.66164
G1 X190.072 Y94.123 E32.59658
G1 X190.071 Y94.913 E32.65052
G1 X169.849 Y74.691 E34.60501
G1 X169.646 Y75.278 E34.64748
G1 X190.069 Y95.702 E36.62152
G1 X190.068 Y96.491 E36.67546
G1 X169.442 Y75.865 E38.66905
G1 X169.238 Y76.452 E38.71152
G1 X190.067 Y97.281 E40.72465
G1 X190.065 Y98.070 E40.77860
G1 X169.035 Y77.039 E42.81128
G1 X168.831 Y77.626 E42.85375
G1 X190.064 Y98.859 E44.90598
G1 X190.062 Y99.648 E44.95992
G1 X168.627 Y78.214 E47.03170
G1 X168.424 Y78.801 E47.07417
