; generated by Slic3r 1.0.0RC3 on 2014-03-11 at 21:22:02

; layer_height = 0.3
; perimeters = 2
; top_solid_layers = 3
; bottom_solid_layers = 3
; fill_density = 0.1
; perimeter_speed = 60
; infill_speed = 60
; travel_speed = 120
; nozzle_diameter = 0.4
; filament_diameter = 1.75
; extrusion_multiplier = 0.98
; perimeters extrusion width = 0.40mm
; infill extrusion width = 0.42mm
; solid infill extrusion width = 0.42mm
; top infill extrusion width = 0.42mm
; first layer extrusion width = 0.60mm

G21 ; set units to millimeters
M107
M104 S220 ; set temperature
G28 ; home all axes
M106 S255;
G1 Z200 F1200 ; lift nozzle
M109 S220 ; wait for temperature to be reached
G90 ; use absolute coordinates
G92 E0
M82 ; use absolute distances for extrusion
G1 F1800.000 E-1.00000
G92 E0
G1 Z0.300 F7200.000
G1 X129.405 Y85.798 F7200.000
G1 E1.00000 F1800.000
G1 X130.215 Y84.818 E1.08657 F1080.000
G1 X131.205 Y84.018 E1.17324
G1 X132.335 Y83.418 E1.26036
G1 X133.555 Y83.058 E1.34698
G1 X134.825 Y82.928 E1.43391
G1 X165.165 Y82.928 E3.49983
G1 X166.435 Y83.058 E3.58676
G1 X167.655 Y83.418 E3.67337
G1 X168.775 Y84.018 E3.75989
G1 X169.765 Y84.818 E3.84656
G1 X170.585 Y85.798 E3.93357
G1 X171.195 Y86.908 E4.01981
G1 X171.575 Y88.128 E4.10682
G1 X171.725 Y89.388 E4.19322
G1 X171.815 Y95.428 E4.60455
G1 X171.685 Y96.818 E4.69961
G1 X171.265 Y98.148 E4.79458
G1 X160.355 Y123.128 E6.65068
G1 X159.735 Y124.238 E6.73725
G1 X158.925 Y125.208 E6.82330
G1 X157.935 Y125.998 E6.90955
G1 X156.815 Y126.578 E6.99543
G1 X155.605 Y126.948 E7.08159
G1 X154.345 Y127.068 E7.16777
G1 X145.645 Y127.068 E7.76018
G1 X144.385 Y126.948 E7.84636
G1 X143.175 Y126.578 E7.93252
G1 X142.055 Y125.998 E8.01840
G1 X141.065 Y125.198 E8.10507
G1 X140.255 Y124.238 E8.19060
G1 X139.635 Y123.128 E8.27718
G1 X128.735 Y98.148 E10.13300
G1 X128.315 Y96.828 E10.22732
G1 X128.185 Y95.438 E10.32239
G1 X128.265 Y89.398 E10.73370
G1 X128.405 Y88.138 E10.82002
G1 X128.795 Y86.918 E10.90724
G1 X129.365 Y85.871 E10.98839
G1 F1800.000 E9.98839
G92 E0
G1 X141.246 Y92.338 F7200.000
G1 E1.00000 F1800.000
G1 X141.643 Y91.743 E1.04872 F540.000
G1 X142.238 Y91.346 E1.09744
G1 X142.940 Y91.206 E1.14615
G1 X143.642 Y91.346 E1.19487
G1 X144.237 Y91.743 E1.24359
G1 X144.634 Y92.338 E1.29231
G1 X144.774 Y93.040 E1.34103
G1 X144.634 Y93.742 E1.38975
G1 X144.237 Y94.336 E1.43847
G1 X143.642 Y94.734 E1.48719
G1 X142.940 Y94.874 E1.53591
G1 X142.238 Y94.734 E1.58463
G1 X141.643 Y94.336 E1.63335
G1 X141.246 Y93.742 E1.68206
G1 X141.106 Y93.040 E1.73078
G1 X141.230 Y92.420 E1.77381
G1 X140.936 Y91.875 F7200.000
G1 X140.721 Y92.121 F7200.000
G1 X140.538 Y93.040 E1.83762 F1080.000
G1 X140.721 Y93.959 E1.90143
G1 X141.242 Y94.738 E1.96524
G1 X142.021 Y95.259 E2.02905
G1 X142.940 Y95.442 E2.09286
G1 X143.859 Y95.259 E2.15667
G1 X144.638 Y94.738 E2.22048
G1 X145.159 Y93.959 E2.28429
G1 X145.342 Y93.040 E2.34810
G1 X145.159 Y92.121 E2.41191
G1 X144.638 Y91.342 E2.47571
G1 X143.395 Y90.511 E2.57755
G1 X143.445 Y90.345 E2.58935
G1 X147.946 Y90.345 E2.89585
G1 X147.946 Y97.918 E3.41152
G1 X147.772 Y119.384 E4.87324
G1 X146.182 Y119.582 E4.98235
G1 X135.604 Y95.355 E6.78240
G1 X135.674 Y90.345 E7.12361
G1 X142.435 Y90.345 E7.58398
G1 X142.485 Y90.511 E7.59578
G1 X141.242 Y91.342 E7.69762
G1 X140.768 Y92.051 E7.75573
G1 F1800.000 E6.75573
G92 E0
G1 X135.125 Y89.788 F7200.000
G1 E1.00000 F1800.000
G1 X148.503 Y89.788 E1.91100 F540.000
G1 X148.503 Y97.920 E2.46475
G1 X148.325 Y119.876 E3.95985
G1 X145.838 Y120.187 E4.13051
G1 X135.046 Y95.468 E5.96709
G1 X135.123 Y89.871 E6.34822
G1 X135.606 Y90.069 F7200.000
G1 F1800.000 E5.34822
G92 E0
G1 X155.226 Y93.040 F7200.000
G1 E1.00000 F1800.000
G1 X155.366 Y92.338 E1.04872 F540.000
G1 X155.763 Y91.743 E1.09744
G1 X156.358 Y91.346 E1.14616
G1 X157.060 Y91.206 E1.19487
G1 X157.762 Y91.346 E1.24359
G1 X158.357 Y91.743 E1.29232
G1 X158.754 Y92.338 E1.34103
G1 X158.894 Y93.040 E1.38975
G1 X158.754 Y93.742 E1.43847
G1 X158.357 Y94.336 E1.48719
G1 X157.762 Y94.734 E1.53591
G1 X157.060 Y94.874 E1.58463
G1 X156.358 Y94.734 E1.63335
G1 X155.763 Y94.336 E1.68207
G1 X155.366 Y93.742 E1.73078
G1 X155.242 Y93.122 E1.77381
G1 X154.763 Y92.730 F7200.000
G1 X154.658 Y93.040 F7200.000
G1 X154.841 Y93.959 E1.83762 F1080.000
G1 X155.362 Y94.738 E1.90143
G1 X156.141 Y95.259 E1.96524
G1 X157.060 Y95.442 E2.02904
G1 X157.979 Y95.259 E2.09286
G1 X158.758 Y94.738 E2.15667
G1 X159.279 Y93.959 E2.22048
G1 X159.462 Y93.040 E2.28428
G1 X159.279 Y92.121 E2.34810
G1 X158.758 Y91.342 E2.41190
G1 X157.515 Y90.511 E2.51374
G1 X157.565 Y90.345 E2.52554
G1 X164.326 Y90.345 E2.98591
G1 X164.396 Y95.355 E3.32713
G1 X153.818 Y119.582 E5.12717
G1 X152.228 Y119.384 E5.23628
G1 X152.054 Y97.918 E6.69800
G1 X152.054 Y90.345 E7.21367
G1 X156.555 Y90.345 E7.52017
G1 X156.605 Y90.511 E7.53197
G1 X155.362 Y91.342 E7.63380
G1 X154.841 Y92.121 E7.69761
G1 X154.674 Y92.958 E7.75573
G1 F1800.000 E6.75573
G92 E0
G1 X151.497 Y89.788 F7200.000
G1 E1.00000 F1800.000
G1 X164.875 Y89.788 E1.91100 F540.000
G1 X164.954 Y95.468 E2.29781
G1 X154.162 Y120.187 E4.13439
G1 X151.675 Y119.876 E4.30506
G1 X151.497 Y97.920 E5.80016
G1 X151.497 Y89.871 E6.34822
G1 X151.979 Y90.066 F7200.000
G1 X152.447 Y91.933 F7200.000
G1 X154.431 Y93.917 E6.54013 F1080.000
G1 X154.271 Y92.965 E6.60611
G1 X152.447 Y91.141 E6.78257
G1 X152.836 Y90.739 E6.82087
G1 X154.403 Y92.305 E6.97243
G1 X154.625 Y91.736 E7.01425
G1 X153.628 Y90.739 E7.11070
G1 X154.419 Y90.739 E7.16485
G1 X154.942 Y91.261 E7.21539
G1 X155.211 Y90.739 E7.25560
G1 X155.349 Y90.877 E7.26893
G1 F1800.000 E6.26893
G92 E0
G1 X163.918 Y90.739 F7200.000
G1 E1.00000 F1800.000
G1 X163.938 Y90.759 E1.00194 F1080.000
G1 X163.949 Y91.561 E1.05686
G1 X163.126 Y90.739 E1.13647
G1 X162.335 Y90.739 E1.19062
G1 X163.960 Y92.364 E1.34788
G1 X163.971 Y93.167 E1.40280
G1 X161.543 Y90.739 E1.63772
G1 X160.752 Y90.739 E1.69187
G1 X163.982 Y93.970 E2.00446
G1 X163.994 Y94.772 E2.05938
G1 X159.960 Y90.739 E2.44962
G1 X159.168 Y90.739 E2.50377
G1 X163.911 Y95.481 E2.96260
G1 X163.670 Y96.032 E3.00373
G1 X159.661 Y92.023 E3.39165
G1 X159.857 Y93.011 E3.46057
G1 X163.430 Y96.583 E3.80620
G1 X163.189 Y97.134 E3.84733
G1 X159.736 Y93.681 E4.18146
G1 X159.540 Y94.277 E4.22437
G1 X162.949 Y97.685 E4.55414
G1 X162.708 Y98.236 E4.59527
G1 X159.223 Y94.751 E4.93244
G1 X158.839 Y95.158 E4.97074
G1 X162.468 Y98.787 E5.32185
G1 X162.227 Y99.338 E5.36298
G1 X158.364 Y95.475 E5.73671
G1 X157.795 Y95.697 E5.77853
G1 X161.986 Y99.889 E6.18410
G1 X161.746 Y100.440 E6.22523
G1 X157.134 Y95.828 E6.67141
G1 X156.183 Y95.669 E6.73739
G1 X161.505 Y100.991 E7.25231
G1 X161.265 Y101.542 E7.29344
G1 X152.447 Y92.725 E8.14652
G1 X152.447 Y93.516 E8.20067
G1 X161.024 Y102.093 E9.03047
G1 X160.784 Y102.644 E9.07160
G1 X152.447 Y94.308 E9.87813
G1 X152.447 Y95.099 E9.93229
G1 X160.543 Y103.195 E10.71555
G1 X160.303 Y103.746 E10.75668
G1 X152.447 Y95.891 E11.51666
G1 X152.447 Y96.682 E11.57081
G1 X160.062 Y104.297 E12.30753
G1 X159.822 Y104.848 E12.34866
G1 X152.447 Y97.474 E13.06210
G1 X152.450 Y98.268 E13.11644
G1 X159.581 Y105.399 E13.80633
G1 X159.340 Y105.950 E13.84746
G1 X152.457 Y99.066 E14.51345
G1 X152.463 Y99.864 E14.56805
G1 X159.100 Y106.501 E15.21013
G1 X158.859 Y107.052 E15.25126
G1 X152.470 Y100.662 E15.86945
G1 X152.476 Y101.460 E15.92404
G1 X158.619 Y107.603 E16.51833
G1 X158.378 Y108.154 E16.55946
G1 X152.483 Y102.258 E17.12984
G1 X152.489 Y103.056 E17.18443
G1 X158.138 Y108.705 E17.73091
G1 X157.897 Y109.256 E17.77204
G1 X152.496 Y103.854 E18.29462
G1 X152.502 Y104.652 E18.34922
G1 X157.657 Y109.807 E18.84789
G1 X157.416 Y110.358 E18.88902
G1 X152.509 Y105.450 E19.36379
G1 X152.515 Y106.248 E19.41839
G1 X157.175 Y110.909 E19.86926
G1 X156.935 Y111.460 E19.91039
G1 X152.522 Y107.046 E20.33736
G1 X152.528 Y107.845 E20.39196
G1 X156.694 Y112.011 E20.79502
G1 X156.454 Y112.562 E20.83615
G1 X152.535 Y108.643 E21.21532
G1 X152.541 Y109.441 E21.26992
G1 X156.213 Y113.113 E21.62518
G1 X155.973 Y113.664 E21.66631
G1 X152.548 Y110.239 E21.99767
G1 X152.554 Y111.037 E22.05227
G1 X155.732 Y114.215 E22.35973
G1 X155.492 Y114.766 E22.40086
G1 X152.561 Y111.835 E22.68441
G1 X152.567 Y112.633 E22.73901
G1 X155.251 Y115.316 E22.99867
G1 X155.011 Y115.867 E23.03980
G1 X152.574 Y113.431 E23.27555
G1 X152.580 Y114.229 E23.33015
G1 X154.770 Y116.418 E23.54200
G1 X154.529 Y116.969 E23.58313
G1 X152.587 Y115.027 E23.77108
G1 X152.593 Y115.825 E23.82568
G1 X154.289 Y117.520 E23.98973
G1 X154.048 Y118.071 E24.03086
G1 X152.600 Y116.623 E24.17100
G1 X152.606 Y117.421 E24.22560
G1 X153.808 Y118.622 E24.34184
G1 X153.545 Y119.151 E24.38225
G1 X152.613 Y118.219 E24.47247
G1 X152.619 Y119.017 E24.52706
G1 X152.641 Y119.039 E24.52915
G1 F1800.000 E23.52915
G92 E0
G1 X146.440 Y119.153 F7200.000
G1 E1.00000 F1800.000
G1 X146.412 Y119.125 E1.00276 F1080.000
G1 X147.149 Y119.065 E1.05375
G1 X145.794 Y117.709 E1.18586
G1 X145.176 Y116.294 F7200.000
G1 X147.385 Y118.503 E1.40121 F1080.000
G1 X147.391 Y117.712 E1.45574
G1 X144.558 Y114.879 E1.73196
G1 X143.940 Y113.463 F7200.000
G1 X147.398 Y116.921 E2.06904 F1080.000
G1 X147.404 Y116.130 E2.12356
G1 X143.322 Y112.048 E2.52151
G1 X142.704 Y110.632 F7200.000
G1 X147.411 Y115.339 E2.98033 F1080.000
G1 X147.417 Y114.548 E3.03485
G1 X142.086 Y109.217 E3.55453
G1 X141.468 Y107.801 F7200.000
G1 X147.424 Y113.757 E4.13508 F1080.000
G1 X147.430 Y112.966 E4.18961
G1 X140.850 Y106.386 E4.83102
G1 X140.232 Y104.970 F7200.000
G1 X147.436 Y112.175 E5.53330 F1080.000
G1 X147.443 Y111.384 E5.58783
G1 X139.614 Y103.555 E6.35097
G1 X138.996 Y102.139 F7200.000
G1 X147.449 Y110.593 E7.17498 F1080.000
G1 X147.456 Y109.802 E7.22951
G1 X138.378 Y100.724 E8.11439
G1 X137.760 Y99.309 F7200.000
G1 X147.462 Y109.011 E9.06013 F1080.000
G1 X147.469 Y108.220 E9.11466
G1 X137.142 Y97.893 E10.12127
G1 X136.524 Y96.478 F7200.000
G1 X147.475 Y107.429 E11.18875 F1080.000
G1 X147.482 Y106.637 E11.24327
G1 X136.001 Y95.157 E12.36236
G1 X136.012 Y94.370 E12.41658
G1 X147.488 Y105.846 E13.53524
G1 X147.494 Y105.055 E13.58976
G1 X136.023 Y93.584 E14.70798
G1 X136.034 Y92.797 E14.76220
G1 X147.501 Y104.264 E15.87997
G1 X147.507 Y103.473 E15.93450
G1 X136.045 Y92.011 E17.05184
G1 X136.056 Y91.224 E17.10606
G1 X147.514 Y102.682 E18.22296
G1 X147.520 Y101.891 E18.27749
G1 X136.368 Y90.739 E19.36461
G1 X137.165 Y90.739 E19.41958
G1 X140.303 Y93.877 E19.72548
G1 X140.158 Y92.934 E19.79124
G1 X137.963 Y90.739 E20.00522
G1 X138.760 Y90.739 E20.06019
G1 X140.290 Y92.269 E20.20933
G1 X140.525 Y91.706 E20.25137
G1 X139.558 Y90.739 E20.34564
G1 X140.355 Y90.739 E20.40061
G1 X140.844 Y91.228 E20.44828
G1 X141.266 Y90.852 E20.48721
G1 X141.153 Y90.739 E20.49824
G1 F1800.000 E19.49824
G92 E0
G1 X145.140 Y90.739 F7200.000
G1 E1.00000 F1800.000
G1 X147.553 Y93.151 E1.23516 F1080.000
G1 X147.553 Y92.354 E1.29013
G1 X145.938 Y90.739 E1.44755
G1 X146.735 Y90.739 E1.50252
G1 X147.553 Y91.556 E1.58220
G1 X147.553 Y90.759 E1.63717
G1 X147.533 Y90.739 E1.63912
G1 F1800.000 E0.63912
G92 E0
G1 X145.447 Y91.844 F7200.000
G1 E1.00000 F1800.000
G1 X147.553 Y93.949 E1.20520 F1080.000
G1 X147.553 Y94.746 E1.26017
G1 X145.718 Y92.911 E1.43901
G1 X145.628 Y93.619 E1.48818
G1 X147.553 Y95.544 E1.67577
G1 X147.553 Y96.341 E1.73074
G1 X145.447 Y94.236 E1.93593
G1 X145.128 Y94.714 E1.97556
G1 X147.553 Y97.139 E2.21189
G1 X147.552 Y97.936 E2.26685
G1 X144.752 Y95.136 E2.53981
G1 X144.274 Y95.455 E2.57944
G1 X147.546 Y98.727 E2.89836
G1 X147.539 Y99.518 E2.95289
G1 X143.711 Y95.690 E3.32606
G1 X143.046 Y95.822 E3.37281
G1 X147.533 Y100.309 E3.81020
G1 X147.527 Y101.100 E3.86472
G1 X142.103 Y95.677 E4.39339
G1 F1800.000 E3.39339
G92 E0
G1 X142.706 Y90.856 F7200.000
G1 E1.00000 F1800.000
G1 X142.698 Y90.848 E1.00050 F360.000
G1 X143.146 Y90.812 E1.01933 F360.000
G1 X143.182 Y90.848 E1.02148 F360.000
G1 X142.940 Y90.637 F7200.000
G1 X142.925 Y90.622 E1.02256 F360.000
G1 X143.085 Y90.194 E1.04572 F360.000
G1 X143.067 Y90.176 E1.04701 F360.000
G1 F1800.000 E0.04701
G92 E0
G1 X156.818 Y90.848 F7200.000
G1 E1.00000 F1800.000
G1 X157.266 Y90.812 E1.01883 F360.000
G1 X157.302 Y90.848 E1.02098 F360.000
G1 X157.060 Y90.637 F7200.000
G1 X157.045 Y90.622 E1.02205 F360.000
G1 X157.205 Y90.194 E1.04522 F360.000
G1 X157.187 Y90.176 E1.04651 F360.000
G1 X156.818 Y90.848 F7200.000
G1 X156.826 Y90.856 E1.04701 F360.000
M106 S255
G1 F1800.000 E0.04701
G92 E0
G1 Z0.600 F7200.000
G1 X145.080 Y93.040 F7200.000
G1 E1.00000 F1800.000
G1 X144.917 Y93.859 E1.04082 F1608.521
G1 X144.453 Y94.553 E1.08163
G1 X143.759 Y95.017 E1.12245
G1 X142.940 Y95.179 E1.16327
G1 X142.121 Y95.017 E1.20408
G1 X141.427 Y94.553 E1.24490
G1 X140.963 Y93.859 E1.28571
G1 X140.800 Y93.040 E1.32653
G1 X140.963 Y92.221 E1.36735
G1 X141.427 Y91.527 E1.40816
G1 X142.121 Y91.063 E1.44898
G1 X142.940 Y90.900 E1.48980
G1 X143.759 Y91.063 E1.53062
G1 X144.453 Y91.527 E1.57143
G1 X144.917 Y92.221 E1.61225
G1 X145.068 Y92.981 E1.65013
G1 X144.672 Y93.040 F7200.000
G1 X144.540 Y93.703 E1.68317 F1608.521
G1 X144.165 Y94.264 E1.71621
G1 X143.603 Y94.640 E1.74924
G1 X142.940 Y94.772 E1.78228
G1 X142.277 Y94.640 E1.81532
G1 X141.716 Y94.264 E1.84835
G1 X141.340 Y93.703 E1.88139
G1 X141.208 Y93.040 E1.91443
G1 X141.340 Y92.377 E1.94746
G1 X141.716 Y91.815 E1.98050
G1 X142.277 Y91.440 E2.01354
G1 X142.940 Y91.308 E2.04657
G1 X143.603 Y91.440 E2.07961
G1 X144.165 Y91.815 E2.11265
G1 X144.540 Y92.377 E2.14568
G1 X144.660 Y92.981 E2.17579
G1 X145.004 Y93.262 F7200.000
G1 F1800.000 E1.17579
G92 E0
G1 X148.203 Y90.088 F7200.000
G1 E1.00000 F1800.000
G1 X148.203 Y97.919 E1.38288 F3217.043
G1 X148.027 Y119.611 E2.44351
G1 X146.023 Y119.861 E2.54225
G1 X135.347 Y95.407 E3.84684
G1 X135.421 Y90.088 E4.10695
G1 X148.143 Y90.088 E4.72901
G1 X148.603 Y89.688 F7200.000
G1 X148.603 Y97.921 E5.13153 F1608.521
G1 X148.424 Y119.965 E6.20935
G1 X145.776 Y120.295 E6.33983
G1 X134.945 Y95.488 E7.66326
G1 X135.026 Y89.688 E7.94689
G1 X148.543 Y89.688 E8.60779
G1 X148.403 Y90.034 F7200.000
G1 F1800.000 E7.60779
G92 E0
G1 X155.083 Y92.221 F7200.000
G1 E1.00000 F1800.000
G1 X155.547 Y91.527 E1.04081 F1608.521
G1 X156.241 Y91.063 E1.08163
G1 X157.060 Y90.900 E1.12245
G1 X157.879 Y91.063 E1.16327
G1 X158.573 Y91.527 E1.20408
G1 X159.037 Y92.221 E1.24490
G1 X159.200 Y93.040 E1.28572
G1 X159.037 Y93.859 E1.32653
G1 X158.573 Y94.553 E1.36735
G1 X157.879 Y95.017 E1.40817
G1 X157.060 Y95.179 E1.44898
G1 X156.241 Y95.017 E1.48980
G1 X155.547 Y94.553 E1.53062
G1 X155.083 Y93.859 E1.57143
G1 X154.920 Y93.040 E1.61225
G1 X155.071 Y92.280 E1.65013
G1 X155.460 Y92.377 F7200.000
G1 X155.835 Y91.815 E1.68317 F1608.521
G1 X156.397 Y91.440 E1.71621
G1 X157.060 Y91.308 E1.74924
G1 X157.723 Y91.440 E1.78228
G1 X158.284 Y91.815 E1.81532
G1 X158.660 Y92.377 E1.84835
G1 X158.792 Y93.040 E1.88139
G1 X158.660 Y93.703 E1.91443
G1 X158.284 Y94.264 E1.94746
G1 X157.723 Y94.640 E1.98050
G1 X157.060 Y94.772 E2.01354
G1 X156.397 Y94.640 E2.04657
G1 X155.835 Y94.264 E2.07961
G1 X155.460 Y93.703 E2.11265
G1 X155.328 Y93.040 E2.14568
G1 X155.448 Y92.436 E2.17579
G1 X155.238 Y92.045 F7200.000
G1 F1800.000 E1.17579
G92 E0
G1 X151.797 Y90.088 F7200.000
G1 E1.00000 F1800.000
G1 X164.579 Y90.088 E1.62499 F3217.043
G1 X164.653 Y95.407 E1.88510
G1 X153.977 Y119.861 E3.18969
G1 X151.973 Y119.611 E3.28843
G1 X151.797 Y97.919 E4.34906
G1 X151.797 Y90.148 E4.72901
G1 X151.397 Y89.688 F7200.000
G1 X164.974 Y89.688 E5.39284 F1608.521
G1 X165.055 Y95.488 E5.67646
G1 X154.224 Y120.295 E6.99989
G1 X151.576 Y119.965 E7.13037
G1 X151.397 Y97.921 E8.20820
G1 X151.397 Y89.748 E8.60779
G1 X151.743 Y89.888 F7200.000
G1 F1800.000 E7.60779
G92 E0
G1 X143.919 Y90.491 F7200.000
G1 E1.00000 F1800.000
G1 X144.038 Y90.372 E1.00864 F3217.043
G1 X144.632 Y90.372 E1.03915
G1 X144.217 Y90.787 E1.06928
G1 X144.573 Y91.025 E1.09128
G1 X145.226 Y90.372 E1.13869
G1 X145.820 Y90.372 E1.16920
G1 X144.887 Y91.305 E1.23697
G1 X145.125 Y91.661 E1.25896
G1 X146.415 Y90.372 E1.35259
G1 X147.009 Y90.372 E1.38310
G1 X145.363 Y92.018 E1.50259
G1 X145.601 Y92.374 E1.52459
G1 X147.603 Y90.372 E1.66994
G1 X147.919 Y90.650 E1.69156
