; generated by Slic3r 1.0.0RC3 on 2014-03-11 at 21:21:17

; layer_height = 0.3
; perimeters = 2
; top_solid_layers = 3
; bottom_solid_layers = 3
; fill_density = 0.1
; perimeter_speed = 60
; infill_speed = 60
; travel_speed = 120
; nozzle_diameter = 0.4
; filament_diameter = 1.75
; extrusion_multiplier = 0.98
; perimeters extrusion width = 0.40mm
; infill extrusion width = 0.42mm
; solid infill extrusion width = 0.42mm
; top infill extrusion width = 0.42mm
; first layer extrusion width = 0.60mm

G21 ; set units to millimeters
M107
M104 S220 ; set temperature
G28 ; home all axes
M106 S255;
G1 Z200 F1200 ; lift nozzle
M109 S220 ; wait for temperature to be reached
G90 ; use absolute coordinates
G92 E0
M82 ; use absolute distances for extrusion
G1 F1800.000 E-1.00000
G92 E0
G1 Z0.300 F7200.000
G1 X120.553 Y42.985 F7200.000
G1 E1.00000 F1800.000
G1 X121.163 Y41.855 E1.08744 F1080.000
G1 X121.973 Y40.855 E1.17507
G1 X122.973 Y40.045 E1.26270
G1 X124.103 Y39.435 E1.35014
G1 X125.333 Y39.065 E1.43760
G1 X126.613 Y38.935 E1.52520
G1 X181.493 Y38.935 E5.26211
G1 X182.773 Y39.065 E5.34972
G1 X184.003 Y39.435 E5.43718
G1 X185.133 Y40.045 E5.52462
G1 X186.133 Y40.855 E5.61225
G1 X186.943 Y41.855 E5.69988
G1 X187.553 Y42.985 E5.78732
G1 X187.923 Y44.215 E5.87478
G1 X188.053 Y45.495 E5.96238
G1 X188.053 Y46.095 E6.00324
G1 X187.963 Y49.445 E6.23143
G1 X187.593 Y60.715 E6.99925
G1 X187.563 Y61.165 E7.02996
G1 X186.843 Y68.175 E7.50979
G1 X186.773 Y68.675 E7.54417
G1 X185.313 Y76.735 E8.10193
G1 X185.183 Y77.305 E8.14174
G1 X185.023 Y77.885 E8.18271
G1 X180.863 Y91.495 E9.15177
G1 X180.383 Y92.945 E9.25577
G1 X178.683 Y97.175 E9.56619
G1 X176.013 Y103.605 E10.04027
G1 X175.553 Y104.645 E10.11771
G1 X174.843 Y106.075 E10.22642
G1 X168.973 Y117.235 E11.08504
G1 X167.903 Y119.055 E11.22880
G1 X165.453 Y123.095 E11.55053
G1 X163.533 Y126.165 E11.79708
G1 X161.543 Y129.125 E12.03995
G1 X161.033 Y129.855 E12.10059
G1 X160.323 Y130.815 E12.18189
G1 X156.403 Y135.905 E12.61936
G1 X155.523 Y137.005 E12.71528
G1 X154.553 Y138.135 E12.81668
G1 X151.773 Y141.095 E13.09319
G1 X146.013 Y146.595 E13.63549
G1 X133.233 Y157.885 E14.79664
G1 X131.483 Y159.235 E14.94714
G1 X130.173 Y160.135 E15.05536
G1 X129.953 Y160.265 E15.07277
G1 X128.693 Y160.835 E15.16693
G1 X127.353 Y161.135 E15.26043
G1 X125.973 Y161.145 E15.35440
G1 X124.623 Y160.865 E15.44829
G1 X123.363 Y160.315 E15.54190
G1 X122.243 Y159.505 E15.63602
G1 X121.323 Y158.485 E15.72955
G1 X120.633 Y157.295 E15.82322
G1 X120.203 Y155.985 E15.91710
G1 X120.053 Y154.615 E16.01094
G1 X120.053 Y45.495 E23.44119
G1 X120.183 Y44.215 E23.52879
G1 X120.529 Y43.065 E23.61056
G1 F1800.000 E22.61056
G92 E0
G1 X127.472 Y46.352 F7200.000
G1 E1.00000 F1800.000
G1 X180.635 Y46.352 E4.62002 F1080.000
G1 X180.463 Y52.421 E5.03343
G1 X180.424 Y53.132 E5.08195
G1 X180.213 Y59.914 E5.54397
G1 X180.172 Y60.637 E5.59328
G1 X179.479 Y67.374 E6.05440
G1 X178.037 Y75.374 E6.60792
G1 X173.500 Y90.210 E7.66433
G1 X171.830 Y94.349 E7.96822
G1 X169.171 Y100.760 E8.44087
G1 X168.694 Y101.824 E8.52021
G1 X167.764 Y103.650 E8.65979
G1 X167.393 Y104.326 E8.71229
G1 X162.575 Y113.498 E9.41775
G1 X161.559 Y115.219 E9.55383
G1 X159.191 Y119.123 E9.86470
G1 X157.301 Y122.155 E10.10800
G1 X156.346 Y123.536 E10.22234
G1 X155.462 Y124.888 E10.33233
G1 X154.451 Y126.292 E10.45017
G1 X153.764 Y127.144 E10.52470
G1 X150.315 Y131.669 E10.91214
G1 X148.944 Y133.291 E11.05672
G1 X146.629 Y135.753 E11.28683
G1 X144.992 Y137.333 E11.44177
G1 X144.187 Y138.092 E11.51710
G1 X143.714 Y138.503 E11.55977
G1 X141.201 Y140.955 E11.79885
G1 X140.838 Y141.283 E11.83217
G1 X139.589 Y142.274 E11.94069
G1 X138.786 Y143.024 E12.01550
G1 X137.128 Y144.381 E12.16143
G1 X135.309 Y145.767 E12.31710
G1 X133.687 Y146.806 E12.44830
G1 X133.527 Y147.011 E12.46603
G1 X133.202 Y147.352 E12.49811
G1 X133.011 Y147.499 E12.51448
G1 X131.733 Y148.816 E12.63944
G1 X128.707 Y152.020 E12.93954
G1 X128.534 Y152.174 E12.95530
G1 X127.472 Y152.982 E13.04615
G1 X127.472 Y46.436 E20.30111
G1 X127.395 Y45.795 F7200.000
G1 X181.206 Y45.795 E23.96522 F540.000
G1 X181.020 Y52.441 E24.41795
G1 X180.981 Y53.152 E24.46643
G1 X180.770 Y59.934 E24.92846
G1 X180.726 Y60.690 E24.98001
G1 X180.029 Y67.461 E25.44353
G1 X178.580 Y75.500 E25.99970
G1 X174.314 Y89.495 E26.99595
G1 X174.025 Y90.398 E27.06054
G1 X172.346 Y94.559 E27.36606
G1 X169.683 Y100.979 E27.83933
G1 X169.283 Y101.884 E27.90672
G1 X168.999 Y102.427 E27.94843
G1 X168.788 Y102.885 E27.98276
G1 X163.062 Y113.769 E28.82019
G1 X162.039 Y115.503 E28.95729
G1 X159.590 Y119.537 E29.27863
G1 X157.728 Y122.520 E29.51805
G1 X156.810 Y123.845 E29.62780
G1 X155.923 Y125.202 E29.73818
G1 X155.411 Y125.925 E29.79853
G1 X154.892 Y126.634 E29.85833
G1 X154.197 Y127.495 E29.93367
G1 X150.750 Y132.016 E30.32082
G1 X149.355 Y133.667 E30.46800
G1 X147.025 Y136.145 E30.69965
G1 X145.376 Y137.737 E30.85569
G1 X144.561 Y138.505 E30.93194
G1 X144.092 Y138.913 E30.97430
G1 X141.584 Y141.360 E31.21287
G1 X141.191 Y141.714 E31.24891
G1 X139.946 Y142.704 E31.35719
G1 X139.155 Y143.441 E31.43076
G1 X137.469 Y144.822 E31.57918
G1 X135.631 Y146.222 E31.73652
G1 X134.067 Y147.224 E31.86298
G1 X133.949 Y147.376 E31.87609
G1 X133.576 Y147.767 E31.91294
G1 X133.383 Y147.916 E31.92949
G1 X132.143 Y149.193 E32.05071
G1 X129.101 Y152.414 E32.35237
G1 X128.883 Y152.609 E32.37233
G1 X126.915 Y154.102 E32.54048
G1 X126.915 Y45.796 E39.91530
G1 X127.311 Y45.795 E39.94227
G1 X127.673 Y46.277 F7200.000
G1 F1800.000 E38.94227
G92 E0
G1 X179.421 Y46.746 F7200.000
G1 E1.00000 F1800.000
G1 X180.208 Y47.532 E1.07583 F1080.000
G1 X180.186 Y48.299 E1.12814
G1 X178.633 Y46.746 E1.27791
G1 X177.844 Y46.746 E1.33169
G1 X180.164 Y49.066 E1.55541
G1 X180.142 Y49.833 E1.60772
G1 X177.055 Y46.746 E1.90538
G1 X176.266 Y46.746 E1.95916
G1 X180.121 Y50.600 E2.33077
G1 X180.099 Y51.367 E2.38308
G1 X175.477 Y46.746 E2.82863
G1 X174.689 Y46.746 E2.88241
G1 X180.077 Y52.134 E3.40191
G1 X180.043 Y52.889 E3.45343
G1 X173.900 Y46.746 E4.04572
G1 X173.111 Y46.746 E4.09949
G1 X180.014 Y53.649 E4.76505
G1 X179.991 Y54.414 E4.81723
G1 X172.322 Y46.746 E5.55654
G1 X171.534 Y46.746 E5.61031
G1 X179.967 Y55.179 E6.42337
G1 X179.943 Y55.944 E6.47555
G1 X170.745 Y46.746 E7.36236
G1 X169.956 Y46.746 E7.41614
G1 X179.919 Y56.709 E8.37670
G1 X179.895 Y57.474 E8.42888
G1 X169.167 Y46.746 E9.46319
G1 X168.378 Y46.746 E9.51697
G1 X179.871 Y58.239 E10.62503
G1 X179.848 Y59.004 E10.67721
G1 X167.590 Y46.746 E11.85902
G1 X166.801 Y46.746 E11.91280
G1 X179.824 Y59.769 E13.16837
G1 X179.784 Y60.518 E13.21952
G1 X166.012 Y46.746 E14.54732
G1 X165.223 Y46.746 E14.60110
G1 X179.714 Y61.237 E15.99821
G1 X179.641 Y61.952 E16.04722
G1 X164.435 Y46.746 E17.51328
G1 X163.646 Y46.746 E17.56706
G1 X179.567 Y62.667 E19.10207
G1 X179.493 Y63.382 E19.15109
G1 X162.857 Y46.746 E20.75506
G1 X162.068 Y46.746 E20.80883
G1 X179.420 Y64.098 E22.48176
G1 X179.346 Y64.813 E22.53077
G1 X161.279 Y46.746 E24.27265
G1 X160.491 Y46.746 E24.32642
G1 X179.273 Y65.528 E26.13725
G1 X179.199 Y66.243 E26.18627
G1 X159.702 Y46.746 E28.06605
G1 X158.913 Y46.746 E28.11983
G1 X179.126 Y66.958 E30.06857
G1 X179.029 Y67.650 E30.11620
G1 X158.124 Y46.746 E32.13165
G1 X157.336 Y46.746 E32.18542
G1 X178.908 Y68.319 E34.26531
G1 X178.788 Y68.987 E34.31161
G1 X156.547 Y46.746 E36.45593
G1 X155.758 Y46.746 E36.50970
G1 X178.667 Y69.655 E38.71846
G1 X178.547 Y70.324 E38.76476
G1 X154.969 Y46.746 E41.03795
G1 X154.180 Y46.746 E41.09173
G1 X178.426 Y70.992 E43.42936
G1 X178.306 Y71.660 E43.47565
G1 X153.392 Y46.746 E45.87772
G1 X152.603 Y46.746 E45.93150
G1 X178.186 Y72.329 E48.39800
G1 X178.065 Y72.997 E48.44430
G1 X151.814 Y46.746 E50.97523
G1 X151.025 Y46.746 E51.02901
G1 X177.945 Y73.665 E53.62438
G1 X177.824 Y74.334 E53.67068
G1 X150.237 Y46.746 E56.33049
G1 X149.448 Y46.746 E56.38426
G1 X177.704 Y75.002 E59.10851
G1 X177.546 Y75.633 E59.15285
G1 X148.659 Y46.746 E61.93792
G1 X147.870 Y46.746 E61.99170
G1 X177.361 Y76.237 E64.83501
G1 X177.176 Y76.841 E64.87807
G1 X147.081 Y46.746 E67.77962
G1 X146.293 Y46.746 E67.83340
G1 X176.992 Y77.445 E70.79319
G1 X176.807 Y78.049 E70.83625
G1 X145.504 Y46.746 E73.85428
G1 X144.715 Y46.746 E73.90806
G1 X176.622 Y78.653 E76.98433
G1 X176.438 Y79.257 E77.02739
G1 X143.926 Y46.746 E80.16190
G1 X143.138 Y46.746 E80.21567
G1 X176.253 Y79.861 E83.40842
G1 X176.068 Y80.465 E83.45148
G1 X142.349 Y46.746 E86.70247
G1 X141.560 Y46.746 E86.75625
G1 X175.883 Y81.069 E90.06547
G1 X175.699 Y81.673 E90.10854
G1 X140.771 Y46.746 E93.47600
G1 X139.982 Y46.746 E93.52977
G1 X175.514 Y82.277 E96.95548
G1 X175.329 Y82.882 E96.99854
G1 X139.194 Y46.746 E100.48249
G1 X138.405 Y46.746 E100.53626
G1 X175.145 Y83.486 E104.07844
G1 X174.960 Y84.090 E104.12151
G1 X137.616 Y46.746 E107.72193
G1 X136.827 Y46.746 E107.77570
G1 X174.775 Y84.694 E111.43436
G1 X174.590 Y85.298 E111.47743
G1 X136.039 Y46.746 E115.19433
G1 X135.250 Y46.746 E115.24810
G1 X174.406 Y85.902 E119.02324
G1 X174.221 Y86.506 E119.06631
G1 X134.461 Y46.746 E122.89968
G1 X133.672 Y46.746 E122.95346
G1 X174.036 Y87.110 E126.84508
G1 X173.852 Y87.714 E126.88814
G1 X132.883 Y46.746 E130.83800
G1 X132.095 Y46.746 E130.89177
G1 X173.667 Y88.318 E134.89987
G1 X173.482 Y88.922 E134.94293
G1 X131.306 Y46.746 E139.00927
G1 X130.517 Y46.746 E139.06304
G1 X173.297 Y89.526 E143.18762
G1 X173.109 Y90.127 E143.23052
G1 X129.728 Y46.746 E147.41298
G1 X128.940 Y46.746 E147.46676
G1 X172.882 Y90.689 E151.70341
G1 X172.656 Y91.251 E151.74473
G1 X128.151 Y46.746 E156.03557
G1 X127.866 Y47.250 E156.07503
G1 X172.429 Y91.813 E160.37147
G1 X172.202 Y92.375 E160.41278
G1 X127.866 Y48.039 E164.68736
G1 X127.866 Y48.827 E164.74113
G1 X171.975 Y92.937 E168.99384
G1 X171.748 Y93.499 E169.03516
G1 X127.866 Y49.616 E173.26601
G1 X127.866 Y50.405 E173.31978
G1 X171.522 Y94.061 E177.52877
G1 X171.292 Y94.619 E177.56996
G1 X127.866 Y51.194 E181.75675
G1 X127.866 Y51.983 E181.81053
G1 X171.060 Y95.177 E185.97503
G1 X170.829 Y95.734 E186.01618
G1 X127.866 Y52.771 E190.15838
G1 X127.866 Y53.560 E190.21215
G1 X170.598 Y96.292 E194.33206
G1 X170.367 Y96.849 E194.37321
G1 X127.866 Y54.349 E198.47082
G1 X127.866 Y55.138 E198.52459
G1 X170.135 Y97.407 E202.59991
G1 X169.904 Y97.964 E202.64105
G1 X127.866 Y55.926 E206.69407
G1 X127.866 Y56.715 E206.74784
G1 X169.673 Y98.522 E210.77856
G1 X169.441 Y99.080 E210.81971
G1 X127.866 Y57.504 E214.82814
G1 X127.866 Y58.293 E214.88191
G1 X169.210 Y99.637 E218.86804
G1 X168.979 Y100.195 E218.90918
G1 X127.866 Y59.082 E222.87301
G1 X127.866 Y59.870 E222.92679
G1 X168.744 Y100.749 E226.86799
G1 X168.500 Y101.294 E226.90869
G1 X127.866 Y60.659 E230.82638
G1 X127.866 Y61.448 E230.88015
G1 X168.249 Y101.831 E234.77359
G1 X167.983 Y102.353 E234.81357
G1 X127.866 Y62.237 E238.68133
G1 X127.866 Y63.025 E238.73511
G1 X167.716 Y102.876 E242.57720
G1 X167.450 Y103.398 E242.61718
G1 X127.866 Y63.814 E246.43359
G1 X127.866 Y64.603 E246.48737
G1 X167.172 Y103.909 E250.27702
G1 X166.897 Y104.423 E250.31675
G1 X127.866 Y65.392 E254.07988
G1 X127.866 Y66.181 E254.13366
G1 X166.626 Y104.940 E257.87060
G1 X166.354 Y105.457 E257.91042
G1 X127.866 Y66.969 E261.62117
G1 X127.866 Y67.758 E261.67494
G1 X166.082 Y105.975 E265.35950
G1 X165.811 Y106.492 E265.39933
G1 X127.866 Y68.547 E269.05770
G1 X127.866 Y69.336 E269.11147
G1 X165.539 Y107.009 E272.74365
G1 X165.267 Y107.526 E272.78347
G1 X127.866 Y70.124 E276.38946
G1 X127.866 Y70.913 E276.44323
G1 X164.996 Y108.043 E280.02303
G1 X164.724 Y108.560 E280.06285
G1 X127.866 Y71.702 E283.61646
G1 X127.866 Y72.491 E283.67023
G1 X164.452 Y109.077 E287.19765
G1 X164.181 Y109.594 E287.23747
G1 X127.866 Y73.280 E290.73869
G1 X127.866 Y74.068 E290.79247
G1 X163.909 Y110.112 E294.26750
G1 X163.637 Y110.629 E294.30732
G1 X127.866 Y74.857 E297.75617
G1 X127.866 Y75.646 E297.80994
G1 X163.366 Y111.146 E301.23259
G1 X163.094 Y111.663 E301.27241
G1 X127.866 Y76.435 E304.66888
G1 X127.866 Y77.223 E304.72265
G1 X162.823 Y112.180 E308.09292
G1 X162.551 Y112.697 E308.13274
G1 X127.866 Y78.012 E311.47682
G1 X127.866 Y78.801 E311.53059
G1 X162.279 Y113.214 E314.84848
G1 X161.990 Y113.714 E314.88784
G1 X127.866 Y79.590 E318.17786
G1 X127.866 Y80.379 E318.23164
G1 X161.697 Y114.210 E321.49344
G1 X161.405 Y114.706 E321.53270
G1 X127.866 Y81.167 E324.76627
G1 X127.866 Y81.956 E324.82005
G1 X161.110 Y115.200 E328.02521
G1 X160.812 Y115.691 E328.06436
G1 X127.866 Y82.745 E331.24081
G1 X127.866 Y83.534 E331.29459
G1 X160.514 Y116.182 E334.44232
G1 X160.217 Y116.673 E334.48147
G1 X127.866 Y84.322 E337.60050
G1 X127.866 Y85.111 E337.65427
G1 X159.919 Y117.164 E340.74459
G1 X159.621 Y117.655 E340.78373
G1 X127.866 Y85.900 E343.84533
G1 X127.866 Y86.689 E343.89911
G1 X159.323 Y118.146 E346.93199
G1 X159.025 Y118.637 E346.97114
G1 X127.866 Y87.478 E349.97532
G1 X127.866 Y88.266 E350.02909
G1 X158.725 Y119.126 E353.00434
G1 X158.422 Y119.612 E353.04337
G1 X127.866 Y89.055 E355.98942
G1 X127.866 Y89.844 E356.04319
G1 X158.120 Y120.097 E358.96003
G1 X157.817 Y120.583 E358.99906
G1 X127.866 Y90.633 E361.88669
G1 X127.866 Y91.421 E361.94047
G1 X157.514 Y121.069 E364.79889
G1 X157.211 Y121.555 E364.83792
G1 X127.866 Y92.210 E367.66714
G1 X127.866 Y92.999 E367.72092
G1 X156.904 Y122.037 E370.52053
G1 X156.581 Y122.503 E370.55918
G1 X127.866 Y93.788 E373.32771
G1 X127.866 Y94.577 E373.38148
G1 X156.259 Y122.969 E376.11892
G1 X155.939 Y123.438 E376.15762
G1 X127.866 Y95.365 E378.86423
G1 X127.866 Y96.154 E378.91801
G1 X155.627 Y123.915 E381.59456
G1 X155.316 Y124.392 E381.63341
G1 X127.866 Y96.943 E384.27991
G1 X127.866 Y97.732 E384.33368
G1 X154.996 Y124.862 E386.94936
G1 X154.666 Y125.320 E386.98789
G1 X127.866 Y98.520 E389.57174
G1 X127.866 Y99.309 E389.62552
G1 X154.336 Y125.779 E392.17755
G1 X153.997 Y126.229 E392.21594
G1 X127.866 Y100.098 E394.73528
G1 X127.866 Y100.887 E394.78906
G1 X153.644 Y126.665 E397.27443
G1 X153.297 Y127.107 E397.31273
G1 X127.866 Y101.676 E399.76463
G1 X127.866 Y102.464 E399.81840
G1 X152.956 Y127.554 E402.23741
G1 X152.615 Y128.002 E402.27578
G1 X127.866 Y103.253 E404.66189
G1 X127.866 Y104.042 E404.71566
G1 X152.274 Y128.450 E407.06887
G1 X151.932 Y128.897 E407.10724
G1 X127.866 Y104.831 E409.42756
G1 X127.866 Y105.619 E409.48134
G1 X151.591 Y129.345 E411.76876
G1 X151.250 Y129.792 E411.80713
G1 X127.866 Y106.408 E414.06166
G1 X127.866 Y107.197 E414.11544
G1 X150.909 Y130.240 E416.33707
G1 X150.568 Y130.688 E416.37544
G1 X127.866 Y107.986 E418.56419
G1 X127.866 Y108.775 E418.61796
G1 X150.227 Y131.135 E420.77381
G1 X149.878 Y131.575 E420.81209
G1 X127.866 Y109.563 E422.93435
G1 X127.866 Y110.352 E422.98812
G1 X149.517 Y132.003 E425.07554
G1 X149.155 Y132.430 E425.11370
G1 X127.866 Y111.141 E427.16628
G1 X127.866 Y111.930 E427.22005
G1 X148.794 Y132.858 E429.23780
G1 X148.420 Y133.273 E429.27587
G1 X127.866 Y112.718 E431.25757
G1 X127.866 Y113.507 E431.31134
G1 X148.038 Y133.679 E433.25619
G1 X147.656 Y134.086 E433.29423
G1 X127.866 Y114.296 E435.20223
G1 X127.866 Y115.085 E435.25600
G1 X147.274 Y134.492 E437.12715
G1 X146.891 Y134.899 E437.16519
G1 X127.866 Y115.874 E438.99949
G1 X127.866 Y116.662 E439.05326
G1 X146.507 Y135.304 E440.85052
G1 X146.113 Y135.698 E440.88854
G1 X127.866 Y117.451 E442.64777
G1 X127.866 Y118.240 E442.70155
G1 X145.714 Y136.088 E444.42237
G1 X145.313 Y136.476 E444.46040
G1 X127.866 Y119.029 E446.14252
G1 X127.866 Y119.817 E446.19629
G1 X144.912 Y136.863 E447.83972
G1 X144.508 Y137.248 E447.87775
G1 X127.866 Y120.606 E449.48224
G1 X127.866 Y121.395 E449.53601
G1 X144.102 Y137.631 E451.10136
G1 X143.687 Y138.005 E451.13943
G1 X127.866 Y122.184 E452.66479
G1 X127.866 Y122.973 E452.71856
G1 X143.275 Y138.382 E454.20418
G1 X142.876 Y138.771 E454.24221
G1 X127.866 Y123.761 E455.68934
G1 X127.866 Y124.550 E455.74311
G1 X142.476 Y139.161 E457.15175
G1 X142.077 Y139.550 E457.18978
G1 X127.866 Y125.339 E458.55992
G1 X127.866 Y126.128 E458.61370
G1 X141.678 Y139.940 E459.94535
G1 X141.279 Y140.329 E459.98337
G1 X127.866 Y126.916 E461.27653
G1 X127.866 Y127.705 E461.33031
G1 X140.877 Y140.717 E462.58478
