; generated by Slic3r 1.0.0RC2 on 2014-05-19 at 18:01:15

; layer_height = 0.3
; perimeters = 2
; top_solid_layers = 3
; bottom_solid_layers = 3
; fill_density = 0.1
; perimeter_speed = 60
; infill_speed = 60
; travel_speed = 120
; nozzle_diameter = 0.4
; filament_diameter = 1.75
; extrusion_multiplier = 0.98
; perimeters extrusion width = 0.40mm
; infill extrusion width = 0.42mm
; solid infill extrusion width = 0.42mm
; top infill extrusion width = 0.42mm
; first layer extrusion width = 0.80mm

G21 ; set units to millimeters
M107
M104 S220 ; set temperature
G28 ; home all axes
M106 S255;
G1 Z200 F1200 ; lift nozzle
M109 S220 ; wait for temperature to be reached
G90 ; use absolute coordinates
G92 E0
M82 ; use absolute distances for extrusion
G1 F1800.000 E-1.00000
G92 E0
G1 Z0.400 F7200.000
G1 X122.239 Y68.060 F7200.000
G1 E1.00000 F1800.000
G1 X122.879 Y66.950 E1.14913 F1080.000
G1 X123.709 Y65.990 E1.29683
G1 X124.719 Y65.190 E1.44680
G1 X125.849 Y64.610 E1.59463
G1 X127.079 Y64.250 E1.74380
G1 X128.349 Y64.130 E1.89227
G1 X173.599 Y64.140 E7.15891
G1 X174.909 Y64.270 E7.31213
G1 X176.169 Y64.650 E7.46531
G1 X177.329 Y65.270 E7.61839
G1 X178.349 Y66.100 E7.77145
G1 X179.179 Y67.120 E7.92450
G1 X179.799 Y68.280 E8.07759
G1 X180.189 Y69.540 E8.23111
G1 X180.309 Y70.850 E8.38422
G1 X180.309 Y128.500 E15.09409
G1 X180.189 Y129.810 E15.24720
G1 X179.799 Y131.070 E15.40072
G1 X179.179 Y132.230 E15.55380
G1 X178.349 Y133.240 E15.70596
G1 X177.329 Y134.080 E15.85975
G1 X176.179 Y134.700 E16.01181
G1 X174.919 Y135.080 E16.16499
G1 X173.609 Y135.210 E16.31821
G1 X150.059 Y135.240 E19.05919
G1 X148.729 Y135.110 E19.21473
G1 X147.449 Y134.720 E19.37047
G1 X146.279 Y134.090 E19.52513
G1 X145.249 Y133.230 E19.68131
G1 X144.419 Y132.190 E19.83617
G1 X143.809 Y131.000 E19.99182
G1 X137.769 Y115.760 E21.89983
G1 X131.749 Y100.310 E23.82973
G1 X126.129 Y84.840 E25.74542
G1 X122.009 Y73.050 E27.19903
G1 X121.709 Y71.810 E27.34751
G1 X121.639 Y70.540 E27.49555
G1 X121.819 Y69.270 E27.64484
G1 X122.204 Y68.162 E27.78145
G1 F1800.000 E26.78145
G92 E0
G1 X129.929 Y71.968 F7200.000
G1 E1.00000 F1800.000
G1 X172.490 Y71.968 E5.95373 F1080.000
G1 X172.490 Y127.388 E12.40410
G1 X150.810 Y127.421 E14.92740
G1 X145.071 Y112.916 E16.74297
G1 X139.055 Y97.471 E18.67229
G1 X133.526 Y82.262 E20.55575
G1 X129.964 Y72.069 E21.81244
G1 X128.923 Y71.254 F7200.000
G1 X173.205 Y71.254 E26.96638 F756.000
G1 X173.204 Y128.102 E33.58294
G1 X150.320 Y128.136 E36.24649
G1 X144.406 Y113.177 E38.11863
G1 X138.388 Y97.727 E40.04852
G1 X132.853 Y82.502 E41.93404
G1 X128.958 Y71.355 E43.30835
G1 X129.577 Y71.539 F7200.000
G1 X131.342 Y74.552 F7200.000
G1 X172.008 Y115.218 E50.04590 F1080.000
G1 X172.008 Y114.202 E50.16499
G1 X130.796 Y72.989 E56.99299
G1 X131.273 Y72.450 E57.07736
G1 X172.008 Y113.185 E63.82635
G1 X172.008 Y112.168 E63.94545
G1 X132.290 Y72.450 E70.52601
G1 X133.306 Y72.450 E70.64511
G1 X172.008 Y111.152 E77.05725
G1 X172.008 Y110.135 E77.17634
G1 X134.323 Y72.450 E83.42005
G1 X135.339 Y72.450 E83.53915
G1 X172.008 Y109.119 E89.61443
G1 X172.008 Y108.102 E89.73353
G1 X136.356 Y72.450 E95.64038
G1 X137.373 Y72.450 E95.75948
G1 X172.008 Y107.086 E101.49791
G1 X172.008 Y106.069 E101.61700
G1 X138.389 Y72.450 E107.18700
G1 X139.406 Y72.450 E107.30610
G1 X172.008 Y105.052 E112.70767
G1 X172.008 Y104.036 E112.82677
G1 X140.422 Y72.450 E118.05991
G1 X141.439 Y72.450 E118.17901
G1 X172.008 Y103.019 E123.24373
G1 X172.008 Y102.003 E123.36283
G1 X142.456 Y72.450 E128.25912
G1 X143.472 Y72.450 E128.37821
G1 X172.008 Y100.986 E133.10608
G1 X172.008 Y99.969 E133.22517
G1 X144.489 Y72.450 E137.78461
G1 X145.505 Y72.450 E137.90371
G1 X172.008 Y98.953 E142.29472
G1 X172.008 Y97.936 E142.41382
G1 X146.522 Y72.450 E146.63640
G1 X147.538 Y72.450 E146.75550
G1 X172.008 Y96.920 E150.80965
G1 X172.008 Y95.903 E150.92875
G1 X148.555 Y72.450 E154.81448
G1 X149.572 Y72.450 E154.93357
G1 X172.008 Y94.886 E158.65088
G1 X172.008 Y93.870 E158.76997
G1 X150.588 Y72.450 E162.31885
G1 X151.605 Y72.450 E162.43794
G1 X172.008 Y92.853 E165.81839
G1 X172.008 Y91.837 E165.93749
G1 X152.621 Y72.450 E169.14951
G1 X153.638 Y72.450 E169.26860
G1 X172.008 Y90.820 E172.31220
G1 X172.008 Y89.804 E172.43129
G1 X154.655 Y72.450 E175.30646
G1 X155.671 Y72.450 E175.42556
G1 X172.008 Y88.787 E178.13229
G1 X172.009 Y87.770 E178.25139
G1 X156.688 Y72.450 E180.78970
G1 X157.704 Y72.450 E180.90880
G1 X172.009 Y86.754 E183.27868
G1 X172.009 Y85.737 E183.39778
G1 X158.721 Y72.450 E185.59924
G1 X159.738 Y72.450 E185.71833
G1 X172.009 Y84.721 E187.75137
G1 X172.009 Y83.704 E187.87046
G1 X160.754 Y72.450 E189.73506
G1 X161.771 Y72.450 E189.85416
G1 X172.009 Y82.687 E191.55034
G1 X172.009 Y81.671 E191.66943
G1 X162.787 Y72.450 E193.19718
G1 X163.804 Y72.450 E193.31628
G1 X172.009 Y80.654 E194.67560
G1 X172.009 Y79.638 E194.79470
G1 X164.821 Y72.450 E195.98559
G1 X165.837 Y72.450 E196.10469
G1 X172.009 Y78.621 E197.12716
G1 X172.009 Y77.605 E197.24625
G1 X166.854 Y72.450 E198.10029
G1 X167.870 Y72.450 E198.21939
G1 X172.009 Y76.588 E198.90500
G1 X172.009 Y75.571 E199.02410
G1 X168.887 Y72.450 E199.54128
G1 X169.904 Y72.450 E199.66038
G1 X172.009 Y74.555 E200.00914
G1 X172.009 Y73.538 E200.12824
G1 X170.920 Y72.450 E200.30857
G1 X171.937 Y72.450 E200.42766
G1 X172.009 Y72.522 E200.43957
G1 X135.239 Y85.565 F7200.000
G1 X172.008 Y122.334 E206.53146 F1080.000
G1 X172.008 Y123.351 E206.65056
G1 X135.820 Y87.162 E212.64624
G1 X136.400 Y88.760 F7200.000
G1 X172.008 Y124.368 E218.54572 F1080.000
G1 X172.008 Y125.384 E218.66481
G1 X136.981 Y90.357 E224.46808
G1 X137.562 Y91.954 F7200.000
G1 X172.008 Y126.401 E230.17514 F1080.000
G1 X171.499 Y126.908 E230.25936
G1 X138.142 Y93.551 E235.78583
G1 X138.723 Y95.149 F7200.000
G1 X170.484 Y126.910 E241.04792 F1080.000
G1 X169.469 Y126.911 E241.16684
G1 X139.304 Y96.746 E246.16455
G1 X139.929 Y98.388 F7200.000
G1 X168.454 Y126.913 E250.89054 F1080.000
G1 X167.439 Y126.914 E251.00945
G1 X140.578 Y100.053 E255.45980
G1 X141.226 Y101.718 F7200.000
G1 X166.424 Y126.916 E259.63452 F1080.000
G1 X165.409 Y126.917 E259.75343
G1 X141.875 Y103.383 E263.65251
G1 X142.523 Y105.049 F7200.000
G1 X164.394 Y126.919 E267.27595 F1080.000
G1 X163.379 Y126.920 E267.39486
G1 X143.172 Y106.714 E270.74267
G1 X143.821 Y108.379 F7200.000
G1 X162.364 Y126.922 E273.81483 F1080.000
G1 X161.349 Y126.923 E273.93375
G1 X144.469 Y110.044 E276.73028
G1 X145.118 Y111.709 F7200.000
G1 X160.333 Y126.925 E279.25117 F1080.000
G1 X159.318 Y126.927 E279.37009
G1 X145.773 Y113.381 E281.61427
G1 X146.439 Y115.063 F7200.000
G1 X158.303 Y126.928 E283.58000 F1080.000
G1 X157.288 Y126.930 E283.69891
G1 X147.104 Y116.746 E285.38619
G1 X147.770 Y118.428 F7200.000
G1 X156.273 Y126.931 E286.79501 F1080.000
G1 X155.258 Y126.933 E286.91392
G1 X148.436 Y120.110 E288.04429
G1 X149.101 Y121.792 F7200.000
G1 X154.243 Y126.934 E288.89619 F1080.000
G1 X153.228 Y126.936 E289.01511
G1 X149.767 Y123.475 E289.58856
G1 X150.433 Y125.157 F7200.000
G1 X152.213 Y126.937 E289.88356 F1080.000
G1 X151.098 Y126.839 E290.01468
G1 X151.198 Y126.939 E290.03122
G1 X134.658 Y83.968 F7200.000
G1 X172.008 Y121.318 E296.21932 F1080.000
G1 X172.008 Y120.301 E296.33842
G1 X134.078 Y82.371 E302.62273
G1 X133.526 Y80.802 F7200.000
G1 X172.008 Y119.285 E308.99846 F1080.000
G1 X172.008 Y118.268 E309.11756
G1 X132.980 Y79.240 E315.58375
G1 X132.434 Y77.677 F7200.000
G1 X172.008 Y117.251 E322.14038 F1080.000
G1 X172.008 Y116.235 E322.25948
G1 X131.888 Y76.115 E328.90657
G1 F1800.000 E327.90657
G92 E0
G1 Z0.700 F7200.000
G1 X129.350 Y71.946 F7200.000
G1 E1.00000 F1800.000
G1 X129.178 Y71.454 E1.02550 F3600
G1 X173.005 Y71.454 E3.16828
G1 X173.004 Y128.147 E5.94013
G1 X150.510 Y128.178 E7.03990
G1 X149.425 Y125.387 E7.18627
G1 X144.461 Y112.853 E7.84541
G1 X138.613 Y97.858 E8.63236
G1 X138.300 Y97.019 E8.67611
G1 X137.642 Y95.138 E8.77357
G1 X132.937 Y82.212 E9.44611
G1 X129.370 Y72.003 E9.97486
G1 X128.973 Y72.078 F7200.000
G1 X128.610 Y71.042 E10.02853 F2520
G1 X173.405 Y71.054 E12.21864
G1 X173.404 Y128.502 E15.02743
M106 S255
G1 X173.405 Y128.547 E15.02970 F3600
G1 X150.241 Y128.578 E16.21570
G1 X150.224 Y128.536 E16.21800
M107
G1 X149.053 Y125.533 E16.37562 F2520
G1 X144.089 Y112.999 E17.03472
G1 X138.240 Y98.001 E17.82181
G1 X137.923 Y97.155 E17.86600
G1 X137.266 Y95.272 E17.96348
G1 X132.560 Y82.346 E18.63604
G1 X128.992 Y72.135 E19.16491
G1 X129.234 Y71.775 F7200.000
G1 X129.614 Y71.727 F7200.000
G1 X129.576 Y71.764 E19.16763 F3600
G1 X129.730 Y72.205 E19.19158
G1 X130.208 Y71.727 E19.22628
G1 X130.802 Y71.727 E19.25679
G1 X129.884 Y72.645 E19.32346
G1 X130.038 Y73.085 E19.34741
G1 X131.396 Y71.727 E19.44606
G1 X131.990 Y71.727 E19.47657
G1 X130.191 Y73.526 E19.60720
G1 X130.345 Y73.966 E19.63115
G1 X132.584 Y71.727 E19.79375
G1 X133.178 Y71.727 E19.82426
G1 X130.499 Y74.406 E20.01884
G1 X130.653 Y74.847 E20.04279
G1 X133.773 Y71.727 E20.26934
G1 X134.367 Y71.727 E20.29985
G1 X130.807 Y75.287 E20.55838
G1 X130.961 Y75.727 E20.58233
G1 X134.961 Y71.727 E20.87283
G1 X135.555 Y71.727 E20.90334
G1 X131.115 Y76.167 E21.22582
G1 X131.268 Y76.608 E21.24977
G1 X136.149 Y71.727 E21.60422
G1 X136.743 Y71.727 E21.63473
G1 X131.422 Y77.048 E22.02116
G1 X131.576 Y77.488 E22.04511
G1 X137.337 Y71.727 E22.46352
G1 X137.932 Y71.727 E22.49403
G1 X131.730 Y77.929 E22.94441
G1 X131.884 Y78.369 E22.96836
G1 X138.526 Y71.727 E23.45071
G1 X139.120 Y71.727 E23.48122
G1 X132.038 Y78.809 E23.99556
G1 X132.191 Y79.250 E24.01951
G1 X139.714 Y71.727 E24.56581
G1 X140.308 Y71.727 E24.59632
G1 X132.345 Y79.690 E25.17461
G1 X132.499 Y80.130 E25.19856
G1 X140.902 Y71.727 E25.80881
G1 X141.496 Y71.727 E25.83932
G1 X132.653 Y80.570 E26.48156
G1 X132.807 Y81.011 E26.50551
G1 X142.091 Y71.727 E27.17972
G1 X142.685 Y71.727 E27.21023
G1 X132.961 Y81.451 E27.91641
G1 X133.114 Y81.891 E27.94036
G1 X143.279 Y71.727 E28.67852
G1 X143.873 Y71.727 E28.70903
G1 X133.271 Y82.329 E29.47900
G1 X133.429 Y82.765 E29.50281
G1 X144.467 Y71.727 E30.30441
G1 X145.061 Y71.727 E30.33492
G1 X133.588 Y83.200 E31.16816
G1 X133.746 Y83.636 E31.19196
G1 X145.655 Y71.727 E32.05684
G1 X146.250 Y71.727 E32.08735
G1 X133.905 Y84.072 E32.98385
G1 X134.063 Y84.507 E33.00765
G1 X146.844 Y71.727 E33.93579
G1 X147.438 Y71.727 E33.96630
G1 X134.222 Y84.943 E34.92607
G1 X134.381 Y85.378 E34.94987
G1 X148.032 Y71.727 E35.94128
G1 X148.626 Y71.727 E35.97179
G1 X134.539 Y85.814 E36.99482
G1 X134.698 Y86.250 E37.01863
G1 X149.220 Y71.727 E38.07330
G1 X149.814 Y71.727 E38.10381
G1 X134.856 Y86.685 E39.19011
G1 X135.015 Y87.121 E39.21391
G1 X150.409 Y71.727 E40.33185
G1 X151.003 Y71.727 E40.36236
G1 X135.173 Y87.556 E41.51193
G1 X135.332 Y87.992 E41.53573
G1 X151.597 Y71.727 E42.71694
G1 X152.191 Y71.727 E42.74745
G1 X135.490 Y88.427 E43.96028
G1 X135.649 Y88.863 E43.98408
G1 X152.785 Y71.727 E45.22855
G1 X153.379 Y71.727 E45.25906
G1 X135.808 Y89.299 E46.53516
G1 X135.966 Y89.734 E46.55897
G1 X153.973 Y71.727 E47.86670
G1 X154.568 Y71.727 E47.89721
G1 X136.125 Y90.170 E49.23658
G1 X136.283 Y90.605 E49.26039
G1 X155.162 Y71.727 E50.63139
G1 X155.756 Y71.727 E50.66190
G1 X136.442 Y91.041 E52.06453
G1 X136.600 Y91.477 E52.08833
G1 X156.350 Y71.727 E53.52260
G1 X156.944 Y71.727 E53.55311
G1 X136.759 Y91.912 E55.01901
G1 X136.917 Y92.348 E55.04282
G1 X157.538 Y71.727 E56.54035
G1 X158.132 Y71.727 E56.57086
G1 X137.076 Y92.783 E58.10003
G1 X137.235 Y93.219 E58.12383
G1 X158.727 Y71.727 E59.68463
G1 X159.321 Y71.727 E59.71514
G1 X137.393 Y93.654 E61.30757
G1 X137.552 Y94.090 E61.33138
G1 X159.915 Y71.727 E62.95544
G1 X160.509 Y71.727 E62.98595
G1 X137.710 Y94.526 E64.64165
G1 X137.869 Y94.961 E64.66546
G1 X161.103 Y71.727 E66.35279
G1 X161.697 Y71.727 E66.38330
G1 X138.024 Y95.401 E68.10254
G1 X138.177 Y95.841 E68.12650
G1 X162.291 Y71.727 E69.87772
G1 X162.886 Y71.727 E69.90823
G1 X138.331 Y96.281 E71.69143
G1 X138.485 Y96.722 E71.71538
G1 X163.480 Y71.727 E73.53056
G1 X164.074 Y71.727 E73.56107
G1 X138.643 Y97.158 E75.40792
G1 X138.805 Y97.590 E75.43163
G1 X164.668 Y71.727 E77.30988
G1 X165.262 Y71.727 E77.34039
G1 X138.969 Y98.020 E79.24983
G1 X139.136 Y98.447 E79.27339
G1 X165.856 Y71.727 E81.21387
G1 X166.450 Y71.727 E81.24438
G1 X139.303 Y98.874 E83.21590
G1 X139.470 Y99.302 E83.23946
G1 X167.045 Y71.727 E85.24202
G1 X167.639 Y71.727 E85.27253
G1 X139.636 Y99.729 E87.30613
G1 X139.803 Y100.157 E87.32969
G1 X168.233 Y71.727 E89.39433
G1 X168.827 Y71.727 E89.42484
G1 X139.970 Y100.584 E91.52053
G1 X140.136 Y101.012 E91.54409
G1 X169.421 Y71.727 E93.67082
G1 X170.015 Y71.727 E93.70133
G1 X140.303 Y101.439 E95.85910
G1 X140.470 Y101.867 E95.88266
G1 X170.609 Y71.727 E98.07147
G1 X171.203 Y71.727 E98.10198
G1 X140.637 Y102.294 E100.32183
G1 X140.803 Y102.721 E100.34539
G1 X171.798 Y71.727 E102.59629
G1 X172.392 Y71.727 E102.62680
G1 X140.970 Y103.149 E104.90873
G1 X141.137 Y103.576 E104.93229
G1 X172.731 Y71.982 E107.22678
G1 X172.731 Y72.576 E107.25729
G1 X141.303 Y104.004 E109.53967
G1 X141.470 Y104.431 E109.56323
G1 X172.731 Y73.170 E111.83350
G1 X172.731 Y73.764 E111.86402
G1 X141.637 Y104.859 E114.12218
G1 X141.803 Y105.286 E114.14574
G1 X172.731 Y74.358 E116.39180
G1 X172.731 Y74.952 E116.42231
G1 X141.970 Y105.713 E118.65626
G1 X142.137 Y106.141 E118.67982
G1 X172.731 Y75.546 E120.90167
G1 X172.731 Y76.141 E120.93218
G1 X142.304 Y106.568 E123.14192
G1 X142.470 Y106.996 E123.16548
G1 X172.731 Y76.735 E125.36311
G1 X172.731 Y77.329 E125.39362
G1 X142.637 Y107.423 E127.57915
G1 X142.804 Y107.851 E127.60271
G1 X172.731 Y77.923 E129.77612
G1 X172.731 Y78.517 E129.80663
G1 X142.970 Y108.278 E131.96794
G1 X143.137 Y108.706 E131.99150
G1 X172.731 Y79.111 E134.14071
G1 X172.731 Y79.706 E134.17122
G1 X143.304 Y109.133 E136.30831
G1 X143.470 Y109.560 E136.33187
G1 X172.731 Y80.300 E138.45686
G1 X172.731 Y80.894 E138.48737
G1 X143.637 Y109.988 E140.60026
G1 X143.804 Y110.415 E140.62382
G1 X172.731 Y81.488 E142.72459
G1 X172.731 Y82.082 E142.75510
G1 X143.971 Y110.843 E144.84377
G1 X144.137 Y111.270 E144.86733
G1 X172.731 Y82.676 E146.94389
G1 X172.731 Y83.270 E146.97440
G1 X144.304 Y111.698 E149.03886
G1 X144.471 Y112.125 E149.06242
G1 X172.731 Y83.865 E151.11476
G1 X172.731 Y84.459 E151.14527
G1 X144.637 Y112.552 E153.18551
G1 X144.805 Y112.979 E153.20905
G1 X172.731 Y85.053 E155.23711
G1 X172.731 Y85.647 E155.26762
G1 X144.974 Y113.405 E157.28344
G1 X145.142 Y113.830 E157.30695
G1 X172.731 Y86.241 E159.31053
G1 X172.731 Y86.835 E159.34104
G1 X145.311 Y114.256 E161.33238
G1 X145.479 Y114.681 E161.35588
G1 X172.731 Y87.430 E163.33498
G1 X172.731 Y88.024 E163.36549
G1 X145.648 Y115.107 E165.33235
G1 X145.816 Y115.533 E165.35586
G1 X172.731 Y88.618 E167.31047
G1 X172.731 Y89.212 E167.34098
G1 X145.985 Y115.958 E169.28336
G1 X146.153 Y116.384 E169.30687
G1 X172.731 Y89.806 E171.23700
G1 X172.731 Y90.400 E171.26751
G1 X146.322 Y116.809 E173.18541
G1 X146.491 Y117.235 E173.20891
G1 X172.731 Y90.994 E175.11457
G1 X172.731 Y91.589 E175.14508
G1 X146.659 Y117.661 E177.03849
G1 X146.828 Y118.086 E177.06200
G1 X172.731 Y92.183 E178.94317
G1 X172.731 Y92.777 E178.97368
G1 X146.996 Y118.512 E180.84261
G1 X147.165 Y118.937 E180.86611
G1 X172.731 Y93.371 E182.72280
G1 X172.731 Y93.965 E182.75331
G1 X147.333 Y119.363 E184.59776
G1 X147.502 Y119.788 E184.62127
G1 X172.731 Y94.559 E186.45348
G1 X172.731 Y95.153 E186.48399
G1 X147.670 Y120.214 E188.30396
G1 X147.839 Y120.640 E188.32746
G1 X172.731 Y95.748 E190.13519
G1 X172.731 Y96.342 E190.16570
G1 X148.007 Y121.065 E191.96118
G1 X148.176 Y121.491 E191.98469
G1 X172.731 Y96.936 E193.76793
G1 X172.731 Y97.530 E193.79845
G1 X148.345 Y121.916 E195.56945
G1 X148.513 Y122.342 E195.59296
G1 X172.731 Y98.124 E197.35172
G1 X172.731 Y98.718 E197.38223
G1 X148.682 Y122.768 E199.12875
G1 X148.850 Y123.193 E199.15226
G1 X172.731 Y99.313 E200.88654
G1 X172.731 Y99.907 E200.91705
G1 X149.019 Y123.619 E202.63909
G1 X149.187 Y124.044 E202.66259
G1 X172.731 Y100.501 E204.37239
G1 X172.731 Y101.095 E204.40290
G1 X149.356 Y124.470 E206.10046
G1 X149.524 Y124.896 E206.12397
