; generated by Slic3r 1.0.0RC2 on 2014-05-19 at 18:03:16

; layer_height = 0.3
; perimeters = 2
; top_solid_layers = 3
; bottom_solid_layers = 3
; fill_density = 0.1
; perimeter_speed = 60
; infill_speed = 60
; travel_speed = 120
; nozzle_diameter = 0.4
; filament_diameter = 1.75
; extrusion_multiplier = 0.98
; perimeters extrusion width = 0.40mm
; infill extrusion width = 0.42mm
; solid infill extrusion width = 0.42mm
; top infill extrusion width = 0.42mm
; first layer extrusion width = 0.80mm

G21 ; set units to millimeters
M107
M104 S220 ; set temperature
G28 ; home all axes
M106 S255;
G1 Z200 F1200 ; lift nozzle
M109 S220 ; wait for temperature to be reached
G90 ; use absolute coordinates
G92 E0
M82 ; use absolute distances for extrusion
G1 F1800.000 E-1.00000
G92 E0
G1 Z0.400 F7200.000
G1 X120.809 Y67.120 F7200.000
G1 E1.00000 F1800.000
G1 X121.639 Y66.100 E1.15306 F1080.000
G1 X122.659 Y65.270 E1.30611
G1 X123.819 Y64.650 E1.45920
G1 X125.079 Y64.270 E1.61237
G1 X126.389 Y64.140 E1.76559
G1 X171.639 Y64.130 E7.03224
G1 X172.909 Y64.250 E7.18071
G1 X174.139 Y64.610 E7.32987
G1 X175.269 Y65.190 E7.47771
G1 X176.279 Y65.990 E7.62767
G1 X177.109 Y66.950 E7.77538
G1 X177.749 Y68.060 E7.92450
G1 X178.169 Y69.270 E8.07358
G1 X178.349 Y70.530 E8.22172
G1 X178.279 Y71.810 E8.37092
G1 X177.979 Y73.050 E8.51941
G1 X173.819 Y84.970 E9.98884
G1 X168.249 Y100.280 E11.88503
G1 X162.209 Y115.800 E13.82337
G1 X156.189 Y130.970 E15.72295
G1 X155.579 Y132.160 E15.87859
G1 X154.749 Y133.200 E16.03346
G1 X153.729 Y134.050 E16.18800
G1 X152.559 Y134.690 E16.34322
G1 X151.279 Y135.080 E16.49896
G1 X149.959 Y135.210 E16.65333
G1 X126.399 Y135.240 E19.39548
G1 X125.089 Y135.120 E19.54859
G1 X123.829 Y134.740 E19.70177
G1 X122.659 Y134.120 E19.85588
G1 X121.649 Y133.280 E20.00878
G1 X120.809 Y132.260 E20.16257
G1 X120.189 Y131.100 E20.31566
G1 X119.809 Y129.840 E20.46883
G1 X119.679 Y128.530 E20.62205
G1 X119.679 Y70.850 E27.33542
G1 X119.799 Y69.540 E27.48853
G1 X120.189 Y68.280 E27.64204
G1 X120.759 Y67.214 E27.78266
G1 F1800.000 E26.78266
G92 E0
G1 X127.513 Y71.968 F7200.000
G1 E1.00000 F1800.000
G1 X170.069 Y71.968 E5.95306 F1080.000
G1 X166.463 Y82.297 E7.22639
G1 X160.953 Y97.443 E9.10220
G1 X154.912 Y112.960 E11.04031
G1 X149.195 Y127.388 E12.84660
G1 X127.513 Y127.422 E15.37014
G1 X127.513 Y72.075 E21.81194
G1 X126.799 Y71.254 F7200.000
G1 X171.075 Y71.254 E26.96519 F756.000
G1 X167.136 Y82.537 E28.35613
G1 X161.620 Y97.699 E30.23398
G1 X155.577 Y113.220 E32.17260
G1 X149.686 Y128.101 E34.03538
G1 X126.799 Y128.139 E36.69915
G1 X126.799 Y71.361 E43.30746
G1 X127.417 Y71.611 F7200.000
G1 X169.304 Y72.450 F7200.000
G1 X169.368 Y72.514 E43.31813 F1080.000
G1 X169.105 Y73.269 E43.41196
G1 X168.285 Y72.450 E43.54790
G1 X167.267 Y72.450 E43.66741
G1 X168.841 Y74.024 E43.92863
G1 X168.577 Y74.779 E44.02246
G1 X166.249 Y72.450 E44.40896
G1 X165.230 Y72.450 E44.52847
G1 X168.314 Y75.534 E45.04025
G1 X168.050 Y76.288 E45.13408
G1 X164.212 Y72.450 E45.77114
G1 X163.194 Y72.450 E45.89065
G1 X167.787 Y77.043 E46.65299
G1 X167.523 Y77.798 E46.74682
G1 X162.175 Y72.450 E47.63444
G1 X161.157 Y72.450 E47.75395
G1 X167.260 Y78.553 E48.76684
G1 X166.996 Y79.308 E48.86067
G1 X160.139 Y72.450 E49.99885
G1 X159.120 Y72.450 E50.11836
G1 X166.733 Y80.063 E51.38182
G1 X166.469 Y80.817 E51.47565
G1 X158.102 Y72.450 E52.86438
G1 X157.083 Y72.450 E52.98389
G1 X166.206 Y81.572 E54.49790
G1 X165.940 Y82.325 E54.59158
G1 X156.065 Y72.450 E56.23053
G1 X155.047 Y72.450 E56.35005
G1 X165.668 Y83.072 E58.11293
G1 X165.397 Y83.818 E58.20618
G1 X154.028 Y72.450 E60.09299
G1 X153.010 Y72.450 E60.21250
G1 X165.125 Y84.565 E62.22324
G1 X164.854 Y85.312 E62.31649
G1 X151.992 Y72.450 E64.45117
G1 X150.973 Y72.450 E64.57068
G1 X164.582 Y86.059 E66.82928
G1 X164.310 Y86.805 E66.92254
G1 X149.955 Y72.450 E69.30507
G1 X148.936 Y72.450 E69.42458
G1 X164.039 Y87.552 E71.93105
G1 X163.767 Y88.299 E72.02430
G1 X147.918 Y72.450 E74.65470
G1 X146.900 Y72.450 E74.77421
G1 X163.495 Y89.045 E77.52854
G1 X163.224 Y89.792 E77.62179
G1 X145.881 Y72.450 E80.50005
G1 X144.863 Y72.450 E80.61956
G1 X162.952 Y90.539 E83.62175
G1 X162.680 Y91.286 E83.71500
G1 X143.845 Y72.450 E86.84113
G1 X142.826 Y72.450 E86.96064
G1 X162.409 Y92.032 E90.21069
G1 X162.137 Y92.779 E90.30394
G1 X141.808 Y72.450 E93.67792
G1 X140.790 Y72.450 E93.79744
G1 X161.865 Y93.526 E97.29535
G1 X161.594 Y94.272 E97.38860
G1 X139.771 Y72.450 E101.01045
G1 X138.753 Y72.450 E101.12996
G1 X161.322 Y95.019 E104.87574
G1 X161.050 Y95.766 E104.96899
G1 X137.734 Y72.450 E108.83870
G1 X136.716 Y72.450 E108.95821
G1 X160.779 Y96.513 E112.95185
G1 X160.507 Y97.259 E113.04510
G1 X135.698 Y72.450 E117.16267
G1 X134.679 Y72.450 E117.28218
G1 X160.222 Y97.993 E121.52144
G1 X159.937 Y98.726 E121.61376
G1 X133.661 Y72.450 E125.97467
G1 X132.643 Y72.450 E126.09418
G1 X159.651 Y99.459 E130.57676
G1 X159.366 Y100.192 E130.66907
G1 X131.624 Y72.450 E135.27329
G1 X130.606 Y72.450 E135.39280
G1 X159.081 Y100.925 E140.11868
G1 X158.795 Y101.658 E140.21099
G1 X129.588 Y72.450 E145.05852
G1 X128.569 Y72.450 E145.17803
G1 X158.510 Y102.391 E150.14722
G1 X158.224 Y103.124 E150.23953
G1 X127.995 Y72.894 E155.25666
G1 X127.995 Y73.912 E155.37617
G1 X157.939 Y103.856 E160.34593
G1 X157.654 Y104.589 E160.43825
G1 X127.995 Y74.931 E165.36065
G1 X127.995 Y75.949 E165.48016
G1 X157.368 Y105.322 E170.35520
G1 X157.083 Y106.055 E170.44751
G1 X127.995 Y76.967 E175.27519
G1 X127.995 Y77.986 E175.39470
G1 X156.798 Y106.788 E180.17501
G1 X156.512 Y107.521 E180.26732
G1 X127.995 Y79.004 E185.00027
G1 X127.995 Y80.023 E185.11979
G1 X156.227 Y108.254 E189.80537
G1 X155.941 Y108.987 E189.89768
G1 X127.995 Y81.041 E194.53591
G1 X127.995 Y82.059 E194.65542
G1 X155.656 Y109.720 E199.24628
G1 X155.371 Y110.453 E199.33859
G1 X127.995 Y83.078 E203.88209
G1 X127.995 Y84.096 E204.00160
G1 X155.085 Y111.186 E208.49774
G1 X154.800 Y111.919 E208.59005
G1 X127.995 Y85.114 E213.03882
G1 X127.995 Y86.133 E213.15833
G1 X154.515 Y112.652 E217.55974
G1 X154.226 Y113.382 E217.65185
G1 X127.995 Y87.151 E222.00541
G1 X127.995 Y88.170 E222.12492
G1 X153.937 Y114.112 E226.43050
G1 X153.648 Y114.841 E226.52258
G1 X127.995 Y89.188 E230.78020
G1 X127.995 Y90.206 E230.89971
G1 X153.359 Y115.571 E235.10937
G1 X153.070 Y116.300 E235.20144
G1 X127.995 Y91.225 E239.36313
G1 X127.995 Y92.243 E239.48264
G1 X152.781 Y117.029 E243.59637
G1 X152.492 Y117.759 E243.68844
G1 X127.995 Y93.261 E247.75421
G1 X127.995 Y94.280 E247.87372
G1 X152.203 Y118.488 E251.89152
G1 X151.914 Y119.217 E251.98359
G1 X127.995 Y95.298 E255.95342
G1 X127.995 Y96.316 E256.07293
G1 X151.625 Y119.947 E259.99480
G1 X151.336 Y120.676 E260.08687
G1 X127.995 Y97.335 E263.96078
G1 X127.995 Y98.353 E264.08029
G1 X151.047 Y121.405 E267.90623
G1 X150.758 Y122.135 E267.99830
G1 X127.995 Y99.372 E271.77627
G1 X127.995 Y100.390 E271.89579
G1 X150.469 Y122.864 E275.62580
G1 X150.180 Y123.594 E275.71787
G1 X127.995 Y101.408 E279.39991
G1 X127.995 Y102.427 E279.51943
G1 X149.891 Y124.323 E283.15351
G1 X149.602 Y125.052 E283.24558
G1 X127.995 Y103.445 E286.83169
G1 X127.995 Y104.463 E286.95121
G1 X149.313 Y125.782 E290.48936
G1 X149.024 Y126.511 E290.58143
G1 X127.995 Y105.482 E294.07161
G1 X127.995 Y106.500 E294.19113
G1 X148.402 Y126.907 E297.57806
G1 X147.385 Y126.909 E297.69739
G1 X127.995 Y107.519 E300.91558
G1 X127.995 Y108.537 E301.03509
G1 X146.369 Y126.911 E304.08453
G1 X145.352 Y126.912 E304.20385
G1 X127.995 Y109.555 E307.08454
G1 X127.995 Y110.574 E307.20405
G1 X144.335 Y126.914 E309.91599
G1 X143.318 Y126.915 E310.03531
G1 X127.995 Y111.592 E312.57850
G1 X127.995 Y112.610 E312.69802
G1 X142.302 Y126.917 E315.07245
G1 X141.285 Y126.919 E315.19178
G1 X127.995 Y113.629 E317.39747
G1 X127.995 Y114.647 E317.51698
G1 X140.268 Y126.920 E319.55392
G1 X139.251 Y126.922 E319.67324
G1 X127.995 Y115.665 E321.54143
G1 X127.995 Y116.684 E321.66095
G1 X138.234 Y126.923 E323.36039
G1 X137.218 Y126.925 E323.47971
G1 X127.995 Y117.702 E325.01040
G1 X127.995 Y118.721 E325.12991
G1 X136.201 Y126.927 E326.49185
G1 X135.184 Y126.928 E326.61118
G1 X127.995 Y119.739 E327.80437
G1 X127.995 Y120.757 E327.92388
G1 X134.167 Y126.930 E328.94832
G1 X133.151 Y126.931 E329.06764
G1 X127.995 Y121.776 E329.92334
G1 X127.995 Y122.794 E330.04285
G1 X132.134 Y126.933 E330.72979
G1 X131.117 Y126.935 E330.84911
G1 X127.995 Y123.812 E331.36730
G1 X127.995 Y124.831 E331.48682
G1 X130.100 Y126.936 E331.83626
G1 X129.084 Y126.938 E331.95558
G1 X127.995 Y125.849 E332.13627
G1 X127.995 Y126.867 E332.25579
G1 X128.067 Y126.939 E332.26773
G1 F1800.000 E331.26773
G92 E0
G1 Z0.700 F7200.000
G1 X126.999 Y128.183 F7200.000
G1 E1.00000 F1800.000
G1 X126.999 Y71.454 E3.77360 F3600
G1 X170.820 Y71.454 E5.91610
G1 X167.051 Y82.247 E6.47505
G1 X162.269 Y95.380 E7.15836
G1 X161.395 Y97.830 E7.28555
G1 X155.521 Y112.893 E8.07607
G1 X150.684 Y125.103 E8.71817
G1 X149.499 Y128.143 E8.87769
G1 X127.059 Y128.183 E9.97482
G1 X126.599 Y128.303 F7200.000
G1 X126.599 Y71.054 E12.77388 F2520
G1 X171.387 Y71.044 E14.96366
G1 X167.428 Y82.382 E15.55083
G1 X162.646 Y95.514 E16.23416
G1 X161.768 Y97.973 E16.36180
G1 X155.893 Y113.039 E17.15244
G1 X151.057 Y125.248 E17.79450
G1 X149.785 Y128.501 E17.96526
M106 S255
G1 X149.768 Y128.542 E17.96755 F3600
G1 X126.599 Y128.584 E19.15385
G1 X126.599 Y128.540 E19.15613
M107
G1 X126.599 Y128.363 E19.16475 F2520
G1 X126.946 Y128.103 F7200.000
G1 X149.335 Y127.812 F7200.000
G1 X149.276 Y127.870 E19.16899 F3600
G1 X148.679 Y127.871 E19.19977
G1 X149.716 Y126.835 E19.27530
G1 X150.096 Y125.858 F7200.000
G1 X148.082 Y127.872 E19.42212 F3600
G1 X147.485 Y127.873 E19.45290
G1 X150.479 Y124.879 E19.67111
G1 X150.870 Y123.892 F7200.000
G1 X146.887 Y127.874 E19.96134 F3600
G1 X146.290 Y127.875 E19.99212
G1 X151.261 Y122.904 E20.35439
G1 X151.652 Y121.917 F7200.000
G1 X145.693 Y127.877 E20.78870 F3600
G1 X145.095 Y127.878 E20.81947
G1 X152.043 Y120.930 E21.32581
G1 X152.434 Y119.942 F7200.000
G1 X144.498 Y127.879 E21.90418 F3600
G1 X143.901 Y127.880 E21.93496
G1 X152.826 Y118.955 E22.58536
G1 X153.217 Y117.968 F7200.000
G1 X143.304 Y127.881 E23.30779 F3600
G1 X142.706 Y127.882 E23.33857
G1 X153.608 Y116.980 E24.13303
G1 X153.999 Y115.993 F7200.000
G1 X142.109 Y127.883 E24.99953 F3600
G1 X141.512 Y127.884 E25.03031
G1 X154.390 Y115.006 E25.96884
G1 X154.781 Y114.018 F7200.000
G1 X140.914 Y127.885 E26.97940 F3600
G1 X140.317 Y127.886 E27.01018
G1 X155.172 Y113.031 E28.09278
G1 X155.556 Y112.051 F7200.000
G1 X139.720 Y127.887 E29.24685 F3600
G1 X139.123 Y127.888 E29.27763
G1 X155.937 Y111.074 E30.50301
G1 X156.318 Y110.096 F7200.000
G1 X138.525 Y127.889 E31.79969 F3600
G1 X137.928 Y127.890 E31.83046
G1 X156.699 Y109.119 E33.19845
G1 X157.080 Y108.142 F7200.000
G1 X137.331 Y127.891 E34.63773 F3600
G1 X136.734 Y127.892 E34.66851
G1 X157.461 Y107.164 E36.17910
G1 X157.843 Y106.187 F7200.000
G1 X136.136 Y127.893 E37.76099 F3600
G1 X135.539 Y127.894 E37.79176
G1 X158.224 Y105.210 E39.44496
G1 X158.605 Y104.232 F7200.000
G1 X134.942 Y127.896 E41.16945 F3600
G1 X134.344 Y127.897 E41.20023
G1 X158.986 Y103.255 E42.99603
G1 X159.367 Y102.278 F7200.000
G1 X133.747 Y127.898 E44.86313 F3600
G1 X133.150 Y127.899 E44.89391
G1 X159.748 Y101.300 E46.83231
G1 X160.129 Y100.323 F7200.000
G1 X132.553 Y127.900 E48.84201 F3600
G1 X131.955 Y127.901 E48.87279
G1 X160.510 Y99.346 E50.95380
G1 X160.892 Y98.368 F7200.000
G1 X131.358 Y127.902 E53.10611 F3600
G1 X130.761 Y127.903 E53.13689
G1 X161.255 Y97.409 E55.35922
G1 X161.586 Y96.481 F7200.000
G1 X130.163 Y127.904 E57.64919 F3600
G1 X129.566 Y127.905 E57.67997
G1 X161.917 Y95.554 E60.03759
G1 X162.255 Y94.620 F7200.000
G1 X128.969 Y127.906 E62.46340 F3600
G1 X128.372 Y127.907 E62.49417
G1 X162.597 Y93.682 E64.98839
G1 X162.938 Y92.744 F7200.000
G1 X127.774 Y127.908 E67.55103 F3600
G1 X127.272 Y127.814 E67.57735
G1 X163.280 Y91.807 E70.20147
G1 X163.621 Y90.869 F7200.000
G1 X127.272 Y127.218 E72.85046 F3600
G1 X127.272 Y126.622 E72.88119
G1 X163.963 Y89.931 E75.55507
G1 X164.304 Y88.994 F7200.000
G1 X127.272 Y126.026 E78.25383 F3600
G1 X127.272 Y125.429 E78.28456
G1 X164.645 Y88.056 E81.00820
G1 X164.987 Y87.118 F7200.000
G1 X127.272 Y124.833 E83.75673 F3600
G1 X127.272 Y124.237 E83.78746
G1 X165.328 Y86.181 E86.56087
G1 X165.670 Y85.243 F7200.000
G1 X127.272 Y123.641 E89.35917 F3600
G1 X127.272 Y123.044 E89.38990
G1 X166.011 Y84.305 E92.21308
G1 X166.353 Y83.368 F7200.000
G1 X127.272 Y122.448 E95.06115 F3600
G1 X127.272 Y121.852 E95.09187
G1 X166.694 Y82.430 E97.96482
G1 X167.020 Y81.508 F7200.000
G1 X127.272 Y121.256 E100.86154 F3600
G1 X127.272 Y120.660 E100.89226
G1 X167.340 Y80.592 E103.81229
G1 X167.660 Y79.676 F7200.000
G1 X127.272 Y120.063 E106.75562 F3600
G1 X127.272 Y119.467 E106.78634
G1 X167.980 Y78.760 E109.75298
G1 X168.300 Y77.843 F7200.000
G1 X127.272 Y118.871 E112.74293 F3600
G1 X127.272 Y118.275 E112.77366
G1 X168.619 Y76.927 E115.78691
G1 X168.939 Y76.011 F7200.000
G1 X127.272 Y117.678 E118.82347 F3600
G1 X127.272 Y117.082 E118.85420
G1 X169.259 Y75.095 E121.91407
G1 X169.579 Y74.179 F7200.000
G1 X127.272 Y116.486 E124.99724 F3600
G1 X127.272 Y115.890 E125.02797
G1 X169.899 Y73.263 E128.13445
G1 X170.218 Y72.347 F7200.000
G1 X127.272 Y115.294 E131.26424 F3600
G1 X127.272 Y114.697 E131.29497
G1 X170.242 Y71.727 E134.42650
G1 X169.646 Y71.727 E134.45722
G1 X127.272 Y114.101 E137.54530
G1 X127.272 Y113.505 E137.57602
G1 X169.050 Y71.727 E140.62065
G1 X168.454 Y71.727 E140.65137
G1 X127.272 Y112.909 E143.65255
G1 X127.272 Y112.312 E143.68328
G1 X167.857 Y71.727 E146.64100
G1 X167.261 Y71.727 E146.67173
G1 X127.272 Y111.716 E149.58600
G1 X127.272 Y111.120 E149.61673
G1 X166.665 Y71.727 E152.48755
G1 X166.069 Y71.727 E152.51828
G1 X127.272 Y110.524 E155.34565
G1 X127.272 Y109.928 E155.37637
G1 X165.473 Y71.727 E158.16030
G1 X164.876 Y71.727 E158.19102
G1 X127.272 Y109.331 E160.93149
G1 X127.272 Y108.735 E160.96222
G1 X164.280 Y71.727 E163.65924
G1 X163.684 Y71.727 E163.68996
G1 X127.272 Y108.139 E166.34353
G1 X127.272 Y107.543 E166.37426
G1 X163.088 Y71.727 E168.98438
G1 X162.491 Y71.727 E169.01510
G1 X127.272 Y106.946 E171.58177
G1 X127.272 Y106.350 E171.61250
G1 X161.895 Y71.727 E174.13571
G1 X161.299 Y71.727 E174.16644
G1 X127.272 Y105.754 E176.64621
G1 X127.272 Y105.158 E176.67693
G1 X160.703 Y71.727 E179.11325
G1 X160.107 Y71.727 E179.14397
G1 X127.272 Y104.562 E181.53684
G1 X127.272 Y103.965 E181.56756
G1 X159.510 Y71.727 E183.91698
G1 X158.914 Y71.727 E183.94770
G1 X127.272 Y103.369 E186.25366
G1 X127.272 Y102.773 E186.28439
G1 X158.318 Y71.727 E188.54690
G1 X157.722 Y71.727 E188.57763
G1 X127.272 Y102.177 E190.79669
G1 X127.272 Y101.580 E190.82741
G1 X157.125 Y71.727 E193.00303
G1 X156.529 Y71.727 E193.03375
G1 X127.272 Y100.984 E195.16591
G1 X127.272 Y100.388 E195.19664
G1 X155.933 Y71.727 E197.28535
G1 X155.337 Y71.727 E197.31607
G1 X127.272 Y99.792 E199.36133
G1 X127.272 Y99.196 E199.39205
G1 X154.741 Y71.727 E201.39386
G1 X154.144 Y71.727 E201.42459
G1 X127.272 Y98.599 E203.38294
G1 X127.272 Y98.003 E203.41367
G1 X153.548 Y71.727 E205.32858
G1 X152.952 Y71.727 E205.35930
G1 X127.272 Y97.407 E207.23076
G1 X127.272 Y96.811 E207.26148
G1 X152.356 Y71.727 E209.08949
G1 X151.759 Y71.727 E209.12021
G1 X127.272 Y96.214 E210.90477
G1 X127.272 Y95.618 E210.93549
G1 X151.163 Y71.727 E212.67659
G1 X150.567 Y71.727 E212.70732
G1 X127.272 Y95.022 E214.40497
G1 X127.272 Y94.426 E214.43570
G1 X149.971 Y71.727 E216.08990
G1 X149.375 Y71.727 E216.12062
G1 X127.272 Y93.830 E217.73137
G1 X127.272 Y93.233 E217.76210
G1 X148.778 Y71.727 E219.32940
G1 X148.182 Y71.727 E219.36012
G1 X127.272 Y92.637 E220.88397
G1 X127.272 Y92.041 E220.91470
G1 X147.586 Y71.727 E222.39510
G1 X146.990 Y71.727 E222.42582
G1 X127.272 Y91.445 E223.86277
G1 X127.272 Y90.848 E223.89349
G1 X146.393 Y71.727 E225.28699
G1 X145.797 Y71.727 E225.31772
G1 X127.272 Y90.252 E226.66776
G1 X127.272 Y89.656 E226.69849
G1 X145.201 Y71.727 E228.00508
G1 X144.605 Y71.727 E228.03581
G1 X127.272 Y89.060 E229.29895
G1 X127.272 Y88.464 E229.32968
