; generated by Slic3r 1.0.0RC3 on 2014-03-11 at 21:33:37

; layer_height = 0.3
; perimeters = 2
; top_solid_layers = 3
; bottom_solid_layers = 3
; fill_density = 0.1
; perimeter_speed = 60
; infill_speed = 60
; travel_speed = 120
; nozzle_diameter = 0.4
; filament_diameter = 1.75
; extrusion_multiplier = 0.98
; perimeters extrusion width = 0.40mm
; infill extrusion width = 0.42mm
; solid infill extrusion width = 0.42mm
; top infill extrusion width = 0.42mm
; first layer extrusion width = 0.60mm

G21 ; set units to millimeters
M107
M104 S220 ; set temperature
G28 ; home all axes
M106 S255;
G1 Z200 F1200 ; lift nozzle
M109 S220 ; wait for temperature to be reached
G90 ; use absolute coordinates
G92 E0
M82 ; use absolute distances for extrusion
G1 F1800.000 E-1.00000
G92 E0
G1 Z0.300 F7200.000
G1 X123.687 Y71.776 F7200.000
G1 E1.00000 F1800.000
G1 X124.487 Y70.626 E1.09539 F1080.000
G1 X125.507 Y69.676 E1.19030
G1 X126.707 Y68.966 E1.28524
G1 X128.037 Y68.526 E1.38063
G1 X129.427 Y68.376 E1.47583
G1 X179.077 Y68.376 E4.85662
G1 X179.847 Y68.406 E4.90909
G1 X181.317 Y68.626 E5.01030
G1 X182.707 Y69.186 E5.11234
G1 X183.927 Y70.026 E5.21320
G1 X184.927 Y71.136 E5.31493
G1 X185.647 Y72.436 E5.41612
G1 X185.697 Y72.556 E5.42498
G1 X185.927 Y73.176 E5.47000
G1 X186.087 Y73.816 E5.51492
G1 X186.177 Y74.276 E5.54684
G1 X190.847 Y102.506 E7.49521
G1 X190.947 Y103.186 E7.54202
G1 X191.017 Y104.286 E7.61707
G1 X191.007 Y104.706 E7.64568
G1 X190.957 Y105.296 E7.68599
G1 X190.867 Y105.876 E7.72596
G1 X188.807 Y115.736 E8.41185
G1 X188.387 Y117.456 E8.53241
G1 X187.817 Y119.376 E8.66878
G1 X187.627 Y119.936 E8.70905
G1 X186.977 Y121.546 E8.82728
G1 X178.767 Y140.146 E10.21169
G1 X178.337 Y140.966 E10.27474
G1 X177.787 Y141.706 E10.33752
G1 X177.527 Y142.016 E10.36507
G1 X176.567 Y142.956 E10.45655
G1 X175.437 Y143.666 E10.54743
G1 X175.057 Y143.856 E10.57636
G1 X174.157 Y144.236 E10.64288
G1 X173.207 Y144.466 E10.70943
G1 X172.667 Y144.556 E10.74671
G1 X171.867 Y144.636 E10.80146
G1 X170.967 Y144.676 E10.86280
G1 X135.897 Y145.136 E13.25101
G1 X115.467 Y145.146 E14.64213
G1 X114.187 Y145.016 E14.72974
G1 X112.957 Y144.646 E14.81720
G1 X111.827 Y144.036 E14.90464
G1 X110.827 Y143.226 E14.99227
G1 X110.017 Y142.226 E15.07990
G1 X109.407 Y141.096 E15.16734
G1 X109.037 Y139.866 E15.25480
G1 X108.907 Y138.586 E15.34240
G1 X108.907 Y121.746 E16.48908
G1 X108.977 Y120.796 E16.55394
G1 X109.187 Y119.876 E16.61820
G1 X123.147 Y73.066 E19.94433
G1 X123.655 Y71.853 E20.03386
G1 F1800.000 E19.03386
G92 E0
G1 X125.257 Y73.209 F7200.000
G1 E1.00000 F1800.000
G1 X127.704 Y70.762 E1.23568 F1080.000
G1 X179.191 Y70.763 E4.74152
G1 X181.003 Y70.824 E4.86502
G1 X183.057 Y72.291 E5.03686
G1 X183.617 Y73.762 E5.14405
G1 X183.715 Y74.104 E5.16821
G1 X183.856 Y74.826 E5.21835
G1 X188.508 Y102.914 E7.15695
G1 X188.627 Y103.705 E7.21140
G1 X188.648 Y104.091 E7.23777
G1 X188.618 Y104.909 E7.29348
G1 X188.564 Y105.310 E7.32104
G1 X188.040 Y107.538 E7.47684
G1 X186.910 Y113.263 E7.87424
G1 X186.512 Y115.138 E8.00475
G1 X186.069 Y116.948 E8.13161
G1 X185.454 Y118.962 E8.27503
G1 X184.808 Y120.593 E8.39445
G1 X184.666 Y120.883 E8.41648
G1 X183.843 Y122.283 E8.52703
G1 X183.634 Y122.576 E8.55155
G1 X182.672 Y123.710 E8.65280
G1 X182.377 Y123.994 E8.68070
G1 X181.298 Y124.851 E8.77453
G1 X180.962 Y125.069 E8.80176
G1 X179.843 Y125.650 E8.88763
G1 X179.510 Y125.789 E8.91221
G1 X178.416 Y126.135 E8.99034
G1 X178.115 Y126.207 E9.01141
G1 X177.746 Y126.266 E9.03683
G1 X177.482 Y126.564 E9.06400
G1 X177.308 Y134.511 E9.60521
G1 X177.262 Y135.714 E9.68719
G1 X177.192 Y136.756 E9.75829
G1 X177.038 Y137.847 E9.83332
G1 X176.943 Y138.232 E9.86033
G1 X176.587 Y139.250 E9.93378
G1 X176.199 Y139.925 E9.98677
G1 X175.407 Y140.851 E10.06974
G1 X174.737 Y141.372 E10.12756
G1 X173.704 Y141.881 E10.20597
G1 X173.124 Y142.068 E10.24743
G1 X172.157 Y142.232 E10.31424
G1 X171.897 Y142.259 E10.33205
G1 X171.012 Y142.296 E10.39232
G1 X158.271 Y142.337 E11.25995
G1 X152.069 Y142.402 E11.68227
G1 X143.998 Y142.520 E12.23190
G1 X135.856 Y142.756 E12.78655
G1 X132.878 Y142.772 E12.98928
G1 X113.736 Y142.772 E14.29271
G1 X111.289 Y140.325 E14.52840
G1 X111.289 Y120.021 E15.91089
G1 X113.736 Y117.574 E16.14658
G1 X120.954 Y117.574 E16.63802
G1 X123.401 Y120.021 E16.87371
G1 X123.401 Y121.640 E16.98389
G1 X123.727 Y121.966 E17.01532
G1 X124.931 Y121.966 E17.09724
G1 X125.257 Y121.640 E17.12866
G1 X125.257 Y120.021 E17.23885
G1 X127.704 Y117.574 E17.47454
G1 X134.604 Y117.574 E17.94432
G1 X137.051 Y120.021 E18.18001
G1 X137.051 Y129.942 E18.85550
G1 X137.382 Y130.269 E18.88719
G1 X141.089 Y130.224 E19.13963
G1 X147.433 Y130.224 E19.57161
G1 X147.895 Y130.196 E19.60311
G1 X151.980 Y130.208 E19.88125
G1 X152.489 Y130.180 E19.91598
G1 X154.915 Y130.180 E20.08120
G1 X155.451 Y130.215 E20.11772
G1 X164.707 Y130.204 E20.74798
G1 X165.032 Y129.878 E20.77938
G1 X165.034 Y127.168 E20.96388
G1 X165.138 Y124.505 E21.14539
G1 X165.292 Y122.528 E21.28037
G1 X165.633 Y120.242 E21.43778
G1 X165.841 Y119.599 E21.48378
G1 X166.643 Y118.033 E21.60363
G1 X167.702 Y117.040 E21.70247
G1 X168.922 Y116.510 E21.79303
G1 X170.074 Y116.147 E21.87526
G1 X170.683 Y116.056 E21.91719
G1 X170.874 Y116.054 E21.93019
G1 X171.627 Y115.959 E21.98190
G1 X172.116 Y115.858 E22.01584
G1 X172.251 Y115.788 E22.02625
G1 X172.574 Y115.480 E22.05665
G1 X173.119 Y114.690 E22.12197
G1 X173.458 Y113.685 E22.19425
G1 X173.627 Y113.083 E22.23677
G1 X174.175 Y110.530 E22.41459
G1 X174.265 Y109.993 E22.45169
G1 X174.345 Y109.717 E22.47125
G1 X174.807 Y107.609 E22.61819
G1 X174.910 Y106.410 E22.70009
G1 X175.145 Y105.108 E22.79019
G1 X175.146 Y104.568 E22.82699
G1 X171.643 Y83.636 E24.27213
G1 X171.332 Y83.372 E24.29991
G1 X162.714 Y83.371 E24.88671
G1 X159.353 Y83.443 E25.11562
G1 X127.704 Y83.443 E27.27065
G1 X125.257 Y80.995 E27.50634
G1 X125.257 Y73.293 E28.03079
G1 X125.814 Y73.440 F7200.000
G1 X127.935 Y71.319 E28.23505 F1080.000
G1 X179.177 Y71.320 E31.72421
G1 X180.816 Y71.375 E31.83593
G1 X182.596 Y72.647 E31.98487
G1 X183.088 Y73.939 E32.07898
G1 X183.173 Y74.234 E32.09992
G1 X183.307 Y74.922 E32.14761
G1 X187.958 Y103.003 E34.08577
G1 X188.072 Y103.761 E34.13800
G1 X188.090 Y104.096 E34.16085
G1 X188.062 Y104.861 E34.21297
G1 X188.015 Y105.209 E34.23686
G1 X187.496 Y107.420 E34.39150
G1 X186.370 Y113.125 E34.78749
G1 X185.982 Y114.955 E34.91484
G1 X185.530 Y116.808 E35.04472
G1 X184.932 Y118.768 E35.18425
G1 X184.298 Y120.368 E35.30142
G1 X184.175 Y120.620 E35.32051
G1 X183.375 Y121.980 E35.42795
G1 X183.194 Y122.234 E35.44921
G1 X182.265 Y123.328 E35.54696
G1 X182.010 Y123.575 E35.57114
G1 X180.973 Y124.398 E35.66129
G1 X180.682 Y124.587 E35.68490
G1 X179.608 Y125.145 E35.76732
G1 X179.319 Y125.265 E35.78861
G1 X178.268 Y125.598 E35.86370
G1 X178.007 Y125.660 E35.88196
G1 X177.207 Y125.788 E35.93714
G1 X176.942 Y126.087 E35.96430
G1 X176.895 Y127.383 E36.05264
G1 X176.751 Y134.497 E36.53714
G1 X176.706 Y135.688 E36.61831
G1 X176.637 Y136.707 E36.68782
G1 X176.490 Y137.739 E36.75883
G1 X176.408 Y138.073 E36.78224
G1 X176.078 Y139.017 E36.85035
G1 X175.742 Y139.602 E36.89628
G1 X175.021 Y140.446 E36.97186
G1 X174.439 Y140.897 E37.02197
G1 X173.494 Y141.363 E37.09376
G1 X172.992 Y141.526 E37.12970
G1 X171.856 Y141.703 E37.20796
G1 X170.924 Y141.741 E37.27148
G1 X158.267 Y141.780 E38.13334
G1 X152.062 Y141.845 E38.55588
G1 X143.986 Y141.963 E39.10586
G1 X135.849 Y142.199 E39.66011
G1 X132.878 Y142.215 E39.86246
G1 X113.967 Y142.215 E41.15013
G1 X111.846 Y140.094 E41.35439
G1 X111.846 Y120.252 E42.70547
G1 X113.967 Y118.131 E42.90973
G1 X120.723 Y118.131 E43.36974
G1 X122.844 Y120.252 E43.57400
G1 X122.844 Y122.197 E43.70641
G1 X123.170 Y122.523 E43.73784
G1 X125.488 Y122.523 E43.89563
G1 X125.814 Y122.197 E43.92705
G1 X125.814 Y120.252 E44.05946
G1 X127.935 Y118.131 E44.26372
G1 X134.373 Y118.131 E44.70208
G1 X136.494 Y120.252 E44.90634
G1 X136.494 Y130.505 E45.60451
G1 X136.825 Y130.833 E45.63620
G1 X141.069 Y130.782 E45.92523
G1 X147.454 Y130.781 E46.35995
G1 X147.904 Y130.754 E46.39068
G1 X151.997 Y130.765 E46.66936
G1 X152.498 Y130.737 E46.70353
G1 X154.904 Y130.737 E46.86739
G1 X155.428 Y130.772 E46.90316
G1 X165.264 Y130.760 E47.57287
G1 X165.590 Y130.434 E47.60427
G1 X165.589 Y127.255 E47.82073
G1 X165.699 Y124.461 E48.01116
G1 X165.861 Y122.452 E48.14839
G1 X166.177 Y120.370 E48.29176
G1 X166.357 Y119.813 E48.33163
G1 X167.095 Y118.373 E48.44183
G1 X168.013 Y117.512 E48.52749
G1 X169.129 Y117.028 E48.61037
G1 X170.196 Y116.692 E48.68653
G1 X170.724 Y116.614 E48.72287
G1 X170.909 Y116.611 E48.73547
G1 X171.719 Y116.509 E48.79105
G1 X172.342 Y116.374 E48.83447
G1 X172.567 Y116.256 E48.85173
G1 X172.996 Y115.849 E48.89201
G1 X173.621 Y114.946 E48.96679
G1 X173.991 Y113.849 E49.04559
G1 X174.168 Y113.217 E49.09030
G1 X174.726 Y110.620 E49.27120
G1 X174.808 Y110.122 E49.30554
G1 X174.885 Y109.854 E49.32450
G1 X175.359 Y107.689 E49.47542
G1 X175.461 Y106.495 E49.55704
G1 X175.702 Y105.158 E49.64954
G1 X175.703 Y104.522 E49.69285
G1 X174.419 Y96.772 E50.22774
G1 X172.114 Y83.079 E51.17330
G1 X171.803 Y82.815 E51.20107
G1 X162.708 Y82.814 E51.82036
G1 X159.350 Y82.885 E52.04907
G1 X127.935 Y82.885 E54.18818
G1 X125.814 Y80.764 E54.39244
G1 X125.814 Y73.524 E54.88548
G1 X126.371 Y73.671 F7200.000
G1 X128.166 Y71.876 E55.05831 F1080.000
G1 X179.163 Y71.877 E58.53080
G1 X180.630 Y71.926 E58.63074
G1 X182.135 Y73.002 E58.75676
G1 X182.559 Y74.115 E58.83781
G1 X182.631 Y74.365 E58.85553
G1 X182.758 Y75.017 E58.90076
G1 X187.408 Y103.091 E60.83848
G1 X187.517 Y103.818 E60.88850
G1 X187.533 Y104.101 E60.90783
G1 X187.506 Y104.814 E60.95635
G1 X187.467 Y105.108 E60.97657
G1 X186.951 Y107.302 E61.13006
G1 X185.823 Y113.015 E61.52659
G1 X185.438 Y114.835 E61.65326
G1 X184.991 Y116.668 E61.78173
G1 X184.409 Y118.573 E61.91735
G1 X183.788 Y120.142 E62.03228
G1 X183.684 Y120.356 E62.04843
G1 X182.907 Y121.676 E62.15277
G1 X182.754 Y121.892 E62.17076
G1 X181.858 Y122.947 E62.26502
G1 X181.642 Y123.156 E62.28547
G1 X180.647 Y123.945 E62.37195
G1 X180.401 Y124.105 E62.39193
G1 X179.372 Y124.640 E62.47089
G1 X179.128 Y124.741 E62.48891
G1 X178.119 Y125.061 E62.56095
G1 X177.898 Y125.113 E62.57641
G1 X176.685 Y125.294 E62.65994
G1 X176.403 Y125.597 E62.68816
G1 X176.338 Y127.367 E62.80878
G1 X176.193 Y134.511 E63.29531
G1 X176.149 Y135.663 E63.37379
G1 X176.082 Y136.658 E63.44172
G1 X175.943 Y137.632 E63.50869
G1 X175.874 Y137.914 E63.52850
G1 X175.569 Y138.785 E63.59128
G1 X175.285 Y139.279 E63.63014
G1 X174.634 Y140.040 E63.69834
G1 X174.142 Y140.423 E63.74074
G1 X173.284 Y140.846 E63.80591
G1 X172.859 Y140.983 E63.83632
G1 X171.815 Y141.147 E63.90826
G1 X170.917 Y141.184 E63.96948
G1 X158.263 Y141.223 E64.83111
G1 X152.055 Y141.287 E65.25387
G1 X143.973 Y141.406 E65.80421
G1 X135.843 Y141.642 E66.35805
G1 X132.877 Y141.658 E66.56003
G1 X114.198 Y141.658 E67.83194
G1 X112.403 Y139.863 E68.00477
G1 X112.403 Y120.483 E69.32442
G1 X114.198 Y118.688 E69.49726
G1 X120.492 Y118.688 E69.92585
G1 X122.287 Y120.483 E70.09869
G1 X122.287 Y122.754 E70.25331
G1 X122.613 Y123.080 E70.28474
G1 X126.045 Y123.080 E70.51839
G1 X126.371 Y122.754 E70.54982
G1 X126.371 Y120.483 E70.70445
G1 X128.166 Y118.688 E70.87728
G1 X134.142 Y118.688 E71.28422
G1 X135.937 Y120.483 E71.45705
G1 X135.937 Y131.069 E72.17790
G1 X136.268 Y131.396 E72.20959
G1 X141.074 Y131.339 E72.53690
G1 X147.474 Y131.338 E72.97268
G1 X147.913 Y131.311 E73.00263
G1 X152.014 Y131.322 E73.28186
G1 X152.507 Y131.294 E73.31547
G1 X154.893 Y131.294 E73.47795
G1 X155.406 Y131.329 E73.51299
G1 X165.821 Y131.317 E74.22213
G1 X166.147 Y130.991 E74.25353
G1 X166.146 Y127.261 E74.50751
G1 X166.254 Y124.499 E74.69571
G1 X166.414 Y122.526 E74.83051
G1 X166.721 Y120.498 E74.97013
G1 X166.874 Y120.027 E75.00387
G1 X167.547 Y118.713 E75.10441
G1 X168.323 Y117.985 E75.17689
G1 X169.336 Y117.545 E75.25209
G1 X170.318 Y117.237 E75.32218
G1 X170.765 Y117.171 E75.35293
G1 X170.944 Y117.168 E75.36513
G1 X171.810 Y117.059 E75.42458
G1 X172.515 Y116.907 E75.47369
G1 X172.879 Y116.726 E75.50134
G1 X173.417 Y116.218 E75.55174
G1 X174.122 Y115.201 E75.63598
G1 X174.523 Y114.014 E75.72131
G1 X174.709 Y113.351 E75.76819
G1 X175.275 Y110.723 E75.95127
G1 X175.350 Y110.251 E75.98376
G1 X175.425 Y109.992 E76.00213
G1 X175.912 Y107.770 E76.15703
G1 X176.011 Y106.580 E76.23836
G1 X176.259 Y105.208 E76.33326
G1 X176.260 Y104.476 E76.38309
G1 X174.968 Y96.681 E76.92116
G1 X172.585 Y82.522 E77.89883
G1 X172.274 Y82.258 E77.92661
G1 X162.702 Y82.257 E78.57839
G1 X159.347 Y82.328 E78.80690
G1 X128.166 Y82.328 E80.93009
G1 X126.371 Y80.534 E81.10293
G1 X126.371 Y73.754 E81.56454
G1 X126.928 Y73.902 F7200.000
G1 X128.397 Y72.433 E81.70595 F1080.000
G1 X179.148 Y72.434 E85.16176
G1 X180.443 Y72.478 E85.24993
G1 X181.675 Y73.358 E85.35304
G1 X182.030 Y74.291 E85.42102
G1 X182.089 Y74.496 E85.43552
G1 X182.209 Y75.112 E85.47828
G1 X186.858 Y103.180 E87.41557
G1 X186.962 Y103.875 E87.46337
G1 X186.975 Y104.107 E87.47919
G1 X186.951 Y104.766 E87.52412
G1 X186.918 Y105.007 E87.54066
G1 X186.407 Y107.184 E87.69299
G1 X185.277 Y112.906 E88.09007
G1 X184.894 Y114.716 E88.21605
G1 X184.451 Y116.528 E88.34312
G1 X183.887 Y118.379 E88.47484
G1 X183.278 Y119.917 E88.58751
G1 X183.193 Y120.092 E88.60073
G1 X182.439 Y121.373 E88.70197
G1 X182.314 Y121.549 E88.71668
G1 X181.451 Y122.565 E88.80745
G1 X181.274 Y122.736 E88.82418
G1 X180.322 Y123.492 E88.90699
G1 X180.120 Y123.623 E88.92333
G1 X179.137 Y124.134 E88.99884
G1 X178.937 Y124.217 E89.01358
G1 X177.790 Y124.566 E89.09520
G1 X176.888 Y124.711 E89.15741
G1 X176.165 Y124.761 E89.20675
G1 X175.865 Y125.069 E89.23601
G1 X175.781 Y127.351 E89.39156
G1 X175.636 Y134.492 E89.87789
G1 X175.591 Y135.674 E89.95845
G1 X175.516 Y136.707 E90.02893
G1 X175.396 Y137.524 E90.08520
G1 X175.339 Y137.756 E90.10141
G1 X175.061 Y138.552 E90.15885
G1 X174.828 Y138.957 E90.19065
G1 X174.247 Y139.635 E90.25146
G1 X173.845 Y139.948 E90.28615
G1 X173.074 Y140.328 E90.34470
G1 X172.726 Y140.441 E90.36958
G1 X171.774 Y140.591 E90.43520
G1 X170.910 Y140.627 E90.49413
G1 X158.259 Y140.666 E91.35553
G1 X152.048 Y140.730 E91.77851
G1 X143.961 Y140.849 E92.32920
G1 X135.837 Y141.085 E92.88264
G1 X132.876 Y141.101 E93.08424
G1 X114.429 Y141.101 E94.34039
G1 X112.960 Y139.632 E94.48180
G1 X112.960 Y120.714 E95.77002
G1 X114.429 Y119.245 E95.91143
G1 X120.261 Y119.245 E96.30860
G1 X121.730 Y120.714 E96.45001
G1 X121.730 Y123.311 E96.62686
G1 X122.056 Y123.637 E96.65828
G1 X126.602 Y123.637 E96.96780
G1 X126.928 Y123.311 E96.99923
G1 X126.928 Y120.714 E97.17608
G1 X128.397 Y119.245 E97.31749
G1 X133.911 Y119.245 E97.69300
G1 X135.380 Y120.714 E97.83441
G1 X135.380 Y131.633 E98.57794
G1 X135.711 Y131.960 E98.60963
G1 X141.079 Y131.896 E98.97521
G1 X147.495 Y131.895 E99.41206
G1 X147.922 Y131.868 E99.44123
G1 X152.031 Y131.879 E99.72100
G1 X152.516 Y131.851 E99.75406
G1 X154.882 Y131.851 E99.91516
G1 X155.384 Y131.887 E99.94945
G1 X166.362 Y131.873 E100.69695
G1 X166.686 Y131.557 E100.72780
G1 X166.704 Y130.829 E100.77736
G1 X166.704 Y127.266 E101.01997
G1 X166.810 Y124.537 E101.20593
G1 X166.966 Y122.599 E101.33831
G1 X167.265 Y120.627 E101.47418
G1 X167.390 Y120.241 E101.50178
G1 X167.998 Y119.053 E101.59266
G1 X168.634 Y118.457 E101.65196
G1 X169.543 Y118.062 E101.71948
G1 X170.441 Y117.782 E101.78350
G1 X171.902 Y117.609 E101.88371
G1 X172.689 Y117.440 E101.93850
G1 X173.192 Y117.196 E101.97655
G1 X173.839 Y116.586 E102.03708
G1 X174.624 Y115.457 E102.13077
G1 X175.056 Y114.178 E102.22263
G1 X175.250 Y113.485 E102.27169
G1 X175.826 Y110.820 E102.45736
G1 X175.893 Y110.381 E102.48759
G1 X175.965 Y110.130 E102.50536
G1 X176.464 Y107.851 E102.66424
G1 X176.562 Y106.664 E102.74528
G1 X176.816 Y105.258 E102.84258
G1 X176.817 Y104.431 E102.89894
G1 X175.518 Y96.589 E103.44018
G1 X173.057 Y81.965 E104.44998
G1 X172.745 Y81.701 E104.47775
G1 X162.696 Y81.700 E105.16203
G1 X159.344 Y81.771 E105.39033
G1 X128.397 Y81.771 E107.49761
G1 X126.928 Y80.303 E107.63902
G1 X126.928 Y73.985 E108.06920
