; generated by Slic3r 1.0.0RC2 on 2014-05-12 at 11:12:25

; layer_height = 0.3
; perimeters = 3
; top_solid_layers = 3
; bottom_solid_layers = 3
; fill_density = 0.20
; perimeter_speed = 60
; infill_speed = 60
; travel_speed = 120
; nozzle_diameter = 0.4
; filament_diameter = 1.75
; extrusion_multiplier = 0.98
; perimeters extrusion width = 0.40mm
; infill extrusion width = 0.42mm
; solid infill extrusion width = 0.42mm
; top infill extrusion width = 0.42mm
; first layer extrusion width = 0.80mm

G21 ; set units to millimeters
M107
M104 S220 ; set temperature
G28 ; home all axes
M106 S255;
G1 Z200 F1200 ; lift nozzle
M109 S220 ; wait for temperature to be reached
G90 ; use absolute coordinates
G92 E0
M82 ; use absolute distances for extrusion
G1 F1800.000 E-1.00000
G92 E0
G1 Z0.400 F7200.000
G1 X56.270 Y78.920 F7200.000
G1 E1.00000 F1800.000
G1 X57.430 Y78.300 E1.15309 F1080.000
G1 X58.690 Y77.910 E1.30660
G1 X60.000 Y77.790 E1.45971
G1 X240.000 Y77.790 E22.40989
G1 X241.310 Y77.910 E22.56300
G1 X242.570 Y78.300 E22.71651
G1 X243.730 Y78.920 E22.86960
G1 X244.750 Y79.750 E23.02265
G1 X245.580 Y80.770 E23.17571
G1 X246.200 Y81.930 E23.32880
G1 X246.590 Y83.190 E23.48231
G1 X246.710 Y84.500 E23.63542
G1 X246.710 Y94.500 E24.79932
G1 X246.560 Y95.910 E24.96436
G1 X246.120 Y97.270 E25.13073
G1 X245.400 Y98.490 E25.29560
G1 X244.440 Y99.540 E25.46119
G1 X219.440 Y121.540 E29.33717
G1 X217.860 Y122.570 E29.55669
G1 X216.070 Y123.130 E29.77498
G1 X160.270 Y132.130 E36.35347
G1 X159.200 Y132.210 E36.47836
G1 X140.800 Y132.210 E38.61993
G1 X139.730 Y132.130 E38.74482
G1 X83.930 Y123.130 E45.32330
G1 X82.140 Y122.570 E45.54160
G1 X80.560 Y121.540 E45.76112
G1 X55.560 Y99.540 E49.63710
G1 X54.600 Y98.490 E49.80268
G1 X53.880 Y97.270 E49.96756
G1 X53.440 Y95.910 E50.13393
G1 X53.290 Y94.500 E50.29897
G1 X53.290 Y84.500 E51.46287
G1 X53.410 Y83.190 E51.61598
G1 X53.800 Y81.930 E51.76949
G1 X54.420 Y80.770 E51.92258
G1 X55.250 Y79.750 E52.07563
G1 X56.187 Y78.988 E52.21622
G1 F1800.000 E51.21622
G92 E0
G1 X58.373 Y80.572 F7200.000
G1 E1.00000 F1800.000
G1 X81.171 Y80.572 E3.65345 F1080.000
G1 X82.512 Y81.078 E3.82022
G1 X98.878 Y95.480 E6.35760
G1 X99.121 Y95.572 E6.38792
G1 X200.879 Y95.572 E18.23143
G1 X201.122 Y95.480 E18.26175
G1 X217.488 Y81.078 E20.79913
G1 X218.829 Y80.572 E20.96591
G1 X241.627 Y80.572 E23.61936
G1 X243.928 Y82.873 E23.99808
G1 X243.928 Y95.347 E25.44988
G1 X243.230 Y96.889 E25.64695
G1 X217.057 Y119.922 E29.70484
G1 X215.716 Y120.428 E29.87161
G1 X161.293 Y120.428 E36.20599
G1 X160.898 Y121.217 E36.30873
G1 X163.799 Y125.085 E36.87146
G1 X161.628 Y129.428 E37.43654
G1 X138.372 Y129.428 E40.14321
G1 X136.201 Y125.085 E40.70829
G1 X139.102 Y121.217 E41.27102
G1 X138.707 Y120.428 E41.37376
G1 X84.284 Y120.428 E47.70814
G1 X82.943 Y119.922 E47.87491
G1 X56.770 Y96.889 E51.93280
G1 X56.072 Y95.347 E52.12987
G1 X56.072 Y82.873 E53.58167
G1 X58.297 Y80.648 E53.94793
G1 X58.669 Y81.286 F7200.000
G1 X81.041 Y81.286 E56.55179 F1080.000
G1 X82.138 Y81.700 E56.68823
G1 X98.608 Y96.194 E59.24182
G1 X98.852 Y96.286 E59.27214
G1 X201.148 Y96.286 E71.17838
G1 X201.392 Y96.194 E71.20870
G1 X217.862 Y81.700 E73.76229
G1 X218.959 Y81.286 E73.89874
G1 X241.331 Y81.286 E76.50260
G1 X243.214 Y83.169 E76.81246
G1 X243.214 Y95.193 E78.21192
G1 X242.643 Y96.455 E78.37315
G1 X216.683 Y119.300 E82.39797
G1 X215.586 Y119.714 E82.53442
G1 X159.864 Y119.714 E89.01987
G1 X159.470 Y120.503 E89.12262
G1 X162.963 Y125.161 E89.80021
G1 X161.186 Y128.714 E90.26256
G1 X138.814 Y128.714 E92.86648
G1 X137.037 Y125.161 E93.32882
G1 X140.530 Y120.503 E94.00642
G1 X140.136 Y119.714 E94.10916
G1 X84.414 Y119.714 E100.59461
G1 X83.317 Y119.300 E100.73106
G1 X57.357 Y96.455 E104.75588
G1 X56.786 Y95.193 E104.91712
G1 X56.786 Y83.169 E106.31657
G1 X58.593 Y81.362 E106.61397
G1 X58.965 Y82.000 F7200.000
G1 X80.910 Y82.000 E109.16824 F1080.000
G1 X81.764 Y82.322 E109.27437
G1 X98.339 Y96.908 E111.84416
G1 X98.582 Y97.000 E111.87448
G1 X201.418 Y97.000 E123.84345
G1 X201.661 Y96.908 E123.87377
G1 X218.236 Y82.322 E126.44356
G1 X219.090 Y82.000 E126.54969
G1 X241.035 Y82.000 E129.10396
G1 X242.500 Y83.465 E129.34496
G1 X242.500 Y95.039 E130.69207
G1 X242.056 Y96.021 E130.81748
G1 X216.309 Y118.678 E134.80922
G1 X215.456 Y119.000 E134.91535
G1 X159.118 Y119.000 E141.47252
G1 X158.700 Y119.418 E141.54138
G1 X158.700 Y120.545 E141.67252
G1 X158.773 Y120.765 E141.69950
G1 X162.127 Y125.236 E142.35006
G1 X160.745 Y128.000 E142.70966
G1 X139.255 Y128.000 E145.21083
G1 X137.873 Y125.236 E145.57043
G1 X141.227 Y120.765 E146.22099
G1 X141.300 Y120.545 E146.24797
G1 X141.300 Y119.418 E146.37911
G1 X140.882 Y119.000 E146.44797
G1 X84.544 Y119.000 E153.00514
G1 X83.691 Y118.678 E153.11127
G1 X57.944 Y96.021 E157.10301
G1 X57.500 Y95.039 E157.22842
G1 X57.500 Y83.465 E158.57552
G1 X58.889 Y82.076 E158.80406
G1 X59.260 Y82.715 F7200.000
G1 X80.780 Y82.715 E161.30874 F1080.000
G1 X81.390 Y82.945 E161.38455
G1 X98.069 Y97.623 E163.97054
G1 X98.313 Y97.715 E164.00086
G1 X201.687 Y97.715 E176.03256
G1 X201.931 Y97.623 E176.06288
G1 X218.610 Y82.945 E178.64888
G1 X219.220 Y82.715 E178.72468
G1 X240.740 Y82.715 E181.22936
G1 X241.785 Y83.760 E181.40151
G1 X241.785 Y94.885 E182.69627
G1 X241.468 Y95.586 E182.78585
G1 X215.935 Y118.055 E186.74452
G1 X215.326 Y118.285 E186.82032
G1 X158.404 Y118.285 E193.44545
G1 X157.985 Y118.704 E193.51431
G1 X157.985 Y120.783 E193.75628
G1 X158.059 Y121.003 E193.78326
G1 X161.290 Y125.312 E194.41015
G1 X160.303 Y127.285 E194.66701
G1 X139.697 Y127.285 E197.06544
G1 X138.710 Y125.312 E197.32230
G1 X141.941 Y121.003 E197.94919
G1 X142.015 Y120.783 E197.97617
G1 X142.015 Y118.704 E198.21814
G1 X141.596 Y118.285 E198.28700
G1 X84.674 Y118.285 E204.91213
G1 X84.065 Y118.055 E204.98794
G1 X58.532 Y95.586 E208.94660
G1 X58.215 Y94.885 E209.03618
G1 X58.215 Y83.760 E210.33094
G1 X59.185 Y82.790 E210.49062
G1 X59.556 Y83.429 F7200.000
G1 X80.650 Y83.429 E212.94571 F1080.000
G1 X81.016 Y83.567 E212.99119
G1 X97.800 Y98.337 E215.59339
G1 X98.043 Y98.429 E215.62371
G1 X201.957 Y98.429 E227.71814
G1 X202.200 Y98.337 E227.74847
G1 X218.984 Y83.567 E230.35066
G1 X219.350 Y83.429 E230.39615
G1 X240.444 Y83.429 E232.85124
G1 X241.071 Y84.056 E232.95452
G1 X241.071 Y94.731 E234.19694
G1 X240.881 Y95.152 E234.25069
G1 X215.561 Y117.433 E238.17628
G1 X215.195 Y117.571 E238.22176
G1 X157.690 Y117.571 E244.91485
G1 X157.271 Y117.990 E244.98371
G1 X157.271 Y121.021 E245.33651
G1 X157.345 Y121.241 E245.36349
G1 X160.454 Y125.387 E245.96671
G1 X159.862 Y126.571 E246.12083
G1 X140.138 Y126.571 E248.41652
G1 X139.546 Y125.387 E248.57063
G1 X142.655 Y121.241 E249.17386
G1 X142.729 Y121.021 E249.20084
G1 X142.729 Y117.990 E249.55364
G1 X142.310 Y117.571 E249.62250
G1 X84.805 Y117.571 E256.31559
G1 X84.439 Y117.433 E256.36107
G1 X59.119 Y95.152 E260.28666
G1 X58.929 Y94.731 E260.34041
G1 X58.929 Y84.056 E261.58282
G1 X59.481 Y83.505 E261.67364
G1 X59.852 Y84.143 F7200.000
G1 X80.520 Y84.143 E264.07914 F1080.000
G1 X80.642 Y84.189 E264.09430
G1 X97.530 Y99.051 E266.71270
G1 X97.774 Y99.143 E266.74303
G1 X202.226 Y99.143 E278.90019
G1 X202.470 Y99.051 E278.93051
G1 X219.358 Y84.189 E281.54891
G1 X219.480 Y84.143 E281.56407
G1 X240.148 Y84.143 E283.96957
G1 X240.357 Y84.352 E284.00400
G1 X240.357 Y94.577 E285.19407
G1 X240.294 Y94.717 E285.21199
G1 X215.187 Y116.811 E289.10450
G1 X215.065 Y116.857 E289.11966
G1 X156.975 Y116.857 E295.88071
G1 X156.557 Y117.275 E295.94957
G1 X156.557 Y121.259 E296.41320
G1 X156.630 Y121.479 E296.44018
G1 X159.618 Y125.462 E297.01974
G1 X159.421 Y125.857 E297.07111
G1 X140.579 Y125.857 E299.26406
G1 X140.382 Y125.462 E299.31543
G1 X143.370 Y121.479 E299.89499
G1 X143.443 Y121.259 E299.92197
G1 X143.443 Y117.275 E300.38560
G1 X143.025 Y116.857 E300.45446
G1 X84.935 Y116.857 E307.21551
G1 X84.813 Y116.811 E307.23067
G1 X59.706 Y94.717 E311.12318
G1 X59.643 Y94.577 E311.14110
G1 X59.643 Y84.352 E312.33117
G1 X59.776 Y84.219 E312.35313
G1 X60.400 Y84.900 F7200.000
G1 X80.304 Y84.900 E314.66971 F756.000
G1 X97.349 Y99.900 E317.31242
G1 X202.651 Y99.900 E329.56849
G1 X219.696 Y84.900 E332.21120
G1 X239.600 Y84.900 E334.52778
G1 X239.600 Y94.319 E335.62407
G1 X214.849 Y116.100 E339.46143
G1 X155.800 Y116.100 E346.33415
G1 X155.800 Y121.633 E346.97817
G1 X158.400 Y125.100 E347.48253
G1 X141.600 Y125.100 E349.43788
G1 X144.200 Y121.633 E349.94223
G1 X144.200 Y116.100 E350.58626
G1 X85.151 Y116.100 E357.45897
G1 X60.400 Y94.319 E361.29633
G1 X60.400 Y85.007 E362.38016
G1 X61.018 Y85.257 F7200.000
G1 X61.114 Y85.614 F7200.000
G1 X80.034 Y85.614 E364.58225 F1080.000
G1 X97.080 Y100.614 E367.22496
G1 X202.920 Y100.614 E379.54376
G1 X219.966 Y85.614 E382.18647
G1 X238.886 Y85.614 E384.38856
G1 X238.886 Y93.996 E385.36416
G1 X214.580 Y115.386 E389.13258
G1 X155.086 Y115.386 E396.05705
G1 X155.086 Y121.871 E396.81190
G1 X156.972 Y124.386 E397.17772
G1 X143.028 Y124.386 E398.80059
G1 X144.914 Y121.871 E399.16641
G1 X144.914 Y115.386 E399.92126
G1 X85.420 Y115.386 E406.84573
G1 X61.114 Y93.996 E410.61415
G1 X61.114 Y85.721 E411.57728
G1 X61.828 Y86.328 F7200.000
G1 X79.765 Y86.328 E413.66488 F1080.000
G1 X96.810 Y101.328 E416.30759
G1 X203.190 Y101.328 E428.68913
G1 X220.235 Y86.328 E431.33184
G1 X238.172 Y86.328 E433.41944
G1 X238.172 Y93.673 E434.27435
G1 X214.310 Y114.672 E437.97382
G1 X154.372 Y114.672 E444.95005
G1 X154.372 Y122.109 E445.81573
G1 X155.543 Y123.672 E446.04301
G1 X144.457 Y123.672 E447.33339
G1 X145.628 Y122.109 E447.56068
G1 X145.628 Y114.672 E448.42636
G1 X85.690 Y114.672 E455.40258
G1 X61.828 Y93.673 E459.10206
G1 X61.828 Y86.435 E459.94449
G1 X62.743 Y93.836 F7200.000
G1 X62.310 Y93.404 E460.01570 F1080.000
G1 X62.310 Y92.393 E460.13339
G1 X71.164 Y101.247 E461.59156
G1 X79.585 Y108.658 F7200.000
G1 X62.310 Y91.383 E464.43669 F1080.000
G1 X62.310 Y90.372 E464.55438
G1 X86.128 Y114.190 E468.47706
G1 X87.139 Y114.190 E468.59475
G1 X62.310 Y89.361 E472.68386
G1 X62.310 Y88.351 E472.80155
G1 X88.149 Y114.190 E477.05709
G1 X89.160 Y114.190 E477.17478
G1 X62.310 Y87.340 E481.59676
G1 X62.791 Y86.810 E481.68008
G1 X90.170 Y114.190 E486.18935
G1 X91.181 Y114.190 E486.30704
G1 X63.801 Y86.810 E490.81631
G1 X64.812 Y86.810 E490.93400
G1 X92.191 Y114.190 E495.44327
G1 X93.202 Y114.190 E495.56095
G1 X65.823 Y86.810 E500.07022
G1 X66.833 Y86.810 E500.18791
G1 X94.212 Y114.190 E504.69718
G1 X95.223 Y114.190 E504.81487
G1 X67.844 Y86.810 E509.32414
G1 X68.854 Y86.810 E509.44183
G1 X96.234 Y114.190 E513.95110
G1 X97.244 Y114.190 E514.06878
G1 X69.865 Y86.810 E518.57805
G1 X70.875 Y86.810 E518.69574
G1 X98.255 Y114.190 E523.20501
G1 X99.265 Y114.190 E523.32270
G1 X71.886 Y86.810 E527.83197
G1 X72.897 Y86.810 E527.94966
G1 X100.276 Y114.190 E532.45893
G1 X101.286 Y114.190 E532.57661
G1 X73.907 Y86.810 E537.08588
G1 X74.918 Y86.810 E537.20357
G1 X102.297 Y114.190 E541.71284
G1 X103.308 Y114.190 E541.83053
G1 X75.928 Y86.810 E546.33980
G1 X76.939 Y86.810 E546.45749
G1 X104.318 Y114.190 E550.96676
G1 X105.329 Y114.190 E551.08444
G1 X77.949 Y86.810 E555.59371
G1 X78.960 Y86.810 E555.71140
G1 X106.339 Y114.190 E560.22067
G1 X107.350 Y114.190 E560.33836
G1 X82.814 Y89.654 E564.37933
G1 X91.235 Y97.065 F7200.000
G1 X108.360 Y114.190 E567.19976 F1080.000
G1 X109.371 Y114.190 E567.31745
G1 X96.992 Y101.810 E569.35628
G1 X98.002 Y101.810 E569.47397
G1 X110.381 Y114.190 E571.51280
G1 X111.392 Y114.190 E571.63048
G1 X99.013 Y101.810 E573.66931
G1 X100.023 Y101.810 E573.78700
G1 X112.403 Y114.190 E575.82583
G1 X113.413 Y114.190 E575.94352
G1 X101.034 Y101.810 E577.98234
G1 X102.044 Y101.810 E578.10003
G1 X114.424 Y114.190 E580.13886
G1 X115.434 Y114.190 E580.25655
G1 X103.055 Y101.810 E582.29537
G1 X104.066 Y101.810 E582.41306
G1 X116.445 Y114.190 E584.45189
G1 X117.455 Y114.190 E584.56958
G1 X105.076 Y101.810 E586.60841
G1 X106.087 Y101.810 E586.72609
G1 X118.466 Y114.190 E588.76492
G1 X119.477 Y114.190 E588.88261
G1 X107.097 Y101.810 E590.92144
G1 X108.108 Y101.810 E591.03912
G1 X120.487 Y114.190 E593.07795
G1 X121.498 Y114.190 E593.19564
G1 X109.118 Y101.810 E595.23447
G1 X110.129 Y101.810 E595.35216
G1 X122.508 Y114.190 E597.39098
G1 X123.519 Y114.190 E597.50867
G1 X111.139 Y101.810 E599.54750
G1 X112.150 Y101.810 E599.66519
G1 X124.529 Y114.190 E601.70401
G1 X125.540 Y114.190 E601.82170
G1 X113.161 Y101.810 E603.86053
G1 X114.171 Y101.810 E603.97822
G1 X126.551 Y114.190 E606.01705
G1 X127.561 Y114.190 E606.13473
G1 X115.182 Y101.810 E608.17356
G1 X116.192 Y101.810 E608.29125
G1 X128.572 Y114.190 E610.33008
G1 X129.582 Y114.190 E610.44776
G1 X117.203 Y101.810 E612.48659
G1 X118.213 Y101.810 E612.60428
G1 X130.593 Y114.190 E614.64311
G1 X131.603 Y114.190 E614.76080
G1 X119.224 Y101.810 E616.79962
G1 X120.235 Y101.810 E616.91731
G1 X132.614 Y114.190 E618.95614
G1 X133.624 Y114.190 E619.07383
G1 X121.245 Y101.810 E621.11266
G1 X122.256 Y101.810 E621.23034
G1 X134.635 Y114.190 E623.26917
G1 X135.646 Y114.190 E623.38686
G1 X123.266 Y101.810 E625.42569
G1 X124.277 Y101.810 E625.54337
G1 X136.656 Y114.190 E627.58220
G1 X137.667 Y114.190 E627.69989
G1 X125.287 Y101.810 E629.73872
G1 X126.298 Y101.810 E629.85641
G1 X138.677 Y114.190 E631.89523
G1 X139.688 Y114.190 E632.01292
G1 X127.308 Y101.810 E634.05175
G1 X128.319 Y101.810 E634.16944
G1 X140.698 Y114.190 E636.20827
G1 X141.709 Y114.190 E636.32595
G1 X129.330 Y101.810 E638.36478
G1 X130.340 Y101.810 E638.48247
G1 X142.720 Y114.190 E640.52130
G1 X143.730 Y114.190 E640.63898
G1 X131.351 Y101.810 E642.67781
G1 X132.361 Y101.810 E642.79550
G1 X144.741 Y114.190 E644.83433
G1 X145.751 Y114.190 E644.95202
G1 X133.372 Y101.810 E646.99084
G1 X134.382 Y101.810 E647.10853
G1 X153.890 Y121.318 E650.32130
G1 X153.890 Y120.307 E650.43899
G1 X135.393 Y101.810 E653.48532
G1 X136.404 Y101.810 E653.60300
G1 X153.890 Y119.296 E656.48290
G1 X153.890 Y118.286 E656.60059
G1 X137.414 Y101.810 E659.31404
G1 X138.425 Y101.810 E659.43173
G1 X153.890 Y117.275 E661.97876
G1 X153.890 Y116.265 E662.09644
G1 X139.435 Y101.810 E664.47703
G1 X140.446 Y101.810 E664.59472
G1 X153.890 Y115.254 E666.80887
G1 X153.890 Y114.244 E666.92656
G1 X141.456 Y101.810 E668.97427
G1 X142.467 Y101.810 E669.09196
G1 X154.846 Y114.190 E671.13079
G1 X155.857 Y114.190 E671.24848
G1 X143.477 Y101.810 E673.28730
G1 X144.488 Y101.810 E673.40499
G1 X156.867 Y114.190 E675.44382
G1 X157.878 Y114.190 E675.56151
G1 X145.499 Y101.810 E677.60033
G1 X146.509 Y101.810 E677.71802
G1 X158.889 Y114.190 E679.75685
G1 X159.899 Y114.190 E679.87454
G1 X147.520 Y101.810 E681.91337
G1 X148.530 Y101.810 E682.03105
G1 X160.910 Y114.190 E684.06988
G1 X161.920 Y114.190 E684.18757
G1 X149.541 Y101.810 E686.22640
G1 X150.551 Y101.810 E686.34409
G1 X162.931 Y114.190 E688.38291
G1 X163.941 Y114.190 E688.50060
G1 X151.562 Y101.810 E690.53943
G1 X152.573 Y101.810 E690.65712
G1 X164.952 Y114.190 E692.69594
G1 X165.962 Y114.190 E692.81363
G1 X153.583 Y101.810 E694.85246
G1 X154.594 Y101.810 E694.97015
G1 X166.973 Y114.190 E697.00897
G1 X167.984 Y114.190 E697.12666
G1 X155.604 Y101.810 E699.16549
G1 X156.615 Y101.810 E699.28318
G1 X168.994 Y114.190 E701.32201
G1 X170.005 Y114.190 E701.43969
G1 X157.625 Y101.810 E703.47852
G1 X158.636 Y101.810 E703.59621
G1 X171.015 Y114.190 E705.63504
G1 X172.026 Y114.190 E705.75272
G1 X159.646 Y101.810 E707.79155
G1 X160.657 Y101.810 E707.90924
G1 X173.036 Y114.190 E709.94807
G1 X174.047 Y114.190 E710.06576
G1 X161.668 Y101.810 E712.10458
G1 X162.678 Y101.810 E712.22227
G1 X175.058 Y114.190 E714.26110
G1 X176.068 Y114.190 E714.37879
G1 X163.689 Y101.810 E716.41761
G1 X164.699 Y101.810 E716.53530
G1 X177.079 Y114.190 E718.57413
G1 X178.089 Y114.190 E718.69182
G1 X165.710 Y101.810 E720.73064
G1 X166.720 Y101.810 E720.84833
G1 X179.100 Y114.190 E722.88716
G1 X180.110 Y114.190 E723.00485
G1 X167.731 Y101.810 E725.04368
G1 X168.742 Y101.810 E725.16136
G1 X181.121 Y114.190 E727.20019
G1 X182.131 Y114.190 E727.31788
G1 X169.752 Y101.810 E729.35671
G1 X170.763 Y101.810 E729.47439
G1 X183.142 Y114.190 E731.51322
G1 X184.153 Y114.190 E731.63091
