; generated by Slic3r 1.0.0RC2 on 2014-04-09 at 18:52:05

; layer_height = 0.3
; perimeters = 3
; top_solid_layers = 3
; bottom_solid_layers = 3
; fill_density = 0.20
; perimeter_speed = 60
; infill_speed = 60
; travel_speed = 120
; nozzle_diameter = 0.4
; filament_diameter = 1.75
; extrusion_multiplier = 0.98
; perimeters extrusion width = 0.40mm
; infill extrusion width = 0.42mm
; solid infill extrusion width = 0.42mm
; top infill extrusion width = 0.42mm
; first layer extrusion width = 0.80mm

G21 ; set units to millimeters
M107
M104 S220 ; set temperature
G28 ; home all axes
M106 S255;
G1 Z200 F1200 ; lift nozzle
M109 S220 ; wait for temperature to be reached
G90 ; use absolute coordinates
G92 E0
M82 ; use absolute distances for extrusion
G1 F1800.000 E-1.00000
G92 E0
G1 Z0.400 F7200.000
G1 X133.253 Y91.253 F7200.000
G1 E1.00000 F1800.000
G1 X134.083 Y90.253 E1.15126 F1080.000
G1 X135.103 Y89.433 E1.30358
G1 X136.253 Y88.833 E1.45455
G1 X137.493 Y88.453 E1.60550
G1 X138.793 Y88.333 E1.75745
G1 X162.673 Y88.333 E4.53684
G1 X164.063 Y88.473 E4.69944
G1 X165.393 Y88.903 E4.86213
G1 X166.613 Y89.603 E5.02584
G1 X167.653 Y90.543 E5.18900
G1 X168.473 Y91.673 E5.35150
G1 X169.053 Y92.943 E5.51400
G1 X169.343 Y94.313 E5.67699
G1 X170.873 Y108.313 E7.31615
G1 X170.913 Y109.043 E7.40124
G1 X170.913 Y114.953 E8.08910
G1 X170.793 Y116.263 E8.24221
G1 X170.403 Y117.523 E8.39573
G1 X169.783 Y118.683 E8.54882
G1 X168.953 Y119.703 E8.70187
G1 X167.933 Y120.533 E8.85493
G1 X166.773 Y121.153 E9.00801
G1 X165.513 Y121.543 E9.16153
G1 X164.203 Y121.663 E9.31464
G1 X135.793 Y121.663 E12.62128
G1 X134.483 Y121.543 E12.77438
G1 X133.223 Y121.153 E12.92790
G1 X132.063 Y120.533 E13.08099
G1 X131.043 Y119.703 E13.23404
G1 X130.213 Y118.683 E13.38710
G1 X129.593 Y117.523 E13.54019
G1 X129.203 Y116.263 E13.69370
G1 X129.083 Y114.953 E13.84681
G1 X129.083 Y109.043 E14.53467
G1 X129.113 Y108.333 E14.61738
G1 X129.223 Y107.633 E14.69986
G1 X132.223 Y93.633 E16.36631
G1 X132.623 Y92.393 E16.51795
G1 X133.201 Y91.347 E16.65708
G1 F1800.000 E15.65708
G92 E0
G1 X162.982 Y109.443 F7200.000
G1 E1.00000 F1800.000
G1 X163.807 Y109.443 E1.09606 F540.000
G1 X163.807 Y114.557 E1.69123
G1 X162.982 Y114.557 E1.78730
G1 X162.982 Y109.550 E2.37000
G1 X163.600 Y109.800 F7200.000
G1 X137.018 Y109.443 F7200.000
G1 X137.018 Y114.557 E2.96517 F540.000
G1 X136.193 Y114.557 E3.06123
G1 X136.193 Y109.443 E3.65640
G1 X136.911 Y109.443 E3.73999
G1 X136.661 Y110.062 F7200.000
G1 X137.502 Y110.242 F7200.000
G1 X138.311 Y109.720 E3.85198 F756.000
G1 X161.689 Y109.743 E6.57300
G1 X162.498 Y109.222 E6.68498
G1 X161.883 Y109.721 F7200.000
G1 X162.403 Y110.267 E6.77278 F756.000
G1 F1800.000 E5.77278
G92 E0
G1 X162.498 Y113.632 F7200.000
G1 E1.00000 F1800.000
G1 X161.958 Y114.221 E1.09291 F756.000
G1 X161.689 Y114.280 E1.12497
G1 X138.311 Y114.257 E3.84598
G1 X137.502 Y114.778 E3.95797
G1 X138.117 Y114.279 F7200.000
G1 X137.597 Y113.733 E4.04577 F756.000
G1 F1800.000 E3.04577
G92 E0
G1 X138.117 Y109.743 F7200.000
G1 E1.00000 F1800.000
G1 X137.597 Y109.196 E1.08780 F756.000
G1 F1800.000 E0.08780
G92 E0
G1 X161.898 Y114.259 F7200.000
G1 E1.00000 F1800.000
G1 X162.403 Y114.857 E1.09105 F756.000
G1 F1800.000 E0.09105
G92 E0
G1 X162.280 Y106.261 F7200.000
G1 E1.00000 F1800.000
G1 X161.455 Y106.261 E1.09606 F540.000
G1 X161.455 Y95.443 E2.35512
G1 X162.280 Y95.443 E2.45119
G1 X162.280 Y106.154 E3.69777
G1 X161.662 Y105.904 F7200.000
G1 X140.018 Y106.261 F7200.000
G1 X139.193 Y106.261 E3.79384 F540.000
G1 X139.193 Y95.443 E5.05290
G1 X140.018 Y95.443 E5.14896
G1 X140.018 Y106.154 E6.39555
G1 X139.400 Y105.904 F7200.000
G1 F1800.000 E5.39555
G92 E0
G1 X140.597 Y95.196 F7200.000
G1 E1.00000 F1800.000
G1 X141.237 Y95.739 E1.09774 F756.000
G1 X160.162 Y95.739 E3.30044
G1 X160.366 Y95.731 E3.32415
G1 X160.913 Y95.222 E3.41119
G1 X160.366 Y95.731 F7200.000
G1 X160.876 Y96.267 E3.49737 F756.000
G1 F1800.000 E2.49737
G92 E0
G1 X160.913 Y105.341 F7200.000
G1 E1.00000 F1800.000
G1 X160.429 Y105.934 E1.08909 F756.000
G1 X160.162 Y105.980 E1.12063
G1 X141.237 Y105.980 E3.32333
G1 X140.597 Y105.437 E3.42107
G1 X141.107 Y105.973 F7200.000
G1 X140.560 Y106.482 E3.50811 F756.000
G1 F1800.000 E2.50811
G92 E0
G1 X140.560 Y96.242 F7200.000
G1 E1.00000 F1800.000
G1 X141.107 Y95.732 E1.08704 F756.000
G1 F1800.000 E0.08704
G92 E0
G1 X160.380 Y105.972 F7200.000
G1 E1.00000 F1800.000
G1 X160.876 Y106.565 E1.09001 F756.000
M106 S255
G1 F1800.000 E0.09001
G92 E0
G1 Z0.700 F7200.000
G1 X162.782 Y110.220 F7200.000
G1 E1.00000 F1800.000
G1 X162.782 Y113.780 E1.17403 F1184.007
G1 X137.218 Y113.780 E2.42390
G1 X137.218 Y110.220 E2.59793
G1 X162.722 Y110.220 E3.84487
G1 X163.182 Y110.220 F7200.000
G1 X163.182 Y109.643 F7200.000
G1 X163.607 Y109.643 E3.86567 F845.719
G1 X163.607 Y114.357 E4.09613
G1 X163.182 Y114.357 E4.11692
G1 X163.182 Y109.703 E4.34445
G1 X136.818 Y109.643 F7200.000
G1 X136.818 Y114.357 E4.57491 F845.719
G1 X136.393 Y114.357 E4.59570
G1 X136.393 Y109.643 E4.82616
G1 X136.758 Y109.643 E4.84402
G1 X135.993 Y109.243 F7200.000
G1 X164.007 Y109.243 E6.21372 F1184.007
G1 X164.007 Y114.757 E6.48329
G1 X135.993 Y114.757 E7.85299
G1 X135.993 Y109.303 E8.11963
G1 X136.339 Y109.443 F7200.000
G1 X137.198 Y109.663 F7200.000
G1 X137.238 Y109.623 E8.12246 F600.000
G1 X137.593 Y109.841 E8.14302 F600.000
G1 X137.810 Y109.623 E8.15823 F600.000
G1 X138.165 Y109.841 E8.17880 F600.000
G1 X138.382 Y109.623 E8.19401 F600.000
G1 X138.737 Y109.841 E8.21457 F600.000
G1 X138.954 Y109.623 E8.22978 F600.000
G1 X139.309 Y109.841 E8.25034 F600.000
G1 X139.526 Y109.623 E8.26555 F600.000
G1 X139.881 Y109.841 E8.28612 F600.000
G1 X140.098 Y109.623 E8.30133 F600.000
G1 X140.453 Y109.841 E8.32189 F600.000
G1 X140.670 Y109.623 E8.33710 F600.000
G1 X141.025 Y109.841 E8.35766 F600.000
G1 X141.242 Y109.623 E8.37287 F600.000
G1 X141.597 Y109.841 E8.39344 F600.000
G1 X141.814 Y109.623 E8.40865 F600.000
G1 X142.169 Y109.841 E8.42921 F600.000
G1 X142.386 Y109.623 E8.44442 F600.000
G1 X142.741 Y109.841 E8.46498 F600.000
G1 X142.959 Y109.623 E8.48019 F600.000
G1 X143.313 Y109.841 E8.50076 F600.000
G1 X143.531 Y109.623 E8.51597 F600.000
G1 X143.885 Y109.841 E8.53653 F600.000
G1 X144.103 Y109.623 E8.55174 F600.000
G1 X144.457 Y109.841 E8.57230 F600.000
G1 X144.675 Y109.623 E8.58751 F600.000
G1 X145.029 Y109.841 E8.60808 F600.000
G1 X145.247 Y109.623 E8.62329 F600.000
G1 X145.601 Y109.841 E8.64385 F600.000
G1 X145.819 Y109.623 E8.65906 F600.000
G1 X146.173 Y109.841 E8.67962 F600.000
G1 X146.391 Y109.623 E8.69483 F600.000
G1 X146.745 Y109.841 E8.71540 F600.000
G1 X146.963 Y109.623 E8.73061 F600.000
G1 X147.317 Y109.841 E8.75117 F600.000
G1 X147.535 Y109.623 E8.76638 F600.000
G1 X147.889 Y109.841 E8.78694 F600.000
G1 X148.107 Y109.623 E8.80215 F600.000
G1 X148.461 Y109.841 E8.82272 F600.000
G1 X148.679 Y109.623 E8.83793 F600.000
G1 X149.033 Y109.841 E8.85849 F600.000
G1 X149.251 Y109.623 E8.87370 F600.000
G1 X149.605 Y109.841 E8.89426 F600.000
G1 X149.823 Y109.623 E8.90947 F600.000
G1 X150.177 Y109.841 E8.93004 F600.000
G1 X150.395 Y109.623 E8.94525 F600.000
G1 X150.749 Y109.841 E8.96581 F600.000
G1 X150.967 Y109.623 E8.98102 F600.000
G1 X151.321 Y109.841 E9.00158 F600.000
G1 X151.539 Y109.623 E9.01680 F600.000
G1 X151.893 Y109.841 E9.03736 F600.000
G1 X152.111 Y109.623 E9.05257 F600.000
G1 X152.465 Y109.841 E9.07313 F600.000
G1 X152.683 Y109.623 E9.08834 F600.000
G1 X153.037 Y109.841 E9.10890 F600.000
G1 X153.255 Y109.623 E9.12412 F600.000
G1 X153.609 Y109.841 E9.14468 F600.000
G1 X153.827 Y109.623 E9.15989 F600.000
G1 X154.181 Y109.841 E9.18045 F600.000
G1 X154.399 Y109.623 E9.19566 F600.000
G1 X154.753 Y109.841 E9.21622 F600.000
G1 X154.971 Y109.623 E9.23144 F600.000
G1 X155.325 Y109.841 E9.25200 F600.000
G1 X155.543 Y109.623 E9.26721 F600.000
G1 X155.897 Y109.841 E9.28777 F600.000
G1 X156.115 Y109.623 E9.30298 F600.000
G1 X156.469 Y109.841 E9.32355 F600.000
G1 X156.687 Y109.623 E9.33876 F600.000
G1 X157.041 Y109.841 E9.35932 F600.000
G1 X157.259 Y109.623 E9.37453 F600.000
G1 X157.613 Y109.841 E9.39509 F600.000
G1 X157.831 Y109.623 E9.41030 F600.000
G1 X158.186 Y109.841 E9.43087 F600.000
G1 X158.403 Y109.623 E9.44608 F600.000
G1 X158.758 Y109.841 E9.46664 F600.000
G1 X158.975 Y109.623 E9.48185 F600.000
G1 X159.330 Y109.841 E9.50241 F600.000
G1 X159.547 Y109.623 E9.51762 F600.000
G1 X159.902 Y109.841 E9.53819 F600.000
G1 X160.119 Y109.623 E9.55340 F600.000
G1 X160.474 Y109.841 E9.57396 F600.000
G1 X160.691 Y109.623 E9.58917 F600.000
G1 X161.046 Y109.841 E9.60973 F600.000
G1 X161.263 Y109.623 E9.62494 F600.000
G1 X161.618 Y109.841 E9.64551 F600.000
G1 X161.835 Y109.623 E9.66072 F600.000
G1 X162.190 Y109.841 E9.68128 F600.000
G1 X162.407 Y109.623 E9.69649 F600.000
G1 X162.762 Y109.841 E9.71705 F600.000
G1 X162.802 Y109.800 E9.71988 F600.000
G1 F1800.000 E8.71988
G92 E0
G1 X162.407 Y114.159 F7200.000
G1 E1.00000 F1800.000
G1 X162.190 Y114.377 E1.01521 F600.000
G1 X161.835 Y114.159 E1.03577 F600.000
G1 X161.618 Y114.377 E1.05098 F600.000
G1 X161.263 Y114.159 E1.07155 F600.000
G1 X161.046 Y114.377 E1.08676 F600.000
G1 X160.691 Y114.159 E1.10732 F600.000
G1 X160.474 Y114.377 E1.12253 F600.000
G1 X160.119 Y114.159 E1.14309 F600.000
G1 X159.902 Y114.377 E1.15831 F600.000
G1 X159.547 Y114.159 E1.17887 F600.000
G1 X159.330 Y114.377 E1.19408 F600.000
G1 X158.975 Y114.159 E1.21464 F600.000
G1 X158.758 Y114.377 E1.22985 F600.000
G1 X158.403 Y114.159 E1.25041 F600.000
G1 X158.186 Y114.377 E1.26563 F600.000
G1 X157.831 Y114.159 E1.28619 F600.000
G1 X157.613 Y114.377 E1.30140 F600.000
G1 X157.259 Y114.159 E1.32196 F600.000
G1 X157.041 Y114.377 E1.33717 F600.000
G1 X156.687 Y114.159 E1.35773 F600.000
G1 X156.469 Y114.377 E1.37295 F600.000
G1 X156.115 Y114.159 E1.39351 F600.000
G1 X155.897 Y114.377 E1.40872 F600.000
G1 X155.543 Y114.159 E1.42928 F600.000
G1 X155.325 Y114.377 E1.44449 F600.000
G1 X154.971 Y114.159 E1.46506 F600.000
G1 X154.753 Y114.377 E1.48027 F600.000
G1 X154.399 Y114.159 E1.50083 F600.000
G1 X154.181 Y114.377 E1.51604 F600.000
G1 X153.827 Y114.159 E1.53660 F600.000
G1 X153.609 Y114.377 E1.55181 F600.000
G1 X153.255 Y114.159 E1.57238 F600.000
G1 X153.037 Y114.377 E1.58759 F600.000
G1 X152.683 Y114.159 E1.60815 F600.000
G1 X152.465 Y114.377 E1.62336 F600.000
G1 X152.111 Y114.159 E1.64392 F600.000
G1 X151.893 Y114.377 E1.65913 F600.000
G1 X151.539 Y114.159 E1.67970 F600.000
G1 X151.321 Y114.377 E1.69491 F600.000
G1 X150.967 Y114.159 E1.71547 F600.000
G1 X150.749 Y114.377 E1.73068 F600.000
G1 X150.395 Y114.159 E1.75124 F600.000
G1 X150.177 Y114.377 E1.76645 F600.000
G1 X149.823 Y114.159 E1.78702 F600.000
G1 X149.605 Y114.377 E1.80223 F600.000
G1 X149.251 Y114.159 E1.82279 F600.000
G1 X149.033 Y114.377 E1.83800 F600.000
G1 X148.679 Y114.159 E1.85856 F600.000
G1 X148.461 Y114.377 E1.87377 F600.000
G1 X148.107 Y114.159 E1.89434 F600.000
G1 X147.889 Y114.377 E1.90955 F600.000
G1 X147.535 Y114.159 E1.93011 F600.000
G1 X147.317 Y114.377 E1.94532 F600.000
G1 X146.963 Y114.159 E1.96588 F600.000
G1 X146.745 Y114.377 E1.98109 F600.000
G1 X146.391 Y114.159 E2.00166 F600.000
G1 X146.173 Y114.377 E2.01687 F600.000
G1 X145.819 Y114.159 E2.03743 F600.000
G1 X145.601 Y114.377 E2.05264 F600.000
G1 X145.247 Y114.159 E2.07320 F600.000
G1 X145.029 Y114.377 E2.08842 F600.000
G1 X144.675 Y114.159 E2.10898 F600.000
G1 X144.457 Y114.377 E2.12419 F600.000
G1 X144.103 Y114.159 E2.14475 F600.000
G1 X143.885 Y114.377 E2.15996 F600.000
G1 X143.531 Y114.159 E2.18052 F600.000
G1 X143.313 Y114.377 E2.19574 F600.000
G1 X142.959 Y114.159 E2.21630 F600.000
G1 X142.741 Y114.377 E2.23151 F600.000
G1 X142.386 Y114.159 E2.25207 F600.000
G1 X142.169 Y114.377 E2.26728 F600.000
G1 X141.814 Y114.159 E2.28785 F600.000
G1 X141.597 Y114.377 E2.30306 F600.000
G1 X141.242 Y114.159 E2.32362 F600.000
G1 X141.025 Y114.377 E2.33883 F600.000
G1 X140.670 Y114.159 E2.35939 F600.000
G1 X140.453 Y114.377 E2.37460 F600.000
G1 X140.098 Y114.159 E2.39517 F600.000
G1 X139.881 Y114.377 E2.41038 F600.000
G1 X139.526 Y114.159 E2.43094 F600.000
G1 X139.309 Y114.377 E2.44615 F600.000
G1 X138.954 Y114.159 E2.46671 F600.000
G1 X138.737 Y114.377 E2.48192 F600.000
G1 X138.382 Y114.159 E2.50249 F600.000
G1 X138.165 Y114.377 E2.51770 F600.000
G1 X137.810 Y114.159 E2.53826 F600.000
G1 X137.593 Y114.377 E2.55347 F600.000
G1 X137.238 Y114.159 E2.57403 F600.000
G1 X137.198 Y114.200 E2.57686 F600.000
G1 X162.407 Y114.159 F7200.000
G1 X162.762 Y114.377 E2.59742 F600.000
G1 X162.802 Y114.337 E2.60025 F600.000
G1 F1800.000 E1.60025
G92 E0
G1 X161.255 Y105.484 F7200.000
G1 E1.00000 F1800.000
G1 X140.218 Y105.484 E2.02854 F1184.007
G1 X140.218 Y96.220 E2.48145
G1 X161.255 Y96.220 E3.50999
G1 X161.255 Y105.424 E3.95997
G1 X161.255 Y105.884 F7200.000
G1 X161.655 Y106.061 F7200.000
G1 X161.655 Y95.643 E4.46931 F845.719
G1 X162.080 Y95.643 E4.49010
G1 X162.080 Y106.061 E4.99945
G1 X161.715 Y106.061 E5.01731
G1 X139.818 Y106.061 F7200.000
G1 X139.393 Y106.061 E5.03811 F845.719
G1 X139.393 Y95.643 E5.54745
G1 X139.818 Y95.643 E5.56824
G1 X139.818 Y106.001 E6.07465
G1 X138.993 Y106.461 F7200.000
G1 X138.993 Y95.243 E6.62311 F1184.007
G1 X162.480 Y95.243 E7.77147
G1 X162.480 Y106.461 E8.31992
G1 X139.053 Y106.461 E9.46535
G1 X139.193 Y106.114 F7200.000
G1 X140.198 Y105.904 F7200.000
G1 X140.238 Y105.863 E9.46820 F600.000
G1 X140.594 Y106.081 E9.48886 F600.000
G1 X140.812 Y105.863 E9.50411 F600.000
G1 X141.167 Y106.081 E9.52478 F600.000
G1 X141.385 Y105.863 E9.54003 F600.000
G1 X141.741 Y106.081 E9.56070 F600.000
G1 X141.958 Y105.863 E9.57595 F600.000
G1 X142.314 Y106.081 E9.59661 F600.000
G1 X142.532 Y105.863 E9.61187 F600.000
G1 X142.887 Y106.081 E9.63253 F600.000
G1 X143.105 Y105.863 E9.64778 F600.000
G1 X143.461 Y106.081 E9.66845 F600.000
G1 X143.678 Y105.863 E9.68370 F600.000
G1 X144.034 Y106.081 E9.70437 F600.000
G1 X144.252 Y105.863 E9.71962 F600.000
G1 X144.608 Y106.081 E9.74028 F600.000
G1 X144.825 Y105.863 E9.75554 F600.000
G1 X145.181 Y106.081 E9.77620 F600.000
G1 X145.399 Y105.863 E9.79146 F600.000
G1 X145.754 Y106.081 E9.81212 F600.000
G1 X145.972 Y105.863 E9.82737 F600.000
G1 X146.328 Y106.081 E9.84804 F600.000
G1 X146.545 Y105.863 E9.86329 F600.000
G1 X146.901 Y106.081 E9.88396 F600.000
G1 X147.119 Y105.863 E9.89921 F600.000
G1 X147.474 Y106.081 E9.91987 F600.000
G1 X147.692 Y105.863 E9.93513 F600.000
G1 X148.048 Y106.081 E9.95579 F600.000
G1 X148.265 Y105.863 E9.97104 F600.000
G1 X148.621 Y106.081 E9.99171 F600.000
G1 X148.839 Y105.863 E10.00696 F600.000
G1 X149.194 Y106.081 E10.02763 F600.000
G1 X149.412 Y105.863 E10.04288 F600.000
G1 X149.768 Y106.081 E10.06354 F600.000
G1 X149.985 Y105.863 E10.07880 F600.000
G1 X150.341 Y106.081 E10.09946 F600.000
G1 X150.559 Y105.863 E10.11471 F600.000
G1 X150.914 Y106.081 E10.13538 F600.000
G1 X151.132 Y105.863 E10.15063 F600.000
G1 X151.488 Y106.081 E10.17130 F600.000
G1 X151.705 Y105.863 E10.18655 F600.000
G1 X152.061 Y106.081 E10.20721 F600.000
G1 X152.279 Y105.863 E10.22247 F600.000
G1 X152.634 Y106.081 E10.24313 F600.000
G1 X152.852 Y105.863 E10.25839 F600.000
G1 X153.208 Y106.081 E10.27905 F600.000
G1 X153.425 Y105.863 E10.29430 F600.000
G1 X153.781 Y106.081 E10.31497 F600.000
G1 X153.999 Y105.863 E10.33022 F600.000
G1 X154.354 Y106.081 E10.35089 F600.000
G1 X154.572 Y105.863 E10.36614 F600.000
G1 X154.928 Y106.081 E10.38680 F600.000
G1 X155.145 Y105.863 E10.40206 F600.000
G1 X155.501 Y106.081 E10.42272 F600.000
G1 X155.719 Y105.863 E10.43797 F600.000
G1 X156.075 Y106.081 E10.45864 F600.000
G1 X156.292 Y105.863 E10.47389 F600.000
G1 X156.648 Y106.081 E10.49456 F600.000
G1 X156.866 Y105.863 E10.50981 F600.000
G1 X157.221 Y106.081 E10.53047 F600.000
G1 X157.439 Y105.863 E10.54573 F600.000
G1 X157.795 Y106.081 E10.56639 F600.000
G1 X158.012 Y105.863 E10.58165 F600.000
G1 X158.368 Y106.081 E10.60231 F600.000
G1 X158.586 Y105.863 E10.61756 F600.000
G1 X158.941 Y106.081 E10.63823 F600.000
G1 X159.159 Y105.863 E10.65348 F600.000
G1 X159.515 Y106.081 E10.67415 F600.000
G1 X159.732 Y105.863 E10.68940 F600.000
G1 X160.088 Y106.081 E10.71006 F600.000
