; generated by Slic3r 1.0.0RC2 on 2014-04-09 at 18:55:28

; layer_height = 0.3
; perimeters = 3
; top_solid_layers = 3
; bottom_solid_layers = 3
; fill_density = 0.20
; perimeter_speed = 60
; infill_speed = 60
; travel_speed = 120
; nozzle_diameter = 0.4
; filament_diameter = 1.75
; extrusion_multiplier = 0.98
; perimeters extrusion width = 0.40mm
; infill extrusion width = 0.42mm
; solid infill extrusion width = 0.42mm
; top infill extrusion width = 0.42mm
; first layer extrusion width = 0.80mm

G21 ; set units to millimeters
M107
M104 S220 ; set temperature
G28 ; home all axes
M106 S255;
G1 Z200 F1200 ; lift nozzle
M109 S220 ; wait for temperature to be reached
G90 ; use absolute coordinates
G92 E0
M82 ; use absolute distances for extrusion
G1 F1800.000 E-1.00000
G92 E0
G1 Z0.400 F7200.000
G1 X130.213 Y98.313 F7200.000
G1 E1.00000 F1800.000
G1 X131.043 Y97.293 E1.15306 F1080.000
G1 X132.063 Y96.463 E1.30611
G1 X133.223 Y95.843 E1.45920
G1 X134.483 Y95.453 E1.61271
G1 X135.793 Y95.333 E1.76582
G1 X164.203 Y95.333 E5.07246
G1 X165.513 Y95.453 E5.22557
G1 X166.773 Y95.843 E5.37908
G1 X167.933 Y96.463 E5.53217
G1 X168.953 Y97.293 E5.68523
G1 X169.783 Y98.313 E5.83828
G1 X170.403 Y99.473 E5.99137
G1 X170.793 Y100.733 E6.14489
G1 X170.913 Y102.043 E6.29799
G1 X170.913 Y107.953 E6.98586
G1 X170.793 Y109.263 E7.13897
G1 X170.403 Y110.523 E7.29248
G1 X169.783 Y111.683 E7.44557
G1 X168.953 Y112.703 E7.59863
G1 X167.933 Y113.533 E7.75168
G1 X166.773 Y114.153 E7.90477
G1 X165.513 Y114.543 E8.05828
G1 X164.203 Y114.663 E8.21139
G1 X135.793 Y114.663 E11.51803
G1 X134.483 Y114.543 E11.67114
G1 X133.223 Y114.153 E11.82465
G1 X132.063 Y113.533 E11.97774
G1 X131.043 Y112.703 E12.13080
G1 X130.213 Y111.683 E12.28385
G1 X129.593 Y110.523 E12.43694
G1 X129.203 Y109.263 E12.59046
G1 X129.083 Y107.953 E12.74357
G1 X129.083 Y102.043 E13.43143
G1 X129.203 Y100.733 E13.58454
G1 X129.593 Y99.473 E13.73805
G1 X130.162 Y98.408 E13.87867
G1 F1800.000 E12.87867
G92 E0
G1 X162.982 Y102.443 F7200.000
G1 E1.00000 F1800.000
G1 X163.807 Y102.443 E1.09606 F540.000
G1 X163.807 Y107.557 E1.69123
G1 X162.982 Y107.557 E1.78730
G1 X162.982 Y102.550 E2.37000
G1 X163.600 Y102.800 F7200.000
G1 X137.018 Y102.443 F7200.000
G1 X137.018 Y107.557 E2.96517 F540.000
G1 X136.193 Y107.557 E3.06123
G1 X136.193 Y102.443 E3.65640
G1 X136.911 Y102.443 E3.73999
G1 X136.661 Y103.062 F7200.000
G1 X137.502 Y103.242 F7200.000
G1 X138.311 Y102.720 E3.85198 F756.000
G1 X161.689 Y102.743 E6.57300
G1 X162.498 Y102.222 E6.68498
G1 X161.883 Y102.721 F7200.000
G1 X162.403 Y103.267 E6.77278 F756.000
G1 F1800.000 E5.77278
G92 E0
G1 X162.498 Y106.632 F7200.000
G1 E1.00000 F1800.000
G1 X161.958 Y107.221 E1.09291 F756.000
G1 X161.689 Y107.280 E1.12497
G1 X138.311 Y107.257 E3.84598
G1 X137.502 Y107.778 E3.95797
G1 X138.117 Y107.279 F7200.000
G1 X137.597 Y106.733 E4.04577 F756.000
G1 F1800.000 E3.04577
G92 E0
G1 X138.117 Y102.743 F7200.000
G1 E1.00000 F1800.000
G1 X137.597 Y102.196 E1.08780 F756.000
G1 F1800.000 E0.08780
G92 E0
G1 X161.898 Y107.259 F7200.000
G1 E1.00000 F1800.000
G1 X162.403 Y107.857 E1.09105 F756.000
M106 S255
G1 F1800.000 E0.09105
G92 E0
G1 Z0.700 F7200.000
G1 X162.782 Y106.780 F7200.000
G1 E1.00000 F1800.000
G1 X137.218 Y106.780 E2.24988 F600.000
G1 X137.218 Y103.220 E2.42390
G1 X162.782 Y103.220 E3.67378
G1 X162.782 Y106.720 E3.84487
G1 X162.782 Y107.180 F7200.000
G1 X163.182 Y107.357 F7200.000
G1 X163.182 Y102.643 E4.07533 F600.000
G1 X163.607 Y102.643 E4.09613
G1 X163.607 Y107.357 E4.32658
G1 X163.242 Y107.357 E4.34445
G1 X136.818 Y107.357 F7200.000
G1 X136.393 Y107.357 E4.36524 F600.000
G1 X136.393 Y102.643 E4.59570
G1 X136.818 Y102.643 E4.61650
G1 X136.818 Y107.297 E4.84402
G1 X135.993 Y107.757 F7200.000
G1 X135.993 Y102.243 E5.11360 F600.000
G1 X164.007 Y102.243 E6.48329
G1 X164.007 Y107.757 E6.75287
G1 X136.053 Y107.757 E8.11963
G1 X136.193 Y107.410 F7200.000
G1 X137.198 Y107.200 F7200.000
G1 X137.238 Y107.159 E8.12246 F600.000
G1 X137.593 Y107.377 E8.14302 F600.000
G1 X137.810 Y107.159 E8.15823 F600.000
G1 X138.165 Y107.377 E8.17880 F600.000
G1 X138.382 Y107.159 E8.19401 F600.000
G1 X138.737 Y107.377 E8.21457 F600.000
G1 X138.954 Y107.159 E8.22978 F600.000
G1 X139.309 Y107.377 E8.25034 F600.000
G1 X139.526 Y107.159 E8.26555 F600.000
G1 X139.881 Y107.377 E8.28612 F600.000
G1 X140.098 Y107.159 E8.30133 F600.000
G1 X140.453 Y107.377 E8.32189 F600.000
G1 X140.670 Y107.159 E8.33710 F600.000
G1 X141.025 Y107.377 E8.35766 F600.000
G1 X141.242 Y107.159 E8.37287 F600.000
G1 X141.597 Y107.377 E8.39344 F600.000
G1 X141.814 Y107.159 E8.40865 F600.000
G1 X142.169 Y107.377 E8.42921 F600.000
G1 X142.386 Y107.159 E8.44442 F600.000
G1 X142.741 Y107.377 E8.46498 F600.000
G1 X142.959 Y107.159 E8.48019 F600.000
G1 X143.313 Y107.377 E8.50076 F600.000
G1 X143.531 Y107.159 E8.51597 F600.000
G1 X143.885 Y107.377 E8.53653 F600.000
G1 X144.103 Y107.159 E8.55174 F600.000
G1 X144.457 Y107.377 E8.57230 F600.000
G1 X144.675 Y107.159 E8.58751 F600.000
G1 X145.029 Y107.377 E8.60808 F600.000
G1 X145.247 Y107.159 E8.62329 F600.000
G1 X145.601 Y107.377 E8.64385 F600.000
G1 X145.819 Y107.159 E8.65906 F600.000
G1 X146.173 Y107.377 E8.67962 F600.000
G1 X146.391 Y107.159 E8.69483 F600.000
G1 X146.745 Y107.377 E8.71540 F600.000
G1 X146.963 Y107.159 E8.73061 F600.000
G1 X147.317 Y107.377 E8.75117 F600.000
G1 X147.535 Y107.159 E8.76638 F600.000
G1 X147.889 Y107.377 E8.78694 F600.000
G1 X148.107 Y107.159 E8.80216 F600.000
G1 X148.461 Y107.377 E8.82272 F600.000
G1 X148.679 Y107.159 E8.83793 F600.000
G1 X149.033 Y107.377 E8.85849 F600.000
G1 X149.251 Y107.159 E8.87370 F600.000
G1 X149.605 Y107.377 E8.89426 F600.000
G1 X149.823 Y107.159 E8.90948 F600.000
G1 X150.177 Y107.377 E8.93004 F600.000
G1 X150.395 Y107.159 E8.94525 F600.000
G1 X150.749 Y107.377 E8.96581 F600.000
G1 X150.967 Y107.159 E8.98102 F600.000
G1 X151.321 Y107.377 E9.00159 F600.000
G1 X151.539 Y107.159 E9.01680 F600.000
G1 X151.893 Y107.377 E9.03736 F600.000
G1 X152.111 Y107.159 E9.05257 F600.000
G1 X152.465 Y107.377 E9.07313 F600.000
G1 X152.683 Y107.159 E9.08834 F600.000
G1 X153.037 Y107.377 E9.10891 F600.000
G1 X153.255 Y107.159 E9.12412 F600.000
G1 X153.609 Y107.377 E9.14468 F600.000
G1 X153.827 Y107.159 E9.15989 F600.000
G1 X154.181 Y107.377 E9.18045 F600.000
G1 X154.399 Y107.159 E9.19566 F600.000
G1 X154.753 Y107.377 E9.21623 F600.000
G1 X154.971 Y107.159 E9.23144 F600.000
G1 X155.325 Y107.377 E9.25200 F600.000
G1 X155.543 Y107.159 E9.26721 F600.000
G1 X155.897 Y107.377 E9.28777 F600.000
G1 X156.115 Y107.159 E9.30298 F600.000
G1 X156.469 Y107.377 E9.32355 F600.000
G1 X156.687 Y107.159 E9.33876 F600.000
G1 X157.041 Y107.377 E9.35932 F600.000
G1 X157.259 Y107.159 E9.37453 F600.000
G1 X157.613 Y107.377 E9.39509 F600.000
G1 X157.831 Y107.159 E9.41030 F600.000
G1 X158.186 Y107.377 E9.43087 F600.000
G1 X158.403 Y107.159 E9.44608 F600.000
G1 X158.758 Y107.377 E9.46664 F600.000
G1 X158.975 Y107.159 E9.48185 F600.000
G1 X159.330 Y107.377 E9.50241 F600.000
G1 X159.547 Y107.159 E9.51762 F600.000
G1 X159.902 Y107.377 E9.53819 F600.000
G1 X160.119 Y107.159 E9.55340 F600.000
G1 X160.474 Y107.377 E9.57396 F600.000
G1 X160.691 Y107.159 E9.58917 F600.000
G1 X161.046 Y107.377 E9.60973 F600.000
G1 X161.263 Y107.159 E9.62495 F600.000
G1 X161.618 Y107.377 E9.64551 F600.000
G1 X161.835 Y107.159 E9.66072 F600.000
G1 X162.190 Y107.377 E9.68128 F600.000
G1 X162.407 Y107.159 E9.69649 F600.000
G1 X162.762 Y107.377 E9.71705 F600.000
G1 X162.802 Y107.337 E9.71988 F600.000
G1 X162.762 Y102.841 F7200.000
G1 X162.407 Y102.623 E9.74044 F600.000
G1 X162.190 Y102.841 E9.75566 F600.000
G1 X161.835 Y102.623 E9.77622 F600.000
G1 X161.618 Y102.841 E9.79143 F600.000
G1 X161.263 Y102.623 E9.81199 F600.000
G1 X161.046 Y102.841 E9.82720 F600.000
G1 X160.691 Y102.623 E9.84777 F600.000
G1 X160.474 Y102.841 E9.86298 F600.000
G1 X160.119 Y102.623 E9.88354 F600.000
G1 X159.902 Y102.841 E9.89875 F600.000
G1 X159.547 Y102.623 E9.91931 F600.000
G1 X159.330 Y102.841 E9.93452 F600.000
G1 X158.975 Y102.623 E9.95509 F600.000
G1 X158.758 Y102.841 E9.97030 F600.000
G1 X158.403 Y102.623 E9.99086 F600.000
G1 X158.186 Y102.841 E10.00607 F600.000
G1 X157.831 Y102.623 E10.02663 F600.000
G1 X157.613 Y102.841 E10.04184 F600.000
G1 X157.259 Y102.623 E10.06241 F600.000
G1 X157.041 Y102.841 E10.07762 F600.000
G1 X156.687 Y102.623 E10.09818 F600.000
G1 X156.469 Y102.841 E10.11339 F600.000
G1 X156.115 Y102.623 E10.13395 F600.000
G1 X155.897 Y102.841 E10.14916 F600.000
G1 X155.543 Y102.623 E10.16973 F600.000
G1 X155.325 Y102.841 E10.18494 F600.000
G1 X154.971 Y102.623 E10.20550 F600.000
G1 X154.753 Y102.841 E10.22071 F600.000
G1 X154.399 Y102.623 E10.24127 F600.000
G1 X154.181 Y102.841 E10.25648 F600.000
G1 X153.827 Y102.623 E10.27705 F600.000
G1 X153.609 Y102.841 E10.29226 F600.000
G1 X153.255 Y102.623 E10.31282 F600.000
G1 X153.037 Y102.841 E10.32803 F600.000
G1 X152.683 Y102.623 E10.34859 F600.000
G1 X152.465 Y102.841 E10.36380 F600.000
G1 X152.111 Y102.623 E10.38437 F600.000
G1 X151.893 Y102.841 E10.39958 F600.000
G1 X151.539 Y102.623 E10.42014 F600.000
G1 X151.321 Y102.841 E10.43535 F600.000
G1 X150.967 Y102.623 E10.45591 F600.000
G1 X150.749 Y102.841 E10.47113 F600.000
G1 X150.395 Y102.623 E10.49169 F600.000
G1 X150.177 Y102.841 E10.50690 F600.000
G1 X149.823 Y102.623 E10.52746 F600.000
G1 X149.605 Y102.841 E10.54267 F600.000
G1 X149.251 Y102.623 E10.56323 F600.000
G1 X149.033 Y102.841 E10.57845 F600.000
G1 X148.679 Y102.623 E10.59901 F600.000
G1 X148.461 Y102.841 E10.61422 F600.000
G1 X148.107 Y102.623 E10.63478 F600.000
G1 X147.889 Y102.841 E10.64999 F600.000
G1 X147.535 Y102.623 E10.67055 F600.000
G1 X147.317 Y102.841 E10.68577 F600.000
G1 X146.963 Y102.623 E10.70633 F600.000
G1 X146.745 Y102.841 E10.72154 F600.000
G1 X146.391 Y102.623 E10.74210 F600.000
G1 X146.173 Y102.841 E10.75731 F600.000
G1 X145.819 Y102.623 E10.77787 F600.000
G1 X145.601 Y102.841 E10.79309 F600.000
G1 X145.247 Y102.623 E10.81365 F600.000
G1 X145.029 Y102.841 E10.82886 F600.000
G1 X144.675 Y102.623 E10.84942 F600.000
G1 X144.457 Y102.841 E10.86463 F600.000
G1 X144.103 Y102.623 E10.88520 F600.000
G1 X143.885 Y102.841 E10.90041 F600.000
G1 X143.531 Y102.623 E10.92097 F600.000
G1 X143.313 Y102.841 E10.93618 F600.000
G1 X142.959 Y102.623 E10.95674 F600.000
G1 X142.741 Y102.841 E10.97195 F600.000
G1 X142.386 Y102.623 E10.99252 F600.000
G1 X142.169 Y102.841 E11.00773 F600.000
G1 X141.814 Y102.623 E11.02829 F600.000
G1 X141.597 Y102.841 E11.04350 F600.000
G1 X141.242 Y102.623 E11.06406 F600.000
G1 X141.025 Y102.841 E11.07927 F600.000
G1 X140.670 Y102.623 E11.09984 F600.000
G1 X140.453 Y102.841 E11.11505 F600.000
G1 X140.098 Y102.623 E11.13561 F600.000
G1 X139.881 Y102.841 E11.15082 F600.000
G1 X139.526 Y102.623 E11.17138 F600.000
G1 X139.309 Y102.841 E11.18659 F600.000
G1 X138.954 Y102.623 E11.20716 F600.000
G1 X138.737 Y102.841 E11.22237 F600.000
G1 X138.382 Y102.623 E11.24293 F600.000
G1 X138.165 Y102.841 E11.25814 F600.000
G1 X137.810 Y102.623 E11.27870 F600.000
G1 X137.593 Y102.841 E11.29391 F600.000
G1 X137.238 Y102.623 E11.31448 F600.000
G1 X137.198 Y102.663 E11.31730 F600.000
G1 X162.762 Y102.841 F7200.000
G1 X162.802 Y102.800 E11.32013 F600.000
G1 F1800.000 E10.32013
G92 E0
G1 Z1.000 F7200.000
G1 X162.782 Y103.220 F7200.000
G1 E1.00000 F1800.000
G1 X162.782 Y106.780 E1.17403 F600.000
G1 X137.218 Y106.780 E2.42390
G1 X137.218 Y103.220 E2.59793
G1 X162.722 Y103.220 E3.84487
G1 X163.182 Y103.220 F7200.000
G1 X163.182 Y102.643 F7200.000
G1 X163.607 Y102.643 E3.86567 F600.000
G1 X163.607 Y107.357 E4.09613
G1 X163.182 Y107.357 E4.11692
G1 X163.182 Y102.703 E4.34445
G1 X136.818 Y102.643 F7200.000
G1 X136.818 Y107.357 E4.57491 F600.000
G1 X136.393 Y107.357 E4.59570
G1 X136.393 Y102.643 E4.82616
G1 X136.758 Y102.643 E4.84402
G1 X135.993 Y102.243 F7200.000
G1 X164.007 Y102.243 E6.21372 F600.000
G1 X164.007 Y107.757 E6.48329
G1 X135.993 Y107.757 E7.85299
G1 X135.993 Y102.303 E8.11963
G1 X136.339 Y102.443 F7200.000
G1 X137.198 Y102.800 F7200.000
G1 X137.593 Y102.623 E8.14103 F600.000
G1 X137.810 Y102.841 E8.15624 F600.000
G1 X138.165 Y102.623 E8.17680 F600.000
G1 X138.382 Y102.841 E8.19201 F600.000
G1 X138.737 Y102.623 E8.21258 F600.000
G1 X138.954 Y102.841 E8.22779 F600.000
G1 X139.309 Y102.623 E8.24835 F600.000
G1 X139.526 Y102.841 E8.26356 F600.000
G1 X139.881 Y102.623 E8.28412 F600.000
G1 X140.098 Y102.841 E8.29933 F600.000
G1 X140.453 Y102.623 E8.31990 F600.000
G1 X140.670 Y102.841 E8.33511 F600.000
G1 X141.025 Y102.623 E8.35567 F600.000
G1 X141.242 Y102.841 E8.37088 F600.000
G1 X141.597 Y102.623 E8.39144 F600.000
G1 X141.814 Y102.841 E8.40665 F600.000
G1 X142.169 Y102.623 E8.42722 F600.000
G1 X142.387 Y102.841 E8.44243 F600.000
G1 X142.741 Y102.623 E8.46299 F600.000
G1 X142.959 Y102.841 E8.47820 F600.000
G1 X143.313 Y102.623 E8.49876 F600.000
G1 X143.531 Y102.841 E8.51398 F600.000
G1 X143.885 Y102.623 E8.53454 F600.000
G1 X144.103 Y102.841 E8.54975 F600.000
G1 X144.457 Y102.623 E8.57031 F600.000
G1 X144.675 Y102.841 E8.58552 F600.000
G1 X145.029 Y102.623 E8.60608 F600.000
G1 X145.247 Y102.841 E8.62130 F600.000
G1 X145.601 Y102.623 E8.64186 F600.000
G1 X145.819 Y102.841 E8.65707 F600.000
G1 X146.173 Y102.623 E8.67763 F600.000
G1 X146.391 Y102.841 E8.69284 F600.000
G1 X146.745 Y102.623 E8.71340 F600.000
G1 X146.963 Y102.841 E8.72862 F600.000
G1 X147.317 Y102.623 E8.74918 F600.000
G1 X147.535 Y102.841 E8.76439 F600.000
G1 X147.889 Y102.623 E8.78495 F600.000
G1 X148.107 Y102.841 E8.80016 F600.000
G1 X148.461 Y102.623 E8.82073 F600.000
G1 X148.679 Y102.841 E8.83594 F600.000
G1 X149.033 Y102.623 E8.85650 F600.000
G1 X149.251 Y102.841 E8.87171 F600.000
G1 X149.605 Y102.623 E8.89227 F600.000
G1 X149.823 Y102.841 E8.90748 F600.000
G1 X150.177 Y102.623 E8.92805 F600.000
G1 X150.395 Y102.841 E8.94326 F600.000
G1 X150.749 Y102.623 E8.96382 F600.000
G1 X150.967 Y102.841 E8.97903 F600.000
G1 X151.321 Y102.623 E8.99959 F600.000
G1 X151.539 Y102.841 E9.01480 F600.000
G1 X151.893 Y102.623 E9.03537 F600.000
G1 X152.111 Y102.841 E9.05058 F600.000
G1 X152.465 Y102.623 E9.07114 F600.000
G1 X152.683 Y102.841 E9.08635 F600.000
G1 X153.037 Y102.623 E9.10691 F600.000
G1 X153.255 Y102.841 E9.12212 F600.000
G1 X153.609 Y102.623 E9.14269 F600.000
G1 X153.827 Y102.841 E9.15790 F600.000
G1 X154.181 Y102.623 E9.17846 F600.000
G1 X154.399 Y102.841 E9.19367 F600.000
G1 X154.753 Y102.623 E9.21423 F600.000
G1 X154.971 Y102.841 E9.22944 F600.000
G1 X155.325 Y102.623 E9.25001 F600.000
G1 X155.543 Y102.841 E9.26522 F600.000
G1 X155.897 Y102.623 E9.28578 F600.000
G1 X156.115 Y102.841 E9.30099 F600.000
G1 X156.469 Y102.623 E9.32155 F600.000
G1 X156.687 Y102.841 E9.33676 F600.000
G1 X157.041 Y102.623 E9.35733 F600.000
G1 X157.259 Y102.841 E9.37254 F600.000
G1 X157.613 Y102.623 E9.39310 F600.000
G1 X157.831 Y102.841 E9.40831 F600.000
G1 X158.186 Y102.623 E9.42887 F600.000
G1 X158.403 Y102.841 E9.44408 F600.000
G1 X158.758 Y102.623 E9.46465 F600.000
G1 X158.975 Y102.841 E9.47986 F600.000
G1 X159.330 Y102.623 E9.50042 F600.000
G1 X159.547 Y102.841 E9.51563 F600.000
G1 X159.902 Y102.623 E9.53619 F600.000
G1 X160.119 Y102.841 E9.55140 F600.000
G1 X160.474 Y102.623 E9.57197 F600.000
G1 X160.691 Y102.841 E9.58718 F600.000
G1 X161.046 Y102.623 E9.60774 F600.000
G1 X161.263 Y102.841 E9.62295 F600.000
G1 X161.618 Y102.623 E9.64351 F600.000
G1 X161.835 Y102.841 E9.65873 F600.000
G1 X162.190 Y102.623 E9.67929 F600.000
G1 X162.407 Y102.841 E9.69450 F600.000
G1 X162.762 Y102.623 E9.71506 F600.000
G1 X162.802 Y102.663 E9.71789 F600.000
G1 X162.762 Y107.159 F7200.000
G1 X162.802 Y107.200 E9.72072 F600.000
G1 X162.762 Y107.159 F7200.000
G1 X162.407 Y107.377 E9.74128 F600.000
G1 X162.190 Y107.159 E9.75649 F600.000
G1 X161.835 Y107.377 E9.77705 F600.000
G1 X161.618 Y107.159 E9.79226 F600.000
G1 X161.263 Y107.377 E9.81283 F600.000
G1 X161.046 Y107.159 E9.82804 F600.000
G1 X160.691 Y107.377 E9.84860 F600.000
G1 X160.474 Y107.159 E9.86381 F600.000
G1 X160.119 Y107.377 E9.88437 F600.000
G1 X159.902 Y107.159 E9.89958 F600.000
G1 X159.547 Y107.377 E9.92015 F600.000
