; generated by Slic3r 1.0.0RC3 on 2014-02-25 at 09:49:31

; layer_height = 0.3
; perimeters = 3
; top_solid_layers = 3
; bottom_solid_layers = 3
; fill_density = 0.20
; perimeter_speed = 60
; infill_speed = 60
; travel_speed = 120
; nozzle_diameter = 0.4
; filament_diameter = 1.75
; extrusion_multiplier = 0.98
; perimeters extrusion width = 0.40mm
; infill extrusion width = 0.42mm
; solid infill extrusion width = 0.42mm
; top infill extrusion width = 0.42mm
; first layer extrusion width = 0.60mm

G21 ; set units to millimeters
M107
M104 S220 ; set temperature
G28 ; home all axes
M106 S255;
G1 Z200 F1200 ; lift nozzle
M109 S220 ; wait for temperature to be reached
G90 ; use absolute coordinates
G92 E0
M82 ; use absolute distances for extrusion
G1 F1800.000 E-1.00000
G92 E0
G1 Z0.300 F7200.000
G1 X89.019 Y63.321 F7200.000
G1 E1.00000 F1800.000
G1 X89.839 Y62.331 E1.08753 F1080.000
G1 X90.829 Y61.511 E1.17507
G1 X91.959 Y60.911 E1.26218
G1 X93.189 Y60.531 E1.34984
G1 X94.469 Y60.401 E1.43745
G1 X182.829 Y60.211 E7.45411
G1 X184.139 Y60.341 E7.54375
G1 X185.389 Y60.731 E7.63291
G1 X186.539 Y61.361 E7.72220
G1 X187.539 Y62.211 E7.81156
G1 X188.349 Y63.241 E7.90079
G1 X188.949 Y64.411 E7.99032
G1 X211.599 Y123.071 E12.27204
G1 X211.929 Y124.221 E12.35350
G1 X212.039 Y125.421 E12.43556
G1 X212.059 Y139.941 E13.42426
G1 X211.999 Y140.801 E13.48296
G1 X211.839 Y141.641 E13.54119
G1 X208.939 Y152.541 E14.30921
G1 X208.419 Y153.871 E14.40645
G1 X207.629 Y155.051 E14.50315
G1 X206.599 Y156.041 E14.60043
G1 X205.379 Y156.791 E14.69794
G1 X204.029 Y157.251 E14.79506
G1 X202.619 Y157.411 E14.89168
G1 X194.569 Y157.431 E15.43983
G1 X193.839 Y157.391 E15.48961
G1 X93.769 Y146.481 E22.34399
G1 X92.429 Y146.191 E22.43735
G1 X91.189 Y145.631 E22.52999
G1 X90.079 Y144.821 E22.62356
G1 X89.169 Y143.811 E22.71613
G1 X88.489 Y142.621 E22.80946
G1 X88.069 Y141.321 E22.90248
G1 X87.919 Y139.961 E22.99565
G1 X87.919 Y66.961 E27.96640
G1 X88.049 Y65.681 E28.05400
G1 X88.419 Y64.451 E28.14146
G1 X88.980 Y63.395 E28.22289
G1 F1800.000 E27.22289
G92 E0
G1 X144.476 Y82.398 F7200.000
G1 E1.00000 F1800.000
G1 X145.525 Y82.398 E1.07140 F540.000
G1 X145.787 Y81.902 E1.10959
G1 X146.126 Y81.497 E1.14558
G1 X146.532 Y81.167 E1.18113
G1 X146.988 Y80.926 E1.21630
G1 X147.504 Y80.772 E1.25293
G1 X148.003 Y80.722 E1.28712
G1 X148.530 Y80.773 E1.32318
G1 X149.028 Y80.926 E1.35861
G1 X149.484 Y81.167 E1.39378
G1 X149.890 Y81.497 E1.42933
G1 X150.229 Y81.902 E1.46532
G1 X150.476 Y82.368 E1.50125
G1 X150.629 Y82.866 E1.53667
G1 X150.680 Y83.391 E1.57262
G1 X150.629 Y83.916 E1.60857
G1 X150.476 Y84.414 E1.64400
G1 X150.229 Y84.880 E1.67993
G1 X149.890 Y85.285 E1.71592
G1 X149.484 Y85.615 E1.75147
G1 X149.028 Y85.856 E1.78663
G1 X148.530 Y86.009 E1.82206
G1 X148.003 Y86.060 E1.85813
G1 X147.498 Y86.012 E1.89268
G1 X146.988 Y85.856 E1.92900
G1 X146.532 Y85.615 E1.96417
G1 X146.126 Y85.285 E1.99971
G1 X145.787 Y84.880 E2.03571
G1 X144.515 Y82.471 E2.22118
G1 X145.400 Y82.955 F7200.000
G1 X145.943 Y82.955 E2.25812 F540.000
G1 X146.057 Y82.582 E2.28467
G1 X146.252 Y82.214 E2.31299
G1 X146.519 Y81.895 E2.34132
G1 X146.840 Y81.634 E2.36950
G1 X147.202 Y81.443 E2.39737
G1 X147.607 Y81.321 E2.42613
G1 X148.004 Y81.282 E2.45333
G1 X148.420 Y81.322 E2.48181
G1 X148.814 Y81.443 E2.50985
G1 X149.176 Y81.634 E2.53772
G1 X149.497 Y81.895 E2.56590
G1 X149.764 Y82.214 E2.59422
G1 X149.959 Y82.582 E2.62255
G1 X150.080 Y82.976 E2.65059
G1 X150.120 Y83.391 E2.67900
G1 X150.080 Y83.806 E2.70742
G1 X149.959 Y84.200 E2.73546
G1 X149.764 Y84.568 E2.76379
G1 X149.497 Y84.887 E2.79211
G1 X149.176 Y85.148 E2.82029
G1 X148.814 Y85.339 E2.84816
G1 X148.420 Y85.460 E2.87620
G1 X148.004 Y85.500 E2.90469
G1 X147.604 Y85.462 E2.93206
G1 X147.202 Y85.339 E2.96068
G1 X146.840 Y85.148 E2.98854
G1 X146.519 Y84.887 E3.01672
G1 X146.252 Y84.568 E3.04505
G1 X145.439 Y83.029 E3.16356
G1 X146.324 Y83.512 F7200.000
G1 X146.444 Y83.512 E3.17171 F540.000
G1 X146.485 Y83.086 E3.20085
G1 X146.575 Y82.796 E3.22150
G1 X146.717 Y82.527 E3.24223
G1 X146.912 Y82.294 E3.26289
G1 X147.149 Y82.102 E3.28370
G1 X147.416 Y81.961 E3.30426
G1 X147.710 Y81.871 E3.32517
G1 X148.005 Y81.842 E3.34536
G1 X148.310 Y81.871 E3.36627
G1 X148.600 Y81.961 E3.38692
G1 X148.867 Y82.102 E3.40749
G1 X149.104 Y82.294 E3.42830
G1 X149.299 Y82.527 E3.44896
G1 X149.441 Y82.796 E3.46968
G1 X149.531 Y83.086 E3.49033
G1 X149.560 Y83.391 E3.51122
G1 X149.531 Y83.696 E3.53210
G1 X149.441 Y83.986 E3.55275
G1 X149.299 Y84.255 E3.57348
G1 X149.104 Y84.488 E3.59414
G1 X148.867 Y84.681 E3.61495
G1 X148.600 Y84.821 E3.63551
G1 X148.310 Y84.911 E3.65616
G1 X148.005 Y84.940 E3.67707
G1 X147.709 Y84.912 E3.69727
G1 X147.416 Y84.821 E3.71818
G1 X147.149 Y84.681 E3.73875
G1 X146.912 Y84.488 E3.75956
G1 X146.717 Y84.255 E3.78022
G1 X146.363 Y83.586 E3.83178
G1 X146.305 Y83.394 F7200.000
G1 F1800.000 E2.83178
G92 E0
G1 X102.284 Y84.463 F7200.000
G1 E1.00000 F1800.000
G1 X102.233 Y84.990 E1.03606 F540.000
G1 X102.080 Y85.488 E1.07149
G1 X101.839 Y85.944 E1.10666
G1 X101.501 Y86.360 E1.14314
G1 X101.104 Y86.680 E1.17784
G1 X100.652 Y86.931 E1.21302
G1 X100.140 Y87.089 E1.24949
G1 X99.615 Y87.140 E1.28544
G1 X99.090 Y87.089 E1.32139
G1 X98.578 Y86.931 E1.35786
G1 X98.126 Y86.680 E1.39304
G1 X97.729 Y86.360 E1.42774
G1 X97.401 Y85.956 E1.46318
G1 X97.141 Y85.488 E1.49969
G1 X96.996 Y84.974 E1.53605
G1 X96.946 Y84.463 E1.57097
G1 X96.996 Y83.965 E1.60505
G1 X97.138 Y83.446 E1.64169
G1 X97.407 Y82.964 E1.67928
G1 X97.729 Y82.579 E1.71347
G1 X98.126 Y82.247 E1.74870
G1 X98.592 Y82.000 E1.78463
G1 X99.090 Y81.847 E1.82006
G1 X99.615 Y81.796 E1.85600
G1 X100.140 Y81.847 E1.89195
G1 X100.638 Y82.000 E1.92738
G1 X101.104 Y82.247 E1.96331
G1 X101.501 Y82.579 E1.99854
G1 X101.833 Y82.976 E2.03378
G1 X102.082 Y83.447 E2.07004
G1 X102.233 Y83.949 E2.10575
G1 X102.276 Y84.380 E2.13526
G1 X101.724 Y84.464 F7200.000
G1 X101.684 Y84.880 E2.16374 F540.000
G1 X101.563 Y85.274 E2.19178
G1 X101.372 Y85.636 E2.21965
G1 X101.105 Y85.964 E2.24840
G1 X100.792 Y86.216 E2.27583
G1 X100.433 Y86.416 E2.30379
G1 X100.030 Y86.540 E2.33246
G1 X99.615 Y86.580 E2.36087
G1 X99.200 Y86.540 E2.38929
G1 X98.797 Y86.416 E2.41796
G1 X98.438 Y86.216 E2.44591
G1 X98.125 Y85.964 E2.47335
G1 X97.864 Y85.643 E2.50147
G1 X97.659 Y85.274 E2.53022
G1 X97.545 Y84.870 E2.55878
G1 X97.506 Y84.464 E2.58657
G1 X97.545 Y84.068 E2.61370
G1 X97.658 Y83.659 E2.64258
G1 X97.868 Y83.281 E2.67199
G1 X98.125 Y82.975 E2.69922
G1 X98.438 Y82.712 E2.72709
G1 X98.806 Y82.517 E2.75542
G1 X99.200 Y82.396 E2.78346
G1 X99.615 Y82.356 E2.81187
G1 X100.030 Y82.396 E2.84029
G1 X100.424 Y82.517 E2.86833
G1 X100.792 Y82.712 E2.89665
G1 X101.105 Y82.975 E2.92452
G1 X101.368 Y83.288 E2.95238
G1 X101.564 Y83.659 E2.98092
G1 X101.684 Y84.058 E3.00928
G1 X101.716 Y84.381 E3.03139
G1 X101.160 Y84.420 F7200.000
G1 X101.135 Y84.770 E3.05533 F540.000
G1 X101.045 Y85.060 E3.07598
G1 X100.905 Y85.327 E3.09654
G1 X100.710 Y85.567 E3.11755
G1 X100.479 Y85.753 E3.13773
G1 X100.213 Y85.901 E3.15845
G1 X99.920 Y85.991 E3.17932
G1 X99.615 Y86.020 E3.20021
G1 X99.310 Y85.991 E3.22109
G1 X99.017 Y85.901 E3.24196
G1 X98.751 Y85.753 E3.26268
G1 X98.520 Y85.567 E3.28286
G1 X98.328 Y85.330 E3.30365
G1 X98.178 Y85.060 E3.32465
G1 X98.095 Y84.767 E3.34541
G1 X98.066 Y84.465 E3.36608
G1 X98.095 Y84.170 E3.38625
G1 X98.177 Y83.871 E3.40737
G1 X98.329 Y83.598 E3.42860
G1 X98.520 Y83.370 E3.44888
G1 X98.751 Y83.177 E3.46938
G1 X99.020 Y83.035 E3.49010
G1 X99.310 Y82.945 E3.51075
G1 X99.615 Y82.916 E3.53164
G1 X99.920 Y82.945 E3.55252
G1 X100.210 Y83.035 E3.57317
G1 X100.479 Y83.177 E3.59390
G1 X100.710 Y83.370 E3.61440
G1 X100.903 Y83.601 E3.63489
G1 X101.046 Y83.871 E3.65569
G1 X101.135 Y84.166 E3.67671
G1 X101.152 Y84.337 E3.68835
G1 X101.462 Y84.600 F7200.000
G1 F1800.000 E2.68835
G92 E0
G1 X157.121 Y74.003 F7200.000
G1 E1.00000 F1800.000
G1 X176.956 Y74.003 E2.35060 F1080.000
G1 X176.956 Y104.947 E4.45768
G1 X157.121 Y104.947 E5.80828
G1 X157.121 Y74.086 E7.90966
G1 X157.678 Y74.560 F7200.000
G1 X176.399 Y74.560 E9.18440 F1080.000
G1 X176.399 Y104.390 E11.21561
G1 X157.678 Y104.390 E12.49035
G1 X157.678 Y74.643 E14.51587
G1 X158.235 Y75.117 F7200.000
G1 X175.842 Y75.117 E15.71474 F540.000
G1 X175.842 Y103.833 E17.67008
G1 X158.235 Y103.833 E18.86895
G1 X158.235 Y75.201 E20.81861
G1 X158.235 Y74.560 F7200.000
G1 F1800.000 E19.81861
G92 E0
G1 X143.078 Y74.110 F7200.000
G1 E1.00000 F1800.000
G1 X143.078 Y132.818 E4.99758 F1080.000
G1 X103.894 Y132.818 E7.66572
G1 X103.894 Y74.110 E11.66330
G1 X142.995 Y74.110 E14.32576
G1 X142.521 Y74.667 F7200.000
G1 X142.521 Y132.261 E18.24747 F540.000
G1 X104.451 Y132.261 E20.83975
G1 X104.451 Y74.667 E24.76146
G1 X142.437 Y74.667 E27.34805
G1 X143.078 Y74.667 F7200.000
G1 F1800.000 E26.34805
G92 E0
G1 X142.869 Y133.374 F7200.000
G1 E1.00000 F1800.000
G1 X143.284 Y133.414 E1.02842 F540.000
G1 X143.687 Y133.538 E1.05709
G1 X144.046 Y133.738 E1.08504
G1 X144.359 Y133.991 E1.11248
G1 X144.626 Y134.318 E1.14123
G1 X144.817 Y134.680 E1.16909
G1 X144.938 Y135.074 E1.19713
G1 X144.978 Y135.490 E1.22561
G1 X144.937 Y135.899 E1.25363
G1 X144.817 Y136.292 E1.28159
G1 X144.626 Y136.654 E1.30946
G1 X144.365 Y136.975 E1.33764
G1 X144.046 Y137.242 E1.36597
G1 X143.678 Y137.437 E1.39429
G1 X143.284 Y137.558 E1.42233
G1 X142.869 Y137.598 E1.45075
G1 X142.454 Y137.558 E1.47916
G1 X142.060 Y137.437 E1.50720
G1 X141.692 Y137.242 E1.53553
G1 X141.373 Y136.975 E1.56385
G1 X141.112 Y136.654 E1.59203
G1 X140.921 Y136.292 E1.61990
G1 X140.801 Y135.899 E1.64787
G1 X140.760 Y135.490 E1.67588
G1 X140.800 Y135.074 E1.70436
G1 X140.921 Y134.680 E1.73241
G1 X141.113 Y134.318 E1.76027
G1 X141.379 Y133.990 E1.78902
G1 X141.692 Y133.738 E1.81645
G1 X142.051 Y133.538 E1.84441
G1 X142.454 Y133.414 E1.87308
G1 X142.786 Y133.382 E1.89580
G1 X142.869 Y133.934 F7200.000
G1 X143.174 Y133.963 E1.91669 F540.000
G1 X143.467 Y134.054 E1.93756
G1 X143.733 Y134.201 E1.95828
G1 X143.964 Y134.387 E1.97846
G1 X144.158 Y134.627 E1.99947
G1 X144.299 Y134.894 E2.02003
G1 X144.389 Y135.184 E2.04068
G1 X144.418 Y135.489 E2.06159
G1 X144.389 Y135.789 E2.08207
G1 X144.299 Y136.078 E2.10270
G1 X144.159 Y136.345 E2.12326
G1 X143.966 Y136.582 E2.14407
G1 X143.733 Y136.777 E2.16473
G1 X143.464 Y136.919 E2.18546
G1 X143.174 Y137.009 E2.20611
G1 X142.869 Y137.038 E2.22699
G1 X142.564 Y137.009 E2.24788
G1 X142.274 Y136.919 E2.26853
G1 X142.005 Y136.777 E2.28925
G1 X141.772 Y136.582 E2.30991
G1 X141.580 Y136.345 E2.33073
G1 X141.439 Y136.078 E2.35129
G1 X141.349 Y135.789 E2.37191
G1 X141.320 Y135.489 E2.39239
G1 X141.349 Y135.184 E2.41330
G1 X141.439 Y134.894 E2.43395
G1 X141.580 Y134.627 E2.45452
G1 X141.774 Y134.387 E2.47553
G1 X142.005 Y134.201 E2.49571
G1 X142.271 Y134.054 E2.51643
G1 X142.564 Y133.963 E2.53730
G1 X142.786 Y133.942 E2.55249
G1 X143.031 Y133.673 F7200.000
G1 F1800.000 E1.55249
G92 E0
G1 X116.898 Y135.490 F7200.000
G1 E1.00000 F1800.000
G1 X116.858 Y135.889 E1.02732 F540.000
G1 X116.745 Y136.292 E1.05580
G1 X116.540 Y136.661 E1.08456
G1 X116.285 Y136.975 E1.11211
G1 X115.966 Y137.242 E1.14044
G1 X115.598 Y137.437 E1.16876
G1 X115.204 Y137.558 E1.19680
G1 X114.789 Y137.598 E1.22522
G1 X114.374 Y137.558 E1.25363
G1 X113.980 Y137.437 E1.28167
G1 X113.612 Y137.242 E1.31000
G1 X113.293 Y136.975 E1.33832
G1 X113.032 Y136.654 E1.36650
G1 X112.841 Y136.292 E1.39437
G1 X112.721 Y135.899 E1.42234
G1 X112.680 Y135.490 E1.45035
G1 X112.720 Y135.074 E1.47884
G1 X112.841 Y134.680 E1.50687
G1 X113.032 Y134.318 E1.53474
G1 X113.299 Y133.990 E1.56349
G1 X113.612 Y133.738 E1.59092
G1 X113.971 Y133.538 E1.61888
G1 X114.374 Y133.414 E1.64755
G1 X114.789 Y133.374 E1.67597
G1 X115.204 Y133.414 E1.70438
G1 X115.607 Y133.538 E1.73305
G1 X115.966 Y133.738 E1.76100
G1 X116.279 Y133.990 E1.78844
G1 X116.540 Y134.311 E1.81656
G1 X116.745 Y134.680 E1.84531
G1 X116.859 Y135.084 E1.87387
G1 X116.890 Y135.407 E1.89597
G1 X116.334 Y135.444 F7200.000
G1 X116.309 Y135.785 E1.91926 F540.000
G1 X116.226 Y136.078 E1.93999
G1 X116.076 Y136.348 E1.96099
G1 X115.886 Y136.582 E1.98159
G1 X115.653 Y136.777 E2.00225
G1 X115.384 Y136.919 E2.02297
G1 X115.094 Y137.009 E2.04362
G1 X114.789 Y137.038 E2.06451
G1 X114.484 Y137.009 E2.08539
G1 X114.194 Y136.919 E2.10604
G1 X113.925 Y136.777 E2.12677
G1 X113.692 Y136.582 E2.14742
G1 X113.499 Y136.345 E2.16824
G1 X113.359 Y136.078 E2.18880
G1 X113.269 Y135.789 E2.20943
G1 X113.240 Y135.489 E2.22990
G1 X113.269 Y135.184 E2.25082
G1 X113.359 Y134.894 E2.27147
G1 X113.499 Y134.627 E2.29203
G1 X113.694 Y134.387 E2.31304
G1 X113.925 Y134.201 E2.33322
G1 X114.191 Y134.054 E2.35394
G1 X114.484 Y133.963 E2.37481
G1 X114.789 Y133.934 E2.39570
G1 X115.094 Y133.963 E2.41658
G1 X115.387 Y134.054 E2.43745
G1 X115.653 Y134.201 E2.45817
G1 X115.884 Y134.387 E2.47835
G1 X116.076 Y134.624 E2.49914
G1 X116.226 Y134.894 E2.52014
G1 X116.309 Y135.187 E2.54090
G1 X116.326 Y135.361 E2.55278
G1 X116.627 Y135.620 F7200.000
G1 F1800.000 E1.55278
G92 E0
G1 X114.624 Y138.218 F7200.000
G1 E1.00000 F1800.000
G1 X114.574 Y138.551 E1.02295 F1080.000
G1 X95.900 Y138.551 E2.29455
G1 X95.899 Y68.377 E7.07285
G1 X181.421 Y68.371 E12.89624
G1 X181.421 Y114.239 E16.01950
G1 X182.942 Y115.063 E16.13732
G1 X204.067 Y126.297 E17.76649
G1 X204.087 Y138.539 E18.60004
G1 X201.164 Y138.539 E18.79905
G1 X201.187 Y149.445 E19.54167
G1 X195.963 Y149.455 E19.89737
G1 X195.941 Y138.554 E20.63968
G1 X143.084 Y138.551 E24.23883
G1 X143.034 Y138.218 E24.26178
G1 X143.892 Y137.954 E24.32291
G1 X144.358 Y137.707 E24.35884
G1 X144.763 Y137.368 E24.39483
G1 X145.093 Y136.962 E24.43038
G1 X145.334 Y136.506 E24.46555
G1 X145.486 Y136.010 E24.50086
G1 X145.538 Y135.491 E24.53640
G1 X145.487 Y134.964 E24.57247
G1 X145.334 Y134.466 E24.60789
G1 X145.093 Y134.010 E24.64306
G1 X144.755 Y133.594 E24.67954
G1 X144.358 Y133.274 E24.71424
G1 X143.906 Y133.023 E24.74942
G1 X143.635 Y132.939 E24.76874
G1 X143.635 Y73.553 E28.81252
G1 X103.337 Y73.553 E31.55653
G1 X103.337 Y133.375 E35.62997
G1 X113.081 Y133.375 E36.29347
G1 X112.565 Y134.010 E36.34913
G1 X112.324 Y134.466 E36.38430
G1 X112.171 Y134.964 E36.41972
G1 X112.120 Y135.491 E36.45579
G1 X112.172 Y136.010 E36.49133
G1 X112.324 Y136.506 E36.52664
G1 X112.565 Y136.962 E36.56181
G1 X112.895 Y137.368 E36.59736
G1 X113.300 Y137.707 E36.63335
G1 X113.766 Y137.954 E36.66928
G1 X114.545 Y138.193 E36.72472
G1 X114.954 Y138.218 F7200.000
G1 X115.812 Y137.954 E36.78585 F1080.000
G1 X116.278 Y137.707 E36.82178
G1 X116.683 Y137.368 E36.85778
G1 X117.003 Y136.974 E36.89228
G1 X117.263 Y136.506 E36.92880
G1 X117.408 Y135.993 E36.96503
G1 X117.458 Y135.491 E36.99943
G1 X117.408 Y134.980 E37.03435
G1 X117.263 Y134.466 E37.07071
G1 X117.003 Y133.998 E37.10722
G1 X116.497 Y133.375 E37.16184
G1 X141.161 Y133.375 E38.84125
G1 X140.646 Y134.009 E38.89690
G1 X140.404 Y134.466 E38.93207
G1 X140.251 Y134.964 E38.96750
G1 X140.200 Y135.491 E39.00357
G1 X140.252 Y136.010 E39.03910
G1 X140.404 Y136.506 E39.07442
G1 X140.645 Y136.962 E39.10958
G1 X140.975 Y137.368 E39.14513
G1 X141.380 Y137.707 E39.18112
G1 X141.846 Y137.954 E39.21706
G1 X142.704 Y138.218 E39.27819
G1 X142.654 Y138.551 E39.30113
G1 X115.004 Y138.551 E41.18393
G1 X114.966 Y138.300 E41.20119
G1 F1800.000 E40.20119
G92 E0
G1 X95.342 Y139.108 F7200.000
G1 E1.00000 F1800.000
G1 X95.342 Y67.820 E5.85416 F1080.000
G1 X181.106 Y67.814 E11.69406
G1 X181.106 Y67.636 E11.70617
G1 X181.978 Y67.636 E11.76554
G1 X181.978 Y113.907 E14.91626
G1 X204.623 Y125.960 E16.66300
G1 X204.645 Y139.096 E17.55749
G1 X201.722 Y139.096 E17.75650
G1 X201.746 Y150.000 E18.49901
G1 X195.408 Y150.014 E18.93057
G1 X195.384 Y139.112 E19.67289
G1 X95.426 Y139.108 E26.47931
G1 X94.785 Y139.665 F7200.000
G1 X94.785 Y67.263 E31.40933 F540.000
G1 X180.549 Y67.257 E37.24923
G1 X180.549 Y67.079 E37.26135
G1 X182.535 Y67.079 E37.39658
G1 X182.535 Y113.576 E40.56264
G1 X205.179 Y125.621 E42.30914
G1 X205.203 Y139.653 E43.26460
G1 X202.280 Y139.653 E43.46359
G1 X202.304 Y150.556 E44.20600
G1 X194.852 Y150.572 E44.71342
G1 X194.828 Y139.670 E45.45576
