; generated by Slic3r 1.0.0RC3 on 2014-02-25 at 09:48:18

; layer_height = 0.3
; perimeters = 3
; top_solid_layers = 3
; bottom_solid_layers = 3
; fill_density = 0.20
; perimeter_speed = 60
; infill_speed = 60
; travel_speed = 120
; nozzle_diameter = 0.4
; filament_diameter = 1.75
; extrusion_multiplier = 0.98
; perimeters extrusion width = 0.40mm
; infill extrusion width = 0.42mm
; solid infill extrusion width = 0.42mm
; top infill extrusion width = 0.42mm
; first layer extrusion width = 0.60mm

G21 ; set units to millimeters
M107
M104 S220 ; set temperature
G28 ; home all axes
M106 S255;
G1 Z200 F1200 ; lift nozzle
M109 S220 ; wait for temperature to be reached
G90 ; use absolute coordinates
G92 E0
M82 ; use absolute distances for extrusion
G1 F1800.000 E-1.00000
G92 E0
G1 Z0.300 F7200.000
G1 X126.097 Y71.146 F7200.000
G1 E1.00000 F1800.000
G1 X126.437 Y70.586 E1.04461 F1080.000
G1 X126.827 Y70.056 E1.08942
G1 X127.707 Y68.986 E1.18375
G1 X128.127 Y68.526 E1.22617
G1 X128.597 Y68.096 E1.26954
G1 X129.677 Y67.206 E1.36483
G1 X130.207 Y66.816 E1.40964
G1 X130.767 Y66.476 E1.45425
G1 X131.987 Y65.826 E1.54838
G1 X132.567 Y65.556 E1.59194
G1 X133.177 Y65.336 E1.63610
G1 X134.507 Y64.936 E1.73067
G1 X135.117 Y64.786 E1.77344
G1 X135.737 Y64.696 E1.81610
G1 X137.117 Y64.556 E1.91055
G1 X137.847 Y64.516 E1.96033
G1 X161.767 Y64.716 E3.58916
G1 X162.337 Y64.746 E3.62803
G1 X163.707 Y64.876 E3.72173
G1 X164.347 Y64.976 E3.76584
G1 X164.977 Y65.126 E3.80994
G1 X166.307 Y65.526 E3.90451
G1 X166.907 Y65.736 E3.94779
G1 X167.477 Y66.006 E3.99074
G1 X168.707 Y66.656 E4.08547
G1 X169.277 Y66.996 E4.13066
G1 X169.817 Y67.396 E4.17642
G1 X170.887 Y68.276 E4.27075
G1 X171.367 Y68.706 E4.31464
G1 X171.797 Y69.196 E4.35903
G1 X172.677 Y70.276 E4.45389
G1 X173.057 Y70.786 E4.49720
G1 X173.387 Y71.336 E4.54087
G1 X174.037 Y72.556 E4.63500
G1 X174.297 Y73.116 E4.67704
G1 X174.517 Y73.706 E4.71992
G1 X174.927 Y75.036 E4.81468
G1 X175.087 Y75.686 E4.86026
G1 X175.187 Y76.356 E4.90639
G1 X175.317 Y77.736 E5.00078
G1 X176.227 Y103.746 E6.77294
G1 X176.227 Y104.226 E6.80563
G1 X175.157 Y132.656 E8.74286
G1 X174.977 Y134.536 E8.87146
G1 X174.887 Y135.146 E8.91345
G1 X174.737 Y135.746 E8.95556
G1 X174.317 Y137.146 E9.05509
G1 X174.097 Y137.776 E9.10053
G1 X173.807 Y138.376 E9.14591
G1 X173.107 Y139.676 E9.24644
G1 X172.787 Y140.206 E9.28860
G1 X172.417 Y140.706 E9.33095
G1 X171.497 Y141.836 E9.43017
G1 X171.067 Y142.316 E9.47406
G1 X170.587 Y142.756 E9.51839
G1 X169.457 Y143.686 E9.61805
G1 X168.927 Y144.076 E9.66285
G1 X168.357 Y144.416 E9.70805
G1 X167.057 Y145.106 E9.80826
G1 X166.487 Y145.376 E9.85121
G1 X165.887 Y145.596 E9.89473
G1 X164.697 Y145.956 E9.97938
G1 X164.147 Y146.096 E10.01803
G1 X161.767 Y146.596 E10.18362
G1 X161.097 Y146.696 E10.22975
G1 X160.417 Y146.736 E10.27613
G1 X159.427 Y146.736 E10.34355
G1 X137.867 Y146.336 E11.81187
G1 X137.357 Y146.306 E11.84666
G1 X135.907 Y146.166 E11.94585
G1 X135.257 Y146.066 E11.99063
G1 X134.627 Y145.906 E12.03489
G1 X133.217 Y145.476 E12.13527
G1 X132.197 Y145.066 E12.21012
G1 X130.837 Y144.386 E12.31366
G1 X130.117 Y143.976 E12.37008
G1 X129.467 Y143.476 E12.42592
G1 X128.397 Y142.546 E12.52245
G1 X127.617 Y141.736 E12.59902
G1 X126.687 Y140.596 E12.69920
G1 X126.307 Y140.096 E12.74196
G1 X125.987 Y139.546 E12.78529
G1 X125.297 Y138.256 E12.88491
G1 X125.017 Y137.676 E12.92876
G1 X124.807 Y137.076 E12.97205
G1 X124.377 Y135.666 E13.07242
G1 X124.217 Y135.056 E13.11536
G1 X124.127 Y134.426 E13.15870
G1 X123.967 Y132.826 E13.26819
G1 X123.947 Y132.276 E13.30566
G1 X124.137 Y78.146 E16.99153
G1 X124.177 Y77.506 E17.03519
G1 X124.317 Y76.126 E17.12964
G1 X124.407 Y75.516 E17.17163
G1 X124.557 Y74.906 E17.21440
G1 X124.957 Y73.566 E17.30962
G1 X125.167 Y72.956 E17.35355
G1 X125.447 Y72.366 E17.39802
G1 X126.058 Y71.220 E17.48646
G1 F1800.000 E16.48646
G92 E0
G1 X137.948 Y126.446 F7200.000
G1 E1.00000 F1800.000
G1 X139.784 Y127.140 E1.13367 F540.000
G1 X140.654 Y128.462 E1.24147
G1 X140.654 Y136.842 E1.81204
G1 X139.236 Y137.076 E1.90989
G1 X137.983 Y137.143 E1.99531
G1 X136.742 Y137.076 E2.07994
G1 X136.113 Y136.974 E2.12334
G1 X135.334 Y136.549 E2.18379
G1 X135.334 Y128.394 E2.73905
G1 X136.346 Y127.127 E2.84950
G1 X137.871 Y126.478 E2.96235
G1 X137.960 Y127.046 F7200.000
G1 X139.418 Y127.597 E3.06848 F540.000
G1 X140.097 Y128.629 E3.15261
G1 X140.097 Y136.369 E3.67964
G1 X139.176 Y136.521 E3.74323
G1 X137.984 Y136.585 E3.82445
G1 X136.801 Y136.521 E3.90513
G1 X136.296 Y136.439 E3.93996
G1 X135.891 Y136.218 E3.97140
G1 X135.891 Y128.590 E4.49086
G1 X136.694 Y127.585 E4.57845
G1 X137.883 Y127.078 E4.66648
G1 X138.289 Y126.596 F7200.000
G1 F1800.000 E3.66648
G92 E0
G1 X140.068 Y137.503 F7200.000
G1 E1.00000 F1800.000
G1 X140.171 Y137.943 E1.03077 F540.000
G1 X139.179 Y138.247 E1.10144
G1 X137.998 Y138.364 E1.18224
G1 X136.829 Y138.248 E1.26223
G1 X135.887 Y137.964 E1.32921
G1 X135.951 Y137.594 E1.35480
G1 X137.982 Y137.700 E1.49331
G1 X139.297 Y137.630 E1.58294
G1 X139.986 Y137.517 E1.63048
G1 X141.211 Y137.461 F7200.000
G1 X141.211 Y128.296 E2.25456 F540.000
G1 X140.354 Y126.992 E2.36081
G1 X140.515 Y126.820 E2.37685
G1 X141.291 Y127.265 E2.43771
G1 X142.245 Y127.990 E2.51932
G1 X143.045 Y128.947 E2.60424
G1 X143.600 Y129.993 E2.68488
G1 X143.939 Y131.138 E2.76622
G1 X144.056 Y132.298 E2.84558
G1 X143.941 Y133.476 E2.92620
G1 X143.596 Y134.629 E3.00816
G1 X143.021 Y135.697 E3.09072
G1 X142.292 Y136.580 E3.16867
G1 X141.276 Y137.408 E3.25796
G1 F1800.000 E2.25796
G92 E0
G1 X134.777 Y137.531 F7200.000
G1 E1.00000 F1800.000
G1 X133.706 Y136.593 E1.09694 F540.000
G1 X132.943 Y135.665 E1.17873
G1 X132.398 Y134.634 E1.25820
G1 X132.068 Y133.551 E1.33525
G1 X131.930 Y132.334 E1.41863
G1 X132.047 Y131.136 E1.50063
G1 X132.371 Y130.056 E1.57737
G1 X132.955 Y128.929 E1.66382
G1 X133.704 Y128.024 E1.74385
G1 X134.625 Y127.263 E1.82520
G1 X135.600 Y126.745 E1.90033
G1 X135.772 Y126.953 E1.91871
G1 X134.777 Y128.199 E2.02731
G1 X134.777 Y137.448 E2.65707
G1 X134.253 Y137.812 F7200.000
G1 X133.311 Y136.989 E2.74219 F1080.000
G1 X132.480 Y135.980 E2.83125
G1 X131.880 Y134.844 E2.91872
G1 X131.501 Y133.601 E3.00722
G1 X131.372 Y132.324 E3.09463
G1 X131.499 Y131.023 E3.18360
G1 X131.874 Y129.780 E3.27205
G1 X132.487 Y128.620 E3.36134
G1 X133.312 Y127.625 E3.44933
G1 X134.329 Y126.785 E3.53918
G1 X135.462 Y126.188 E3.62640
G1 X136.701 Y125.809 E3.71465
G1 X138.010 Y125.686 E3.80414
G1 X139.283 Y125.810 E3.89123
G1 X140.526 Y126.186 E3.97969
G1 X141.598 Y126.799 E4.06375
G1 X142.671 Y127.621 E4.15576
G1 X143.508 Y128.632 E4.24517
G1 X144.117 Y129.778 E4.33351
G1 X144.488 Y131.023 E4.42199
G1 X144.615 Y132.301 E4.50942
G1 X144.489 Y133.589 E4.59754
G1 X144.114 Y134.843 E4.68666
G1 X143.494 Y136.000 E4.77607
G1 X142.688 Y136.976 E4.86229
G1 X141.810 Y137.692 E4.93938
G1 X141.442 Y137.924 E4.96898
G1 X140.524 Y138.419 E5.04000
G1 X139.288 Y138.796 E5.12803
G1 X137.998 Y138.924 E5.21628
G1 X136.714 Y138.797 E5.30411
G1 X135.445 Y138.413 E5.39440
G1 X134.327 Y137.850 E5.47965
G1 X133.940 Y138.278 F7200.000
G1 X132.916 Y137.386 E5.57215 F540.000
G1 X132.017 Y136.295 E5.66841
G1 X131.362 Y135.055 E5.76391
G1 X130.952 Y133.707 E5.85985
G1 X130.813 Y132.312 E5.95531
G1 X130.951 Y130.909 E6.05133
G1 X131.360 Y129.561 E6.14724
G1 X132.019 Y128.312 E6.24338
G1 X132.916 Y127.231 E6.33906
G1 X133.896 Y126.420 E6.42566
G1 X133.963 Y126.330 E6.43329
G1 X134.129 Y126.265 E6.44547
G1 X135.248 Y125.670 E6.53176
G1 X136.588 Y125.261 E6.62715
G1 X138.002 Y125.128 E6.72382
G1 X139.395 Y125.261 E6.81914
G1 X140.743 Y125.670 E6.91507
G1 X141.905 Y126.333 E7.00618
G1 X143.070 Y127.229 E7.10623
G1 X143.971 Y128.317 E7.20242
G1 X144.633 Y129.560 E7.29835
G1 X145.036 Y130.909 E7.39419
G1 X145.174 Y132.304 E7.48967
G1 X145.037 Y133.703 E7.58539
G1 X144.632 Y135.055 E7.68146
G1 X143.966 Y136.303 E7.77776
G1 X143.076 Y137.382 E7.87303
G1 X142.127 Y138.152 E7.95625
G1 X141.715 Y138.410 E7.98933
G1 X140.739 Y138.936 E8.06485
G1 X139.397 Y139.345 E8.16039
G1 X137.997 Y139.484 E8.25614
G1 X136.600 Y139.345 E8.35175
G1 X135.242 Y138.934 E8.44834
G1 X134.015 Y138.316 E8.54192
G1 X134.001 Y137.725 F7200.000
G1 F1800.000 E7.54192
G92 E0
G1 X157.893 Y136.708 F7200.000
G1 E1.00000 F1800.000
G1 X157.893 Y127.838 E1.60397 F540.000
G1 X159.602 Y127.575 E1.72172
G1 X161.133 Y127.502 E1.82608
G1 X162.663 Y127.575 E1.93036
G1 X164.373 Y127.837 E2.04817
G1 X164.373 Y136.705 E2.65198
G1 X162.753 Y136.947 E2.76355
G1 X161.133 Y138.159 E2.90127
G1 X159.513 Y136.947 E3.03901
G1 X157.976 Y136.719 E3.14484
G1 X157.337 Y136.680 F7200.000
G1 F1800.000 E2.14484
G92 E0
G1 X165.487 Y136.614 F7200.000
G1 E1.00000 F1800.000
G1 X165.487 Y128.221 E1.57153 F540.000
G1 X166.170 Y129.052 E1.64479
G1 X166.730 Y130.097 E1.72550
G1 X167.077 Y131.259 E1.80805
G1 X167.192 Y132.420 E1.88753
G1 X167.068 Y133.611 E1.96908
G1 X166.730 Y134.725 E2.04831
G1 X166.164 Y135.783 E2.13005
G1 X165.540 Y136.550 E2.19735
G1 F1800.000 E1.19735
G92 E0
G1 X156.779 Y136.609 F7200.000
G1 E1.00000 F1800.000
G1 X156.105 Y135.793 E1.07205 F540.000
G1 X155.536 Y134.725 E1.15444
G1 X155.193 Y133.601 E1.23444
G1 X155.074 Y132.404 E1.31635
G1 X155.189 Y131.247 E1.39551
G1 X155.535 Y130.101 E1.47702
G1 X156.098 Y129.043 E1.55865
G1 X156.779 Y128.212 E1.63179
G1 X156.779 Y136.525 E2.19783
G1 X156.371 Y136.989 F7200.000
G1 X155.635 Y136.099 E2.27649 F1080.000
G1 X155.019 Y134.939 E2.36589
G1 X154.643 Y133.707 E2.45359
G1 X154.514 Y132.408 E2.54247
G1 X154.641 Y131.132 E2.62979
G1 X155.019 Y129.885 E2.71852
G1 X155.631 Y128.733 E2.80735
G1 X156.445 Y127.741 E2.89476
G1 X157.160 Y127.155 E2.95767
G1 X157.135 Y127.082 E2.96295
G1 X158.580 Y126.313 E3.07441
G1 X159.841 Y125.930 E3.16413
G1 X161.133 Y125.808 E3.25249
G1 X162.423 Y125.930 E3.34071
G1 X163.668 Y126.308 E3.42934
G1 X165.104 Y127.075 E3.54017
G1 X165.084 Y127.137 E3.54463
G1 X165.807 Y127.727 E3.60820
G1 X166.633 Y128.739 E3.69716
G1 X167.247 Y129.883 E3.78553
G1 X167.622 Y131.138 E3.87473
G1 X167.752 Y132.417 E3.96230
G1 X167.618 Y133.712 E4.05096
G1 X167.247 Y134.939 E4.13821
G1 X166.630 Y136.094 E4.22735
G1 X165.814 Y137.095 E4.31530
G1 X164.813 Y137.916 E4.40348
G1 X163.655 Y138.530 E4.49271
G1 X162.707 Y138.815 E4.56012
G1 X161.275 Y138.748 E4.65772
G1 X162.975 Y137.477 E4.80221
G1 X164.930 Y137.185 E4.93684
G1 X164.930 Y127.356 E5.60611
G1 X162.718 Y127.020 E5.75846
G1 X161.133 Y126.944 E5.86649
G1 X159.545 Y127.020 E5.97478
G1 X157.336 Y127.358 E6.12694
G1 X157.336 Y137.194 E6.79668
G1 X159.290 Y137.476 E6.93115
G1 X160.734 Y138.556 E7.05393
G1 X160.663 Y138.739 E7.06727
G1 X158.617 Y138.536 E7.20733
G1 X157.456 Y137.917 E7.29690
G1 X156.422 Y137.055 E7.38854
G1 X155.937 Y137.339 F7200.000
G1 X155.165 Y136.405 E7.47105 F540.000
G1 X154.502 Y135.154 E7.56747
G1 X154.093 Y133.814 E7.66286
G1 X153.955 Y132.413 E7.75872
G1 X154.093 Y131.017 E7.85419
G1 X154.502 Y129.669 E7.95015
G1 X155.164 Y128.424 E8.04616
G1 X156.053 Y127.340 E8.14160
G1 X157.149 Y126.442 E8.23808
G1 X158.380 Y125.792 E8.33289
G1 X159.734 Y125.381 E8.42922
G1 X161.133 Y125.248 E8.52493
G1 X162.532 Y125.381 E8.62060
G1 X163.880 Y125.790 E8.71653
G1 X165.124 Y126.447 E8.81235
G1 X166.208 Y127.335 E8.90779
G1 X167.097 Y128.426 E9.00356
G1 X167.764 Y129.668 E9.09961
G1 X168.168 Y131.017 E9.19546
G1 X168.311 Y132.415 E9.29112
G1 X168.167 Y133.814 E9.38689
G1 X167.764 Y135.153 E9.48215
G1 X167.096 Y136.404 E9.57869
G1 X166.210 Y137.491 E9.67418
G1 X165.123 Y138.383 E9.76994
G1 X163.876 Y139.046 E9.86613
G1 X162.765 Y139.379 E9.94509
G1 X161.328 Y139.308 E10.04302
G1 X159.849 Y139.287 E10.14376
G1 X159.849 Y139.218 E10.14847
G1 X158.524 Y139.087 E10.23911
G1 X158.387 Y139.045 E10.24886
G1 X157.143 Y138.382 E10.34483
G1 X156.057 Y137.492 E10.44047
G1 X155.989 Y137.405 E10.44804
G1 X156.136 Y136.818 F7200.000
G1 F1800.000 E9.44804
G92 E0
G1 X159.499 Y108.901 F7200.000
G1 E1.00000 F1800.000
G1 X157.938 Y108.568 E1.10868 F540.000
G1 X157.067 Y108.225 E1.17246
G1 X156.465 Y107.925 E1.21827
G1 X156.465 Y99.001 E1.82593
G1 X157.059 Y98.686 E1.87170
G1 X157.925 Y98.356 E1.93480
G1 X159.501 Y98.019 E2.04452
G1 X161.121 Y97.902 E2.15513
G1 X162.734 Y98.019 E2.26527
G1 X164.272 Y98.347 E2.37234
G1 X164.896 Y98.576 E2.41762
G1 X165.687 Y99.002 E2.47879
G1 X165.687 Y107.920 E3.08600
G1 X164.894 Y108.339 E3.14705
G1 X164.296 Y108.568 E3.19069
G1 X162.736 Y108.901 E3.29930
G1 X161.119 Y109.019 E3.40970
G1 X159.583 Y108.908 E3.51458
G1 X159.146 Y109.332 F7200.000
G1 F1800.000 E2.51458
G92 E0
G1 X166.801 Y107.956 F7200.000
G1 E1.00000 F1800.000
G1 X166.801 Y99.992 E1.54223 F540.000
G1 X167.018 Y99.938 E1.55745
G1 X167.713 Y101.239 E1.65792
G1 X168.115 Y102.584 E1.75345
G1 X168.260 Y103.980 E1.84902
G1 X168.115 Y105.369 E1.94414
G1 X167.714 Y106.708 E2.03931
G1 X167.018 Y108.010 E2.13983
G1 X166.882 Y107.976 E2.14936
G1 F1800.000 E1.14936
G92 E0
G1 X155.351 Y107.791 F7200.000
G1 E1.00000 F1800.000
G1 X155.131 Y107.845 E1.01540 F540.000
G1 X154.527 Y106.700 E1.10356
G1 X154.116 Y105.368 E1.19847
G1 X153.981 Y103.980 E1.29349
G1 X154.116 Y102.584 E1.38895
G1 X154.527 Y101.242 E1.48451
G1 X155.132 Y100.100 E1.57251
G1 X155.351 Y100.155 E1.58784
G1 X155.351 Y107.707 E2.10211
G1 X155.908 Y108.269 F7200.000
G1 X156.840 Y108.735 E2.17305 F1080.000
G1 X157.778 Y109.103 E2.24170
G1 X159.419 Y109.454 E2.35593
G1 X161.115 Y109.577 E2.47177
G1 X162.816 Y109.454 E2.58789
G1 X164.454 Y109.104 E2.70190
G1 X165.121 Y108.849 E2.75057
G1 X166.244 Y108.255 E2.83705
G1 X166.244 Y98.146 E3.52542
G1 X167.520 Y99.696 E3.66213
G1 X168.231 Y101.026 E3.76485
G1 X168.663 Y102.474 E3.86775
G1 X168.820 Y103.980 E3.97081
G1 X168.664 Y105.479 E4.07345
G1 X168.231 Y106.921 E4.17598
G1 X167.520 Y108.253 E4.27879
G1 X166.584 Y109.395 E4.37929
G1 X165.650 Y110.056 E4.45726
G1 X162.616 Y110.970 E4.67298
G1 X161.122 Y111.115 E4.77521
G1 X159.615 Y110.964 E4.87837
G1 X156.988 Y110.177 E5.06504
G1 X156.988 Y110.405 E5.08054
G1 X155.666 Y109.405 E5.19345
G1 X154.717 Y108.253 E5.29504
G1 X154.010 Y106.914 E5.39815
G1 X153.567 Y105.479 E5.50046
G1 X153.421 Y103.980 E5.60300
G1 X153.567 Y102.475 E5.70596
G1 X154.010 Y101.028 E5.80897
G1 X154.717 Y99.695 E5.91171
G1 X155.908 Y98.256 E6.03891
G1 X155.908 Y108.185 E6.71500
G1 F1800.000 E5.71500
G92 E0
G1 X157.037 Y97.978 F7200.000
G1 E1.00000 F1800.000
G1 X156.924 Y97.711 E1.01973 F540.000
G1 X158.215 Y96.851 E1.12541
G1 X159.606 Y96.429 E1.22438
G1 X161.130 Y96.281 E1.32860
G1 X162.616 Y96.426 E1.43029
G1 X164.043 Y96.856 E1.53174
G1 X164.911 Y97.392 E1.60123
G1 X165.544 Y97.834 E1.65383
G1 X165.374 Y98.159 E1.67881
G1 X164.464 Y97.821 E1.74489
G1 X162.811 Y97.466 E1.86005
G1 X161.121 Y97.343 E1.97542
G1 X159.423 Y97.466 E2.09138
G1 X157.119 Y97.961 E2.25181
G1 X156.935 Y97.035 F7200.000
G1 X157.975 Y96.341 E2.33694 F540.000
G1 X159.498 Y95.880 E2.44528
G1 X161.130 Y95.722 E2.55695
G1 X162.724 Y95.877 E2.66604
G1 X164.273 Y96.343 E2.77619
G1 X165.221 Y96.929 E2.85201
G1 X166.968 Y98.149 E2.99715
G1 X167.985 Y99.385 E3.10612
G1 X168.749 Y100.813 E3.21643
G1 X169.212 Y102.365 E3.32669
G1 X169.380 Y103.980 E3.43725
G1 X169.212 Y105.589 E3.54740
G1 X168.749 Y107.135 E3.65729
G1 X167.985 Y108.564 E3.76763
G1 X166.967 Y109.806 E3.87696
G1 X165.222 Y111.042 E4.02262
G1 X164.696 Y111.354 E4.06423
G1 X164.696 Y110.925 E4.09343
G1 X162.724 Y111.519 E4.23367
G1 X161.121 Y111.675 E4.34336
G1 X159.506 Y111.513 E4.45391
G1 X157.545 Y110.926 E4.59325
G1 X157.545 Y111.383 E4.62440
G1 X156.927 Y111.057 E4.67203
G1 X155.277 Y109.809 E4.81284
G1 X154.251 Y108.564 E4.92275
G1 X153.493 Y107.128 E5.03329
G1 X153.018 Y105.589 E5.14300
G1 X152.862 Y103.980 E5.25307
G1 X153.018 Y102.365 E5.36352
G1 X153.493 Y100.814 E5.47397
G1 X154.251 Y99.384 E5.58422
G1 X155.270 Y98.153 E5.69302
G1 X156.866 Y97.082 E5.82387
G1 X157.435 Y97.282 F7200.000
G1 F1800.000 E4.82387
G92 E0
G1 X143.715 Y100.781 F7200.000
G1 E1.00000 F1800.000
G1 X143.715 Y109.692 E1.60682 F540.000
G1 X142.986 Y110.108 E1.66397
G1 X142.385 Y110.331 E1.70759
G1 X140.817 Y110.680 E1.81696
G1 X139.190 Y110.791 E1.92804
