; generated by Slic3r 1.0.0RC3 on 2014-02-25 at 09:51:45

; layer_height = 0.3
; perimeters = 3
; top_solid_layers = 3
; bottom_solid_layers = 3
; fill_density = 0.20
; perimeter_speed = 60
; infill_speed = 60
; travel_speed = 120
; nozzle_diameter = 0.4
; filament_diameter = 1.75
; extrusion_multiplier = 0.98
; perimeters extrusion width = 0.40mm
; infill extrusion width = 0.42mm
; solid infill extrusion width = 0.42mm
; top infill extrusion width = 0.42mm
; first layer extrusion width = 0.60mm

G21 ; set units to millimeters
M107
M104 S220 ; set temperature
G28 ; home all axes
M106 S255;
G1 Z200 F1200 ; lift nozzle
M109 S220 ; wait for temperature to be reached
G90 ; use absolute coordinates
G92 E0
M82 ; use absolute distances for extrusion
G1 F1800.000 E-1.00000
G92 E0
G1 Z0.300 F7200.000
G1 X131.682 Y94.178 F7200.000
G1 E1.00000 F1800.000
G1 X132.452 Y93.138 E1.08811 F1080.000
G1 X136.312 Y88.868 E1.48006
G1 X137.252 Y88.008 E1.56681
G1 X138.342 Y87.348 E1.65358
G1 X143.532 Y84.868 E2.04525
G1 X144.752 Y84.428 E2.13356
G1 X146.022 Y84.238 E2.22100
G1 X151.772 Y83.928 E2.61310
G1 X153.042 Y83.988 E2.69968
G1 X154.282 Y84.288 E2.78655
G1 X159.702 Y86.178 E3.17740
G1 X160.862 Y86.718 E3.26453
G1 X161.902 Y87.468 E3.35184
G1 X166.182 Y91.278 E3.74202
G1 X167.062 Y92.228 E3.83019
G1 X167.732 Y93.338 E3.91848
G1 X170.212 Y98.498 E4.30831
G1 X170.652 Y99.718 E4.39662
G1 X170.852 Y100.998 E4.48483
G1 X171.152 Y106.708 E4.87418
G1 X171.092 Y107.988 E4.96143
G1 X170.782 Y109.248 E5.04979
G1 X168.862 Y114.648 E5.44004
G1 X168.312 Y115.808 E5.52745
G1 X167.542 Y116.848 E5.61557
G1 X163.682 Y121.118 E6.00751
G1 X162.742 Y121.978 E6.09426
G1 X161.652 Y122.638 E6.18103
G1 X156.462 Y125.118 E6.57270
G1 X155.262 Y125.548 E6.65950
G1 X153.992 Y125.748 E6.74705
G1 X148.242 Y126.068 E7.13918
G1 X146.972 Y126.008 E7.22576
G1 X145.722 Y125.708 E7.31329
G1 X140.292 Y123.818 E7.70479
G1 X139.122 Y123.278 E7.79253
G1 X138.082 Y122.518 E7.88024
G1 X133.802 Y118.698 E8.27087
G1 X132.932 Y117.748 E8.35859
G1 X132.262 Y116.648 E8.44629
G1 X129.782 Y111.488 E8.83612
G1 X129.342 Y110.268 E8.92443
G1 X129.142 Y108.988 E9.01265
G1 X128.842 Y103.278 E9.40199
G1 X128.902 Y101.998 E9.48925
G1 X129.212 Y100.738 E9.57760
G1 X131.132 Y95.338 E9.96785
G1 X131.646 Y94.254 E10.04958
G1 F1800.000 E9.04958
G92 E0
G1 X147.730 Y103.748 F7200.000
G1 E1.00000 F1800.000
G1 X147.989 Y103.364 E1.03156 F540.000
G1 X148.137 Y103.188 E1.04722
G1 X148.340 Y103.001 E1.06604
G1 X148.615 Y102.797 E1.08930
G1 X148.812 Y102.682 E1.10487
G1 X149.100 Y102.553 E1.12636
G1 X149.470 Y102.447 E1.15253
G1 X149.957 Y102.392 E1.18592
G1 X150.176 Y102.398 E1.20084
G1 X150.499 Y102.439 E1.22302
G1 X150.787 Y102.511 E1.24320
G1 X151.030 Y102.604 E1.26092
G1 X151.435 Y102.829 E1.29247
G1 X151.844 Y103.183 E1.32933
G1 X152.109 Y103.498 E1.35732
G1 X152.373 Y103.990 E1.39538
G1 X152.475 Y104.301 E1.41764
G1 X152.524 Y104.566 E1.43602
G1 X152.554 Y104.831 E1.45418
G1 X152.549 Y105.116 E1.47356
G1 X152.533 Y105.288 E1.48537
G1 X152.455 Y105.658 E1.51110
G1 X152.304 Y106.059 E1.54028
G1 X152.083 Y106.428 E1.56956
G1 X151.787 Y106.775 E1.60062
G1 X151.584 Y106.961 E1.61934
G1 X151.351 Y107.119 E1.63851
G1 X150.961 Y107.321 E1.66843
G1 X150.706 Y107.406 E1.68670
G1 X150.292 Y107.493 E1.71556
G1 X149.849 Y107.502 E1.74572
G1 X149.569 Y107.476 E1.76489
G1 X149.277 Y107.404 E1.78538
G1 X148.902 Y107.262 E1.81264
G1 X148.638 Y107.122 E1.83301
G1 X148.422 Y106.964 E1.85122
G1 X148.039 Y106.594 E1.88745
G1 X147.933 Y106.464 E1.89891
G1 X147.753 Y106.177 E1.92198
G1 X147.595 Y105.826 E1.94818
G1 X147.478 Y105.415 E1.97731
G1 X147.447 Y105.143 E1.99591
G1 X147.443 Y104.815 E2.01823
G1 X147.491 Y104.433 E2.04450
G1 X147.538 Y104.245 E2.05768
G1 X147.698 Y103.825 E2.08825
G1 X148.224 Y104.010 F7200.000
G1 X148.423 Y103.714 E2.11254 F540.000
G1 X148.545 Y103.570 E2.12543
G1 X148.705 Y103.422 E2.14026
G1 X148.911 Y103.269 E2.15773
G1 X149.294 Y103.076 E2.18692
G1 X149.590 Y102.992 E2.20787
G1 X149.960 Y102.950 E2.23324
G1 X150.389 Y102.986 E2.26255
G1 X150.612 Y103.041 E2.27819
G1 X150.806 Y103.116 E2.29234
G1 X151.117 Y103.288 E2.31654
G1 X151.441 Y103.567 E2.34568
G1 X151.649 Y103.816 E2.36777
G1 X151.857 Y104.202 E2.39762
G1 X151.934 Y104.439 E2.41460
G1 X151.973 Y104.648 E2.42910
G1 X151.997 Y104.859 E2.44349
G1 X151.993 Y105.082 E2.45872
G1 X151.919 Y105.508 E2.48817
G1 X151.799 Y105.821 E2.51099
G1 X151.626 Y106.110 E2.53389
G1 X151.397 Y106.376 E2.55778
G1 X151.238 Y106.523 E2.57255
G1 X151.054 Y106.646 E2.58761
G1 X150.752 Y106.804 E2.61085
G1 X150.550 Y106.871 E2.62528
G1 X150.226 Y106.939 E2.64787
G1 X149.882 Y106.946 E2.67126
G1 X149.662 Y106.926 E2.68632
G1 X149.437 Y106.870 E2.70215
G1 X149.140 Y106.758 E2.72374
G1 X148.935 Y106.649 E2.73953
G1 X148.763 Y106.524 E2.75402
G1 X148.461 Y106.230 E2.78272
G1 X148.245 Y105.916 E2.80867
G1 X148.118 Y105.634 E2.82972
G1 X148.027 Y105.312 E2.85247
G1 X147.999 Y104.849 E2.88407
G1 X148.072 Y104.405 E2.91473
G1 X148.192 Y104.088 E2.93782
G1 X148.718 Y104.273 F7200.000
G1 X148.857 Y104.065 E2.95484 F540.000
G1 X149.070 Y103.843 E2.97575
G1 X149.208 Y103.741 E2.98743
G1 X149.487 Y103.599 E3.00881
G1 X149.710 Y103.536 E3.02455
G1 X149.963 Y103.507 E3.04190
G1 X150.279 Y103.532 E3.06345
G1 X150.582 Y103.627 E3.08509
G1 X150.798 Y103.747 E3.10193
G1 X151.038 Y103.951 E3.12336
G1 X151.190 Y104.134 E3.13955
G1 X151.340 Y104.414 E3.16120
G1 X151.422 Y104.731 E3.18346
G1 X151.436 Y105.048 E3.20511
G1 X151.382 Y105.358 E3.22652
G1 X151.294 Y105.584 E3.24299
G1 X151.168 Y105.791 E3.25951
G1 X151.008 Y105.977 E3.27624
G1 X150.758 Y106.174 E3.29793
G1 X150.542 Y106.287 E3.31450
G1 X150.160 Y106.385 E3.34137
G1 X149.916 Y106.390 E3.35798
G1 X149.597 Y106.335 E3.38005
G1 X149.377 Y106.253 E3.39597
G1 X149.104 Y106.083 E3.41788
G1 X148.882 Y105.865 E3.43906
G1 X148.738 Y105.654 E3.45648
G1 X148.641 Y105.442 E3.47238
G1 X148.576 Y105.210 E3.48875
G1 X148.556 Y104.883 E3.51108
G1 X148.584 Y104.653 E3.52683
G1 X148.686 Y104.350 E3.54863
G1 X148.589 Y104.059 F7200.000
G1 F1800.000 E2.54863
G92 E0
G1 X146.005 Y104.442 F7200.000
G1 E1.00000 F1800.000
G1 X146.060 Y104.938 E1.03400 F540.000
G1 X146.027 Y105.439 E1.06818
G1 X145.903 Y105.931 E1.10270
G1 X145.687 Y106.397 E1.13770
G1 X145.378 Y106.818 E1.17326
G1 X144.982 Y107.171 E1.20939
G1 X144.514 Y107.435 E1.24598
G1 X143.996 Y107.591 E1.28282
G1 X143.457 Y107.628 E1.31963
G1 X142.927 Y107.548 E1.35611
G1 X142.434 Y107.359 E1.39206
G1 X141.997 Y107.079 E1.42741
G1 X141.628 Y106.726 E1.46217
G1 X141.333 Y106.317 E1.49651
G1 X141.116 Y105.866 E1.53058
G1 X140.980 Y105.387 E1.56452
G1 X140.926 Y104.891 E1.59850
G1 X140.959 Y104.390 E1.63269
G1 X141.083 Y103.898 E1.66723
G1 X141.300 Y103.431 E1.70224
G1 X141.610 Y103.010 E1.73785
G1 X142.007 Y102.657 E1.77403
G1 X142.476 Y102.395 E1.81063
G1 X142.995 Y102.244 E1.84740
G1 X143.532 Y102.211 E1.88403
G1 X144.057 Y102.294 E1.92026
G1 X144.546 Y102.482 E1.95593
G1 X144.981 Y102.760 E1.99103
G1 X145.350 Y103.109 E2.02563
G1 X145.646 Y103.515 E2.05986
G1 X145.866 Y103.964 E2.09388
G1 X145.981 Y104.362 E2.12211
G1 X145.456 Y104.551 F7200.000
G1 X145.501 Y104.951 E2.14949 F540.000
G1 X145.474 Y105.352 E2.17691
G1 X145.376 Y105.744 E2.20441
G1 X145.205 Y106.112 E2.23206
G1 X144.963 Y106.442 E2.25988
G1 X144.656 Y106.716 E2.28792
G1 X144.295 Y106.920 E2.31615
G1 X143.896 Y107.040 E2.34449
G1 X143.481 Y107.069 E2.37282
G1 X143.072 Y107.007 E2.40104
G1 X142.687 Y106.860 E2.42906
G1 X142.343 Y106.639 E2.45688
G1 X142.050 Y106.358 E2.48453
G1 X141.814 Y106.030 E2.51207
G1 X141.639 Y105.666 E2.53955
G1 X141.529 Y105.279 E2.56699
G1 X141.485 Y104.879 E2.59441
G1 X141.512 Y104.476 E2.62186
G1 X141.611 Y104.084 E2.64938
G1 X141.782 Y103.716 E2.67703
G1 X142.024 Y103.387 E2.70486
G1 X142.332 Y103.114 E2.73288
G1 X142.693 Y102.912 E2.76106
G1 X143.091 Y102.796 E2.78931
G1 X143.505 Y102.770 E2.81751
G1 X143.912 Y102.835 E2.84555
G1 X144.293 Y102.982 E2.87340
G1 X144.636 Y103.201 E2.90108
G1 X144.929 Y103.478 E2.92860
G1 X145.167 Y103.804 E2.95604
G1 X145.344 Y104.165 E2.98343
G1 X145.433 Y104.471 E3.00510
G1 X144.908 Y104.660 F7200.000
G1 X144.941 Y104.963 E3.02588 F540.000
G1 X144.922 Y105.266 E3.04654
G1 X144.848 Y105.558 E3.06702
G1 X144.723 Y105.828 E3.08730
G1 X144.548 Y106.066 E3.10740
G1 X144.330 Y106.261 E3.12735
G1 X144.076 Y106.404 E3.14721
G1 X143.797 Y106.489 E3.16704
G1 X143.506 Y106.509 E3.18691
G1 X143.216 Y106.466 E3.20685
G1 X142.941 Y106.361 E3.22694
G1 X142.690 Y106.200 E3.24724
G1 X142.472 Y105.991 E3.26778
G1 X142.295 Y105.743 E3.28853
G1 X142.162 Y105.467 E3.30942
G1 X142.077 Y105.171 E3.33034
G1 X142.045 Y104.867 E3.35121
G1 X142.065 Y104.563 E3.37193
G1 X142.138 Y104.271 E3.39243
G1 X142.264 Y104.001 E3.41270
G1 X142.438 Y103.764 E3.43275
G1 X142.657 Y103.570 E3.45262
G1 X142.910 Y103.429 E3.47239
G1 X143.188 Y103.348 E3.49211
G1 X143.478 Y103.330 E3.51187
G1 X143.766 Y103.376 E3.53174
G1 X144.040 Y103.482 E3.55177
G1 X144.291 Y103.641 E3.57201
G1 X144.509 Y103.848 E3.59246
G1 X144.688 Y104.092 E3.61310
G1 X144.822 Y104.366 E3.63387
G1 X144.884 Y104.580 E3.64899
G1 X145.194 Y104.766 F7200.000
G1 F1800.000 E2.64899
G92 E0
G1 X153.937 Y105.061 F7200.000
G1 E1.00000 F1800.000
G1 X153.969 Y104.560 E1.03419 F540.000
G1 X154.093 Y104.068 E1.06871
G1 X154.310 Y103.602 E1.10372
G1 X154.619 Y103.181 E1.13927
G1 X155.014 Y102.827 E1.17540
G1 X155.483 Y102.563 E1.21200
G1 X156.001 Y102.408 E1.24884
G1 X156.540 Y102.370 E1.28564
G1 X157.069 Y102.451 E1.32211
G1 X157.563 Y102.639 E1.35807
G1 X158.000 Y102.920 E1.39342
G1 X158.368 Y103.273 E1.42819
G1 X158.663 Y103.682 E1.46252
G1 X158.880 Y104.133 E1.49658
G1 X159.017 Y104.612 E1.53053
G1 X159.070 Y105.108 E1.56451
G1 X159.037 Y105.609 E1.59870
G1 X158.913 Y106.101 E1.63323
G1 X158.696 Y106.567 E1.66826
G1 X158.387 Y106.989 E1.70386
G1 X157.989 Y107.342 E1.74004
G1 X157.520 Y107.603 E1.77664
G1 X157.002 Y107.755 E1.81341
G1 X156.465 Y107.788 E1.85005
G1 X155.939 Y107.705 E1.88627
G1 X155.450 Y107.516 E1.92194
G1 X155.016 Y107.239 E1.95704
G1 X154.647 Y106.890 E1.99164
G1 X154.350 Y106.484 E2.02588
G1 X154.131 Y106.035 E2.05988
G1 X153.991 Y105.557 E2.09381
G1 X153.946 Y105.144 E2.12211
G1 X154.496 Y105.048 F7200.000
G1 X154.522 Y104.646 E2.14953 F540.000
G1 X154.621 Y104.255 E2.17703
G1 X154.792 Y103.887 E2.20468
G1 X155.034 Y103.557 E2.23250
G1 X155.340 Y103.283 E2.26054
G1 X155.702 Y103.079 E2.28877
G1 X156.100 Y102.959 E2.31711
G1 X156.515 Y102.930 E2.34544
G1 X156.925 Y102.992 E2.37365
G1 X157.309 Y103.139 E2.40167
G1 X157.653 Y103.359 E2.42950
G1 X157.946 Y103.640 E2.45715
G1 X158.182 Y103.969 E2.48469
G1 X158.357 Y104.332 E2.51217
G1 X158.468 Y104.720 E2.53960
G1 X158.511 Y105.120 E2.56703
G1 X158.484 Y105.523 E2.59448
G1 X158.386 Y105.914 E2.62200
G1 X158.215 Y106.283 E2.64965
G1 X157.972 Y106.612 E2.67747
G1 X157.665 Y106.885 E2.70550
G1 X157.303 Y107.087 E2.73368
G1 X156.905 Y107.203 E2.76193
G1 X156.492 Y107.228 E2.79013
G1 X156.085 Y107.164 E2.81817
G1 X155.703 Y107.017 E2.84603
G1 X155.361 Y106.798 E2.87370
G1 X155.067 Y106.520 E2.90122
G1 X154.829 Y106.195 E2.92866
G1 X154.652 Y105.834 E2.95604
G1 X154.540 Y105.448 E2.98342
G1 X154.505 Y105.131 E3.00511
G1 X155.055 Y105.036 F7200.000
G1 X155.075 Y104.733 E3.02576 F540.000
G1 X155.148 Y104.441 E3.04624
G1 X155.274 Y104.171 E3.06653
G1 X155.448 Y103.933 E3.08662
G1 X155.667 Y103.738 E3.10657
G1 X155.921 Y103.594 E3.12644
G1 X156.199 Y103.510 E3.14627
G1 X156.490 Y103.489 E3.16613
G1 X156.780 Y103.533 E3.18608
G1 X157.056 Y103.638 E3.20617
G1 X157.307 Y103.799 E3.22647
G1 X157.524 Y104.008 E3.24700
G1 X157.702 Y104.255 E3.26775
G1 X157.835 Y104.532 E3.28864
G1 X157.919 Y104.828 E3.30957
G1 X157.952 Y105.132 E3.33044
G1 X157.932 Y105.436 E3.35115
G1 X157.858 Y105.728 E3.37166
G1 X157.733 Y105.998 E3.39193
G1 X157.558 Y106.235 E3.41198
G1 X157.340 Y106.429 E3.43185
G1 X157.086 Y106.570 E3.45161
G1 X156.808 Y106.651 E3.47134
G1 X156.519 Y106.669 E3.49110
G1 X156.230 Y106.623 E3.51097
G1 X155.956 Y106.517 E3.53100
G1 X155.705 Y106.357 E3.55124
G1 X155.487 Y106.151 E3.57169
G1 X155.308 Y105.906 E3.59233
G1 X155.174 Y105.632 E3.61310
G1 X155.089 Y105.339 E3.63391
G1 X155.064 Y105.119 E3.64900
G1 X154.793 Y104.882 F7200.000
G1 F1800.000 E2.64900
G92 E0
G1 X163.020 Y107.301 F7200.000
G1 E1.00000 F1800.000
G1 X161.447 Y111.718 E1.31924 F1080.000
G1 X157.969 Y115.567 E1.67246
G1 X153.276 Y117.807 E2.02657
G1 X148.084 Y118.094 E2.38067
G1 X143.186 Y116.386 E2.73389
G1 X139.327 Y112.946 E3.08588
G1 X137.090 Y108.298 E3.43712
G1 X136.819 Y103.151 E3.78810
G1 X138.557 Y98.282 E4.14012
G1 X142.035 Y94.433 E4.49337
G1 X146.729 Y92.193 E4.84748
G1 X151.921 Y91.906 E5.20159
G1 X156.819 Y93.614 E5.55480
G1 X160.677 Y97.054 E5.90675
G1 X162.910 Y101.700 E6.25781
G1 X163.181 Y106.849 E6.60887
G1 X163.048 Y107.223 E6.63589
G1 X163.545 Y107.488 F7200.000
G1 X161.935 Y112.009 E6.96268 F1080.000
G1 X158.309 Y116.022 E7.33095
G1 X153.417 Y118.357 E7.70005
G1 X148.004 Y118.656 E8.06915
G1 X142.898 Y116.876 E8.43742
G1 X138.874 Y113.288 E8.80453
G1 X136.539 Y108.439 E9.17095
G1 X136.257 Y103.069 E9.53715
G1 X138.070 Y97.991 E9.90429
G1 X141.696 Y93.978 E10.27259
G1 X146.588 Y91.643 E10.64169
G1 X152.000 Y91.344 E11.01079
G1 X157.107 Y93.124 E11.37906
G1 X161.131 Y96.712 E11.74614
G1 X163.461 Y101.560 E12.11238
G1 X163.743 Y106.931 E12.47863
G1 X163.573 Y107.410 E12.51323
G1 X164.070 Y107.675 F7200.000
G1 X162.422 Y112.301 E12.84756 F540.000
G1 X158.648 Y116.478 E13.23088
G1 X153.557 Y118.907 E13.61499
G1 X147.925 Y119.219 E13.99909
G1 X142.610 Y117.365 E14.38241
G1 X138.420 Y113.630 E14.76463
G1 X135.989 Y108.580 E15.14624
G1 X135.695 Y102.987 E15.52764
G1 X137.582 Y97.699 E15.90992
G1 X141.356 Y93.522 E16.29325
G1 X146.447 Y91.093 E16.67735
G1 X152.080 Y90.781 E17.06145
G1 X157.395 Y92.635 E17.44477
G1 X161.585 Y96.370 E17.82699
G1 X164.011 Y101.419 E18.20841
G1 X164.305 Y107.013 E18.58983
G1 X164.098 Y107.596 E18.63202
G1 X163.522 Y107.776 F7200.000
G1 F1800.000 E17.63202
G92 E0
G1 X161.853 Y100.410 F7200.000
G1 E1.00000 F1800.000
G1 X154.753 Y93.311 E1.69597 F1080.000
G1 X153.522 Y92.881 F7200.000
G1 X162.525 Y101.885 E2.57853 F1080.000
G1 X162.570 Y102.731 E2.63729
G1 X152.291 Y92.452 E3.64491
G1 X151.368 Y92.331 E3.70944
G1 X162.615 Y103.578 E4.81191
G1 X162.659 Y104.424 E4.87066
G1 X150.608 Y92.373 E6.05199
G1 X149.848 Y92.415 E6.10474
G1 X162.704 Y105.271 E7.36492
G1 X162.748 Y106.117 E7.42368
G1 X149.088 Y92.457 E8.76272
G1 X148.328 Y92.499 E8.81547
G1 X162.741 Y106.912 E10.22827
G1 X162.530 Y107.503 E10.27178
G1 X159.342 Y104.314 E10.58434
G1 X159.457 Y105.232 E10.64843
G1 X162.319 Y108.094 E10.92904
G1 X162.109 Y108.686 E10.97255
G1 X159.361 Y105.937 E11.24196
G1 X159.149 Y106.528 E11.28544
G1 X161.898 Y109.277 E11.55493
G1 X161.688 Y109.869 E11.59844
G1 X158.847 Y107.028 E11.87692
G1 X158.464 Y107.447 E11.91627
G1 X161.477 Y110.460 E12.21164
G1 X161.267 Y111.051 E12.25515
G1 X158.001 Y107.786 E12.57524
G1 X157.449 Y108.035 E12.61726
G1 X161.018 Y111.605 E12.96719
G1 X160.638 Y112.026 E13.00655
G1 X156.775 Y108.164 E13.38521
G1 X155.908 Y108.099 E13.44548
G1 X160.257 Y112.448 E13.87183
G1 X159.876 Y112.869 E13.91118
G1 X152.817 Y105.810 E14.60321
G1 X152.580 Y106.375 E14.64568
G1 X159.496 Y113.290 E15.32360
G1 X159.115 Y113.712 E15.36295
G1 X152.246 Y106.843 E16.03627
G1 X151.852 Y107.250 E16.07558
G1 X158.734 Y114.133 E16.75027
G1 X158.354 Y114.554 E16.78963
G1 X151.358 Y107.559 E17.47538
G1 X150.784 Y107.786 E17.51820
G1 X157.973 Y114.976 E18.22293
G1 X157.534 Y115.338 E18.26241
G1 X150.092 Y107.897 E18.99187
G1 X149.161 Y107.768 E19.05705
G1 X156.991 Y115.598 E19.82459
G1 X156.448 Y115.857 E19.86628
G1 X146.352 Y105.761 E20.85594
G1 X146.142 Y106.352 E20.89946
G1 X155.905 Y116.116 E21.85653
G1 X155.362 Y116.375 E21.89823
G1 X145.840 Y106.853 E22.83162
G1 X145.459 Y107.273 E22.87098
G1 X154.819 Y116.634 E23.78855
G1 X154.277 Y116.893 E23.83025
G1 X144.998 Y107.614 E24.73979
G1 X144.448 Y107.866 E24.78172
G1 X153.734 Y117.152 E25.69196
G1 X153.191 Y117.411 E25.73366
