; generated by Slic3r 1.0.0RC3 on 2014-02-25 at 16:12:30

; layer_height = 0.1
; perimeters = 3
; top_solid_layers = 3
; bottom_solid_layers = 3
; fill_density = 0.20
; perimeter_speed = 60
; infill_speed = 60
; travel_speed = 120
; nozzle_diameter = 0.4
; filament_diameter = 1.75
; extrusion_multiplier = 0.98
; perimeters extrusion width = 0.40mm
; infill extrusion width = 1.28mm
; solid infill extrusion width = 0.68mm
; top infill extrusion width = 0.68mm
; first layer extrusion width = 0.60mm

G21 ; set units to millimeters
M107
M104 S220 ; set temperature
G28 ; home all axes
M106 S255;
G1 Z200 F1200 ; lift nozzle
M109 S220 ; wait for temperature to be reached
G90 ; use absolute coordinates
G92 E0
M82 ; use absolute distances for extrusion
G1 F1800.000 E-1.00000
G92 E0
G1 Z0.300 F7200.000
G1 X133.660 Y93.758 F7200.000
G1 E1.00000 F1800.000
G1 X134.460 Y92.728 E1.08881 F1080.000
G1 X135.180 Y91.888 E1.16414
G1 X135.510 Y91.518 E1.19790
G1 X136.110 Y90.918 E1.25568
G1 X137.070 Y90.068 E1.34299
G1 X138.040 Y89.298 E1.42732
G1 X139.410 Y88.368 E1.54007
G1 X140.130 Y87.938 E1.59717
G1 X141.320 Y87.328 E1.68823
G1 X141.630 Y87.178 E1.71168
G1 X142.800 Y86.678 E1.79831
G1 X143.520 Y86.418 E1.85044
G1 X144.800 Y86.038 E1.94136
G1 X145.180 Y85.938 E1.96811
G1 X146.460 Y85.658 E2.05733
G1 X147.290 Y85.528 E2.11454
G1 X148.540 Y85.398 E2.20011
G1 X150.160 Y85.348 E2.31047
G1 X151.000 Y85.368 E2.36769
G1 X152.300 Y85.478 E2.45653
G1 X153.530 Y85.658 E2.54117
G1 X154.010 Y85.748 E2.57442
G1 X154.830 Y85.938 E2.63174
G1 X155.940 Y86.248 E2.71021
G1 X156.430 Y86.398 E2.74511
G1 X157.580 Y86.838 E2.82895
G1 X158.360 Y87.178 E2.88689
G1 X159.830 Y87.918 E2.99895
G1 X160.940 Y88.588 E3.08724
G1 X161.640 Y89.068 E3.14503
G1 X162.960 Y90.098 E3.25904
G1 X163.830 Y90.888 E3.33906
G1 X164.770 Y91.838 E3.43006
G1 X165.580 Y92.778 E3.51455
G1 X166.100 Y93.448 E3.57230
G1 X166.360 Y93.808 E3.60254
G1 X167.010 Y94.788 E3.68261
G1 X167.680 Y95.928 E3.77265
G1 X168.030 Y96.618 E3.82534
G1 X168.560 Y97.818 E3.91466
G1 X168.730 Y98.248 E3.94615
G1 X169.120 Y99.368 E4.02690
G1 X169.360 Y100.178 E4.08443
G1 X169.660 Y101.478 E4.17527
G1 X169.860 Y102.628 E4.25476
G1 X169.920 Y103.098 E4.28702
G1 X170.020 Y104.328 E4.37105
G1 X170.050 Y105.178 E4.42896
G1 X170.020 Y106.478 E4.51751
G1 X170.000 Y106.858 E4.54342
G1 X169.860 Y108.178 E4.63380
G1 X169.720 Y109.018 E4.69179
G1 X169.470 Y110.168 E4.77193
G1 X169.360 Y110.598 E4.80215
G1 X169.010 Y111.768 E4.88530
G1 X168.730 Y112.558 E4.94238
G1 X168.220 Y113.768 E5.03179
G1 X167.690 Y114.838 E5.11309
G1 X167.450 Y115.278 E5.14722
G1 X166.810 Y116.328 E5.23095
G1 X166.100 Y117.358 E5.31614
G1 X165.300 Y118.368 E5.40387
G1 X164.480 Y119.278 E5.48728
G1 X163.880 Y119.878 E5.54506
G1 X162.960 Y120.708 E5.62943
G1 X162.570 Y121.028 E5.66378
G1 X161.900 Y121.538 E5.72112
G1 X160.990 Y122.178 E5.79687
G1 X160.560 Y122.458 E5.83181
G1 X159.830 Y122.888 E5.88950
G1 X158.360 Y123.628 E6.00156
G1 X157.580 Y123.968 E6.05950
G1 X156.830 Y124.258 E6.11426
G1 X155.730 Y124.548 E6.19172
G1 X154.600 Y124.648 E6.26896
G1 X145.390 Y124.648 E6.89609
G1 X144.260 Y124.548 E6.97334
G1 X143.160 Y124.258 E7.05080
G1 X142.800 Y124.128 E7.07686
G1 X141.630 Y123.628 E7.16350
G1 X141.320 Y123.478 E7.18695
G1 X140.120 Y122.858 E7.27892
G1 X139.370 Y122.408 E7.33848
G1 X138.040 Y121.508 E7.44783
G1 X137.030 Y120.708 E7.53556
G1 X136.110 Y119.878 E7.61993
G1 X135.510 Y119.278 E7.67771
G1 X134.420 Y118.028 E7.79064
G1 X133.710 Y117.098 E7.87031
G1 X132.940 Y115.968 E7.96342
G1 X132.510 Y115.238 E8.02111
G1 X131.920 Y114.078 E8.10973
G1 X131.280 Y112.628 E8.21765
G1 X130.990 Y111.838 E8.27496
G1 X130.610 Y110.528 E8.36784
G1 X130.340 Y109.418 E8.44562
G1 X130.240 Y108.908 E8.48101
G1 X130.110 Y108.038 E8.54091
G1 X129.990 Y106.888 E8.61964
G1 X129.960 Y106.398 E8.65307
G1 X129.940 Y105.238 E8.73207
G1 X129.960 Y104.398 E8.78928
G1 X130.070 Y103.098 E8.87812
G1 X130.250 Y101.868 E8.96276
G1 X130.340 Y101.408 E8.99468
G1 X130.610 Y100.248 E9.07578
G1 X130.840 Y99.438 E9.13311
G1 X130.990 Y98.968 E9.16671
G1 X131.430 Y97.818 E9.25055
G1 X131.770 Y97.038 E9.30849
G1 X132.510 Y95.568 E9.42055
G1 X133.180 Y94.458 E9.50883
G1 X133.613 Y93.827 E9.56094
G1 F1800.000 E8.56094
G92 E0
G1 X148.903 Y98.106 F7200.000
G1 E1.00000 F1800.000
G1 X149.456 Y97.158 E1.07473 F540.000
G1 X150.552 Y97.158 E1.14936
G1 X151.096 Y98.106 E1.22379
G1 X150.552 Y99.054 E1.29823
G1 X149.456 Y99.054 E1.37286
G1 X148.945 Y98.178 E1.44190
G1 X148.476 Y97.747 F7200.000
G1 F1800.000 E0.44190
G92 E0
G1 X143.652 Y104.856 F7200.000
G1 E1.00000 F1800.000
G1 X143.652 Y105.953 E1.07474 F540.000
G1 X142.697 Y106.505 E1.14982
G1 X141.750 Y105.952 E1.22450
G1 X141.750 Y104.856 E1.29913
G1 X142.697 Y104.312 E1.37351
G1 X143.579 Y104.814 E1.44261
G1 X144.201 Y104.951 F7200.000
G1 F1800.000 E0.44261
G92 E0
G1 X156.354 Y104.856 F7200.000
G1 E1.00000 F1800.000
G1 X157.302 Y104.312 E1.07443 F540.000
G1 X158.250 Y104.856 E1.14886
G1 X158.250 Y105.952 E1.22349
G1 X157.302 Y106.505 E1.29823
G1 X156.354 Y105.952 E1.37296
G1 X156.354 Y104.940 E1.44190
G1 X156.164 Y104.333 F7200.000
G1 X154.669 Y104.519 F7200.000
G1 X154.714 Y104.814 E1.46221 F540.000
G1 X154.752 Y105.408 E1.50272
G1 X154.714 Y106.001 E1.54320
G1 X154.605 Y106.586 E1.58371
G1 X154.521 Y106.875 E1.60418
G1 X154.297 Y107.433 E1.64514
G1 X154.162 Y107.696 E1.66523
G1 X153.845 Y108.198 E1.70570
G1 X153.664 Y108.436 E1.72605
G1 X153.252 Y108.874 E1.76701
G1 X152.793 Y109.250 E1.80739
G1 X152.549 Y109.418 E1.82758
G1 X152.022 Y109.706 E1.86845
G1 X151.747 Y109.821 E1.88876
G1 X151.184 Y110.007 E1.92911
G1 X150.892 Y110.070 E1.94952
G1 X150.597 Y110.122 E1.96990
G1 X150.000 Y110.160 E2.01062
G1 X149.403 Y110.122 E2.05132
G1 X148.822 Y110.007 E2.09169
G1 X148.533 Y109.923 E2.11216
G1 X147.978 Y109.706 E2.15277
G1 X147.712 Y109.570 E2.17306
G1 X147.208 Y109.251 E2.21370
G1 X146.746 Y108.873 E2.25435
G1 X146.540 Y108.660 E2.27454
G1 X146.157 Y108.200 E2.31530
G1 X145.990 Y107.950 E2.33572
G1 X145.702 Y107.430 E2.37622
G1 X145.587 Y107.155 E2.39654
G1 X145.485 Y106.875 E2.41684
G1 X145.338 Y106.300 E2.45724
G1 X145.286 Y106.004 E2.47768
G1 X145.248 Y105.408 E2.51837
G1 X145.286 Y104.811 E2.55910
G1 X145.401 Y104.224 E2.59988
G1 X145.485 Y103.940 E2.62000
G1 X145.702 Y103.386 E2.66055
G1 X145.838 Y103.120 E2.68084
G1 X146.157 Y102.616 E2.72148
G1 X146.343 Y102.378 E2.74208
G1 X146.745 Y101.945 E2.78226
G1 X146.972 Y101.744 E2.80293
G1 X147.458 Y101.398 E2.84351
G1 X147.712 Y101.246 E2.86374
G1 X148.253 Y100.988 E2.90450
G1 X148.536 Y100.892 E2.92487
G1 X149.108 Y100.739 E2.96517
G1 X149.407 Y100.694 E2.98576
G1 X150.000 Y100.656 E3.02623
G1 X150.594 Y100.694 E3.06675
G1 X150.892 Y100.739 E3.08727
G1 X151.187 Y100.810 E3.10798
G1 X151.747 Y100.988 E3.14799
G1 X152.025 Y101.111 E3.16867
G1 X152.549 Y101.398 E3.20934
G1 X153.028 Y101.744 E3.24958
G1 X153.254 Y101.943 E3.27009
G1 X153.664 Y102.380 E3.31088
G1 X153.845 Y102.618 E3.33124
G1 X154.162 Y103.120 E3.37170
G1 X154.297 Y103.383 E3.39179
G1 X154.521 Y103.940 E3.43269
G1 X154.651 Y104.438 E3.46772
G1 X154.950 Y104.619 F7200.000
G1 F1800.000 E2.46772
G92 E0
G1 X150.552 Y111.756 F7200.000
G1 E1.00000 F1800.000
G1 X151.096 Y112.711 E1.07479 F540.000
G1 X150.552 Y113.658 E1.14917
G1 X149.456 Y113.658 E1.22380
G1 X148.903 Y112.711 E1.29847
G1 X149.455 Y111.756 E1.37356
G1 X150.469 Y111.756 E1.44261
G1 X151.077 Y111.568 F7200.000
G1 X151.455 Y111.089 F7200.000
G1 X151.816 Y110.982 E1.46828 F1080.000
G1 X152.492 Y110.717 E1.51770
G1 X153.145 Y110.359 E1.56843
G1 X153.735 Y109.928 E1.61816
G1 X154.010 Y109.692 E1.64280
G1 X154.276 Y109.426 E1.66848
G1 X154.527 Y109.143 E1.69421
G1 X154.753 Y108.844 E1.71976
G1 X155.137 Y108.237 E1.76864
G1 X155.453 Y107.574 E1.81864
G1 X155.581 Y107.220 E1.84426
G1 X155.687 Y106.853 E1.87028
G1 X157.302 Y107.795 E1.99756
G1 X159.364 Y106.592 E2.16012
G1 X159.364 Y104.211 E2.32226
G1 X157.302 Y103.027 E2.48417
G1 X155.687 Y103.954 E2.61096
G1 X155.453 Y103.242 E2.66204
G1 X155.137 Y102.579 E2.71203
G1 X154.753 Y101.972 E2.76092
G1 X154.527 Y101.673 E2.78647
G1 X154.018 Y101.132 E2.83707
G1 X153.735 Y100.881 E2.86280
G1 X153.442 Y100.660 E2.88777
G1 X153.145 Y100.457 E2.91227
G1 X152.822 Y100.267 E2.93778
G1 X152.153 Y99.949 E2.98823
G1 X151.451 Y99.726 E3.03842
G1 X152.381 Y98.106 E3.16561
G1 X151.197 Y96.044 E3.32752
G1 X148.816 Y96.044 E3.48965
G1 X147.613 Y98.106 E3.65222
G1 X148.558 Y99.726 E3.77990
G1 X147.847 Y99.949 E3.83063
G1 X147.171 Y100.271 E3.88160
G1 X146.564 Y100.655 E3.93048
G1 X146.265 Y100.881 E3.95603
G1 X145.974 Y101.139 E3.98251
G1 X145.487 Y101.664 E4.03127
G1 X145.253 Y101.962 E4.05707
G1 X144.863 Y102.579 E4.10678
G1 X144.691 Y102.916 E4.13253
G1 X144.549 Y103.255 E4.15757
G1 X144.319 Y103.953 E4.20762
G1 X142.695 Y103.029 E4.33487
G1 X140.636 Y104.211 E4.49653
G1 X140.636 Y106.592 E4.65866
G1 X142.695 Y107.793 E4.82097
G1 X144.319 Y106.855 E4.94871
G1 X144.425 Y107.220 E4.97464
G1 X144.549 Y107.561 E4.99932
G1 X144.691 Y107.900 E5.02436
G1 X144.863 Y108.237 E5.05012
G1 X145.253 Y108.854 E5.09982
G1 X145.487 Y109.152 E5.12562
G1 X145.982 Y109.685 E5.17517
G1 X146.554 Y110.155 E5.22556
G1 X147.171 Y110.545 E5.27526
G1 X147.508 Y110.717 E5.30102
G1 X147.847 Y110.859 E5.32607
G1 X148.188 Y110.983 E5.35074
G1 X148.554 Y111.089 E5.37668
G1 X147.430 Y113.032 E5.52949
G1 X145.953 Y112.438 E5.63793
G1 X145.403 Y113.901 E5.74433
G1 X144.579 Y116.204 E5.91089
G1 X144.186 Y116.004 E5.94094
G1 X143.527 Y115.613 E5.99313
G1 X142.898 Y115.182 E6.04502
G1 X142.298 Y114.721 E6.09657
G1 X141.730 Y114.218 E6.14822
G1 X141.191 Y113.679 E6.20014
G1 X140.690 Y113.108 E6.25188
G1 X140.224 Y112.507 E6.30366
G1 X139.794 Y111.885 E6.35512
G1 X139.382 Y111.179 E6.41078
G1 X139.065 Y110.556 E6.45838
G1 X138.762 Y109.853 E6.51050
G1 X138.507 Y109.145 E6.56174
G1 X138.297 Y108.412 E6.61366
G1 X138.130 Y107.674 E6.66522
G1 X138.011 Y106.921 E6.71707
G1 X137.941 Y106.158 E6.76928
G1 X137.915 Y105.408 E6.82037
G1 X137.942 Y104.654 E6.87172
G1 X138.012 Y103.891 E6.92393
G1 X138.130 Y103.141 E6.97562
G1 X138.296 Y102.400 E7.02737
G1 X138.506 Y101.675 E7.07874
G1 X138.764 Y100.960 E7.13046
G1 X139.065 Y100.261 E7.18230
G1 X139.409 Y99.584 E7.23399
G1 X139.757 Y98.994 E7.28064
G1 X140.224 Y98.303 E7.33748
G1 X140.691 Y97.707 E7.38899
G1 X141.193 Y97.135 E7.44079
G1 X141.730 Y96.598 E7.49254
G1 X142.296 Y96.096 E7.54408
G1 X142.899 Y95.633 E7.59578
G1 X143.531 Y95.200 E7.64799
G1 X144.179 Y94.815 E7.69927
G1 X144.854 Y94.472 E7.75085
G1 X145.552 Y94.172 E7.80262
G1 X146.243 Y93.922 E7.85266
G1 X146.996 Y93.705 E7.90601
G1 X147.734 Y93.539 E7.95749
G1 X148.489 Y93.419 E8.00953
G1 X149.242 Y93.344 E8.06111
G1 X150.000 Y93.323 E8.11272
G1 X150.755 Y93.344 E8.16418
G1 X151.512 Y93.419 E8.21596
G1 X152.267 Y93.538 E8.26799
G1 X153.008 Y93.704 E8.31973
G1 X153.733 Y93.914 E8.37110
G1 X154.448 Y94.172 E8.42283
G1 X155.147 Y94.473 E8.47467
G1 X155.824 Y94.817 E8.52635
G1 X156.428 Y95.173 E8.57410
G1 X157.104 Y95.631 E8.62974
G1 X157.701 Y96.093 E8.68112
G1 X158.270 Y96.598 E8.73293
G1 X158.810 Y97.138 E8.78493
G1 X159.314 Y97.707 E8.83668
G1 X159.775 Y98.301 E8.88785
G1 X160.206 Y98.931 E8.93989
G1 X160.591 Y99.584 E8.99151
G1 X160.934 Y100.259 E9.04306
G1 X161.236 Y100.960 E9.09504
G1 X161.486 Y101.651 E9.14507
G1 X161.704 Y102.400 E9.19813
G1 X161.869 Y103.136 E9.24956
G1 X161.989 Y103.896 E9.30190
G1 X162.064 Y104.650 E9.35350
G1 X162.085 Y105.408 E9.40518
G1 X162.064 Y106.162 E9.45653
G1 X161.988 Y106.927 E9.50885
G1 X161.870 Y107.675 E9.56041
G1 X161.702 Y108.416 E9.61214
G1 X161.494 Y109.143 E9.66362
G1 X161.236 Y109.856 E9.71530
G1 X160.936 Y110.554 E9.76700
G1 X160.592 Y111.231 E9.81872
G1 X160.206 Y111.884 E9.87035
G1 X159.776 Y112.508 E9.92194
G1 X159.313 Y113.110 E9.97369
G1 X158.810 Y113.678 E10.02534
G1 X158.269 Y114.219 E10.07743
G1 X157.699 Y114.725 E10.12936
G1 X157.106 Y115.183 E10.18035
G1 X156.479 Y115.612 E10.23208
G1 X155.822 Y116.000 E10.28406
G1 X155.423 Y116.203 E10.31457
G1 X154.061 Y112.440 E10.58705
G1 X152.563 Y113.037 E10.69687
G1 X151.496 Y111.161 E10.84378
G1 X150.877 Y111.199 F7200.000
G1 X150.115 Y111.199 E10.89563 F1080.000
G1 X150.079 Y110.777 E10.92444
G1 X151.323 Y110.547 E11.01060
G1 X151.642 Y110.452 E11.03328
G1 X152.257 Y110.212 E11.07826
G1 X152.847 Y109.888 E11.12406
G1 X153.123 Y109.700 E11.14681
G1 X153.631 Y109.283 E11.19153
G1 X154.095 Y108.790 E11.23770
G1 X154.299 Y108.521 E11.26066
G1 X154.650 Y107.966 E11.30533
G1 X154.936 Y107.366 E11.35061
G1 X155.145 Y106.724 E11.39658
G1 X155.217 Y106.400 E11.41921
G1 X155.360 Y105.462 E11.48376
G1 X155.797 Y105.496 E11.51363
G1 X155.797 Y106.272 E11.56652
G1 X157.302 Y107.150 E11.68517
G1 X158.807 Y106.272 E11.80381
G1 X158.807 Y104.534 E11.92220
G1 X157.302 Y103.670 E12.04037
G1 X155.797 Y104.534 E12.15854
G1 X155.797 Y105.320 E12.21211
G1 X155.360 Y105.354 E12.24197
G1 X155.217 Y104.418 E12.30639
G1 X155.145 Y104.085 E12.32960
G1 X154.936 Y103.450 E12.37514
G1 X154.800 Y103.143 E12.39798
G1 X154.650 Y102.850 E12.42043
G1 X154.299 Y102.295 E12.46511
G1 X154.095 Y102.026 E12.48806
G1 X153.636 Y101.538 E12.53376
G1 X153.382 Y101.312 E12.55688
G1 X152.847 Y100.928 E12.60173
G1 X152.265 Y100.608 E12.64695
G1 X151.950 Y100.469 E12.67039
G1 X151.331 Y100.272 E12.71461
G1 X150.998 Y100.192 E12.73791
G1 X150.054 Y100.048 E12.80293
G1 X150.088 Y99.611 E12.83279
G1 X150.874 Y99.611 E12.88636
G1 X151.738 Y98.106 E13.00453
G1 X150.874 Y96.601 E13.12271
G1 X149.136 Y96.601 E13.24109
G1 X148.258 Y98.106 E13.35973
G1 X149.136 Y99.611 E13.47838
G1 X149.912 Y99.611 E13.53127
G1 X149.946 Y100.048 E13.56113
G1 X148.999 Y100.192 E13.62629
G1 X148.369 Y100.360 E13.67074
G1 X148.050 Y100.469 E13.69367
G1 X147.442 Y100.758 E13.73954
G1 X147.160 Y100.928 E13.76194
G1 X146.618 Y101.312 E13.80716
G1 X146.359 Y101.542 E13.83073
G1 X145.915 Y102.021 E13.87520
G1 X145.705 Y102.289 E13.89840
G1 X145.350 Y102.850 E13.94358
G1 X145.196 Y103.151 E13.96660
G1 X144.956 Y103.766 E14.01158
G1 X144.861 Y104.085 E14.03426
G1 X144.631 Y105.329 E14.12042
G1 X144.209 Y105.293 E14.14923
G1 X144.209 Y104.531 E14.20108
G1 X142.696 Y103.671 E14.31961
G1 X141.193 Y104.534 E14.43763
G1 X141.193 Y106.272 E14.55601
G1 X142.696 Y107.149 E14.67450
G1 X144.209 Y106.275 E14.79349
G1 X144.209 Y105.523 E14.84467
G1 X144.631 Y105.487 E14.87348
G1 X144.861 Y106.724 E14.95919
G1 X144.955 Y107.048 E14.98213
G1 X145.196 Y107.665 E15.02729
G1 X145.350 Y107.966 E15.05031
G1 X145.705 Y108.527 E15.09549
G1 X145.915 Y108.795 E15.11869
G1 X146.364 Y109.279 E15.16364
G1 X146.881 Y109.703 E15.20916
G1 X147.442 Y110.058 E15.25433
G1 X147.743 Y110.212 E15.27735
G1 X148.360 Y110.453 E15.32251
G1 X148.684 Y110.547 E15.34544
G1 X149.921 Y110.777 E15.43116
G1 X149.885 Y111.199 E15.45997
G1 X149.133 Y111.199 E15.51115
G1 X148.259 Y112.712 E15.63015
G1 X148.980 Y113.948 E15.72757
G1 X147.626 Y113.711 E15.82115
G1 X146.278 Y113.169 E15.92009
G1 X144.888 Y116.985 E16.19662
G1 X143.919 Y116.494 E16.27063
G1 X143.225 Y116.082 E16.32557
G1 X142.571 Y115.634 E16.37956
G1 X141.943 Y115.151 E16.43347
G1 X141.348 Y114.624 E16.48763
G1 X140.783 Y114.059 E16.54198
G1 X140.259 Y113.461 E16.59613
G1 X139.774 Y112.837 E16.64996
G1 X139.325 Y112.186 E16.70382
G1 X138.921 Y111.502 E16.75789
G1 X138.561 Y110.793 E16.81208
G1 X138.244 Y110.057 E16.86662
G1 X137.977 Y109.317 E16.92016
G1 X137.757 Y108.551 E16.97446
G1 X137.582 Y107.778 E17.02839
G1 X137.458 Y106.989 E17.08281
G1 X137.385 Y106.192 E17.13733
G1 X137.358 Y105.408 E17.19072
G1 X137.386 Y104.618 E17.24455
G1 X137.459 Y103.822 E17.29898
G1 X137.582 Y103.037 E17.35312
G1 X137.757 Y102.261 E17.40724
G1 X137.976 Y101.503 E17.46099
G1 X138.245 Y100.755 E17.51510
G1 X138.560 Y100.024 E17.56930
G1 X138.920 Y99.316 E17.62336
G1 X139.281 Y98.705 E17.67170
G1 X139.773 Y97.975 E17.73169
G1 X140.262 Y97.351 E17.78561
G1 X140.786 Y96.754 E17.83970
G1 X141.348 Y96.192 E17.89383
G1 X141.942 Y95.666 E17.94786
G1 X142.571 Y95.182 E18.00193
G1 X143.231 Y94.731 E18.05638
G1 X143.910 Y94.327 E18.11012
