; generated by Slic3r 1.0.0RC3 on 2014-03-03 at 10:45:49

; layer_height = 0.2
; perimeters = 3
; top_solid_layers = 3
; bottom_solid_layers = 3
; fill_density = 0.20
; perimeter_speed = 60
; infill_speed = 60
; travel_speed = 120
; nozzle_diameter = 0.4
; filament_diameter = 1.75
; extrusion_multiplier = 0.98
; perimeters extrusion width = 0.40mm
; infill extrusion width = 0.67mm
; solid infill extrusion width = 0.67mm
; top infill extrusion width = 0.67mm
; first layer extrusion width = 0.60mm

G21 ; set units to millimeters
M107
M104 S220 ; set temperature
G28 ; home all axes
M106 S255;
G1 Z200 F1200 ; lift nozzle
M109 S220 ; wait for temperature to be reached
G90 ; use absolute coordinates
G92 E0
M82 ; use absolute distances for extrusion
G1 F1800.000 E-1.00000
G92 E0
G1 Z0.300 F7200.000
G1 X116.468 Y71.514 F7200.000
G1 E1.00000 F1800.000
G1 X117.278 Y70.424 E1.09247 F1080.000
G1 X118.288 Y69.514 E1.18504
G1 X119.478 Y68.834 E1.27837
G1 X120.768 Y68.424 E1.37054
G1 X122.118 Y68.274 E1.46303
G1 X154.778 Y68.254 E3.68692
G1 X156.138 Y68.394 E3.78002
G1 X157.428 Y68.814 E3.87240
G1 X158.608 Y69.494 E3.96513
G1 X159.628 Y70.404 E4.05821
G1 X160.438 Y71.504 E4.15123
G1 X187.498 Y117.694 E7.79640
G1 X188.168 Y119.284 E7.91389
G1 X188.398 Y121.004 E8.03205
G1 X188.398 Y135.184 E8.99760
G1 X188.268 Y136.464 E9.08521
G1 X187.898 Y137.694 E9.17267
G1 X187.288 Y138.824 E9.26011
G1 X186.478 Y139.824 E9.34774
G1 X185.478 Y140.634 E9.43537
G1 X184.348 Y141.244 E9.52281
G1 X183.118 Y141.614 E9.61027
G1 X181.838 Y141.744 E9.69787
G1 X149.188 Y141.714 E11.92109
G1 X147.868 Y141.574 E12.01148
G1 X146.608 Y141.174 E12.10149
G1 X145.448 Y140.534 E12.19170
G1 X116.758 Y120.524 E14.57349
G1 X116.028 Y119.934 E14.63741
G1 X115.388 Y119.244 E14.70149
G1 X115.008 Y118.734 E14.74480
G1 X113.308 Y116.184 E14.95348
G1 X112.708 Y115.054 E15.04060
G1 X112.338 Y113.824 E15.12806
G1 X111.728 Y110.754 E15.34119
G1 X111.608 Y109.744 E15.41045
G1 X111.648 Y108.724 E15.47996
G1 X115.618 Y74.084 E17.85412
G1 X115.908 Y72.754 E17.94681
G1 X116.433 Y71.590 E18.03376
G1 F1800.000 E17.03376
G92 E0
G1 X148.593 Y95.867 F7200.000
G1 E1.00000 F1800.000
G1 X150.730 Y94.439 E1.17504 F1080.000
G1 X153.251 Y93.937 E1.35009
G1 X155.773 Y94.439 E1.52513
G1 X157.910 Y95.867 E1.70017
G1 X159.338 Y98.004 E1.87522
G1 X159.945 Y101.056 E2.08705
G1 X173.298 Y122.421 E3.80264
G1 X180.428 Y122.421 E4.28815
G1 X180.428 Y133.772 E5.06101
G1 X175.496 Y133.772 E5.39685
G1 X175.496 Y126.698 E5.87852
G1 X156.162 Y126.698 E7.19497
G1 X156.162 Y133.743 E7.67471
G1 X150.462 Y133.743 E8.06288
G1 X146.651 Y100.584 E10.33561
G1 X147.164 Y98.004 E10.51472
G1 X148.546 Y95.936 E10.68408
G1 X148.191 Y95.465 F7200.000
G1 X150.513 Y93.914 E10.87421 F1080.000
G1 X153.251 Y93.369 E11.06435
G1 X155.990 Y93.914 E11.25448
G1 X158.312 Y95.465 E11.44462
G1 X159.863 Y97.787 E11.63475
G1 X160.472 Y100.847 E11.84718
G1 X173.607 Y121.864 E13.53480
G1 X180.985 Y121.864 E14.03722
G1 X180.985 Y134.329 E14.88594
G1 X174.939 Y134.329 E15.29765
G1 X174.939 Y127.255 E15.77932
G1 X156.720 Y127.255 E17.01990
G1 X156.720 Y134.300 E17.49964
G1 X149.965 Y134.300 E17.95957
G1 X146.088 Y100.561 E20.27207
G1 X146.640 Y97.787 E20.46467
G1 X148.145 Y95.535 E20.64911
G1 X147.789 Y95.064 F7200.000
G1 X150.295 Y93.389 E20.85434 F540.000
G1 X153.251 Y92.801 E21.05956
G1 X156.207 Y93.389 E21.26479
G1 X158.713 Y95.064 E21.47001
G1 X160.388 Y97.570 E21.67524
G1 X160.998 Y100.638 E21.88827
G1 X173.915 Y121.307 E23.54792
G1 X181.542 Y121.307 E24.06724
G1 X181.542 Y134.886 E24.99183
G1 X174.382 Y134.886 E25.47941
G1 X174.382 Y127.812 E25.96107
G1 X157.277 Y127.812 E27.12579
G1 X157.277 Y134.857 E27.60553
G1 X149.468 Y134.857 E28.13722
G1 X145.524 Y100.538 E30.48948
G1 X146.115 Y97.570 E30.69557
G1 X147.743 Y95.133 E30.89511
G1 X148.317 Y95.243 F7200.000
G1 F1800.000 E29.89511
G92 E0
G1 X146.235 Y87.579 F7200.000
G1 E1.00000 F1800.000
G1 X132.882 Y108.944 E2.71559 F1080.000
G1 X132.275 Y111.996 E2.92742
G1 X130.847 Y114.133 E3.10247
G1 X128.709 Y115.561 E3.27751
G1 X126.188 Y116.063 E3.45255
G1 X123.667 Y115.561 E3.62760
G1 X121.529 Y114.133 E3.80264
G1 X120.101 Y111.996 E3.97769
G1 X119.588 Y109.416 E4.15680
G1 X123.399 Y76.257 E6.42953
G1 X129.099 Y76.257 E6.81770
G1 X129.099 Y83.302 E7.29744
G1 X148.433 Y83.302 E8.61389
G1 X148.433 Y76.228 E9.09556
G1 X153.365 Y76.228 E9.43140
G1 X153.365 Y87.579 E10.20426
G1 X146.318 Y87.579 E10.68408
G1 X146.543 Y88.136 F7200.000
G1 X133.409 Y109.153 E12.37170 F1080.000
G1 X132.800 Y112.213 E12.58413
G1 X131.249 Y114.535 E12.77427
G1 X128.927 Y116.086 E12.96440
G1 X126.188 Y116.631 E13.15453
G1 X123.449 Y116.086 E13.34467
G1 X121.128 Y114.535 E13.53480
G1 X119.577 Y112.213 E13.72494
G1 X119.025 Y109.439 E13.91754
G1 X122.902 Y75.700 E16.23004
G1 X129.656 Y75.700 E16.68996
G1 X129.656 Y82.745 E17.16970
G1 X147.876 Y82.745 E18.41029
G1 X147.876 Y75.671 E18.89195
G1 X153.922 Y75.671 E19.30366
G1 X153.922 Y88.136 E20.15239
G1 X146.627 Y88.136 E20.64911
G1 X146.852 Y88.693 F7200.000
G1 X133.935 Y109.362 E22.30876 F540.000
G1 X133.325 Y112.430 E22.52179
G1 X131.650 Y114.936 E22.72702
G1 X129.144 Y116.611 E22.93224
G1 X126.188 Y117.199 E23.13747
G1 X123.232 Y116.611 E23.34269
G1 X120.726 Y114.936 E23.54792
G1 X119.052 Y112.430 E23.75314
G1 X118.461 Y109.462 E23.95923
G1 X122.405 Y75.143 E26.31150
G1 X130.213 Y75.143 E26.84318
G1 X130.213 Y82.188 E27.32292
G1 X147.318 Y82.188 E28.48764
G1 X147.318 Y75.114 E28.96931
G1 X154.479 Y75.114 E29.45688
G1 X154.479 Y88.693 E30.38147
G1 X146.936 Y88.693 E30.89511
G1 X146.333 Y88.490 F7200.000
G1 F1800.000 E29.89511
G92 E0
G1 X157.583 Y96.122 F7200.000
G1 E1.00000 F1800.000
G1 X157.655 Y96.194 E1.00706 F1080.000
G1 F1800.000 E0.00706
G92 E0
G1 X159.004 Y98.343 F7200.000
G1 E1.00000 F1800.000
G1 X155.434 Y94.773 E1.34889 F1080.000
G1 X154.436 Y94.575 E1.41922
G1 X159.203 Y99.341 E1.88507
G1 X159.401 Y100.339 E1.95540
G1 X153.438 Y94.376 E2.53821
G1 X152.709 Y94.447 E2.58882
G1 X159.752 Y101.490 E3.27717
G1 F1800.000 E2.27717
G92 E0
G1 X161.084 Y103.622 F7200.000
G1 E1.00000 F1800.000
G1 X152.042 Y94.579 E1.88375 F1080.000
G1 X151.375 Y94.712 E1.93075
G1 X162.417 Y105.754 E3.00991
G1 F1800.000 E2.00991
G92 E0
G1 X163.749 Y107.886 F7200.000
G1 E1.00000 F1800.000
G1 X150.758 Y94.894 E2.26975 F1080.000
G1 X150.278 Y95.214 E2.30959
G1 X165.082 Y110.018 E3.75641
G1 F1800.000 E2.75641
G92 E0
G1 X166.414 Y112.150 F7200.000
G1 E1.00000 F1800.000
G1 X149.799 Y95.535 E2.62389 F1080.000
G1 X149.320 Y95.855 E2.66373
G1 X167.746 Y114.282 E4.46469
G1 F1800.000 E3.46469
G92 E0
G1 X169.079 Y116.414 F7200.000
G1 E1.00000 F1800.000
G1 X148.854 Y96.188 E2.97674 F1080.000
G1 X148.532 Y96.666 E3.01656
G1 X170.411 Y118.546 E5.15494
G1 F1800.000 E4.15494
G92 E0
G1 X171.744 Y120.677 F7200.000
G1 E1.00000 F1800.000
G1 X148.212 Y97.146 E3.29991 F1080.000
G1 X147.892 Y97.625 E3.33975
G1 X180.034 Y129.768 E6.48126
G1 F1800.000 E5.48126
G92 E0
G1 X176.448 Y133.378 F7200.000
G1 E1.00000 F1800.000
G1 X175.890 Y132.820 E1.05454 F1080.000
G1 X175.890 Y132.020 E1.10980
G1 X177.247 Y133.378 E1.24248
G1 X178.047 Y133.378 E1.29774
G1 X175.890 Y131.221 E1.50858
G1 X175.890 Y130.421 E1.56384
G1 X178.846 Y133.378 E1.85283
G1 X179.646 Y133.378 E1.90809
G1 X175.890 Y129.621 E2.27523
G1 X175.890 Y128.822 E2.33049
G1 X180.034 Y132.966 E2.73556
G1 X180.034 Y132.167 E2.79082
G1 X175.890 Y128.022 E3.19588
G1 X175.890 Y127.222 E3.25114
G1 X180.034 Y131.367 E3.65621
G1 X180.034 Y130.567 E3.71147
G1 X147.571 Y98.105 E6.88428
G1 X147.418 Y98.750 E6.93017
G1 X174.971 Y126.304 E9.62316
G1 X174.172 Y126.304 E9.67842
G1 X147.285 Y99.417 E12.30623
G1 X147.152 Y100.084 E12.35323
G1 X173.372 Y126.304 E14.91586
G1 X172.572 Y126.304 E14.97112
G1 X147.073 Y100.805 E17.46334
G1 X147.177 Y101.708 E17.52619
G1 X171.773 Y126.304 E19.93012
G1 X170.973 Y126.304 E19.98538
G1 X147.281 Y102.612 E22.30101
G1 X147.385 Y103.515 E22.36385
G1 X170.174 Y126.304 E24.59118
G1 X169.374 Y126.304 E24.64644
G1 X147.488 Y104.418 E26.78548
G1 X147.592 Y105.322 E26.84832
G1 X168.574 Y126.304 E28.89906
G1 X167.775 Y126.304 E28.95432
G1 X147.696 Y106.225 E30.91675
G1 X147.800 Y107.129 E30.97960
G1 X166.975 Y126.304 E32.85374
G1 X166.176 Y126.304 E32.90900
G1 X147.904 Y108.032 E34.69484
G1 X148.007 Y108.936 E34.75769
G1 X165.376 Y126.304 E36.45523
G1 X164.576 Y126.304 E36.51049
G1 X148.111 Y109.839 E38.11973
G1 X148.215 Y110.742 E38.18258
G1 X163.777 Y126.304 E39.70353
G1 X162.977 Y126.304 E39.75879
G1 X148.319 Y111.646 E41.19144
G1 X148.423 Y112.549 E41.25428
G1 X162.178 Y126.304 E42.59863
G1 X161.378 Y126.304 E42.65389
G1 X148.527 Y113.453 E43.90995
G1 X148.630 Y114.356 E43.97279
G1 X160.578 Y126.304 E45.14055
G1 X159.779 Y126.304 E45.19581
G1 X148.734 Y115.260 E46.27526
G1 X148.838 Y116.163 E46.33811
G1 X158.979 Y126.304 E47.32927
G1 X158.180 Y126.304 E47.38453
G1 X148.942 Y117.066 E48.28739
G1 X149.046 Y117.970 E48.35023
G1 X157.380 Y126.304 E49.16479
G1 X156.580 Y126.304 E49.22006
G1 X149.149 Y118.873 E49.94632
G1 X149.253 Y119.777 E50.00917
G1 X155.781 Y126.304 E50.64713
G1 X155.769 Y127.092 E50.70157
G1 X149.357 Y120.680 E51.32821
G1 X149.461 Y121.584 E51.39105
G1 X155.769 Y127.891 E52.00755
G1 X155.769 Y128.691 E52.06281
G1 X149.565 Y122.487 E52.66915
G1 X149.669 Y123.390 E52.73200
G1 X155.769 Y129.490 E53.32820
G1 X155.769 Y130.290 E53.38346
G1 X149.772 Y124.294 E53.96951
G1 X149.876 Y125.197 E54.03236
G1 X155.769 Y131.090 E54.60826
G1 X155.769 Y131.889 E54.66352
G1 X149.980 Y126.101 E55.22928
G1 X150.084 Y127.004 E55.29213
G1 X155.769 Y132.689 E55.84774
G1 X155.630 Y133.349 E55.89439
G1 X150.188 Y127.908 E56.42627
G1 X150.292 Y128.811 E56.48912
G1 X154.830 Y133.349 E56.93270
G1 X154.030 Y133.349 E56.98796
G1 X150.395 Y129.714 E57.34324
G1 X150.499 Y130.618 E57.40609
G1 X153.231 Y133.349 E57.67307
G1 X152.431 Y133.349 E57.72833
G1 X150.603 Y131.521 E57.90702
G1 X150.707 Y132.425 E57.96986
G1 X151.632 Y133.349 E58.06025
G1 X150.811 Y133.328 E58.11701
G1 X150.832 Y133.349 E58.11910
G1 F1800.000 E57.11910
G92 E0
G1 X173.881 Y122.815 F7200.000
G1 E1.00000 F1800.000
G1 X180.034 Y128.968 E1.60136 F1080.000
G1 X180.034 Y128.169 E1.65662
G1 X174.681 Y122.815 E2.17983
G1 X175.481 Y122.815 E2.23509
G1 X180.034 Y127.369 E2.68014
G1 X180.034 Y126.569 E2.73540
G1 X176.280 Y122.815 E3.10231
G1 X177.080 Y122.815 E3.15757
G1 X180.034 Y125.770 E3.44632
G1 X180.034 Y124.970 E3.50159
G1 X177.879 Y122.815 E3.71219
G1 X178.679 Y122.815 E3.76745
G1 X180.034 Y124.170 E3.89990
G1 X180.034 Y123.371 E3.95516
G1 X179.479 Y122.815 E4.00946
G1 F1800.000 E3.00946
G92 E0
G1 X152.951 Y76.622 F7200.000
G1 E1.00000 F1800.000
G1 X152.971 Y76.642 E1.00194 F1080.000
G1 X152.971 Y77.437 E1.05653
G1 X152.156 Y76.622 E1.13567
G1 X151.361 Y76.622 E1.19027
G1 X152.971 Y78.232 E1.34662
G1 X152.971 Y79.027 E1.40121
G1 X150.567 Y76.622 E1.63477
G1 X149.772 Y76.622 E1.68937
G1 X152.971 Y79.821 E2.00013
G1 X152.971 Y80.616 E2.05473
G1 X148.977 Y76.622 E2.44270
G1 X148.826 Y77.266 E2.48814
G1 X152.971 Y81.411 E2.89075
G1 X152.971 Y82.206 E2.94535
G1 X148.826 Y78.061 E3.34796
G1 X148.826 Y78.856 E3.40255
G1 X152.971 Y83.000 E3.80517
G1 X152.971 Y83.795 E3.85976
G1 X148.826 Y79.651 E4.26238
G1 X148.826 Y80.445 E4.31697
G1 X152.971 Y84.590 E4.71958
G1 X152.971 Y85.385 E4.77418
G1 X148.826 Y81.240 E5.17679
G1 X148.826 Y82.035 E5.23139
G1 X152.971 Y86.179 E5.63400
G1 X152.971 Y86.974 E5.68859
G1 X148.826 Y82.830 E6.09121
G1 X148.826 Y83.624 E6.14580
G1 X152.387 Y87.185 E6.49166
G1 X151.592 Y87.185 E6.54625
G1 X148.103 Y83.696 E6.88517
G1 X147.308 Y83.696 E6.93976
G1 X150.797 Y87.185 E7.27868
G1 X150.002 Y87.185 E7.33327
G1 X146.514 Y83.696 E7.67219
G1 X145.719 Y83.696 E7.72678
G1 X149.208 Y87.185 E8.06570
G1 X148.413 Y87.185 E8.12029
G1 X144.924 Y83.696 E8.45921
G1 X144.129 Y83.696 E8.51380
G1 X147.618 Y87.185 E8.85272
G1 X146.823 Y87.185 E8.90732
G1 X143.335 Y83.696 E9.24623
G1 X142.540 Y83.696 E9.30083
G1 X146.029 Y87.185 E9.63974
G1 X145.715 Y87.666 E9.67920
G1 X141.745 Y83.696 E10.06490
G1 X140.950 Y83.696 E10.11949
G1 X145.410 Y88.155 E10.55271
G1 X145.104 Y88.644 E10.59232
G1 X140.155 Y83.696 E11.07305
G1 X139.361 Y83.696 E11.12765
G1 X144.798 Y89.134 E11.65589
G1 X144.493 Y89.623 E11.69550
G1 X138.566 Y83.696 E12.27126
G1 X137.771 Y83.696 E12.32585
G1 X144.187 Y90.112 E12.94912
G1 X143.881 Y90.601 E12.98874
G1 X136.976 Y83.696 E13.65952
G1 X136.182 Y83.696 E13.71412
G1 X143.576 Y91.090 E14.43241
G1 X143.270 Y91.579 E14.47203
G1 X135.387 Y83.696 E15.23784
G1 X134.592 Y83.696 E15.29243
G1 X142.964 Y92.068 E16.10576
G1 X142.659 Y92.557 E16.14538
G1 X133.797 Y83.696 E17.00622
G1 X133.003 Y83.696 E17.06081
G1 X142.353 Y93.046 E17.96916
G1 X142.047 Y93.536 E18.00878
G1 X132.208 Y83.696 E18.96465
G1 X131.413 Y83.696 E19.01924
G1 X141.742 Y94.025 E20.02262
G1 X141.436 Y94.514 E20.06224
G1 X130.618 Y83.696 E21.11313
G1 X129.823 Y83.696 E21.16773
G1 X141.130 Y95.003 E22.26614
G1 X140.825 Y95.492 E22.30575
G1 X123.568 Y78.235 E23.98218
G1 X123.486 Y78.948 E24.03147
G1 X140.519 Y95.981 E25.68617
G1 X140.213 Y96.470 E25.72579
G1 X123.404 Y79.661 E27.35874
G1 X123.322 Y80.374 E27.40803
G1 X139.908 Y96.959 E29.01925
G1 X139.602 Y97.448 E29.05887
G1 X123.240 Y81.086 E30.64836
G1 X123.158 Y81.799 E30.69765
G1 X139.296 Y97.937 E32.26540
G1 X138.991 Y98.427 E32.30502
G1 X123.076 Y82.512 E33.85103
G1 X122.994 Y83.225 E33.90032
G1 X138.685 Y98.916 E35.42460
G1 X138.379 Y99.405 E35.46422
G1 X122.912 Y83.938 E36.96676
G1 X122.830 Y84.651 E37.01605
G1 X138.074 Y99.894 E38.49686
G1 X137.768 Y100.383 E38.53648
G1 X122.749 Y85.363 E39.99555
G1 X122.667 Y86.076 E40.04484
G1 X137.462 Y100.872 E41.48218
G1 X137.157 Y101.361 E41.52180
G1 X122.585 Y86.789 E42.93740
G1 X122.503 Y87.502 E42.98669
G1 X136.851 Y101.850 E44.38055
G1 X136.545 Y102.339 E44.42017
G1 X122.421 Y88.215 E45.79230
G1 X122.339 Y88.928 E45.84159
G1 X136.240 Y102.828 E47.19198
G1 X135.934 Y103.318 E47.23160
G1 X122.257 Y89.641 E48.56026
G1 X122.175 Y90.353 E48.60955
G1 X135.628 Y103.807 E49.91647
G1 X135.323 Y104.296 E49.95609
G1 X122.093 Y91.066 E51.24128
G1 X122.011 Y91.779 E51.29057
G1 X135.017 Y104.785 E52.55402
G1 X134.711 Y105.274 E52.59364
G1 X121.929 Y92.492 E53.83535
G1 X121.847 Y93.205 E53.88464
G1 X134.406 Y105.763 E55.10462
G1 X134.100 Y106.252 E55.14424
G1 X121.766 Y93.918 E56.34248
G1 X121.684 Y94.630 E56.39177
G1 X133.794 Y106.741 E57.56828
G1 X133.489 Y107.230 E57.60790
G1 X121.602 Y95.343 E58.76267
G1 X121.520 Y96.056 E58.81196
G1 X133.183 Y107.720 E59.94500
G1 X132.877 Y108.209 E59.98462
G1 X121.438 Y96.769 E61.09592
G1 X121.356 Y97.482 E61.14521
G1 X132.572 Y108.698 E62.23477
G1 X132.405 Y109.325 E62.27939
G1 X121.274 Y98.195 E63.36068
G1 X121.192 Y98.908 E63.40997
G1 X132.273 Y109.988 E64.48641
G1 X132.141 Y110.651 E64.53284
G1 X121.110 Y99.620 E65.60442
G1 X121.028 Y100.333 E65.65371
G1 X132.009 Y111.314 E66.72045
G1 X131.839 Y111.939 E66.76493
G1 X120.946 Y101.046 E67.82312
G1 X120.864 Y101.759 E67.87241
G1 X131.521 Y112.415 E68.90763
G1 X131.203 Y112.892 E68.94699
G1 X120.782 Y102.472 E69.95925
G1 X120.701 Y103.185 E70.00854
G1 X130.884 Y113.368 E70.99783
G1 X130.559 Y113.838 E71.03707
G1 X120.619 Y103.897 E72.00277
G1 X120.537 Y104.610 E72.05206
G1 X130.091 Y114.165 E72.98020
G1 X129.614 Y114.483 E73.01956
G1 X120.455 Y105.323 E73.90937
G1 X120.373 Y106.036 E73.95866
G1 X129.138 Y114.801 E74.81016
G1 X128.662 Y115.120 E74.84952
G1 X120.291 Y106.749 E75.66268
G1 X120.209 Y107.462 E75.71197
G1 X128.040 Y115.293 E76.47272
G1 X127.377 Y115.425 E76.51915
G1 X120.127 Y108.175 E77.22346
G1 X120.045 Y108.887 E77.27275
G1 X126.714 Y115.556 E77.92061
G1 X125.983 Y115.620 E77.97101
G1 X120.042 Y109.679 E78.54819
G1 X120.239 Y110.671 E78.61768
G1 X124.991 Y115.423 E79.07930
G1 X123.999 Y115.226 E79.14879
G1 X120.437 Y111.663 E79.49487
G1 F1800.000 E78.49487
G92 E0
G1 X121.784 Y113.806 F7200.000
G1 E1.00000 F1800.000
G1 X121.857 Y113.878 E1.00704 F1080.000
G1 F1800.000 E0.00704
G92 E0
G1 X128.705 Y82.578 F7200.000
G1 E1.00000 F1800.000
G1 X123.650 Y77.522 E1.49114 F1080.000
G1 X123.732 Y76.809 E1.54043
