; generated by Slic3r 1.0.0RC3 on 2014-03-03 at 10:46:15

; layer_height = 0.2
; perimeters = 3
; top_solid_layers = 3
; bottom_solid_layers = 3
; fill_density = 0.20
; perimeter_speed = 60
; infill_speed = 60
; travel_speed = 120
; nozzle_diameter = 0.4
; filament_diameter = 1.75
; extrusion_multiplier = 0.98
; perimeters extrusion width = 0.40mm
; infill extrusion width = 0.67mm
; solid infill extrusion width = 0.67mm
; top infill extrusion width = 0.67mm
; first layer extrusion width = 0.60mm

G21 ; set units to millimeters
M107
M104 S220 ; set temperature
G28 ; home all axes
M106 S255;
G1 Z200 F1200 ; lift nozzle
M109 S220 ; wait for temperature to be reached
G90 ; use absolute coordinates
G92 E0
M82 ; use absolute distances for extrusion
G1 F1800.000 E-1.00000
G92 E0
G1 Z0.300 F7200.000
G1 X134.144 Y95.083 F7200.000
G1 E1.00000 F1800.000
G1 X135.644 Y93.053 E1.17187 F1080.000
G1 X136.074 Y92.523 E1.21834
G1 X136.574 Y92.043 E1.26554
G1 X138.474 Y90.363 E1.43823
G1 X138.994 Y89.943 E1.48375
G1 X139.564 Y89.573 E1.53002
G1 X141.774 Y88.313 E1.70325
G1 X142.384 Y88.013 E1.74953
G1 X143.024 Y87.773 E1.79608
G1 X145.454 Y86.993 E1.96986
G1 X146.114 Y86.813 E2.01644
G1 X146.784 Y86.713 E2.06257
G1 X149.324 Y86.453 E2.23642
G1 X149.994 Y86.413 E2.28213
G1 X150.664 Y86.453 E2.32783
G1 X153.204 Y86.713 E2.50169
G1 X153.874 Y86.813 E2.54782
G1 X154.534 Y86.993 E2.59440
G1 X156.964 Y87.773 E2.76818
G1 X157.604 Y88.013 E2.81472
G1 X158.214 Y88.313 E2.86101
G1 X160.424 Y89.573 E3.03423
G1 X160.994 Y89.943 E3.08051
G1 X161.514 Y90.363 E3.12602
G1 X163.414 Y92.043 E3.29872
G1 X163.914 Y92.523 E3.34591
G1 X164.344 Y93.053 E3.39239
G1 X165.844 Y95.083 E3.56426
G1 X166.234 Y95.663 E3.61185
G1 X166.544 Y96.283 E3.65905
G1 X167.584 Y98.583 E3.83093
G1 X167.844 Y99.233 E3.87860
G1 X168.024 Y99.903 E3.92584
G1 X168.554 Y102.363 E4.09719
G1 X168.664 Y103.053 E4.14476
G1 X168.704 Y103.743 E4.19183
G1 X168.704 Y106.253 E4.36274
G1 X168.664 Y106.943 E4.40980
G1 X168.554 Y107.633 E4.45738
G1 X168.024 Y110.093 E4.62873
G1 X167.844 Y110.773 E4.67663
G1 X167.584 Y111.423 E4.72430
G1 X166.544 Y113.713 E4.89556
G1 X166.234 Y114.323 E4.94215
G1 X165.854 Y114.883 E4.98823
G1 X164.354 Y116.923 E5.16065
G1 X163.914 Y117.463 E5.20808
G1 X163.414 Y117.953 E5.25575
G1 X161.514 Y119.633 E5.42844
G1 X160.984 Y120.063 E5.47492
G1 X160.404 Y120.433 E5.52176
G1 X158.194 Y121.683 E5.69465
G1 X157.594 Y121.983 E5.74033
G1 X156.964 Y122.213 E5.78600
G1 X154.534 Y122.993 E5.95978
G1 X153.874 Y123.173 E6.00636
G1 X153.204 Y123.273 E6.05249
G1 X150.664 Y123.533 E6.22634
G1 X149.994 Y123.573 E6.27205
G1 X149.324 Y123.533 E6.31775
G1 X146.784 Y123.273 E6.49161
G1 X146.114 Y123.173 E6.53774
G1 X145.454 Y122.993 E6.58432
G1 X143.024 Y122.213 E6.75810
G1 X142.394 Y121.983 E6.80377
G1 X141.794 Y121.683 E6.84944
G1 X139.584 Y120.433 E7.02233
G1 X139.004 Y120.063 E7.06918
G1 X138.474 Y119.633 E7.11565
G1 X136.574 Y117.953 E7.28835
G1 X136.074 Y117.463 E7.33602
G1 X135.634 Y116.923 E7.38345
G1 X134.134 Y114.883 E7.55586
G1 X133.754 Y114.323 E7.60195
G1 X133.444 Y113.713 E7.64854
G1 X132.404 Y111.423 E7.81980
G1 X132.144 Y110.773 E7.86747
G1 X131.964 Y110.093 E7.91536
G1 X131.434 Y107.633 E8.08671
G1 X131.324 Y106.943 E8.13429
G1 X131.284 Y106.253 E8.18135
G1 X131.284 Y103.743 E8.35227
G1 X131.324 Y103.053 E8.39933
G1 X131.434 Y102.363 E8.44691
G1 X131.964 Y99.903 E8.61826
G1 X132.144 Y99.233 E8.66550
G1 X132.404 Y98.583 E8.71317
G1 X133.444 Y96.283 E8.88505
G1 X133.754 Y95.663 E8.93225
G1 X134.097 Y95.152 E8.97415
G1 F1800.000 E7.97415
G92 E0
G1 X148.280 Y96.331 F7200.000
G1 E1.00000 F1800.000
G1 X148.414 Y95.671 E1.04588 F540.000
G1 X148.789 Y95.116 E1.09150
G1 X149.344 Y94.741 E1.13712
G1 X150.004 Y94.607 E1.18301
G1 X150.673 Y94.740 E1.22940
G1 X151.229 Y95.116 E1.27513
G1 X151.608 Y95.678 E1.32129
G1 X151.729 Y96.332 E1.36657
G1 X151.609 Y96.993 E1.41235
G1 X151.226 Y97.562 E1.45907
G1 X150.666 Y97.927 E1.50457
G1 X150.004 Y98.059 E1.55051
G1 X149.351 Y97.926 E1.59593
G1 X148.792 Y97.562 E1.64133
G1 X148.413 Y97.000 E1.68751
G1 X148.296 Y96.413 E1.72822
G1 X148.848 Y96.332 F7200.000
G1 X148.938 Y95.891 E1.75891 F540.000
G1 X149.190 Y95.517 E1.78961
G1 X149.564 Y95.265 E1.82031
G1 X150.005 Y95.175 E1.85101
G1 X150.454 Y95.265 E1.88214
G1 X150.828 Y95.517 E1.91288
G1 X151.082 Y95.893 E1.94376
G1 X151.163 Y96.333 E1.97420
G1 X151.082 Y96.779 E2.00506
G1 X150.827 Y97.157 E2.03615
G1 X150.451 Y97.402 E2.06666
G1 X150.005 Y97.491 E2.09763
G1 X149.566 Y97.402 E2.12817
G1 X149.191 Y97.157 E2.15864
G1 X148.938 Y96.781 E2.18953
G1 X148.864 Y96.414 E2.21498
G1 X148.474 Y96.081 F7200.000
G1 F1800.000 E1.21498
G92 E0
G1 X142.338 Y103.745 F7200.000
G1 E1.00000 F1800.000
G1 X142.721 Y104.301 E1.04598 F540.000
G1 X142.844 Y104.961 E1.09167
G1 X142.721 Y105.621 E1.13736
G1 X142.342 Y106.171 E1.18288
G1 X141.792 Y106.550 E1.22839
G1 X141.131 Y106.673 E1.27418
G1 X140.477 Y106.550 E1.31947
G1 X139.928 Y106.171 E1.36488
G1 X139.553 Y105.627 E1.40986
G1 X139.417 Y104.961 E1.45616
G1 X139.553 Y104.295 E1.50246
G1 X139.932 Y103.745 E1.54790
G1 X140.477 Y103.382 E1.59253
G1 X141.130 Y103.246 E1.63797
G1 X141.792 Y103.381 E1.68392
G1 X142.269 Y103.699 E1.72298
G1 X141.940 Y104.149 F7200.000
G1 X142.195 Y104.519 E1.75358 F540.000
G1 X142.277 Y104.961 E1.78416
G1 X142.195 Y105.403 E1.81473
G1 X141.942 Y105.771 E1.84518
G1 X141.574 Y106.024 E1.87562
G1 X141.131 Y106.106 E1.90623
G1 X140.696 Y106.024 E1.93640
G1 X140.328 Y105.771 E1.96681
G1 X140.076 Y105.405 E1.99706
G1 X139.986 Y104.961 E2.02790
G1 X140.076 Y104.517 E2.05875
G1 X140.330 Y104.149 E2.08916
G1 X140.696 Y103.905 E2.11914
G1 X141.131 Y103.815 E2.14942
G1 X141.573 Y103.905 E2.18014
G1 X141.871 Y104.103 E2.20448
G1 X142.380 Y104.057 F7200.000
G1 F1800.000 E1.20448
G92 E0
G1 X157.058 Y104.961 F7200.000
G1 E1.00000 F1800.000
G1 X157.190 Y104.299 E1.04598 F540.000
G1 X157.565 Y103.730 E1.09235
G1 X158.134 Y103.355 E1.13872
G1 X158.796 Y103.223 E1.18471
G1 X159.458 Y103.355 E1.23069
G1 X160.027 Y103.730 E1.27706
G1 X160.402 Y104.299 E1.32343
G1 X160.534 Y104.961 E1.36942
G1 X160.402 Y105.623 E1.41540
G1 X160.027 Y106.192 E1.46177
G1 X159.458 Y106.567 E1.50814
G1 X158.796 Y106.699 E1.55412
G1 X158.134 Y106.567 E1.60011
G1 X157.565 Y106.192 E1.64648
G1 X157.190 Y105.623 E1.69284
G1 X157.074 Y105.043 E1.73314
G1 X157.626 Y104.961 F7200.000
G1 X157.715 Y104.515 E1.76413 F540.000
G1 X157.967 Y104.132 E1.79531
G1 X158.350 Y103.880 E1.82649
G1 X158.796 Y103.791 E1.85748
G1 X159.242 Y103.880 E1.88847
G1 X159.625 Y104.132 E1.91965
G1 X159.877 Y104.515 E1.95084
G1 X159.966 Y104.961 E1.98183
G1 X159.877 Y105.407 E2.01282
G1 X159.625 Y105.790 E2.04400
G1 X159.242 Y106.042 E2.07518
G1 X158.796 Y106.131 E2.10617
G1 X158.350 Y106.042 E2.13716
G1 X157.967 Y105.790 E2.16834
G1 X157.715 Y105.407 E2.19952
G1 X157.642 Y105.043 E2.22482
G1 X157.248 Y104.708 F7200.000
G1 F1800.000 E1.22482
G92 E0
G1 X154.492 Y104.534 F7200.000
G1 E1.00000 F1800.000
G1 X154.492 Y105.466 E1.06349 F540.000
G1 X154.300 Y106.393 E1.12793
G1 X153.914 Y107.261 E1.19259
G1 X153.359 Y108.027 E1.25706
G1 X152.651 Y108.656 E1.32154
G1 X151.837 Y109.129 E1.38560
G1 X150.933 Y109.419 E1.45026
G1 X150.000 Y109.515 E1.51414
G1 X149.067 Y109.419 E1.57802
G1 X148.162 Y109.129 E1.64268
G1 X147.345 Y108.654 E1.70704
G1 X146.649 Y108.027 E1.77085
G1 X146.088 Y107.265 E1.83526
G1 X145.700 Y106.393 E1.90029
G1 X145.508 Y105.466 E1.96473
G1 X145.508 Y104.534 E2.02822
G1 X145.701 Y103.605 E2.09284
G1 X146.088 Y102.742 E2.15723
G1 X146.646 Y101.975 E2.22178
G1 X147.345 Y101.346 E2.28585
G1 X148.163 Y100.871 E2.35022
G1 X149.067 Y100.581 E2.41488
G1 X150.000 Y100.485 E2.47876
G1 X150.933 Y100.581 E2.54264
G1 X151.837 Y100.871 E2.60730
G1 X152.651 Y101.344 E2.67136
G1 X153.362 Y101.975 E2.73610
G1 X153.914 Y102.747 E2.80072
G1 X154.299 Y103.605 E2.86474
G1 X154.475 Y104.452 E2.92368
G1 X153.935 Y104.591 F7200.000
G1 X153.935 Y105.409 E2.97938 F540.000
G1 X153.767 Y106.221 E3.03586
G1 X153.429 Y106.981 E3.09248
G1 X152.943 Y107.651 E3.14884
G1 X152.323 Y108.203 E3.20536
G1 X151.610 Y108.617 E3.26150
G1 X150.818 Y108.870 E3.31809
G1 X150.000 Y108.955 E3.37412
G1 X149.182 Y108.870 E3.43014
G1 X148.390 Y108.617 E3.48674
G1 X147.675 Y108.202 E3.54306
G1 X147.064 Y107.651 E3.59905
G1 X146.573 Y106.984 E3.65547
G1 X146.233 Y106.221 E3.71232
G1 X146.065 Y105.409 E3.76880
G1 X146.065 Y104.591 E3.82450
G1 X146.234 Y103.777 E3.88109
G1 X146.573 Y103.023 E3.93740
G1 X147.062 Y102.350 E3.99404
G1 X147.675 Y101.798 E4.05019
G1 X148.390 Y101.383 E4.10651
G1 X149.182 Y101.130 E4.16310
G1 X150.000 Y101.045 E4.21913
G1 X150.818 Y101.130 E4.27516
G1 X151.610 Y101.383 E4.33175
G1 X152.323 Y101.797 E4.38789
G1 X152.945 Y102.350 E4.44457
G1 X153.429 Y103.026 E4.50115
G1 X153.766 Y103.777 E4.55724
G1 X153.918 Y104.509 E4.60814
G1 X153.378 Y104.648 F7200.000
G1 X153.378 Y105.352 E4.65605 F540.000
G1 X153.233 Y106.049 E4.70457
G1 X152.943 Y106.702 E4.75316
G1 X152.528 Y107.275 E4.80141
G1 X151.995 Y107.749 E4.84997
G1 X151.383 Y108.105 E4.89818
G1 X150.704 Y108.322 E4.94671
G1 X150.000 Y108.395 E4.99488
G1 X149.296 Y108.322 E5.04306
G1 X148.617 Y108.105 E5.09159
G1 X148.004 Y107.749 E5.13986
G1 X147.479 Y107.275 E5.18804
G1 X147.057 Y106.703 E5.23647
G1 X146.767 Y106.049 E5.28513
G1 X146.622 Y105.352 E5.33365
G1 X146.622 Y104.648 E5.38156
G1 X146.767 Y103.950 E5.43012
G1 X147.057 Y103.304 E5.47835
G1 X147.478 Y102.725 E5.52707
G1 X148.004 Y102.251 E5.57531
G1 X148.617 Y101.895 E5.62358
G1 X149.296 Y101.678 E5.67211
G1 X150.000 Y101.605 E5.72028
G1 X150.704 Y101.678 E5.76846
G1 X151.383 Y101.895 E5.81699
G1 X151.995 Y102.251 E5.86520
G1 X152.528 Y102.725 E5.91381
G1 X152.943 Y103.305 E5.96236
G1 X153.233 Y103.950 E6.01052
G1 X153.361 Y104.566 E6.05338
G1 X153.878 Y104.893 F7200.000
G1 F1800.000 E5.05338
G92 E0
G1 X150.691 Y112.025 F7200.000
G1 E1.00000 F1800.000
G1 X151.258 Y112.415 E1.04689 F540.000
G1 X151.644 Y112.976 E1.09327
G1 X151.788 Y113.669 E1.14143
G1 X151.644 Y114.349 E1.18879
G1 X151.262 Y114.917 E1.23541
G1 X150.691 Y115.309 E1.28258
G1 X150.005 Y115.440 E1.33015
G1 X149.330 Y115.309 E1.37692
G1 X148.747 Y114.917 E1.42477
G1 X148.372 Y114.343 E1.47145
G1 X148.230 Y113.669 E1.51838
G1 X148.372 Y112.982 E1.56610
G1 X148.751 Y112.415 E1.61254
G1 X149.330 Y112.025 E1.66010
G1 X150.005 Y111.894 E1.70688
G1 X150.609 Y112.009 E1.74875
G1 X150.472 Y112.550 F7200.000
G1 X150.858 Y112.815 E1.78064 F540.000
G1 X151.122 Y113.199 E1.81234
G1 X151.218 Y113.668 E1.84492
G1 X151.122 Y114.128 E1.87697
G1 X150.859 Y114.518 E1.90897
G1 X150.472 Y114.784 E1.94095
G1 X150.006 Y114.872 E1.97328
G1 X149.547 Y114.784 E2.00507
G1 X149.152 Y114.518 E2.03750
G1 X148.896 Y114.126 E2.06938
G1 X148.800 Y113.668 E2.10128
G1 X148.896 Y113.201 E2.13371
G1 X149.153 Y112.815 E2.16529
G1 X149.547 Y112.550 E2.19762
G1 X150.006 Y112.462 E2.22941
G1 X150.390 Y112.534 E2.25604
G1 X150.863 Y112.292 F7200.000
G1 X151.169 Y111.677 F7200.000
G1 X150.910 Y111.499 E2.27748 F1080.000
G1 X150.004 Y111.327 E2.34029
G1 X149.113 Y111.499 E2.40205
G1 X148.348 Y112.014 E2.46483
G1 X147.849 Y112.763 E2.52615
G1 X147.661 Y113.670 E2.58916
G1 X147.849 Y114.560 E2.65112
G1 X148.422 Y115.437 E2.72245
G1 X147.748 Y115.367 E2.76854
G1 X145.600 Y114.679 E2.92217
G1 X143.641 Y113.568 E3.07552
G1 X141.968 Y112.085 E3.22777
G1 X140.643 Y110.290 E3.37964
G1 X139.732 Y108.272 E3.53043
G1 X139.335 Y106.439 E3.65813
G1 X140.258 Y107.075 E3.73446
G1 X141.130 Y107.240 E3.79486
G1 X142.010 Y107.077 E3.85583
G1 X142.743 Y106.572 E3.91642
G1 X143.248 Y105.839 E3.97701
G1 X143.410 Y104.961 E4.03781
G1 X143.248 Y104.083 E4.09861
G1 X142.736 Y103.341 E4.15997
G1 X142.010 Y102.857 E4.21943
G1 X141.129 Y102.677 E4.28062
G1 X140.258 Y102.858 E4.34123
G1 X139.358 Y103.458 E4.41484
G1 X139.732 Y101.734 E4.53492
G1 X140.644 Y99.709 E4.68620
G1 X141.968 Y97.916 E4.83793
G1 X143.642 Y96.431 E4.99033
G1 X145.599 Y95.321 E5.14350
G1 X147.748 Y94.633 E5.29719
G1 X148.494 Y94.555 E5.34825
G1 X147.890 Y95.452 E5.42184
G1 X147.711 Y96.330 E5.48291
G1 X147.889 Y97.218 E5.54456
G1 X148.393 Y97.967 E5.60603
G1 X149.135 Y98.451 E5.66635
G1 X150.003 Y98.628 E5.72667
G1 X150.880 Y98.452 E5.78757
G1 X151.625 Y97.967 E5.84806
G1 X152.136 Y97.208 E5.91042
G1 X152.296 Y96.331 E5.97111
G1 X152.135 Y95.462 E6.03123
G1 X151.525 Y94.557 E6.10556
G1 X152.251 Y94.633 E6.15529
G1 X154.400 Y95.321 E6.30891
G1 X156.352 Y96.431 E6.46183
G1 X158.034 Y97.917 E6.61464
G1 X159.357 Y99.709 E6.76631
G1 X160.268 Y101.733 E6.91743
G1 X160.644 Y103.470 E7.03849
G1 X159.674 Y102.830 E7.11764
G1 X158.796 Y102.655 E7.17862
G1 X157.918 Y102.831 E7.23960
G1 X157.163 Y103.328 E7.30116
G1 X156.665 Y104.083 E7.36272
G1 X156.490 Y104.961 E7.42369
G1 X156.665 Y105.839 E7.48467
G1 X157.163 Y106.594 E7.54623
G1 X157.918 Y107.092 E7.60778
G1 X158.796 Y107.267 E7.66876
G1 X159.674 Y107.092 E7.72974
G1 X160.666 Y106.438 E7.81061
G1 X160.268 Y108.273 E7.93848
G1 X159.357 Y110.290 E8.08918
G1 X158.033 Y112.083 E8.24096
G1 X156.353 Y113.568 E8.39366
G1 X154.400 Y114.679 E8.54662
G1 X152.252 Y115.367 E8.70025
G1 X151.584 Y115.436 E8.74598
G1 X152.167 Y114.570 E8.81709
G1 X152.357 Y113.670 E8.87977
G1 X152.167 Y112.753 E8.94350
G1 X151.659 Y112.014 E9.00456
G1 X151.238 Y111.725 E9.03934
G1 F1800.000 E8.03934
G92 E0
G1 X152.337 Y115.919 F7200.000
G1 E1.00000 F1800.000
G1 X150.000 Y116.161 E1.15999 F1080.000
G1 X147.634 Y115.916 E1.32194
G1 X145.375 Y115.192 E1.48346
G1 X143.315 Y114.023 E1.64471
G1 X141.554 Y112.463 E1.80493
G1 X140.160 Y110.574 E1.96481
G1 X139.200 Y108.448 E2.12364
G1 X138.706 Y106.167 E2.28251
G1 X138.706 Y103.839 E2.44109
G1 X139.200 Y101.559 E2.59991
G1 X140.161 Y99.426 E2.75924
G1 X141.554 Y97.538 E2.91901
G1 X143.317 Y95.976 E3.07938
G1 X145.374 Y94.808 E3.24046
G1 X147.634 Y94.084 E3.40202
G1 X150.030 Y93.843 E3.56604
G1 X152.366 Y94.084 E3.72595
G1 X154.625 Y94.808 E3.88746
G1 X156.678 Y95.976 E4.04827
G1 X158.447 Y97.539 E4.20902
G1 X159.840 Y99.426 E4.36875
G1 X160.800 Y101.558 E4.52793
G1 X161.294 Y103.838 E4.68683
G1 X161.294 Y106.167 E4.84540
G1 X160.800 Y108.449 E5.00436
G1 X159.840 Y110.573 E5.16310
G1 X158.446 Y112.462 E5.32293
G1 X156.678 Y114.024 E5.48358
G1 X154.625 Y115.192 E5.64442
G1 X152.418 Y115.899 E5.80228
G1 X152.481 Y116.464 F7200.000
G1 X150.000 Y116.721 E5.97212 F540.000
G1 X147.519 Y116.464 E6.14194
G1 X145.150 Y115.705 E6.31135
G1 X142.990 Y114.479 E6.48044
G1 X141.141 Y112.840 E6.64869
G1 X139.677 Y110.857 E6.81655
G1 X138.668 Y108.623 E6.98345
G1 X138.149 Y106.227 E7.15041
G1 X138.149 Y103.779 E7.31712
G1 X138.668 Y101.382 E7.48407
G1 X139.677 Y99.143 E7.65135
G1 X141.141 Y97.160 E7.81917
G1 X142.991 Y95.520 E7.98748
G1 X143.066 Y95.477 E7.99338
G1 X145.149 Y94.295 E8.15651
G1 X147.519 Y93.536 E8.32593
G1 X150.000 Y93.279 E8.49578
G1 X150.087 Y93.288 E8.50175
G1 X152.481 Y93.536 E8.66560
G1 X154.850 Y94.295 E8.83501
G1 X157.004 Y95.520 E9.00372
G1 X158.859 Y97.160 E9.17235
G1 X160.323 Y99.143 E9.34017
G1 X161.332 Y101.382 E9.50740
G1 X161.851 Y103.779 E9.67437
G1 X161.851 Y106.227 E9.84108
G1 X161.332 Y108.624 E10.00806
G1 X160.323 Y110.857 E10.17493
G1 X158.859 Y112.840 E10.34278
G1 X157.004 Y114.480 E10.51137
G1 X154.850 Y115.705 E10.68009
G1 X152.560 Y116.438 E10.84381
G1 X152.124 Y116.036 F7200.000
G1 X152.578 Y114.849 F7200.000
G1 X152.522 Y114.794 E10.84928 F1080.000
G1 X152.663 Y114.127 E10.89691
G1 X153.190 Y114.653 E10.94893
G1 X153.802 Y114.457 E10.99380
G1 X152.692 Y113.348 E11.10336
G1 F1800.000 E10.10336
G92 E0
G1 X146.687 Y114.614 F7200.000
G1 E1.00000 F1800.000
G1 X140.077 Y108.004 E1.65280 F1080.000
G1 X140.380 Y107.499 E1.69391
G1 X147.448 Y114.567 E2.39191
G1 X147.276 Y113.587 E2.46135
G1 X141.298 Y107.609 E3.05174
G1 X141.979 Y107.483 E3.10016
G1 X147.415 Y112.918 E3.63690
G1 X147.652 Y112.348 E3.68004
G1 X142.513 Y107.208 E4.18758
G1 X142.991 Y106.879 E4.22815
G1 X147.976 Y111.863 E4.72037
G1 X148.415 Y111.494 E4.76041
G1 X143.332 Y106.411 E5.26240
G1 X143.636 Y105.907 E5.30350
G1 X148.898 Y111.169 E5.82316
G1 X149.550 Y111.014 E5.86998
