; generated by Slic3r 1.0.0RC2 on 2014-05-19 at 15:13:58

; layer_height = 0.3
; perimeters = 2
; top_solid_layers = 3
; bottom_solid_layers = 3
; fill_density = 0.1
; perimeter_speed = 60
; infill_speed = 60
; travel_speed = 120
; nozzle_diameter = 0.4
; filament_diameter = 1.75
; extrusion_multiplier = 0.98
; perimeters extrusion width = 0.40mm
; infill extrusion width = 0.42mm
; solid infill extrusion width = 0.42mm
; top infill extrusion width = 0.42mm
; first layer extrusion width = 0.80mm

G21 ; set units to millimeters
M107
M104 S220 ; set temperature
G28 ; home all axes
M106 S255;
G1 Z200 F1200 ; lift nozzle
M109 S220 ; wait for temperature to be reached
G90 ; use absolute coordinates
G92 E0
M82 ; use absolute distances for extrusion
G1 F1800.000 E-1.00000
G92 E0
G1 Z0.400 F7200.000
G1 X101.394 Y62.691 F7200.000
G1 E1.00000 F1800.000
G1 X102.254 Y61.501 E1.17089 F1080.000
G1 X103.364 Y60.531 E1.34246
G1 X116.424 Y51.341 E3.20113
G1 X117.584 Y50.681 E3.35646
G1 X118.864 Y50.271 E3.51290
G1 X120.194 Y50.121 E3.66868
G1 X121.524 Y50.231 E3.82401
G1 X122.814 Y50.611 E3.98053
G1 X123.994 Y51.231 E4.13567
G1 X125.034 Y52.081 E4.29200
G1 X194.914 Y121.951 E15.79344
G1 X202.914 Y129.971 E17.11188
G1 X203.764 Y131.001 E17.26732
G1 X204.384 Y132.191 E17.42349
G1 X204.764 Y133.471 E17.57890
G1 X204.874 Y134.811 E17.73538
G1 X204.724 Y136.141 E17.89116
G1 X204.314 Y137.411 E18.04649
G1 X203.654 Y138.581 E18.20284
G1 X194.444 Y151.641 E20.06285
G1 X193.444 Y152.771 E20.23847
G1 X192.214 Y153.641 E20.41382
G1 X190.824 Y154.221 E20.58913
G1 X190.224 Y154.391 E20.66171
G1 X173.524 Y158.621 E22.66680
G1 X172.854 Y158.751 E22.74624
G1 X172.174 Y158.821 E22.82580
G1 X154.364 Y159.611 E24.90074
G1 X153.874 Y159.611 E24.95777
G1 X146.954 Y159.411 E25.76353
G1 X146.094 Y159.331 E25.86406
G1 X136.714 Y157.851 E26.96930
G1 X135.834 Y157.651 E27.07433
G1 X134.844 Y157.311 E27.19616
G1 X134.174 Y156.981 E27.28309
G1 X112.754 Y144.951 E30.14244
G1 X112.534 Y144.821 E30.17218
G1 X111.204 Y143.791 E30.36797
G1 X110.174 Y142.461 E30.56377
G1 X110.044 Y142.241 E30.59351
G1 X98.004 Y120.831 E33.45241
G1 X97.664 Y120.141 E33.54194
G1 X97.404 Y119.411 E33.63213
G1 X97.314 Y119.101 E33.66971
G1 X97.134 Y118.271 E33.76855
G1 X95.664 Y108.871 E34.87592
G1 X95.584 Y108.021 E34.97529
G1 X95.384 Y101.121 E35.77871
G1 X95.384 Y100.641 E35.83458
G1 X96.164 Y82.831 E37.90947
G1 X96.234 Y82.141 E37.99019
G1 X96.364 Y81.471 E38.06963
G1 X100.594 Y64.761 E40.07585
G1 X100.804 Y64.051 E40.16202
G1 X101.351 Y62.789 E40.32210
G1 F1800.000 E39.32210
G92 E0
G1 X104.118 Y62.767 F7200.000
G1 E1.00000 F1800.000
G1 X108.373 Y61.686 E1.51095 F1080.000
G1 X108.517 Y61.613 E1.52978
G1 X118.932 Y52.841 E3.11464
G1 X121.989 Y52.972 E3.47077
G1 X132.278 Y63.269 E5.16501
G1 X132.278 Y66.522 E5.54364
G1 X114.899 Y83.901 E8.40410
G1 X114.791 Y84.166 E8.43748
G1 X114.855 Y94.333 E9.62086
G1 X114.522 Y98.207 E10.07342
G1 X113.986 Y102.164 E10.53819
G1 X113.410 Y104.986 E10.87340
G1 X113.405 Y105.124 E10.88949
G1 X113.190 Y106.120 E11.00800
G1 X111.493 Y109.460 E11.44410
G1 X109.269 Y110.624 E11.73618
G1 X108.874 Y110.569 E11.78265
G1 X108.368 Y111.118 E11.86946
G1 X109.773 Y117.457 E12.62515
G1 X108.379 Y120.033 E12.96603
G1 X103.654 Y121.819 E13.55401
G1 X100.598 Y120.318 E13.95031
G1 X99.967 Y118.251 E14.20179
G1 X99.905 Y117.980 E14.23416
G1 X98.400 Y108.322 E15.37180
G1 X98.377 Y108.076 E15.40060
G1 X98.173 Y100.944 E16.23107
G1 X98.835 Y92.082 E17.26534
G1 X98.958 Y82.844 E18.34071
G1 X99.018 Y82.387 E18.39436
G1 X103.311 Y65.405 E20.43303
G1 X104.086 Y62.870 E20.74163
G1 X104.683 Y63.361 F7200.000
G1 X108.416 Y62.412 E21.18991 F1080.000
G1 X108.664 Y62.422 E21.21888
G1 X119.179 Y53.567 E22.81887
G1 X121.680 Y53.674 E23.11025
G1 X131.564 Y63.565 E24.73770
G1 X131.564 Y66.227 E25.04748
G1 X114.183 Y83.607 E27.90831
G1 X114.074 Y83.872 E27.94169
G1 X114.142 Y94.289 E29.15408
G1 X113.813 Y98.120 E29.60166
G1 X113.280 Y102.056 E30.06397
G1 X112.512 Y105.879 E30.51774
G1 X110.959 Y108.933 E30.91651
G1 X109.140 Y109.885 E31.15548
G1 X107.955 Y109.723 E31.29475
G1 X107.449 Y110.271 E31.38157
G1 X109.018 Y117.352 E32.22563
G1 X107.878 Y119.459 E32.50453
G1 X103.691 Y121.042 E33.02550
G1 X101.190 Y119.813 E33.34975
G1 X100.658 Y118.067 E33.56225
G1 X100.607 Y117.845 E33.58874
G1 X99.109 Y108.235 E34.72081
G1 X98.887 Y100.942 E35.57001
G1 X99.549 Y92.114 E36.60038
G1 X99.671 Y82.895 E37.67348
G1 X99.720 Y82.521 E37.71737
G1 X104.001 Y65.589 E39.75012
G1 X104.651 Y63.463 E40.00886
G1 X105.248 Y63.954 F7200.000
G1 X107.971 Y63.262 E40.33592 F1080.000
G1 X108.076 Y63.365 E40.35307
G1 X108.628 Y63.386 E40.41732
G1 X119.427 Y54.292 E42.06048
G1 X121.372 Y54.376 E42.28711
G1 X130.850 Y63.860 E43.84776
G1 X130.849 Y65.931 E44.08871
G1 X113.467 Y83.313 E46.94989
G1 X113.358 Y83.579 E46.98327
G1 X113.429 Y94.244 E48.22468
G1 X113.104 Y98.033 E48.66727
G1 X112.574 Y101.949 E49.12714
G1 X111.833 Y105.638 E49.56507
G1 X110.426 Y108.406 E49.92652
G1 X109.011 Y109.147 E50.11239
G1 X107.036 Y108.876 E50.34447
G1 X106.530 Y109.424 E50.43128
G1 X108.263 Y117.246 E51.36372
G1 X107.376 Y118.885 E51.58064
G1 X103.728 Y120.264 E52.03459
G1 X101.783 Y119.309 E52.28678
G1 X101.308 Y117.710 E52.48087
G1 X99.818 Y108.147 E53.60739
G1 X99.605 Y100.810 E54.46174
G1 X100.263 Y92.146 E55.47303
G1 X100.385 Y82.946 E56.54385
G1 X100.423 Y82.655 E56.57800
G1 X104.691 Y65.772 E58.60482
G1 X105.216 Y64.056 E58.81371
G1 X105.812 Y64.547 F7200.000
G1 X107.758 Y64.053 E59.04732 F1080.000
G1 X108.040 Y64.330 E59.09329
G1 X108.592 Y64.350 E59.15755
G1 X119.674 Y55.017 E60.84388
G1 X121.063 Y55.077 E61.00575
G1 X130.136 Y64.156 E62.49960
G1 X130.135 Y65.635 E62.67171
G1 X112.751 Y83.020 E65.53325
G1 X112.642 Y83.285 E65.56663
G1 X112.716 Y94.200 E66.83705
G1 X112.395 Y97.946 E67.27466
G1 X111.868 Y101.841 E67.73208
G1 X111.257 Y104.816 E68.08561
G1 X111.252 Y104.944 E68.10051
G1 X111.155 Y105.397 E68.15439
G1 X109.893 Y107.879 E68.47851
G1 X108.882 Y108.408 E68.61127
G1 X106.117 Y108.029 E68.93616
G1 X105.611 Y108.577 E69.02297
G1 X107.508 Y117.140 E70.04378
G1 X106.875 Y118.311 E70.19872
G1 X103.765 Y119.487 E70.58566
G1 X102.376 Y118.804 E70.76579
G1 X102.010 Y117.575 E70.91504
G1 X100.527 Y108.059 E72.03599
G1 X100.318 Y100.845 E72.87600
G1 X100.977 Y92.178 E73.88772
G1 X101.098 Y82.998 E74.95627
G1 X101.125 Y82.790 E74.98065
G1 X105.381 Y65.956 E77.00156
G1 X105.781 Y64.650 E77.16059
G1 X106.377 Y65.141 F7200.000
G1 X107.545 Y64.844 E77.30075 F1080.000
G1 X108.003 Y65.294 E77.37555
G1 X108.555 Y65.315 E77.43981
G1 X119.921 Y55.743 E79.16930
G1 X120.755 Y55.779 E79.26643
G1 X129.421 Y64.452 E80.69348
G1 X129.421 Y65.339 E80.79674
G1 X112.034 Y82.726 E83.65865
G1 X111.926 Y82.991 E83.69203
G1 X112.003 Y94.156 E84.99147
G1 X111.686 Y97.859 E85.42408
G1 X111.162 Y101.733 E85.87906
G1 X110.540 Y104.759 E86.23869
G1 X110.535 Y104.884 E86.25320
G1 X110.476 Y105.155 E86.28553
G1 X109.360 Y107.352 E86.57232
G1 X108.753 Y107.669 E86.65198
G1 X105.198 Y107.182 E87.06967
G1 X104.692 Y107.731 E87.15648
G1 X106.753 Y117.035 E88.26567
G1 X106.373 Y117.738 E88.35864
G1 X103.802 Y118.709 E88.67855
G1 X102.969 Y118.300 E88.78663
G1 X102.729 Y117.514 E88.88223
G1 X101.230 Y107.904 E90.01427
G1 X101.030 Y100.937 E90.82557
G1 X101.691 Y92.187 E91.84683
G1 X101.812 Y83.049 E92.91051
G1 X101.828 Y82.924 E92.92514
G1 X106.071 Y66.140 E94.94012
G1 X106.346 Y65.243 E95.04930
G1 X106.942 Y65.734 F7200.000
G1 X107.331 Y65.635 E95.09602 F1080.000
G1 X107.967 Y66.258 E95.19963
G1 X108.519 Y66.279 E95.26389
G1 X120.168 Y56.468 E97.03656
G1 X120.446 Y56.480 E97.06893
G1 X128.707 Y64.747 E98.42919
G1 X128.707 Y65.043 E98.46361
G1 X111.318 Y82.432 E101.32587
G1 X111.209 Y82.698 E101.35925
G1 X111.290 Y94.111 E102.68771
G1 X110.977 Y97.772 E103.11534
G1 X110.456 Y101.625 E103.56787
G1 X109.823 Y104.703 E103.93360
G1 X109.817 Y104.824 E103.94772
G1 X109.797 Y104.914 E103.95850
G1 X108.826 Y106.825 E104.20796
G1 X108.624 Y106.931 E104.23451
G1 X104.338 Y106.343 E104.73809
G1 X103.838 Y106.827 E104.81901
G1 X103.913 Y107.516 E104.89965
G1 X105.998 Y116.929 E106.02183
G1 X105.872 Y117.164 E106.05282
G1 X103.839 Y117.932 E106.30572
G1 X103.561 Y117.795 E106.34175
G1 X103.414 Y117.305 E106.40131
G1 X101.943 Y107.861 E107.51376
G1 X101.745 Y100.935 E108.32027
G1 X102.405 Y92.219 E109.33763
G1 X102.525 Y83.100 E110.39903
G1 X106.761 Y66.324 E112.41293
G1 X106.911 Y65.836 E112.47225
G1 F1800.000 E111.47225
G92 E0
G1 X108.413 Y64.220 F7200.000
G1 X110.013 Y66.795 F7200.000
G1 X112.428 Y79.403 F7200.000
G1 X113.667 Y82.406 F7200.000
G1 X113.037 Y125.756 F7200.000
G1 E1.00000 F1800.000
G1 X115.959 Y126.333 E1.34666 F1080.000
G1 X117.228 Y128.018 E1.59214
G1 X120.861 Y134.014 E2.40819
G1 X120.983 Y134.136 E2.42827
G1 X126.971 Y137.768 E3.24335
G1 X128.637 Y139.016 E3.48560
G1 X129.231 Y141.919 E3.83050
G1 X126.858 Y146.065 E4.38646
G1 X123.970 Y147.001 E4.73983
G1 X114.465 Y142.709 E5.95367
G1 X113.542 Y142.180 E6.07757
G1 X112.833 Y141.472 E6.19412
G1 X112.297 Y140.542 E6.31908
G1 X107.898 Y130.822 E7.56086
G1 X109.297 Y127.620 E7.96756
G1 X110.617 Y127.172 E8.12983
G1 X112.945 Y125.810 E8.44371
G1 X113.164 Y126.509 F7200.000
G1 X115.555 Y126.982 E8.72734 F1080.000
G1 X116.627 Y128.405 E8.93472
G1 X120.341 Y134.534 E9.76894
G1 X120.463 Y134.656 E9.78902
G1 X126.585 Y138.369 E10.62234
G1 X127.991 Y139.423 E10.82685
G1 X128.477 Y141.798 E11.10903
G1 X126.375 Y145.471 E11.60152
G1 X124.012 Y146.237 E11.89064
G1 X114.776 Y142.066 E13.07014
G1 X113.982 Y141.610 E13.17678
G1 X113.402 Y141.031 E13.27213
G1 X112.940 Y140.230 E13.37980
G1 X108.679 Y130.817 E14.58237
G1 X109.824 Y128.197 E14.91513
G1 X110.914 Y127.826 E15.04909
G1 X113.072 Y126.563 E15.34013
G1 X113.291 Y127.262 F7200.000
G1 X115.150 Y127.630 E15.56073 F1080.000
G1 X116.026 Y128.791 E15.72999
G1 X119.821 Y135.054 E16.58238
G1 X119.943 Y135.176 E16.60246
G1 X126.199 Y138.970 E17.45403
G1 X127.346 Y139.830 E17.62080
G1 X127.723 Y141.677 E17.84027
G1 X125.893 Y144.876 E18.26928
G1 X124.055 Y145.472 E18.49415
G1 X115.088 Y141.423 E19.63930
G1 X114.422 Y141.040 E19.72869
G1 X113.971 Y140.590 E19.80286
G1 X113.583 Y139.918 E19.89323
G1 X109.461 Y130.812 E21.05659
G1 X110.351 Y128.774 E21.31540
G1 X111.210 Y128.480 E21.42106
G1 X113.199 Y127.316 E21.68924
G1 X113.418 Y128.015 F7200.000
G1 X114.746 Y128.278 E21.84681 F1080.000
G1 X115.425 Y129.177 E21.97796
G1 X119.301 Y135.574 E22.84853
G1 X119.423 Y135.696 E22.86861
G1 X125.813 Y139.572 E23.73842
G1 X126.700 Y140.237 E23.86745
G1 X126.970 Y141.556 E24.02422
G1 X125.410 Y144.282 E24.38975
G1 X124.097 Y144.708 E24.55037
G1 X115.399 Y140.780 E25.66117
G1 X114.862 Y140.471 E25.73330
G1 X114.540 Y140.149 E25.78628
G1 X114.226 Y139.606 E25.85935
G1 X110.242 Y130.807 E26.98350
G1 X110.878 Y129.351 E27.16837
G1 X111.506 Y129.134 E27.24572
G1 X113.326 Y128.069 E27.49106
G1 X113.545 Y128.768 F7200.000
G1 X114.342 Y128.926 E27.58560 F1080.000
G1 X114.792 Y129.517 E27.67204
G1 X118.781 Y136.094 E28.56738
G1 X118.903 Y136.216 E28.58746
G1 X125.427 Y140.173 E29.47551
G1 X126.054 Y140.644 E29.56680
G1 X126.216 Y141.435 E29.66086
G1 X124.927 Y143.688 E29.96291
G1 X124.139 Y143.943 E30.05928
G1 X115.710 Y140.137 E31.13574
G1 X115.302 Y139.901 E31.19061
G1 X115.109 Y139.708 E31.22240
G1 X114.868 Y139.294 E31.27818
G1 X111.024 Y130.802 E32.36312
G1 X111.406 Y129.928 E32.47404
G1 X111.803 Y129.788 E32.52309
G1 X113.453 Y128.822 E32.74558
G1 X113.672 Y129.521 F7200.000
G1 X113.938 Y129.574 E32.77709 F1080.000
G1 X114.223 Y129.950 E32.83201
G1 X118.261 Y136.614 E33.73893
G1 X118.383 Y136.736 E33.75901
G1 X125.041 Y140.774 E34.66531
G1 X125.409 Y141.051 E34.71885
G1 X125.462 Y141.315 E34.75020
G1 X124.444 Y143.094 E34.98878
G1 X124.182 Y143.179 E35.02090
G1 X116.022 Y139.494 E36.06301
G1 X115.742 Y139.331 E36.10063
G1 X115.678 Y139.267 E36.11123
G1 X115.511 Y138.982 E36.14971
G1 X111.806 Y130.796 E37.19544
G1 X111.933 Y130.505 E37.23242
G1 X112.099 Y130.442 E37.25317
G1 X113.580 Y129.575 E37.45281
G1 F1800.000 E36.45281
G92 E0
G1 X134.988 Y146.615 F7200.000
G1 E1.00000 F1800.000
G1 X137.563 Y145.229 E1.34036 F1080.000
G1 X143.879 Y146.631 E2.09341
G1 X144.428 Y146.127 E2.18020
G1 X144.375 Y145.741 E2.22555
G1 X145.531 Y143.525 E2.51639
G1 X148.870 Y141.811 E2.95329
G1 X149.868 Y141.593 E3.07220
G1 X150.011 Y141.588 E3.08887
G1 X152.699 Y141.033 E3.40830
G1 X156.806 Y140.475 E3.89065
G1 X160.677 Y140.153 E4.34277
G1 X170.897 Y140.264 E5.53240
G1 X171.165 Y140.155 E5.56598
G1 X187.345 Y123.974 E8.22941
G1 X188.573 Y122.770 E8.42947
G1 X191.805 Y122.788 E8.80569
G1 X202.026 Y133.024 E10.48923
G1 X202.155 Y136.079 E10.84512
G1 X193.373 Y146.503 E12.43158
G1 X193.299 Y146.647 E12.45042
G1 X192.224 Y150.879 E12.95862
G1 X189.587 Y151.686 E13.27966
G1 X172.617 Y155.979 E15.31695
G1 X172.161 Y156.039 E15.37049
G1 X162.928 Y156.168 E16.44528
G1 X154.059 Y156.830 E17.48036
G1 X146.914 Y156.626 E18.31240
G1 X146.664 Y156.603 E18.34152
G1 X137.033 Y155.087 E19.47635
G1 X136.792 Y155.034 E19.50506
G1 X134.721 Y154.435 E19.75591
G1 X133.184 Y151.352 E20.15688
G1 X134.950 Y146.716 E20.73434
G1 X135.561 Y147.118 F7200.000
G1 X137.667 Y145.983 E21.01281 F1080.000
G1 X144.725 Y147.551 E21.85423
G1 X145.273 Y147.046 E21.94102
G1 X145.113 Y145.869 E22.07923
G1 X146.059 Y144.057 E22.31720
G1 X149.114 Y142.489 E22.71685
G1 X149.930 Y142.310 E22.81414
G1 X150.069 Y142.305 E22.83030
G1 X152.831 Y141.735 E23.15859
G1 X156.892 Y141.184 E23.63554
G1 X160.719 Y140.866 E24.08249
G1 X171.190 Y140.982 E25.30126
G1 X171.457 Y140.873 E25.33484
G1 X187.849 Y124.480 E28.03305
G1 X188.863 Y123.486 E28.19828
G1 X191.508 Y123.501 E28.50610
G1 X201.324 Y133.331 E30.12308
G1 X201.430 Y135.831 E30.41427
G1 X192.576 Y146.340 E32.01357
G1 X192.585 Y146.558 E32.03899
G1 X191.631 Y150.314 E32.49004
G1 X189.403 Y150.996 E32.76123
G1 X172.483 Y155.277 E34.79261
G1 X172.110 Y155.326 E34.83642
G1 X162.896 Y155.454 E35.90891
G1 X154.061 Y156.116 E36.94007
G1 X146.957 Y155.912 E37.76728
G1 X146.753 Y155.893 E37.79111
G1 X137.166 Y154.385 E38.92069
G1 X135.221 Y153.836 E39.15591
G1 X133.963 Y151.314 E39.48398
G1 X135.523 Y147.218 E39.99405
G1 X136.134 Y147.621 F7200.000
G1 X137.772 Y146.738 E40.21064 F1080.000
G1 X145.570 Y148.470 E41.14042
G1 X146.119 Y147.966 E41.22721
G1 X145.852 Y145.998 E41.45829
G1 X146.587 Y144.588 E41.64338
G1 X149.357 Y143.167 E42.00578
G1 X153.049 Y142.423 E42.44413
G1 X156.978 Y141.893 E42.90559
G1 X160.761 Y141.579 E43.34736
G1 X171.482 Y141.699 E44.59527
G1 X171.749 Y141.591 E44.62885
G1 X189.153 Y124.202 E47.49225
G1 X191.210 Y124.213 E47.73167
G1 X200.622 Y133.639 E49.28209
G1 X200.705 Y135.583 E49.50857
G1 X191.612 Y146.376 E51.15108
G1 X191.633 Y146.928 E51.21534
G1 X191.729 Y147.026 E51.23134
G1 X191.037 Y149.749 E51.55837
G1 X189.219 Y150.306 E51.77971
G1 X172.348 Y154.574 E53.80517
G1 X172.058 Y154.612 E53.83925
G1 X162.864 Y154.740 E54.90945
G1 X154.063 Y155.402 E55.93667
G1 X146.841 Y155.184 E56.77757
G1 X137.299 Y153.683 E57.90188
G1 X135.720 Y153.237 E58.09284
G1 X134.742 Y151.275 E58.34800
G1 X136.096 Y147.721 E58.79067
G1 X136.706 Y148.123 F7200.000
G1 X137.877 Y147.493 E58.94538 F1080.000
G1 X146.416 Y149.390 E59.96353
G1 X146.965 Y148.885 E60.05032
G1 X146.590 Y146.127 E60.37427
G1 X147.115 Y145.120 E60.50647
G1 X149.601 Y143.844 E60.83162
G1 X150.054 Y143.745 E60.88567
G1 X150.184 Y143.740 E60.90082
G1 X153.157 Y143.129 E61.25404
G1 X157.065 Y142.602 E61.71298
G1 X160.803 Y142.292 E62.14957
G1 X171.775 Y142.417 E63.42663
G1 X172.042 Y142.308 E63.46020
G1 X189.443 Y124.918 E66.32357
G1 X190.912 Y124.926 E66.49458
G1 X199.921 Y133.947 E67.97845
G1 X199.979 Y135.336 E68.14022
G1 X190.647 Y146.412 E69.82593
G1 X190.668 Y146.964 E69.89020
G1 X190.938 Y147.239 E69.93504
G1 X190.444 Y149.184 E70.16863
G1 X189.035 Y149.616 E70.34012
G1 X172.214 Y153.872 E72.35967
G1 X172.006 Y153.899 E72.38401
G1 X162.832 Y154.026 E73.45192
G1 X154.065 Y154.687 E74.47521
G1 X146.930 Y154.475 E75.30600
G1 X137.432 Y152.981 E76.42506
G1 X136.219 Y152.638 E76.57174
