; generated by Slic3r 1.0.0RC2 on 2014-05-18 at 09:02:19

; layer_height = 0.3
; perimeters = 3
; top_solid_layers = 3
; bottom_solid_layers = 3
; fill_density = 0.1
; perimeter_speed = 60
; infill_speed = 60
; travel_speed = 120
; nozzle_diameter = 0.4
; filament_diameter = 1.75
; extrusion_multiplier = 0.98
; perimeters extrusion width = 0.40mm
; infill extrusion width = 0.42mm
; solid infill extrusion width = 0.42mm
; top infill extrusion width = 0.42mm
; first layer extrusion width = 0.80mm

G21 ; set units to millimeters
M107
M104 S220 ; set temperature
G28 ; home all axes
M106 S255;
G1 Z200 F1200 ; lift nozzle
M109 S220 ; wait for temperature to be reached
G90 ; use absolute coordinates
G92 E0
M82 ; use absolute distances for extrusion
G1 F1800.000 E-1.00000
G92 E0
G1 Z0.400 F7200.000
G1 X94.664 Y38.643 F7200.000
G1 E1.00000 F1800.000
G1 X95.414 Y37.483 E1.16077 F1080.000
G1 X96.394 Y36.513 E1.32126
G1 X97.544 Y35.753 E1.48170
G1 X98.824 Y35.253 E1.64164
G1 X100.184 Y35.023 E1.80218
G1 X117.484 Y33.893 E3.82001
G1 X118.404 Y33.843 E3.92725
G1 X119.094 Y33.833 E4.00757
G1 X119.784 Y33.903 E4.08829
G1 X157.854 Y39.583 E8.56830
G1 X158.824 Y39.803 E8.68406
G1 X200.584 Y52.533 E13.76532
G1 X201.984 Y53.133 E13.94260
G1 X203.204 Y54.043 E14.11974
G1 X204.194 Y55.203 E14.29724
G1 X204.894 Y56.553 E14.47423
G1 X215.494 Y84.273 E17.92840
G1 X217.454 Y90.243 E18.65974
G1 X217.624 Y90.843 E18.73232
G1 X217.734 Y91.453 E18.80446
G1 X218.034 Y93.733 E19.07212
G1 X218.084 Y94.683 E19.18284
G1 X218.014 Y95.623 E19.29255
G1 X209.694 Y150.053 E25.70124
G1 X209.244 Y151.633 E25.89245
G1 X208.434 Y153.063 E26.08373
G1 X207.304 Y154.243 E26.27389
G1 X194.514 Y164.693 E28.19621
G1 X193.274 Y165.493 E28.36796
G1 X191.894 Y166.003 E28.53920
G1 X154.554 Y175.373 E33.01994
G1 X153.854 Y175.513 E33.10303
G1 X153.144 Y175.573 E33.18596
G1 X134.944 Y176.163 E35.30537
G1 X133.654 Y176.083 E35.45580
G1 X132.404 Y175.753 E35.60627
G1 X131.244 Y175.193 E35.75619
G1 X130.214 Y174.423 E35.90587
G1 X129.344 Y173.473 E36.05580
G1 X85.594 Y114.893 E44.56555
G1 X85.334 Y114.533 E44.61723
G1 X83.644 Y111.993 E44.97232
G1 X83.024 Y110.833 E45.12541
G1 X82.644 Y109.583 E45.27747
G1 X82.034 Y106.513 E45.64177
G1 X81.914 Y105.483 E45.76246
G1 X81.954 Y104.443 E45.88360
G1 X85.924 Y69.803 E49.94174
G1 X86.124 Y68.763 E50.06500
G1 X94.154 Y39.923 E53.54937
G1 X94.624 Y38.743 E53.69727
G1 F1800.000 E52.69727
G92 E0
G1 X98.082 Y40.825 F7200.000
G1 E1.00000 F1800.000
G1 X99.443 Y39.305 E1.23743 F1080.000
G1 X118.764 Y38.040 E3.49107
G1 X119.032 Y38.051 E3.52218
G1 X157.508 Y43.799 E8.05010
G1 X158.022 Y43.997 E8.11424
G1 X172.382 Y53.558 E10.12216
G1 X172.918 Y54.315 E10.23015
G1 X184.162 Y98.471 E15.53343
G1 X185.396 Y98.336 E15.67781
G1 X185.491 Y95.347 E16.02580
G1 X185.472 Y93.369 E16.25607
G1 X182.474 Y77.144 E18.17645
G1 X180.786 Y59.913 E20.19157
G1 X181.572 Y58.533 E20.37649
G1 X188.027 Y55.513 E21.20600
G1 X188.438 Y55.400 E21.25556
G1 X193.037 Y54.949 E21.79342
G1 X193.488 Y54.987 E21.84609
G1 X200.025 Y56.750 E22.63410
G1 X201.028 Y57.917 E22.81320
G1 X202.851 Y73.998 E24.69685
G1 X202.922 Y74.176 E24.71919
G1 X211.353 Y85.332 E26.34674
G1 X211.546 Y85.702 E26.39523
G1 X213.490 Y91.677 E27.12662
G1 X213.541 Y91.902 E27.15343
G1 X213.877 Y94.465 E27.45431
G1 X213.873 Y94.818 E27.49540
G1 X205.456 Y149.885 E33.97907
G1 X204.996 Y150.691 E34.08706
G1 X191.637 Y161.607 E36.09498
G1 X191.145 Y161.854 E36.15911
G1 X153.412 Y171.326 E40.68703
G1 X153.148 Y171.363 E40.71814
G1 X133.795 Y171.988 E42.97179
G1 X132.292 Y170.609 E43.20922
G1 X131.211 Y150.349 E45.57057
G1 X131.344 Y149.713 E45.64622
G1 X132.839 Y146.723 E46.03528
G1 X133.695 Y146.038 E46.16291
G1 X151.185 Y141.697 E48.26033
G1 X152.589 Y142.185 E48.43331
G1 X156.172 Y146.820 E49.11514
G1 X157.139 Y146.490 E49.23404
G1 X157.139 Y128.950 E51.27550
G1 X158.541 Y112.510 E53.19587
G1 X158.366 Y110.539 E53.42614
G1 X155.152 Y85.854 E56.32352
G1 X154.085 Y85.696 E56.44911
G1 X153.607 Y86.754 E56.58426
G1 X153.473 Y86.982 E56.61511
G1 X151.815 Y89.227 E56.93990
G1 X151.637 Y89.422 E56.97064
G1 X149.541 Y91.274 E57.29620
G1 X149.331 Y91.424 E57.32624
G1 X146.900 Y92.808 E57.65175
G1 X146.663 Y92.912 E57.68197
G1 X143.989 Y93.768 E58.00867
G1 X143.736 Y93.821 E58.03877
G1 X140.939 Y94.110 E58.36606
G1 X140.681 Y94.110 E58.39608
G1 X137.884 Y93.821 E58.72337
G1 X137.631 Y93.768 E58.75346
G1 X134.958 Y92.912 E59.08009
G1 X134.363 Y92.651 E59.15578
G1 X133.688 Y93.194 E59.25658
G1 X134.097 Y95.253 E59.50100
G1 X134.145 Y95.374 E59.51609
G1 X145.822 Y114.057 E62.08040
G1 X146.145 Y114.237 E62.12339
G1 X153.344 Y114.237 E62.96131
G1 X154.808 Y115.701 E63.20232
G1 X154.808 Y131.950 E65.09356
G1 X153.344 Y133.414 E65.33457
G1 X143.513 Y133.414 E66.47882
G1 X142.048 Y131.950 E66.71983
G1 X142.048 Y126.759 E67.32402
G1 X141.630 Y126.340 E67.39288
G1 X130.961 Y126.340 E68.63467
G1 X130.543 Y126.759 E68.70353
G1 X130.543 Y131.922 E69.30443
G1 X129.078 Y133.386 E69.54544
G1 X118.715 Y133.386 E70.75168
G1 X117.293 Y132.118 E70.97341
G1 X113.355 Y97.851 E74.98793
G1 X112.366 Y97.628 E75.10590
G1 X107.082 Y106.084 E76.26642
G1 X107.034 Y106.204 E76.28151
G1 X106.477 Y109.005 E76.61390
G1 X106.289 Y109.460 E76.67120
G1 X104.274 Y112.475 E77.09319
G1 X103.926 Y112.823 E77.15050
G1 X100.912 Y114.837 E77.57248
G1 X100.457 Y115.026 E77.62979
G1 X96.901 Y115.733 E78.05178
G1 X96.408 Y115.733 E78.10909
G1 X92.852 Y115.026 E78.53107
G1 X92.397 Y114.837 E78.58838
G1 X89.383 Y112.823 E79.01036
G1 X89.035 Y112.475 E79.06767
G1 X87.020 Y109.460 E79.48966
G1 X86.832 Y109.005 E79.54696
G1 X86.135 Y105.500 E79.96294
G1 X86.119 Y105.111 E80.00824
G1 X90.229 Y69.340 E84.19907
G1 X91.651 Y68.072 E84.42080
G1 X102.015 Y68.072 E85.62704
G1 X103.479 Y69.536 E85.86805
G1 X103.479 Y74.699 E86.46895
G1 X103.898 Y75.117 E86.53781
G1 X114.567 Y75.117 E87.77960
G1 X114.985 Y74.699 E87.84846
G1 X114.985 Y69.508 E88.45265
G1 X116.423 Y68.070 E88.68925
G1 X116.146 Y67.234 E88.79178
G1 X101.874 Y65.141 E90.47059
G1 X100.955 Y64.543 E90.59821
G1 X99.176 Y61.713 E90.98728
G1 X98.982 Y61.093 E91.06292
G1 X98.087 Y40.932 E93.41181
G1 F1800.000 E92.41181
G92 E0
G1 X93.438 Y42.070 F7200.000
G1 X93.774 Y38.571 F7200.000
G1 X127.245 Y38.543 F7200.000
G1 X127.586 Y56.726 F7200.000
G1 E1.00000 F1800.000
G1 X127.922 Y56.547 E1.04432 F1080.000
G1 X151.090 Y57.284 E3.74223
G1 X151.479 Y57.636 E3.80336
G1 X153.071 Y69.867 E5.23883
G1 X152.122 Y70.308 E5.36065
G1 X151.637 Y69.779 E5.44420
G1 X149.541 Y67.926 E5.76980
G1 X149.331 Y67.776 E5.79985
G1 X146.900 Y66.393 E6.12537
G1 X146.663 Y66.288 E6.15559
G1 X143.989 Y65.432 E6.48230
G1 X143.736 Y65.379 E6.51240
G1 X140.939 Y65.090 E6.83969
G1 X140.681 Y65.090 E6.86972
G1 X137.886 Y65.379 E7.19678
G1 X137.632 Y65.432 E7.22702
G1 X134.958 Y66.288 E7.55371
G1 X134.722 Y66.392 E7.58377
G1 X132.284 Y67.775 E7.90997
G1 X132.072 Y67.927 E7.94039
G1 X129.981 Y69.781 E8.26559
G1 X129.804 Y69.974 E8.29611
G1 X128.727 Y71.434 E8.50726
G1 X127.745 Y71.111 E8.62756
G1 X127.745 Y69.508 E8.81413
G1 X126.281 Y68.044 E9.05513
G1 X121.352 Y68.044 E9.62872
G1 X120.945 Y67.306 E9.72675
G1 X127.529 Y56.817 E11.16822
G1 F1800.000 E10.16822
G92 E0
G1 X183.632 Y120.352 F7200.000
G1 E1.00000 F1800.000
G1 X184.686 Y120.667 E1.12795 F1080.000
G1 X183.795 Y148.670 E4.38883
G1 X183.442 Y149.059 E4.44996
G1 X172.294 Y150.510 E5.75848
G1 X171.985 Y149.277 E5.90650
G1 X176.595 Y147.536 E6.48003
G1 X177.480 Y146.277 E6.65913
G1 X177.726 Y130.094 E8.54278
G1 X177.779 Y129.910 E8.56512
G1 X183.576 Y120.444 E9.85710
G1 F1800.000 E8.85710
G92 E0
G1 X165.858 Y150.123 F7200.000
G1 E1.00000 F1800.000
G1 X165.833 Y151.352 E1.14305 F1080.000
G1 X160.457 Y152.052 E1.77408
G1 X160.105 Y151.906 E1.81840
G1 X157.408 Y148.419 E2.33146
G1 X158.034 Y147.553 E2.45581
G1 X164.775 Y149.937 E3.28797
G1 X165.752 Y150.105 E3.40334
G1 X165.256 Y149.295 F7200.000
G1 X164.956 Y149.243 E3.43874 F1080.000
G1 X158.508 Y146.963 E4.23475
G1 X157.853 Y146.037 E4.36684
G1 X157.853 Y128.965 E6.35377
G1 X159.258 Y112.509 E8.27605
G1 X159.076 Y110.462 E8.51528
G1 X155.510 Y83.069 E11.73048
G1 X154.309 Y83.018 E11.87042
G1 X154.143 Y83.785 E11.96169
G1 X154.084 Y83.963 E11.98362
G1 X152.972 Y86.425 E12.29802
G1 X152.876 Y86.589 E12.32005
G1 X151.263 Y88.773 E12.63605
G1 X151.136 Y88.912 E12.65800
G1 X149.096 Y90.715 E12.97489
G1 X148.946 Y90.822 E12.99634
G1 X146.579 Y92.169 E13.31325
G1 X146.410 Y92.243 E13.33483
G1 X143.807 Y93.076 E13.65292
G1 X143.626 Y93.114 E13.67442
G1 X140.902 Y93.396 E13.99312
G1 X140.718 Y93.396 E14.01456
G1 X137.994 Y93.114 E14.33326
G1 X137.814 Y93.076 E14.35476
G1 X135.211 Y92.243 E14.67279
G1 X135.042 Y92.169 E14.69426
G1 X133.279 Y91.168 E14.93023
G1 X132.515 Y91.843 E15.04890
G1 X132.854 Y92.661 E15.15187
G1 X133.422 Y95.521 E15.49129
G1 X133.470 Y95.641 E15.50639
G1 X145.426 Y114.772 E18.13199
G1 X145.749 Y114.951 E18.17498
G1 X153.048 Y114.951 E19.02454
G1 X154.094 Y115.997 E19.19669
G1 X154.094 Y131.654 E21.01907
G1 X153.048 Y132.700 E21.19122
G1 X143.808 Y132.700 E22.26661
G1 X142.763 Y131.654 E22.43876
G1 X142.763 Y126.045 E23.09165
G1 X142.344 Y125.626 E23.16050
G1 X130.247 Y125.626 E24.56853
G1 X129.828 Y126.045 E24.63739
G1 X129.828 Y131.626 E25.28699
G1 X128.783 Y132.672 E25.45914
G1 X118.987 Y132.672 E26.59927
G1 X117.971 Y131.766 E26.75765
G1 X113.898 Y96.320 E30.91033
G1 X113.919 Y95.801 E30.97078
G1 X112.869 Y95.477 E31.09874
G1 X106.407 Y105.816 E32.51784
G1 X106.359 Y105.937 E32.53293
G1 X105.790 Y108.797 E32.87235
G1 X105.656 Y109.122 E32.91328
G1 X103.720 Y112.020 E33.31890
G1 X103.471 Y112.268 E33.35983
G1 X100.573 Y114.204 E33.76544
G1 X100.248 Y114.339 E33.80638
G1 X96.830 Y115.019 E34.21199
G1 X96.479 Y115.019 E34.25292
G1 X93.061 Y114.339 E34.65854
G1 X92.736 Y114.204 E34.69947
G1 X89.838 Y112.268 E35.10508
G1 X89.589 Y112.020 E35.14601
G1 X87.653 Y109.122 E35.55163
G1 X87.519 Y108.797 E35.59256
G1 X86.846 Y105.415 E35.99388
G1 X86.835 Y105.137 E36.02624
G1 X90.908 Y69.692 E40.17892
G1 X91.923 Y68.786 E40.33730
G1 X101.719 Y68.786 E41.47743
G1 X102.765 Y69.832 E41.64958
G1 X102.765 Y75.413 E42.29918
G1 X103.183 Y75.831 E42.36804
G1 X115.281 Y75.831 E43.77607
G1 X115.699 Y75.413 E43.84492
G1 X115.699 Y69.804 E44.49781
G1 X116.745 Y68.758 E44.66996
G1 X125.985 Y68.758 E45.74535
G1 X127.031 Y69.804 E45.91750
G1 X127.031 Y73.620 E46.36167
G1 X128.159 Y73.862 E46.49597
G1 X128.648 Y72.776 E46.63464
G1 X128.744 Y72.612 E46.65673
G1 X130.356 Y70.429 E46.97266
G1 X130.483 Y70.290 E46.99446
G1 X132.518 Y68.487 E47.31095
G1 X132.669 Y68.378 E47.33268
G1 X135.042 Y67.031 E47.65024
G1 X135.211 Y66.957 E47.67171
G1 X137.814 Y66.124 E47.98979
G1 X137.996 Y66.086 E48.01139
G1 X140.718 Y65.804 E48.32993
G1 X140.902 Y65.804 E48.35138
G1 X143.626 Y66.086 E48.67008
G1 X143.807 Y66.124 E48.69158
G1 X146.410 Y66.957 E49.00966
G1 X146.579 Y67.032 E49.03125
G1 X148.946 Y68.378 E49.34816
G1 X149.096 Y68.486 E49.36962
G1 X151.136 Y70.289 E49.68654
G1 X151.263 Y70.428 E49.70848
G1 X153.111 Y72.929 E50.07042
G1 X154.136 Y72.517 E50.19911
G1 X152.109 Y56.942 E52.02713
G1 X151.720 Y56.589 E52.08826
G1 X127.535 Y55.820 E54.90457
G1 X127.199 Y55.999 E54.94889
G1 X120.562 Y66.574 E56.40201
G1 X119.598 Y67.019 E56.52557
G1 X102.133 Y64.458 E58.58004
G1 X101.477 Y64.030 E58.67120
G1 X99.829 Y61.412 E59.03123
G1 X99.691 Y60.969 E59.08526
G1 X98.808 Y41.084 E61.40189
G1 X99.780 Y39.999 E61.57149
G1 X118.773 Y38.755 E63.78676
G1 X118.964 Y38.763 E63.80898
G1 X157.324 Y44.493 E68.32329
G1 X157.692 Y44.635 E68.36910
G1 X171.876 Y54.079 E70.35244
G1 X172.259 Y54.620 E70.42957
G1 X184.716 Y103.538 E76.30486
G1 X185.949 Y103.403 E76.44923
G1 X186.205 Y95.355 E77.38637
G1 X186.186 Y93.300 E77.62559
G1 X183.183 Y77.059 E79.54788
G1 X181.518 Y60.070 E81.53481
G1 X182.080 Y59.083 E81.66689
G1 X188.275 Y56.185 E82.46290
G1 X188.568 Y56.105 E82.49830
G1 X193.043 Y55.666 E83.02156
G1 X193.365 Y55.693 E83.05918
G1 X199.627 Y57.382 E83.81407
G1 X200.343 Y58.216 E83.94200
G1 X202.164 Y74.272 E85.82282
G1 X202.235 Y74.451 E85.84516
G1 X210.748 Y85.715 E87.48853
G1 X210.885 Y85.979 E87.52316
G1 X212.801 Y91.867 E88.24379
G1 X212.837 Y92.027 E88.26294
G1 X213.163 Y94.508 E88.55412
G1 X213.160 Y94.760 E88.58347
G1 X204.770 Y149.646 E95.04584
G1 X204.442 Y150.222 E95.12298
G1 X191.246 Y161.004 E97.10631
G1 X190.894 Y161.180 E97.15212
G1 X153.275 Y170.624 E101.66643
G1 X153.086 Y170.650 E101.68865
G1 X134.063 Y171.265 E103.90393
G1 X132.990 Y170.280 E104.07353
G1 X131.929 Y150.404 E106.39016
G1 X132.024 Y149.949 E106.44419
G1 X133.408 Y147.183 E106.80421
G1 X134.019 Y146.693 E106.89537
G1 X151.151 Y142.442 E108.94986
G1 X152.154 Y142.790 E109.07341
G1 X159.790 Y152.667 E110.52654
G1 X160.142 Y152.813 E110.57085
G1 X184.137 Y149.689 E113.38716
G1 X184.490 Y149.300 E113.44830
G1 X185.485 Y117.994 E117.09378
G1 X184.432 Y117.679 E117.22173
G1 X177.068 Y129.704 E118.86285
G1 X177.015 Y129.888 E118.88519
G1 X176.769 Y146.046 E120.76600
G1 X176.137 Y146.945 E120.89394
G1 X170.069 Y149.237 E121.64883
G1 X169.751 Y149.295 E121.68645
G1 X165.363 Y149.295 E122.19724
G1 F1800.000 E121.19724
G92 E0
G1 X135.842 Y95.841 F7200.000
G1 X134.089 Y92.841 F7200.000
G1 X128.124 Y87.455 F7200.000
G1 E1.00000 F1800.000
G1 X127.312 Y87.119 E1.10229 F1080.000
G1 X126.585 Y86.974 E1.18849
G1 X126.337 Y86.155 E1.28813
G1 X127.380 Y85.112 E1.45978
G1 X128.116 Y85.247 E1.54695
G1 X128.799 Y86.758 E1.73995
G1 X128.198 Y87.378 E1.84048
G1 X127.298 Y87.886 F7200.000
G1 X130.079 Y89.744 E2.22971 F1080.000
G1 X130.228 Y89.893 E2.25427
G1 X132.086 Y92.674 E2.64352
G1 X132.167 Y92.869 E2.66807
G1 X132.748 Y95.788 E3.01453
G1 X132.795 Y95.909 E3.02962
G1 X145.030 Y115.486 E5.71652
G1 X145.353 Y115.665 E5.75951
G1 X152.752 Y115.665 E6.62071
G1 X153.380 Y116.292 E6.72400
G1 X153.380 Y131.358 E8.47752
G1 X152.752 Y131.986 E8.58081
G1 X144.104 Y131.986 E9.58734
G1 X143.477 Y131.358 E9.69063
G1 X143.477 Y125.330 E10.39221
G1 X143.058 Y124.912 E10.46107
G1 X129.533 Y124.912 E12.03534
G1 X129.114 Y125.330 E12.10420
G1 X129.114 Y131.330 E12.80248
G1 X128.487 Y131.958 E12.90577
G1 X119.259 Y131.958 E13.97980
G1 X118.649 Y131.414 E14.07483
G1 X114.614 Y96.294 E18.18936
G1 X114.621 Y96.127 E18.20877
G1 X115.377 Y92.326 E18.65993
G1 X114.270 Y91.887 E18.79849
G1 X105.732 Y105.549 E20.67357
G1 X105.684 Y105.669 E20.68866
G1 X105.104 Y108.589 E21.03511
G1 X105.023 Y108.784 E21.05967
G1 X103.165 Y111.564 E21.44891
G1 X103.016 Y111.714 E21.47348
G1 X100.235 Y113.571 E21.86271
G1 X100.040 Y113.652 E21.88727
G1 X96.760 Y114.305 E22.27651
G1 X96.549 Y114.305 E22.30107
G1 X93.269 Y113.652 E22.69032
G1 X93.074 Y113.571 E22.71488
G1 X90.293 Y111.714 E23.10411
G1 X90.144 Y111.564 E23.12867
G1 X88.286 Y108.784 E23.51792
G1 X88.205 Y108.589 E23.54247
G1 X87.557 Y105.330 E23.92914
G1 X87.550 Y105.164 E23.94855
G1 X91.586 Y70.043 E28.06309
G1 X92.196 Y69.500 E28.15811
G1 X101.423 Y69.500 E29.23214
G1 X102.051 Y70.128 E29.33543
G1 X102.051 Y76.127 E30.03371
G1 X102.469 Y76.546 E30.10257
G1 X115.995 Y76.546 E31.67684
G1 X116.414 Y76.127 E31.74570
G1 X116.414 Y70.099 E32.44728
G1 X117.041 Y69.472 E32.55057
G1 X125.689 Y69.472 E33.55710
G1 X126.316 Y70.099 E33.66039
G1 X126.316 Y78.127 E34.59470
G1 X127.593 Y78.263 E34.74410
G1 X128.203 Y75.502 E35.07320
G1 X129.341 Y73.006 E35.39256
G1 X130.909 Y70.883 E35.69971
G1 X133.055 Y68.981 E36.03347
G1 X135.464 Y67.626 E36.35520
G1 X137.996 Y66.815 E36.66467
G1 X140.865 Y66.518 E37.00037
G1 X143.516 Y66.793 E37.31049
G1 X146.156 Y67.626 E37.63279
G1 X148.651 Y69.045 E37.96678
G1 X150.635 Y70.799 E38.27502
G1 X152.279 Y73.006 E38.59534
G1 X153.417 Y75.503 E38.91470
G1 X154.009 Y78.177 E39.23349
G1 X154.009 Y81.029 E39.56542
G1 X153.417 Y83.704 E39.88429
G1 X152.279 Y86.195 E40.20305
G1 X150.635 Y88.402 E40.52335
G1 X148.560 Y90.219 E40.84436
G1 X146.156 Y91.574 E41.16555
G1 X143.624 Y92.385 E41.47502
G1 X140.865 Y92.682 E41.79796
G1 X138.105 Y92.408 E42.12087
G1 X135.363 Y91.530 E42.45595
G1 X132.963 Y90.155 E42.77783
G1 X130.985 Y88.401 E43.08558
G1 X129.342 Y86.195 E43.40572
