; generated by Slic3r 1.0.0RC2 on 2014-05-19 at 19:53:23

; layer_height = 0.1
; perimeters = 3
; top_solid_layers = 3
; bottom_solid_layers = 3
; fill_density = 0.20
; perimeter_speed = 60
; infill_speed = 60
; travel_speed = 120
; nozzle_diameter = 0.4
; filament_diameter = 1.75
; extrusion_multiplier = 0.98
; perimeters extrusion width = 0.40mm
; infill extrusion width = 1.28mm
; solid infill extrusion width = 0.68mm
; top infill extrusion width = 0.68mm
; first layer extrusion width = 0.80mm

G21 ; set units to millimeters
M107
M104 S220 ; set temperature
G28 ; home all axes
M106 S255;
G1 Z200 F1200 ; lift nozzle
M109 S220 ; wait for temperature to be reached
G90 ; use absolute coordinates
G92 E0
M82 ; use absolute distances for extrusion
G1 F1800.000 E-1.00000
G92 E0
G1 Z0.400 F7200.000
G1 X134.693 Y96.371 F7200.000
G1 E1.00000 F1800.000
G1 X137.123 Y93.022 E1.48168 F1080.000
G1 X137.583 Y92.442 E1.56784
G1 X138.113 Y91.932 E1.65345
G1 X138.973 Y91.212 E1.78399
G1 X139.533 Y90.852 E1.86148
G1 X143.113 Y88.782 E2.34279
G1 X143.743 Y88.462 E2.42504
G1 X144.393 Y88.212 E2.50609
G1 X145.503 Y87.882 E2.64087
G1 X146.203 Y87.772 E2.72335
G1 X150.323 Y87.341 E3.20548
G1 X150.973 Y87.312 E3.28121
G1 X151.613 Y87.332 E3.35574
G1 X152.063 Y87.371 E3.40832
G1 X152.823 Y87.481 E3.49770
G1 X153.553 Y87.682 E3.58579
G1 X157.483 Y88.962 E4.06685
G1 X158.163 Y89.222 E4.15159
G1 X158.813 Y89.562 E4.23697
G1 X159.203 Y89.791 E4.28966
G1 X159.763 Y90.151 E4.36715
G1 X160.273 Y90.572 E4.44404
G1 X163.353 Y93.332 E4.92540
G1 X163.893 Y93.871 E5.01428
G1 X164.363 Y94.472 E5.10299
G1 X164.973 Y95.382 E5.23050
G1 X165.263 Y95.962 E5.30597
G1 X166.953 Y99.742 E5.78790
G1 X167.223 Y100.442 E5.87522
G1 X167.403 Y101.162 E5.96160
G1 X167.493 Y101.612 E6.01501
G1 X167.593 Y102.272 E6.09271
G1 X167.623 Y102.932 E6.16960
G1 X167.623 Y107.062 E6.65029
G1 X167.593 Y107.722 E6.72719
G1 X167.493 Y108.382 E6.80488
G1 X167.403 Y108.832 E6.85830
G1 X167.223 Y109.552 E6.94468
G1 X166.953 Y110.262 E7.03309
G1 X165.263 Y114.031 E7.51395
G1 X164.973 Y114.602 E7.58838
G1 X164.363 Y115.512 E7.71589
G1 X163.893 Y116.102 E7.80369
G1 X163.363 Y116.642 E7.89175
G1 X160.283 Y119.412 E8.37388
G1 X159.763 Y119.832 E8.45168
G1 X159.203 Y120.202 E8.52980
G1 X158.813 Y120.432 E8.58250
G1 X158.153 Y120.772 E8.66891
G1 X157.463 Y121.042 E8.75515
G1 X153.533 Y122.312 E9.23585
G1 X152.883 Y122.482 E9.31405
G1 X152.213 Y122.592 E9.39308
G1 X151.763 Y122.642 E9.44577
G1 X151.043 Y122.682 E9.52970
G1 X150.323 Y122.652 E9.61358
G1 X146.213 Y122.222 E10.09455
G1 X145.543 Y122.112 E10.17358
G1 X144.873 Y121.942 E10.25403
G1 X144.433 Y121.802 E10.30777
G1 X143.763 Y121.542 E10.39142
G1 X143.113 Y121.212 E10.47626
G1 X139.533 Y119.142 E10.95758
G1 X138.973 Y118.781 E11.03506
G1 X138.113 Y118.062 E11.16560
G1 X137.583 Y117.552 E11.25121
G1 X137.123 Y116.972 E11.33737
G1 X134.693 Y113.622 E11.81905
G1 X134.303 Y113.022 E11.90234
G1 X133.973 Y112.382 E11.98615
G1 X133.793 Y111.972 E12.03827
G1 X133.553 Y111.332 E12.11782
G1 X133.373 Y110.662 E12.19857
G1 X132.513 Y106.612 E12.68046
G1 X132.403 Y105.922 E12.76178
G1 X132.373 Y105.222 E12.84333
G1 X132.403 Y104.072 E12.97722
G1 X132.513 Y103.382 E13.05855
G1 X133.373 Y99.332 E13.54044
G1 X133.553 Y98.662 E13.62118
G1 X133.793 Y98.022 E13.70074
G1 X133.973 Y97.612 E13.75285
G1 X134.303 Y96.972 E13.83666
G1 X134.635 Y96.461 E13.90748
G1 F1800.000 E12.90748
G92 E0
G1 X145.700 Y101.804 F7200.000
G1 E1.00000 F1800.000
G1 X146.905 Y100.603 E1.19798 F540.000
G1 X148.416 Y99.830 E1.39559
G1 X150.099 Y99.566 E1.59386
G1 X151.778 Y99.830 E1.79160
G1 X153.294 Y100.603 E1.98969
G1 X154.494 Y101.804 E2.18729
G1 X155.267 Y103.318 E2.38513
G1 X155.535 Y105.002 E2.58361
G1 X155.267 Y106.682 E2.78170
G1 X154.494 Y108.196 E2.97949
G1 X153.294 Y109.397 E3.17709
G1 X151.778 Y110.170 E3.37518
G1 X150.099 Y110.434 E3.57292
G1 X148.416 Y110.170 E3.77119
G1 X146.905 Y109.397 E3.96880
G1 X145.700 Y108.196 E4.16678
G1 X144.931 Y106.680 E4.36462
G1 X144.663 Y105.002 E4.56245
G1 X144.931 Y103.320 E4.76067
G1 X145.652 Y101.899 E4.94609
G1 X146.285 Y102.229 F7200.000
G1 X147.330 Y101.188 E5.11775 F540.000
G1 X148.640 Y100.517 E5.28905
G1 X150.099 Y100.289 E5.46095
G1 X151.554 Y100.517 E5.63240
G1 X152.868 Y101.188 E5.80410
G1 X153.909 Y102.229 E5.97544
G1 X154.579 Y103.542 E6.14700
G1 X154.812 Y105.002 E6.31905
G1 X154.579 Y106.458 E6.49073
G1 X153.909 Y107.771 E6.66226
G1 X152.868 Y108.812 E6.83360
G1 X151.554 Y109.483 E7.00530
G1 X150.099 Y109.711 E7.17675
G1 X148.640 Y109.483 E7.34865
G1 X147.330 Y108.812 E7.51995
G1 X146.285 Y107.771 E7.69161
G1 X145.618 Y106.457 E7.86311
G1 X145.386 Y105.002 E8.03463
G1 X145.618 Y103.543 E8.20652
G1 X146.237 Y102.325 E8.36558
G1 X146.870 Y102.654 F7200.000
G1 X147.755 Y101.773 E8.51092 F540.000
G1 X148.864 Y101.205 E8.65590
G1 X150.099 Y101.012 E8.80144
G1 X151.331 Y101.205 E8.94659
G1 X152.443 Y101.773 E9.09192
G1 X153.325 Y102.654 E9.23699
G1 X153.892 Y103.766 E9.38226
G1 X154.089 Y105.002 E9.52789
G1 X153.892 Y106.234 E9.67316
G1 X153.325 Y107.346 E9.81842
G1 X152.443 Y108.227 E9.96350
G1 X151.331 Y108.795 E10.10882
G1 X150.099 Y108.988 E10.25397
G1 X148.864 Y108.795 E10.39951
G1 X147.755 Y108.227 E10.54449
G1 X146.870 Y107.346 E10.68984
G1 X146.306 Y106.234 E10.83499
G1 X146.109 Y105.002 E10.98020
G1 X146.306 Y103.766 E11.12577
G1 X146.822 Y102.750 E11.25846
G1 X146.615 Y101.987 F7200.000
G1 X144.994 Y100.827 F7200.000
G1 X145.630 Y99.988 E11.38095 F1080.000
G1 X146.820 Y99.279 E11.54219
G1 X148.036 Y98.624 E11.70297
G1 X149.345 Y98.451 E11.85667
G1 X150.764 Y98.332 E12.02241
G1 X152.146 Y98.731 E12.18978
G1 X153.460 Y99.211 E12.35254
G1 X154.530 Y100.116 E12.51569
G1 X155.551 Y101.099 E12.68065
G1 X156.129 Y102.335 E12.83946
G1 X156.645 Y103.607 E12.99921
G1 X156.694 Y105.000 E13.16148
G1 X156.644 Y106.403 E13.32481
G1 X156.111 Y107.710 E13.48918
G1 X155.520 Y108.933 E13.64725
G1 X154.523 Y109.889 E13.80806
G1 X153.428 Y110.813 E13.97473
G1 X152.146 Y111.269 E14.13310
G1 X150.779 Y111.663 E14.29873
G1 X149.375 Y111.555 E14.46258
G1 X148.029 Y111.371 E14.62070
G1 X146.794 Y110.708 E14.78385
G1 X145.629 Y109.989 E14.94322
G1 X144.774 Y108.892 E15.10503
G1 X143.968 Y107.699 E15.27268
G1 X143.652 Y106.386 E15.42988
G1 X143.392 Y105.000 E15.59398
G1 X143.648 Y103.632 E15.75592
G1 X143.971 Y102.289 E15.91673
G1 X144.768 Y101.116 E16.08184
G1 X144.928 Y100.911 E16.11202
G1 X144.418 Y100.404 F7200.000
G1 X145.146 Y99.444 E16.25228 F1080.000
G1 X146.465 Y98.659 E16.43089
G1 X147.813 Y97.934 E16.60904
G1 X149.298 Y97.737 E16.78343
G1 X150.836 Y97.610 E16.96303
G1 X152.367 Y98.052 E17.14853
G1 X153.824 Y98.584 E17.32901
G1 X155.005 Y99.583 E17.50913
G1 X156.143 Y100.677 E17.69286
G1 X156.781 Y102.040 E17.86801
G1 X157.354 Y103.456 E18.04571
G1 X157.409 Y105.000 E18.22559
G1 X157.354 Y106.555 E18.40663
G1 X156.764 Y108.001 E18.58841
G1 X156.107 Y109.359 E18.76406
G1 X155.002 Y110.420 E18.94232
G1 X153.789 Y111.442 E19.12693
G1 X152.368 Y111.948 E19.30256
G1 X150.853 Y112.385 E19.48605
G1 X149.299 Y112.265 E19.66738
G1 X147.805 Y112.061 E19.84294
G1 X146.434 Y111.325 E20.02409
G1 X145.145 Y110.530 E20.20032
G1 X144.194 Y109.310 E20.38037
G1 X143.304 Y107.991 E20.56554
G1 X142.953 Y106.534 E20.74002
G1 X142.665 Y105.000 E20.92164
G1 X142.949 Y103.485 E21.10108
G1 X143.307 Y101.995 E21.27935
G1 X144.191 Y100.694 E21.46242
G1 X144.352 Y100.488 E21.49286
G1 X143.852 Y99.968 F7200.000
G1 X144.152 Y99.573 E21.55058 F756.000
G1 X143.771 Y99.259 E21.60808
G1 X143.516 Y98.927 E21.65679
G1 X143.311 Y98.514 E21.71044
G1 X143.147 Y98.035 E21.76937
G1 X142.925 Y97.030 E21.88917
G1 X143.896 Y97.358 E22.00854
G1 X144.356 Y97.571 E22.06749
G1 X144.746 Y97.822 E22.12151
G1 X145.049 Y98.104 E22.16968
G1 X145.313 Y98.519 E22.22686
G1 X146.102 Y98.043 E22.33416
G1 X146.871 Y97.629 E22.43581
G1 X146.653 Y97.182 E22.49372
G1 X146.555 Y96.777 E22.54220
G1 X146.537 Y96.315 E22.59605
G1 X146.583 Y95.807 E22.65539
G1 X146.785 Y94.800 E22.77494
G1 X147.541 Y95.498 E22.89475
G1 X147.875 Y95.879 E22.95369
G1 X148.130 Y96.265 E23.00762
G1 X148.291 Y96.648 E23.05591
G1 X148.375 Y97.139 E23.11382
G1 X149.251 Y97.022 E23.21663
G1 X150.150 Y96.950 E23.32164
G1 X150.131 Y96.457 E23.37907
G1 X150.209 Y96.046 E23.42775
G1 X150.378 Y95.614 E23.48175
G1 X150.624 Y95.172 E23.54066
G1 X151.222 Y94.335 E23.66039
G1 X151.628 Y95.278 E23.77992
G1 X151.776 Y95.763 E23.83894
G1 X151.852 Y96.219 E23.89272
G1 X151.842 Y96.637 E23.94134
G1 X151.719 Y97.121 E23.99955
G1 X152.589 Y97.372 E24.10494
G1 X153.416 Y97.674 E24.20748
G1 X153.604 Y97.206 E24.26622
G1 X153.839 Y96.866 E24.31430
G1 X154.170 Y96.540 E24.36840
G1 X154.575 Y96.239 E24.42718
G1 X155.461 Y95.712 E24.54714
G1 X155.450 Y96.740 E24.66679
G1 X155.387 Y97.245 E24.72604
G1 X155.274 Y97.696 E24.78019
G1 X155.099 Y98.065 E24.82771
G1 X154.776 Y98.454 E24.88655
G1 X155.482 Y99.051 E24.99413
G1 X156.113 Y99.657 E25.09595
G1 X156.472 Y99.307 E25.15431
G1 X156.827 Y99.090 E25.20274
G1 X157.258 Y98.929 E25.25634
G1 X157.754 Y98.814 E25.31556
G1 X158.775 Y98.698 E25.43514
G1 X158.346 Y99.631 E25.55466
G1 X158.085 Y100.067 E25.61380
G1 X157.799 Y100.429 E25.66756
G1 X157.480 Y100.701 E25.71633
G1 X157.049 Y100.935 E25.77338
G1 X157.413 Y101.702 E25.87221
G1 X157.763 Y102.562 E25.98027
G1 X158.234 Y102.392 E26.03861
G1 X158.648 Y102.337 E26.08720
G1 X159.108 Y102.366 E26.14090
G1 X159.607 Y102.462 E26.20003
G1 X160.594 Y102.770 E26.32032
G1 X159.818 Y103.450 E26.44044
G1 X159.401 Y103.741 E26.49965
G1 X158.990 Y103.957 E26.55368
G1 X158.595 Y104.074 E26.60159
G1 X158.091 Y104.102 E26.66030
G1 X158.123 Y105.000 E26.76486
G1 X158.091 Y105.898 E26.86941
G1 X158.594 Y105.926 E26.92798
G1 X158.990 Y106.046 E26.97611
G1 X159.401 Y106.259 E27.03001
G1 X159.817 Y106.552 E27.08930
G1 X160.589 Y107.229 E27.20874
G1 X159.606 Y107.535 E27.32854
G1 X159.107 Y107.634 E27.38774
G1 X158.647 Y107.663 E27.44146
G1 X158.233 Y107.610 E27.49000
G1 X157.763 Y107.441 E27.54810
G1 X157.417 Y108.291 E27.65495
G1 X157.040 Y109.071 E27.75571
G1 X157.482 Y109.301 E27.81375
G1 X157.799 Y109.571 E27.86212
G1 X158.085 Y109.933 E27.91588
G1 X158.345 Y110.369 E27.97497
G1 X158.772 Y111.302 E28.09438
G1 X157.753 Y111.186 E28.21378
G1 X157.258 Y111.074 E28.27280
G1 X156.827 Y110.910 E28.32651
G1 X156.474 Y110.696 E28.37457
G1 X156.117 Y110.340 E28.43330
G1 X155.481 Y110.950 E28.53592
G1 X154.779 Y111.542 E28.64276
G1 X155.098 Y111.936 E28.70171
G1 X155.274 Y112.307 E28.74954
G1 X155.387 Y112.756 E28.80336
G1 X155.450 Y113.260 E28.86257
G1 X155.461 Y114.286 E28.98195
G1 X154.576 Y113.765 E29.10149
G1 X154.170 Y113.457 E29.16078
G1 X153.839 Y113.137 E29.21443
G1 X153.603 Y112.790 E29.26323
G1 X153.412 Y112.334 E29.32076
G1 X152.589 Y112.628 E29.42254
G1 X151.720 Y112.878 E29.52774
G1 X151.842 Y113.365 E29.58621
G1 X151.852 Y113.781 E29.63461
G1 X151.776 Y114.240 E29.68870
G1 X151.628 Y114.721 E29.74736
G1 X151.221 Y115.667 E29.86711
G1 X150.624 Y114.825 E29.98722
G1 X150.378 Y114.385 E30.04590
G1 X150.209 Y113.953 E30.09986
G1 X150.131 Y113.545 E30.14822
G1 X150.150 Y113.047 E30.20623
G1 X149.224 Y112.976 E30.31440
G1 X148.376 Y112.860 E30.41401
G1 X148.291 Y113.352 E30.47212
G1 X148.130 Y113.735 E30.52041
G1 X147.875 Y114.121 E30.57434
G1 X147.541 Y114.502 E30.63327
G1 X146.784 Y115.200 E30.75315
G1 X146.583 Y114.190 E30.87307
G1 X146.537 Y113.685 E30.93208
G1 X146.555 Y113.223 E30.98592
G1 X146.653 Y112.818 E31.03440
G1 X146.872 Y112.370 E31.09239
G1 X146.073 Y111.942 E31.19787
G1 X145.317 Y111.474 E31.30132
G1 X145.049 Y111.896 E31.35948
G1 X144.746 Y112.178 E31.40765
G1 X144.356 Y112.429 E31.46167
G1 X143.896 Y112.642 E31.52062
G1 X142.924 Y112.970 E31.64006
G1 X143.147 Y111.968 E31.75958
G1 X143.311 Y111.486 E31.81885
G1 X143.516 Y111.073 E31.87247
G1 X143.771 Y110.741 E31.92118
G1 X144.156 Y110.423 E31.97930
G1 X143.587 Y109.690 E32.08731
G1 X143.108 Y108.979 E32.18707
G1 X142.683 Y109.244 E32.24535
G1 X142.289 Y109.382 E32.29392
G1 X141.834 Y109.450 E32.34752
G1 X141.324 Y109.458 E32.40684
G1 X140.300 Y109.363 E32.52652
G1 X140.915 Y108.537 E32.64634
G1 X141.260 Y108.168 E32.70517
G1 X141.618 Y107.872 E32.75925
G1 X141.983 Y107.672 E32.80767
G1 X142.460 Y107.539 E32.86535
G1 X142.254 Y106.682 E32.96795
G1 X142.087 Y105.786 E33.07396
G1 X141.594 Y105.862 E33.13196
G1 X141.182 Y105.830 E33.18007
G1 X140.737 Y105.703 E33.23389
G1 X140.271 Y105.506 E33.29276
G1 X139.378 Y104.999 E33.41233
G1 X140.271 Y104.497 E33.53161
G1 X140.737 Y104.297 E33.59060
G1 X141.182 Y104.173 E33.64435
G1 X141.595 Y104.138 E33.69261
G1 X142.087 Y104.214 E33.75047
G1 X142.253 Y103.324 E33.85580
G1 X142.460 Y102.464 E33.95874
G1 X141.983 Y102.331 E34.01639
G1 X141.618 Y102.131 E34.06480
G1 X141.260 Y101.836 E34.11880
G1 X140.915 Y101.463 E34.17788
G1 X140.300 Y100.637 E34.29779
G1 X141.324 Y100.542 E34.41747
G1 X141.834 Y100.550 E34.47679
G1 X142.289 Y100.618 E34.53039
G1 X142.683 Y100.756 E34.57896
G1 X143.107 Y101.020 E34.63700
G1 X143.614 Y100.273 E34.74209
G1 X143.786 Y100.053 E34.77462
G1 X144.344 Y100.033 F7200.000
G1 X144.554 Y98.965 F7200.000
G1 X144.129 Y98.540 E34.84451 F360.000
G1 X145.947 Y100.415 F7200.000
G1 X146.166 Y100.634 E34.86169 F360.000
G1 X145.925 Y100.874 E34.88059 F360.000
G1 X145.732 Y100.681 E34.89574 F360.000
G1 X145.524 Y100.955 E34.91482 F360.000
G1 X145.683 Y101.115 E34.92734 F360.000
G1 X145.442 Y101.355 E34.94624 F360.000
G1 X145.315 Y101.228 E34.95621 F360.000
G1 X145.109 Y101.504 E34.97531 F360.000
G1 X145.230 Y101.625 E34.98481 F360.000
G1 X144.914 Y101.791 E35.00460 F360.000
G1 X145.068 Y101.944 E35.01667 F360.000
G1 X144.906 Y102.264 E35.03656 F360.000
G1 X144.720 Y102.077 E35.05119 F360.000
G1 X144.525 Y102.364 E35.07043 F360.000
G1 X144.744 Y102.583 E35.08764 F360.000
G1 X144.582 Y102.903 E35.10752 F360.000
G1 X144.385 Y102.706 E35.12296 F360.000
G1 X144.292 Y103.094 E35.14512 F360.000
G1 X144.437 Y103.240 E35.15653 F360.000
G1 X144.199 Y103.483 E35.17543 F360.000
G1 X144.371 Y103.655 E35.18896 F360.000
G1 X144.112 Y103.877 E35.20791 F360.000
G1 X144.305 Y104.070 E35.22305 F360.000
G1 X144.036 Y104.283 E35.24208 F360.000
G1 X144.238 Y104.486 E35.25799 F360.000
G1 X143.959 Y104.688 E35.27713 F360.000
G1 X144.172 Y104.901 E35.29383 F360.000
G1 X143.927 Y105.137 E35.31273 F360.000
G1 X144.226 Y105.436 E35.33620 F360.000
G1 X144.038 Y105.730 E35.35556 F360.000
G1 X144.317 Y106.009 E35.37746 F360.000
G1 X144.151 Y106.325 E35.39725 F360.000
G1 X144.409 Y106.582 E35.41746 F360.000
G1 X144.304 Y106.959 E35.43917 F360.000
G1 X144.726 Y107.381 E35.47225 F360.000
G1 X144.589 Y107.726 E35.49286 F360.000
G1 X145.222 Y108.359 E35.54250 F360.000
G1 X145.881 Y109.499 F7200.000
G1 X146.031 Y109.649 E35.55430 F360.000
G1 X146.734 Y109.871 F7200.000
G1 X147.246 Y110.382 E35.59447 F360.000
G1 X147.721 Y110.376 E35.62085 F360.000
G1 X148.240 Y110.895 E35.66157 F360.000
G1 X148.519 Y110.693 E35.68071 F360.000
G1 X148.798 Y110.971 E35.70258 F360.000
G1 X149.090 Y110.782 E35.72191 F360.000
G1 X149.356 Y111.048 E35.74274 F360.000
G1 X149.661 Y110.872 E35.76231 F360.000
G1 X149.882 Y111.092 E35.77964 F360.000
G1 X150.196 Y110.925 E35.79940 F360.000
G1 X150.404 Y111.133 E35.81569 F360.000
G1 X150.612 Y110.860 E35.83475 F360.000
G1 X150.869 Y111.117 E35.85491 F360.000
G1 X151.029 Y110.794 E35.87486 F360.000
G1 X151.243 Y111.009 E35.89169 F360.000
G1 X151.445 Y110.729 E35.91083 F360.000
G1 X151.617 Y110.901 E35.92434 F360.000
G1 X151.861 Y110.664 E35.94324 F360.000
G1 X151.991 Y110.793 E35.95342 F360.000
G1 X152.197 Y110.518 E35.97251 F360.000
G1 X152.345 Y110.666 E35.98416 F360.000
G1 X152.516 Y110.355 E36.00385 F360.000
G1 X152.701 Y110.540 E36.01837 F360.000
G1 X152.835 Y110.192 E36.03905 F360.000
G1 X153.056 Y110.414 E36.05645 F360.000
G1 X153.349 Y110.225 E36.07579 F360.000
G1 X153.153 Y110.030 E36.09116 F360.000
G1 X153.472 Y109.867 E36.11103 F360.000
G1 X153.611 Y110.005 E36.12189 F360.000
G1 X153.872 Y109.785 E36.14086 F360.000
G1 X153.742 Y109.655 E36.15106 F360.000
G1 X153.983 Y109.414 E36.16996 F360.000
