; generated by Slic3r 1.0.0RC2 on 2014-04-09 at 19:24:59

; layer_height = 0.3
; perimeters = 4
; top_solid_layers = 4
; bottom_solid_layers = 4
; fill_density = 0.20
; perimeter_speed = 60
; infill_speed = 60
; travel_speed = 120
; nozzle_diameter = 0.4
; filament_diameter = 1.75
; extrusion_multiplier = 0.98
; perimeters extrusion width = 0.40mm
; infill extrusion width = 0.42mm
; solid infill extrusion width = 0.42mm
; top infill extrusion width = 0.42mm
; first layer extrusion width = 0.80mm

G21 ; set units to millimeters
M107
M104 S220 ; set temperature
G28 ; home all axes
M106 S255;
G1 Z200 F1200 ; lift nozzle
M109 S220 ; wait for temperature to be reached
G90 ; use absolute coordinates
G92 E0
M82 ; use absolute distances for extrusion
G1 F1800.000 E-1.00000
G92 E0
G1 Z0.400 F7200.000
G1 X72.550 Y47.190 F7200.000
G1 E1.00000 F1800.000
G1 X73.570 Y46.060 E1.17718 F1080.000
G1 X74.820 Y45.190 E1.35443
G1 X76.230 Y44.630 E1.53101
G1 X96.600 Y39.030 E3.98983
G1 X97.350 Y38.860 E4.07934
G1 X98.120 Y38.790 E4.16933
G1 X174.930 Y35.790 E13.11605
G1 X176.480 Y35.910 E13.29700
G1 X177.970 Y36.390 E13.47919
G1 X239.770 Y64.490 E21.38073
G1 X241.030 Y65.240 E21.55139
G1 X242.100 Y66.240 E21.72185
G1 X242.920 Y67.450 E21.89198
G1 X243.460 Y68.820 E22.06337
G1 X243.700 Y70.260 E22.23328
G1 X243.610 Y71.730 E22.40470
G1 X228.600 Y160.020 E32.82820
G1 X228.180 Y161.480 E33.00502
G1 X227.440 Y162.800 E33.18115
G1 X226.420 Y163.930 E33.35833
G1 X225.170 Y164.800 E33.53559
G1 X223.760 Y165.360 E33.71217
G1 X203.390 Y170.960 E36.17099
G1 X202.640 Y171.130 E36.26050
G1 X201.870 Y171.200 E36.35049
G1 X125.060 Y174.200 E45.29721
G1 X123.510 Y174.080 E45.47815
G1 X122.020 Y173.600 E45.66035
G1 X60.220 Y145.500 E53.56188
G1 X58.960 Y144.750 E53.73255
G1 X57.890 Y143.750 E53.90301
G1 X57.070 Y142.540 E54.07313
G1 X56.530 Y141.170 E54.24453
G1 X56.290 Y139.730 E54.41444
G1 X56.380 Y138.260 E54.58585
G1 X71.390 Y49.970 E65.00936
G1 X71.810 Y48.510 E65.18618
G1 X72.498 Y47.283 E65.34984
G1 F1800.000 E64.34984
G92 E0
G1 X74.151 Y49.641 F7200.000
G1 E1.00000 F1800.000
G1 X75.744 Y47.654 E1.29644 F1080.000
G1 X97.560 Y41.656 E3.92983
G1 X98.005 Y41.587 E3.98228
G1 X177.465 Y38.480 E13.23773
G1 X179.382 Y41.956 E13.69966
G1 X179.835 Y42.149 E13.75697
G1 X180.673 Y41.925 E13.85795
G1 X183.882 Y45.179 E14.38989
G1 X180.240 Y58.058 E15.94757
G1 X180.640 Y58.617 E16.02761
G1 X221.648 Y60.741 E20.80694
G1 X222.241 Y60.865 E20.87742
G1 X239.723 Y67.435 E23.05112
G1 X241.126 Y69.934 E23.38466
G1 X239.450 Y78.750 E24.42916
G1 X236.486 Y80.566 E24.83381
G1 X232.899 Y79.520 E25.26861
G1 X232.374 Y79.818 E25.33884
G1 X232.054 Y81.042 E25.48616
G1 X232.339 Y81.546 E25.55357
G1 X235.915 Y82.596 E25.98735
G1 X237.500 Y85.004 E26.32282
G1 X236.556 Y92.707 E27.22604
G1 X227.676 Y139.751 E32.79820
G1 X227.267 Y147.545 E33.70653
G1 X224.549 Y149.747 E34.11366
G1 X220.848 Y149.161 E34.54970
G1 X220.365 Y149.523 E34.61993
G1 X220.203 Y150.778 E34.76725
G1 X220.549 Y151.242 E34.83466
G1 X224.316 Y151.845 E35.27870
G1 X226.214 Y154.244 E35.63468
G1 X226.010 Y157.033 E35.96017
G1 X225.849 Y160.359 E36.34775
G1 X224.256 Y162.346 E36.64418
G1 X202.440 Y168.344 E39.27757
G1 X201.995 Y168.413 E39.33002
G1 X122.535 Y171.520 E48.58548
G1 X120.618 Y168.044 E49.04740
G1 X120.165 Y167.851 E49.10471
G1 X119.327 Y168.075 E49.20569
G1 X116.118 Y164.821 E49.73764
G1 X119.760 Y151.942 E51.29532
G1 X119.360 Y151.383 E51.37535
G1 X78.352 Y149.259 E56.15468
G1 X77.759 Y149.135 E56.22516
G1 X60.277 Y142.565 E58.39886
G1 X58.874 Y140.066 E58.73240
G1 X60.550 Y131.250 E59.77690
G1 X63.514 Y129.434 E60.18155
G1 X67.101 Y130.480 E60.61636
G1 X67.626 Y130.182 E60.68659
G1 X67.946 Y128.958 E60.83391
G1 X67.661 Y128.454 E60.90131
G1 X64.085 Y127.404 E61.33509
G1 X62.500 Y124.996 E61.67057
G1 X63.444 Y117.293 E62.57378
G1 X72.324 Y70.249 E68.14595
G1 X72.733 Y62.455 E69.05427
G1 X75.451 Y60.253 E69.46140
G1 X79.152 Y60.839 E69.89745
G1 X79.635 Y60.477 E69.96768
G1 X79.797 Y59.222 E70.11500
G1 X79.451 Y58.758 E70.18241
G1 X75.684 Y58.155 E70.62644
G1 X73.786 Y55.756 E70.98243
G1 X73.990 Y52.967 E71.30792
G1 X74.146 Y49.748 E71.68302
G1 X74.853 Y49.907 F7200.000
G1 X76.156 Y48.281 E71.92556 F1080.000
G1 X97.710 Y42.355 E74.52723
G1 X98.074 Y42.299 E74.57015
G1 X177.053 Y39.211 E83.76954
G1 X179.027 Y42.790 E84.24521
G1 X179.480 Y42.983 E84.30253
G1 X180.457 Y42.722 E84.42019
G1 X183.082 Y45.385 E84.85542
G1 X179.309 Y58.724 E86.46891
G1 X179.709 Y59.283 E86.54894
G1 X221.556 Y61.451 E91.42604
G1 X222.041 Y61.553 E91.48371
G1 X239.228 Y68.012 E93.62068
G1 X240.376 Y70.056 E93.89357
G1 X238.808 Y78.306 E94.87096
G1 X236.382 Y79.792 E95.20204
G1 X232.394 Y78.629 E95.68555
G1 X231.869 Y78.927 E95.75578
G1 X231.188 Y81.532 E96.06926
G1 X231.473 Y82.036 E96.13666
G1 X235.463 Y83.208 E96.62061
G1 X236.759 Y85.178 E96.89509
G1 X235.852 Y92.586 E97.76375
G1 X226.965 Y139.666 E103.34016
G1 X226.570 Y147.190 E104.21707
G1 X224.346 Y148.992 E104.55018
G1 X220.234 Y148.341 E105.03470
G1 X219.751 Y148.703 E105.10493
G1 X219.405 Y151.374 E105.41841
G1 X219.752 Y151.838 E105.48581
G1 X223.929 Y152.506 E105.97816
G1 X225.482 Y154.469 E106.26942
G1 X225.297 Y156.989 E106.56357
G1 X225.147 Y160.093 E106.92522
G1 X223.844 Y161.719 E107.16776
G1 X202.290 Y167.645 E109.76943
G1 X201.926 Y167.701 E109.81235
G1 X122.947 Y170.789 E119.01174
G1 X120.973 Y167.210 E119.48741
G1 X120.520 Y167.017 E119.54473
G1 X119.543 Y167.278 E119.66239
G1 X116.918 Y164.615 E120.09762
G1 X120.691 Y151.276 E121.71111
G1 X120.291 Y150.717 E121.79114
G1 X78.444 Y148.549 E126.66824
G1 X77.959 Y148.447 E126.72591
G1 X60.772 Y141.988 E128.86288
G1 X59.624 Y139.944 E129.13577
G1 X61.192 Y131.694 E130.11316
G1 X63.618 Y130.208 E130.44424
G1 X67.606 Y131.371 E130.92775
G1 X68.131 Y131.073 E130.99798
G1 X68.812 Y128.468 E131.31146
G1 X68.527 Y127.964 E131.37886
G1 X64.537 Y126.792 E131.86281
G1 X63.241 Y124.822 E132.13729
G1 X64.148 Y117.414 E133.00595
G1 X73.035 Y70.334 E138.58236
G1 X73.430 Y62.810 E139.45927
G1 X75.654 Y61.008 E139.79238
G1 X79.766 Y61.659 E140.27690
G1 X80.249 Y61.297 E140.34713
G1 X80.595 Y58.626 E140.66061
G1 X80.248 Y58.162 E140.72802
G1 X76.071 Y57.494 E141.22036
G1 X74.518 Y55.531 E141.51162
G1 X74.703 Y53.011 E141.80577
G1 X74.848 Y50.014 E142.15495
G1 X75.555 Y50.173 F7200.000
G1 X76.569 Y48.908 E142.34360 F1080.000
G1 X97.859 Y43.055 E144.91355
G1 X98.143 Y43.011 E144.94693
G1 X176.641 Y39.942 E154.09025
G1 X178.131 Y42.643 E154.44932
G1 X177.732 Y43.223 E154.53119
G1 X178.307 Y44.036 E154.64699
G1 X180.240 Y43.519 E154.87989
G1 X182.281 Y45.590 E155.21840
G1 X178.378 Y59.391 E156.88771
G1 X178.778 Y59.950 E156.96774
G1 X221.464 Y62.162 E161.94261
G1 X221.842 Y62.240 E161.98746
G1 X238.733 Y68.589 E164.08770
G1 X239.626 Y70.179 E164.29995
G1 X238.165 Y77.862 E165.21023
G1 X236.278 Y79.018 E165.46774
G1 X231.889 Y77.738 E165.99994
G1 X231.364 Y78.035 E166.07018
G1 X230.322 Y82.022 E166.54981
G1 X230.607 Y82.526 E166.61722
G1 X235.010 Y83.819 E167.15134
G1 X236.018 Y85.352 E167.36482
G1 X235.148 Y92.465 E168.19892
G1 X226.254 Y139.581 E173.77957
G1 X225.873 Y146.835 E174.62507
G1 X224.144 Y148.236 E174.88416
G1 X219.621 Y147.521 E175.41715
G1 X219.137 Y147.882 E175.48739
G1 X218.608 Y151.969 E175.96702
G1 X218.955 Y152.433 E176.03443
G1 X223.541 Y153.168 E176.57508
G1 X224.749 Y154.694 E176.80161
G1 X224.584 Y156.946 E177.06443
G1 X224.445 Y159.827 E177.40016
G1 X223.431 Y161.092 E177.58880
G1 X202.141 Y166.945 E180.15875
G1 X201.857 Y166.989 E180.19213
G1 X123.359 Y170.058 E189.33546
G1 X121.869 Y167.357 E189.69452
G1 X122.268 Y166.777 E189.77639
G1 X121.693 Y165.964 E189.89220
G1 X119.760 Y166.481 E190.12509
G1 X117.719 Y164.410 E190.46361
G1 X121.622 Y150.609 E192.13292
G1 X121.222 Y150.050 E192.21295
G1 X78.536 Y147.838 E197.18781
G1 X78.158 Y147.760 E197.23266
G1 X61.267 Y141.411 E199.33290
G1 X60.374 Y139.821 E199.54516
G1 X61.835 Y132.138 E200.45543
G1 X63.722 Y130.982 E200.71294
G1 X68.111 Y132.262 E201.24515
G1 X68.636 Y131.965 E201.31538
G1 X69.678 Y127.978 E201.79502
G1 X69.393 Y127.474 E201.86242
G1 X64.990 Y126.181 E202.39654
G1 X63.982 Y124.648 E202.61003
G1 X64.852 Y117.535 E203.44412
G1 X73.746 Y70.419 E209.02478
G1 X74.127 Y63.165 E209.87028
G1 X75.856 Y61.764 E210.12936
G1 X80.379 Y62.479 E210.66236
G1 X80.863 Y62.118 E210.73259
G1 X81.392 Y58.031 E211.21223
G1 X81.045 Y57.567 E211.27963
G1 X76.459 Y56.832 E211.82028
G1 X75.251 Y55.306 E212.04682
G1 X75.416 Y53.054 E212.30964
G1 X75.550 Y50.280 E212.63289
G1 X76.257 Y50.439 F7200.000
G1 X76.981 Y49.535 E212.76764 F1080.000
G1 X98.009 Y43.754 E215.30588
G1 X98.212 Y43.723 E215.32972
G1 X176.228 Y40.673 E224.41698
G1 X177.292 Y42.602 E224.67345
G1 X176.049 Y44.412 E224.92901
G1 X176.624 Y45.225 E225.04482
G1 X180.023 Y44.316 E225.45435
G1 X181.481 Y45.796 E225.69614
G1 X177.715 Y59.110 E227.30661
G1 X176.768 Y59.331 E227.41981
G1 X176.878 Y60.567 E227.56419
G1 X221.372 Y62.872 E232.74982
G1 X221.642 Y62.928 E232.78186
G1 X238.238 Y69.166 E234.84537
G1 X238.876 Y70.301 E234.99698
G1 X237.523 Y77.418 E235.84015
G1 X236.175 Y78.244 E236.02408
G1 X231.383 Y76.847 E236.60499
G1 X230.858 Y77.144 E236.67522
G1 X229.456 Y82.512 E237.32102
G1 X229.741 Y83.016 E237.38842
G1 X234.557 Y84.431 E237.97271
G1 X235.278 Y85.525 E238.12520
G1 X234.444 Y92.344 E238.92474
G1 X225.544 Y139.496 E244.50964
G1 X225.177 Y146.480 E245.32373
G1 X223.941 Y147.481 E245.50879
G1 X219.007 Y146.701 E246.09026
G1 X218.524 Y147.062 E246.16049
G1 X217.811 Y152.565 E246.80629
G1 X218.157 Y153.029 E246.87369
G1 X223.154 Y153.829 E247.46265
G1 X224.017 Y154.919 E247.62446
G1 X223.871 Y156.903 E247.85594
G1 X223.743 Y159.561 E248.16575
G1 X223.019 Y160.465 E248.30049
G1 X201.991 Y166.246 E250.83873
G1 X201.788 Y166.277 E250.86257
G1 X123.772 Y169.327 E259.94983
G1 X122.708 Y167.398 E260.20631
G1 X123.951 Y165.588 E260.46187
G1 X123.376 Y164.775 E260.57767
G1 X119.977 Y165.684 E260.98720
G1 X118.519 Y164.204 E261.22899
G1 X122.285 Y150.890 E262.83946
G1 X123.232 Y150.669 E262.95266
G1 X123.122 Y149.433 E263.09705
G1 X78.628 Y147.128 E268.28268
G1 X78.358 Y147.072 E268.31471
G1 X61.762 Y140.834 E270.37822
G1 X61.124 Y139.699 E270.52983
G1 X62.477 Y132.582 E271.37300
G1 X63.825 Y131.756 E271.55694
G1 X68.617 Y133.153 E272.13785
G1 X69.142 Y132.856 E272.20808
G1 X70.544 Y127.488 E272.85387
G1 X70.259 Y126.984 E272.92128
G1 X65.442 Y125.569 E273.50557
G1 X64.722 Y124.475 E273.65806
G1 X65.556 Y117.656 E274.45760
G1 X74.456 Y70.504 E280.04250
G1 X74.823 Y63.520 E280.85658
G1 X76.059 Y62.519 E281.04164
G1 X80.993 Y63.299 E281.62312
G1 X81.476 Y62.938 E281.69335
G1 X82.189 Y57.435 E282.33914
G1 X81.843 Y56.971 E282.40655
G1 X76.846 Y56.171 E282.99550
G1 X75.983 Y55.081 E283.15732
G1 X76.129 Y53.097 E283.38880
G1 X76.252 Y50.546 E283.68613
G1 F1800.000 E282.68613
G92 E0
G1 X83.778 Y44.020 F7200.000
G1 X90.106 Y44.101 F7200.000
G1 X93.255 Y43.544 F7200.000
G1 X151.774 Y51.314 F7200.000
G1 X171.178 Y59.771 F7200.000
G1 E1.00000 F1800.000
G1 X171.760 Y57.005 E1.32896 F1080.000
G1 X172.293 Y56.684 E1.40135
G1 X173.204 Y56.946 E1.51175
G1 X173.374 Y57.052 E1.53506
G1 X175.694 Y59.622 E1.93807
G1 X175.284 Y60.484 E2.04919
G1 X171.579 Y60.292 E2.48099
G1 X171.243 Y59.856 E2.54508
G1 X172.049 Y59.101 F7200.000
G1 X172.268 Y58.057 E2.66925 F1080.000
G1 X173.114 Y57.829 E2.77117
G1 X174.008 Y58.820 E2.92650
G1 X173.598 Y59.682 E3.03762
G1 X172.450 Y59.622 E3.17141
G1 X172.114 Y59.186 E3.23550
G1 F1800.000 E2.23550
G92 E0
G1 X177.321 Y65.830 F7200.000
G1 X166.432 Y141.229 F7200.000
G1 X128.421 Y149.708 F7200.000
G1 E1.00000 F1800.000
G1 X128.822 Y150.229 E1.07656 F1080.000
G1 X128.240 Y152.995 E1.40553
G1 X127.707 Y153.316 E1.47791
G1 X126.796 Y153.054 E1.58831
G1 X126.626 Y152.948 E1.61163
G1 X124.306 Y150.378 E2.01464
G1 X124.716 Y149.516 E2.12575
G1 X128.314 Y149.702 E2.54508
G1 X127.550 Y150.378 F7200.000
G1 X127.951 Y150.899 E2.62165 F1080.000
G1 X127.732 Y151.943 E2.74581
G1 X126.886 Y152.171 E2.84774
G1 X125.992 Y151.180 E3.00307
G1 X126.402 Y150.318 E3.11418
G1 X127.443 Y150.372 E3.23550
G1 F1800.000 E2.23550
G92 E0
G1 X129.292 Y149.038 F7200.000
G1 E1.00000 F1800.000
G1 X78.720 Y146.418 E6.89399 F1080.000
G1 X78.558 Y146.384 E6.91321
G1 X62.257 Y140.258 E8.93999
G1 X61.875 Y139.576 E9.03096
G1 X63.120 Y133.026 E9.80702
G1 X63.929 Y132.530 E9.91738
G1 X68.328 Y133.813 E10.45075
G1 X68.908 Y134.201 E10.53195
G1 X69.597 Y133.939 E10.61767
G1 X71.463 Y126.796 E11.47702
G1 X71.023 Y126.238 E11.55972
G1 X70.304 Y126.252 E11.64350
G1 X65.895 Y124.958 E12.17828
G1 X65.463 Y124.301 E12.26978
G1 X66.260 Y117.777 E13.03476
G1 X75.167 Y70.590 E18.62390
G1 X75.520 Y63.874 E19.40658
G1 X76.261 Y63.274 E19.51761
G1 X80.790 Y63.990 E20.05133
G1 X81.415 Y64.301 E20.13252
G1 X82.065 Y63.955 E20.21824
G1 X83.013 Y56.633 E21.07759
G1 X82.506 Y56.135 E21.16029
G1 X81.794 Y56.240 E21.24408
G1 X77.234 Y55.510 E21.78166
G1 X76.716 Y54.856 E21.87875
G1 X76.841 Y53.141 E22.07889
G1 X76.960 Y50.705 E22.36277
G1 X77.394 Y50.163 E22.44362
G1 X98.159 Y44.454 E24.95014
G1 X98.280 Y44.435 E24.96444
G1 X175.816 Y41.404 E33.99564
G1 X176.454 Y42.561 E34.14953
G1 X174.917 Y44.799 E34.46549
G1 X175.164 Y45.487 E34.55055
G1 X176.627 Y45.909 E34.72780
G1 X176.822 Y45.911 E34.75047
G1 X179.806 Y45.113 E35.10996
G1 X180.681 Y46.001 E35.25503
G1 X177.143 Y58.511 E36.76811
G1 X175.912 Y58.798 E36.91520
G1 X173.768 Y56.422 E37.28774
G1 X173.598 Y56.316 E37.31105
G1 X171.752 Y55.786 E37.53455
G1 X171.219 Y56.107 E37.60694
G1 X170.307 Y60.441 E38.12240
G1 X170.708 Y60.962 E38.19896
G1 X221.280 Y63.582 E44.09295
G1 X221.442 Y63.616 E44.11217
G1 X237.743 Y69.742 E46.13895
G1 X238.125 Y70.424 E46.22992
G1 X236.880 Y76.974 E47.00598
G1 X236.071 Y77.470 E47.11634
G1 X231.672 Y76.187 E47.64971
G1 X231.092 Y75.799 E47.73091
G1 X230.403 Y76.061 E47.81663
G1 X228.537 Y83.204 E48.67598
G1 X228.977 Y83.762 E48.75868
G1 X229.696 Y83.748 E48.84246
G1 X234.105 Y85.042 E49.37724
G1 X234.537 Y85.699 E49.46874
G1 X233.740 Y92.223 E50.23372
G1 X224.833 Y139.410 E55.82287
G1 X224.480 Y146.126 E56.60554
G1 X223.739 Y146.726 E56.71657
G1 X219.210 Y146.010 E57.25029
G1 X218.585 Y145.699 E57.33148
G1 X217.935 Y146.045 E57.41720
G1 X216.987 Y153.367 E58.27655
G1 X217.494 Y153.865 E58.35925
G1 X218.206 Y153.760 E58.44304
G1 X222.766 Y154.490 E58.98062
G1 X223.284 Y155.144 E59.07771
G1 X223.159 Y156.859 E59.27785
G1 X223.040 Y159.295 E59.56174
G1 X222.606 Y159.837 E59.64258
G1 X201.841 Y165.546 E62.14910
G1 X201.720 Y165.565 E62.16340
G1 X124.184 Y168.596 E71.19460
G1 X123.546 Y167.439 E71.34849
G1 X125.083 Y165.201 E71.66445
G1 X124.836 Y164.513 E71.74951
G1 X123.373 Y164.091 E71.92676
G1 X123.178 Y164.089 E71.94943
G1 X120.194 Y164.886 E72.30892
G1 X119.319 Y163.999 E72.45400
G1 X122.857 Y151.489 E73.96707
G1 X124.088 Y151.202 E74.11416
G1 X126.232 Y153.578 E74.48670
G1 X126.402 Y153.684 E74.51002
G1 X128.248 Y154.214 E74.73352
G1 X128.781 Y153.893 E74.80590
G1 X129.693 Y149.559 E75.32136
G1 X129.357 Y149.122 E75.38546
G1 X130.362 Y149.846 F7200.000
G1 X131.018 Y149.355 E75.48074 F1080.000
G1 X130.726 Y148.397 E75.59737
G1 X78.811 Y145.707 E81.64779
G1 X62.752 Y139.681 E83.64417
G1 X62.625 Y139.454 E83.67449
G1 X63.763 Y133.470 E84.38344
G1 X64.032 Y133.305 E84.42023
G1 X68.023 Y134.468 E84.90402
G1 X68.114 Y134.529 E84.91682
G1 X69.060 Y135.707 E85.09265
G1 X69.921 Y135.524 E85.19514
G1 X72.500 Y125.653 E86.38252
G1 X71.877 Y125.072 E86.48173
G1 X70.509 Y125.534 E86.64970
G1 X70.399 Y125.536 E86.66250
G1 X66.348 Y124.347 E87.15398
G1 X66.204 Y124.128 E87.18448
G1 X66.964 Y117.898 E87.91490
G1 X75.878 Y70.675 E93.50830
G1 X76.217 Y64.229 E94.25956
G1 X76.464 Y64.029 E94.29657
G1 X80.570 Y64.678 E94.78048
G1 X80.669 Y64.728 E94.79327
G1 X81.756 Y65.777 E94.96911
G1 X82.587 Y65.486 E95.07159
G1 X83.897 Y55.368 E96.25898
G1 X83.205 Y54.871 E96.35818
G1 X81.907 Y55.502 E96.52616
G1 X81.799 Y55.518 E96.53896
G1 X77.621 Y54.849 E97.03137
G1 X77.449 Y54.631 E97.06374
G1 X77.554 Y53.184 E97.23255
G1 X77.662 Y50.970 E97.49051
