; generated by Slic3r 1.0.0RC2 on 2014-05-19 at 19:57:23

; layer_height = 0.3
; perimeters = 4
; top_solid_layers = 3
; bottom_solid_layers = 3
; fill_density = 0.1
; perimeter_speed = 60
; infill_speed = 60
; travel_speed = 120
; nozzle_diameter = 0.4
; filament_diameter = 1.75
; extrusion_multiplier = 0.98
; perimeters extrusion width = 0.40mm
; infill extrusion width = 0.42mm
; solid infill extrusion width = 0.42mm
; top infill extrusion width = 0.42mm
; first layer extrusion width = 0.80mm

G21 ; set units to millimeters
M107
M104 S220 ; set temperature
G28 ; home all axes
M106 S255;
G1 Z200 F1200 ; lift nozzle
M109 S220 ; wait for temperature to be reached
G90 ; use absolute coordinates
G92 E0
M82 ; use absolute distances for extrusion
G1 F1800.000 E-1.00000
G92 E0
G1 Z0.400 F7200.000
G1 X117.424 Y96.382 F7200.000
G1 E1.00000 F1800.000
G1 X118.354 Y95.342 E1.16238 F1080.000
G1 X119.484 Y94.522 E1.32488
G1 X136.434 Y84.592 E3.61131
G1 X138.064 Y83.902 E3.81732
G1 X139.824 Y83.672 E4.02391
G1 X160.194 Y83.672 E6.39477
G1 X161.954 Y83.902 E6.60136
G1 X163.594 Y84.592 E6.80844
G1 X180.444 Y94.492 E9.08306
G1 X181.564 Y95.322 E9.24531
G1 X182.494 Y96.362 E9.40770
G1 X183.184 Y97.572 E9.56982
G1 X183.614 Y98.892 E9.73140
G1 X183.754 Y100.282 E9.89400
G1 X183.754 Y108.662 E10.86935
G1 X183.624 Y109.982 E11.02372
G1 X183.244 Y111.242 E11.17690
G1 X182.614 Y112.412 E11.33156
G1 X181.774 Y113.432 E11.48535
G1 X180.744 Y114.262 E11.63931
G1 X163.894 Y125.382 E13.98906
G1 X162.744 Y125.992 E14.14057
G1 X161.494 Y126.372 E14.29263
G1 X160.194 Y126.492 E14.44458
G1 X139.824 Y126.492 E16.81544
G1 X138.534 Y126.372 E16.96623
G1 X137.294 Y126.002 E17.11684
G1 X136.144 Y125.402 E17.26781
G1 X119.194 Y114.302 E19.62600
G1 X118.164 Y113.462 E19.78070
G1 X117.314 Y112.442 E19.93523
G1 X116.684 Y111.272 E20.08989
G1 X116.294 Y110.002 E20.24452
G1 X116.164 Y108.682 E20.39890
G1 X116.164 Y100.312 E21.37308
G1 X116.304 Y98.922 E21.53568
G1 X116.734 Y97.592 E21.69837
G1 X117.371 Y96.475 E21.84802
G1 F1800.000 E20.84802
G92 E0
G1 X141.976 Y103.826 F7200.000
G1 E1.00000 F1800.000
G1 X143.167 Y99.400 E1.53348 F1080.000
G1 X146.517 Y100.137 E1.93279
G1 X146.818 Y99.898 E1.97754
G1 X147.748 Y99.403 E2.10009
G1 X148.623 Y96.203 E2.48624
G1 X150.636 Y96.648 E2.72620
G1 X155.055 Y97.863 E3.25950
G1 X154.319 Y101.179 E3.65481
G1 X154.424 Y101.295 E3.67308
G1 X154.917 Y102.137 E3.78659
G1 X155.027 Y102.423 E3.82226
G1 X158.253 Y103.298 E4.21133
G1 X157.808 Y105.312 E4.45141
G1 X156.606 Y109.731 E4.98440
G1 X153.269 Y109.002 E5.38190
G1 X152.554 Y109.474 E5.48167
G1 X152.032 Y109.700 E5.54785
G1 X151.164 Y112.929 E5.93706
G1 X149.148 Y112.485 E6.17731
G1 X144.727 Y111.283 E6.71056
G1 X145.460 Y107.934 E7.10964
G1 X145.083 Y107.397 E7.18599
G1 X144.743 Y106.710 E7.27523
G1 X141.537 Y105.837 E7.66197
G1 X141.953 Y103.931 E7.88906
G1 X142.670 Y103.995 F7200.000
G1 X143.679 Y100.245 E8.34111 F756.000
G1 X146.693 Y100.907 E8.70033
G1 X147.214 Y100.497 E8.77740
G1 X147.932 Y100.115 E8.87205
G1 X148.330 Y99.976 E8.92122
G1 X149.133 Y97.047 E9.27465
G1 X150.465 Y97.342 E9.43340
G1 X154.210 Y98.371 E9.88554
G1 X153.545 Y101.374 E10.24346
G1 X153.845 Y101.719 E10.29671
G1 X154.243 Y102.398 E10.38841
G1 X154.490 Y103.014 E10.46558
G1 X157.409 Y103.809 E10.81765
G1 X157.114 Y105.141 E10.97644
G1 X156.095 Y108.887 E11.42828
G1 X153.072 Y108.228 E11.78837
G1 X152.891 Y108.395 E11.81708
G1 X152.208 Y108.846 E11.91233
G1 X151.436 Y109.179 E12.01019
G1 X150.651 Y112.085 E12.36052
G1 X149.318 Y111.791 E12.51936
G1 X145.570 Y110.772 E12.97152
G1 X146.225 Y107.777 E13.32843
G1 X145.705 Y107.045 E13.43295
G1 X145.354 Y106.336 E13.52506
G1 X145.285 Y106.119 E13.55148
G1 X142.379 Y105.326 E13.90202
G1 X142.647 Y104.100 E14.04812
G1 X142.157 Y103.498 F7200.000
G1 X142.216 Y107.502 F7200.000
G1 X143.747 Y107.919 E14.23277 F1080.000
G1 X143.930 Y108.245 E14.27623
G1 X143.041 Y112.305 E14.76000
G1 X148.807 Y113.872 E15.45545
G1 X152.189 Y114.617 E15.85852
G1 X153.231 Y110.741 E16.32568
G1 X153.559 Y110.526 E16.37134
G1 X157.808 Y111.458 E16.87757
G1 X157.808 Y117.240 E17.55058
G1 X142.216 Y117.240 E19.36521
G1 X142.216 Y107.609 E20.48616
G1 X141.502 Y106.568 F7200.000
G1 X144.245 Y107.314 E20.81701 F1080.000
G1 X144.460 Y107.749 E20.87350
G1 X144.696 Y108.085 E20.92117
G1 X143.884 Y111.794 E21.36316
G1 X148.977 Y113.179 E21.97752
G1 X151.676 Y113.773 E22.29918
G1 X152.632 Y110.219 E22.72751
G1 X152.900 Y110.102 E22.76157
G1 X153.411 Y109.763 E22.83296
G1 X157.116 Y110.574 E23.27441
G1 X158.066 Y107.083 E23.69554
G1 X158.522 Y107.144 E23.74903
G1 X158.522 Y117.955 E25.00728
G1 X141.502 Y117.955 E26.98816
G1 X141.502 Y106.675 E28.30099
G1 F1800.000 E27.30099
G92 E0
G1 X159.067 Y106.124 F7200.000
G1 E1.00000 F1800.000
G1 X159.195 Y105.654 E1.05666 F540.000
G1 X159.819 Y102.832 E1.39296
G1 X174.508 Y102.832 E3.10257
G1 X174.508 Y106.124 E3.48561
G1 X159.174 Y106.124 E5.27022
G1 X157.808 Y101.697 F7200.000
G1 X156.033 Y101.216 E5.48421 F1080.000
G1 X155.845 Y100.895 E5.52748
G1 X156.743 Y96.845 E6.01026
G1 X150.980 Y95.262 E6.70590
G1 X147.604 Y94.515 E7.10828
G1 X146.532 Y98.434 E7.58111
G1 X146.203 Y98.606 E7.62436
G1 X142.216 Y97.727 E8.09950
G1 X142.216 Y92.926 E8.65837
G1 X157.808 Y92.926 E10.47301
G1 X157.808 Y101.590 E11.48144
G1 X158.522 Y102.118 F7200.000
G1 X175.222 Y102.118 E13.42516 F1080.000
G1 X175.222 Y106.838 E13.97444
G1 X158.133 Y106.838 E15.96340
G1 X158.502 Y105.483 E16.12682
G1 X159.098 Y102.787 E16.44819
G1 X155.563 Y101.828 E16.87445
G1 X155.087 Y101.014 E16.98421
G1 X155.899 Y97.354 E17.42054
G1 X150.808 Y95.955 E18.03501
G1 X148.114 Y95.359 E18.35618
G1 X147.140 Y98.919 E18.78574
G1 X146.303 Y99.359 E18.89578
G1 X142.654 Y98.555 E19.33064
G1 X141.960 Y101.135 E19.64156
G1 X141.502 Y101.075 E19.69532
G1 X141.502 Y92.211 E20.72689
G1 X158.522 Y92.211 E22.70777
G1 X158.522 Y102.011 E23.84835
G1 X159.236 Y101.404 F7200.000
G1 X175.936 Y101.404 E25.79207 F1080.000
G1 X175.936 Y107.552 E26.50759
G1 X159.236 Y107.552 E28.45131
G1 X159.236 Y118.669 E29.74519
G1 X140.788 Y118.669 E31.89232
G1 X140.788 Y91.497 E35.05479
G1 X159.236 Y91.497 E37.20191
G1 X159.236 Y101.297 E38.34249
G1 X159.950 Y100.690 F7200.000
G1 X176.650 Y100.690 E40.28621 F756.000
G1 X176.650 Y108.266 E41.16797
G1 X159.950 Y108.266 E43.11169
G1 X159.950 Y119.383 E44.40557
G1 X140.074 Y119.383 E46.71894
G1 X140.074 Y90.783 E50.04765
G1 X159.950 Y90.783 E52.36101
G1 X159.950 Y100.583 E53.50160
G1 X159.950 Y101.404 F7200.000
G1 X156.970 Y112.199 F7200.000
G1 X156.883 Y112.112 E53.51661 F1080.000
G1 X155.522 Y111.812 E53.68710
G1 X156.970 Y113.260 E53.93759
G1 X156.970 Y114.322 E54.06744
G1 X154.161 Y111.513 E54.55340
G1 X153.432 Y111.845 E54.65146
G1 X156.970 Y115.383 E55.26364
G1 X156.912 Y116.386 E55.38656
G1 X153.207 Y112.681 E56.02756
G1 X152.982 Y113.518 E56.13354
G1 X155.867 Y116.403 E56.63270
G1 X154.806 Y116.403 E56.76255
G1 X152.757 Y114.354 E57.11699
G1 X152.523 Y115.182 E57.22224
G1 X153.744 Y116.403 E57.43341
G1 X152.682 Y116.403 E57.56327
G1 X151.162 Y114.883 E57.82629
G1 X149.801 Y114.583 E57.99680
G1 X151.621 Y116.403 E58.31168
G1 X150.559 Y116.403 E58.44153
G1 X148.422 Y114.265 E58.81135
G1 X146.964 Y113.869 E58.99615
G1 X149.498 Y116.403 E59.43451
G1 X148.436 Y116.403 E59.56437
G1 X145.506 Y113.473 E60.07128
G1 X144.049 Y113.077 E60.25607
G1 X147.375 Y116.403 E60.83153
G1 X146.313 Y116.403 E60.96138
G1 X143.054 Y113.143 E61.52530
G1 X143.054 Y114.205 E61.65515
G1 X145.252 Y116.403 E62.03542
G1 X144.190 Y116.403 E62.16528
G1 X143.054 Y115.266 E62.36190
G1 X143.054 Y116.328 E62.49176
G1 X143.129 Y116.403 E62.50474
G1 X142.734 Y111.290 F7200.000
G1 X142.713 Y111.270 E62.50664 F360.000
G1 X142.854 Y110.837 E62.53673 F360.000
G1 X142.713 Y110.697 E62.54984 F360.000
G1 X142.957 Y110.367 E62.57694 F360.000
G1 X142.917 Y110.327 E62.58067 F360.000
G1 X142.974 Y109.072 F7200.000
G1 X142.938 Y109.036 E62.58655 F360.000
G1 X141.305 Y104.474 F7200.000
G1 X141.275 Y104.443 E62.59081 F360.000
G1 X141.485 Y103.793 E62.65858 F360.000
G1 X141.424 Y103.732 E62.66712 F360.000
G1 X141.545 Y102.513 F7200.000
G1 X141.510 Y102.477 E62.67300 F360.000
G1 X147.893 Y93.840 F7200.000
G1 X147.817 Y93.764 E62.68551 F360.000
G1 X157.287 Y96.788 F7200.000
G1 X157.310 Y96.811 E62.68753 F360.000
G1 X157.171 Y97.218 E62.71458 F360.000
G1 X157.310 Y97.357 E62.72697 F360.000
G1 X157.071 Y97.665 E62.75146 F360.000
G1 X157.109 Y97.703 E62.75484 F360.000
G1 X157.050 Y98.957 F7200.000
G1 X157.122 Y99.028 E62.77828 F360.000
G1 X156.625 Y100.548 E63.14999 F360.000
G1 X156.786 Y100.710 E63.20297 F360.000
G1 X158.005 Y109.279 F7200.000
G1 X158.023 Y109.297 E63.20446 F360.000
G1 X157.881 Y109.664 E63.22745 F360.000
G1 X158.023 Y109.805 E63.23914 F360.000
G1 X157.773 Y110.063 E63.26016 F360.000
G1 X158.023 Y110.313 E63.28084 F360.000
G1 X158.023 Y110.821 E63.31057 F360.000
G1 X157.664 Y110.462 E63.34024 F360.000
G1 X157.555 Y110.862 E63.36446 F360.000
G1 X157.594 Y110.900 E63.36762 F360.000
G1 X150.150 Y118.783 F7200.000
G1 X140.674 Y108.259 F7200.000
G1 X142.781 Y97.358 F7200.000
G1 X142.698 Y97.275 E63.38137 F1080.000
G1 X142.698 Y96.260 E63.50022
G1 X144.084 Y97.646 E63.72959
G1 X145.387 Y97.933 E63.88572
G1 X142.698 Y95.244 E64.33071
G1 X142.698 Y94.229 E64.44956
G1 X145.929 Y97.459 E64.98428
G1 X146.147 Y96.662 E65.08103
G1 X142.893 Y93.407 E65.61969
G1 X143.908 Y93.407 E65.73854
G1 X146.365 Y95.865 E66.14524
G1 X146.584 Y95.067 E66.24198
G1 X144.924 Y93.407 E66.51670
G1 X145.939 Y93.407 E66.63556
G1 X146.802 Y94.270 E66.77831
G1 X147.020 Y93.473 E66.87506
G1 X146.955 Y93.407 E66.88584
G1 X149.430 Y94.060 F7200.000
G1 X149.350 Y93.980 E66.89902 F1080.000
G1 X149.793 Y93.408 E66.98364
G1 X150.733 Y94.348 E67.13914
G1 X150.807 Y93.408 E67.24944
G1 X152.099 Y94.699 E67.46306
G1 X151.822 Y93.408 E67.61754
G1 X153.499 Y95.084 E67.89477
G1 X154.898 Y95.468 E68.06453
G1 X152.837 Y93.408 E68.40539
G1 X153.852 Y93.408 E68.52408
G1 X156.721 Y96.276 E68.99857
G1 X156.969 Y95.509 E69.09286
G1 X154.867 Y93.408 E69.44046
G1 X155.882 Y93.408 E69.55915
G1 X156.969 Y94.494 E69.73889
G1 X156.969 Y93.479 E69.85758
G1 X156.897 Y93.408 E69.86945
G1 X159.772 Y105.642 F7200.000
G1 X159.705 Y105.575 E69.88073 F1080.000
G1 X159.892 Y104.730 E69.98364
G1 X160.804 Y105.642 E70.13702
G1 X161.836 Y105.642 E70.25971
G1 X160.079 Y103.885 E70.55519
G1 X160.539 Y103.314 E70.64245
G1 X162.868 Y105.642 E71.03402
G1 X163.900 Y105.642 E71.15671
G1 X161.571 Y103.314 E71.54828
G1 X162.603 Y103.314 E71.67098
G1 X164.932 Y105.642 E72.06255
G1 X165.963 Y105.642 E72.18524
G1 X163.635 Y103.314 E72.57681
G1 X164.667 Y103.314 E72.69950
G1 X166.995 Y105.642 E73.09107
G1 X168.027 Y105.642 E73.21377
G1 X165.699 Y103.314 E73.60534
G1 X166.730 Y103.314 E73.72803
G1 X169.059 Y105.642 E74.11960
G1 X170.091 Y105.642 E74.24230
G1 X167.762 Y103.314 E74.63387
G1 X168.794 Y103.314 E74.75656
G1 X171.123 Y105.642 E75.14813
G1 X172.154 Y105.642 E75.27082
G1 X169.826 Y103.314 E75.66239
G1 X170.858 Y103.314 E75.78509
G1 X173.186 Y105.642 E76.17666
G1 X174.026 Y105.450 E76.27911
G1 X171.890 Y103.314 E76.63841
G1 X172.921 Y103.314 E76.76110
G1 X174.026 Y104.419 E76.94689
G1 X174.026 Y103.387 E77.06958
G1 X173.953 Y103.314 E77.08185
G1 F1800.000 E76.08185
G92 E0
G1 X136.952 Y102.856 F7200.000
G1 E1.00000 F1800.000
G1 X136.952 Y106.144 E1.38258 F540.000
G1 X125.416 Y106.144 E2.72514
G1 X125.416 Y102.856 E3.10772
G1 X136.844 Y102.856 E4.43781
G1 X137.666 Y102.142 F7200.000
G1 X137.666 Y106.858 E4.98663 F540.000
G1 X124.702 Y106.858 E6.49544
G1 X124.702 Y102.142 E7.04426
G1 X137.559 Y102.142 E8.54059
G1 X138.380 Y101.428 F7200.000
G1 X138.380 Y107.572 E9.25566 F1080.000
G1 X123.988 Y107.572 E10.93070
G1 X123.988 Y101.428 E11.64576
G1 X138.273 Y101.428 E13.30834
G1 X139.094 Y100.714 F7200.000
G1 X139.094 Y108.286 E14.18965 F756.000
G1 X123.274 Y108.286 E16.03093
G1 X123.274 Y100.714 E16.91224
G1 X138.987 Y100.714 E18.74106
G1 X138.737 Y101.332 F7200.000
G1 X136.396 Y103.337 F7200.000
G1 X136.471 Y103.412 E18.75407 F1080.000
G1 X136.471 Y104.474 E18.88419
G1 X135.334 Y103.337 E19.08121
G1 X134.271 Y103.337 E19.21133
G1 X136.471 Y105.537 E19.59237
G1 X135.535 Y105.663 E19.70805
G1 X133.208 Y103.337 E20.11098
G1 X132.146 Y103.337 E20.24110
G1 X134.473 Y105.663 E20.64403
G1 X133.410 Y105.663 E20.77414
G1 X131.083 Y103.337 E21.17707
G1 X130.021 Y103.337 E21.30719
G1 X132.347 Y105.663 E21.71011
G1 X131.285 Y105.663 E21.84023
G1 X128.958 Y103.337 E22.24316
G1 X127.895 Y103.337 E22.37328
G1 X130.222 Y105.663 E22.77620
G1 X129.160 Y105.663 E22.90632
G1 X126.833 Y103.337 E23.30925
G1 X125.897 Y103.463 E23.42493
G1 X128.097 Y105.663 E23.80597
G1 X127.034 Y105.663 E23.93609
G1 X125.897 Y104.526 E24.13312
G1 X125.897 Y105.588 E24.26324
G1 X125.972 Y105.663 E24.27625
M106 S222
G1 F1800.000 E23.27625
G92 E0
G1 Z0.700 F7200.000
G1 X138.494 Y101.314 F7200.000
G1 X141.494 Y98.314 F7200.000
G1 X141.743 Y106.196 F7200.000
G1 E1.00000 F1800.000
G1 X142.151 Y103.756 E1.12094 F3600
G1 X142.992 Y99.904 E1.31373
G1 X146.293 Y100.458 E1.47741
G1 X146.854 Y100.016 E1.51235
G1 X147.548 Y99.640 E1.55089
G1 X148.260 Y96.412 E1.71254
G1 X150.698 Y96.825 E1.83341
G1 X154.546 Y97.675 E2.02612
G1 X153.996 Y100.978 E2.18982
G1 X154.329 Y101.359 E2.21457
G1 X154.840 Y102.232 E2.26402
G1 X158.042 Y102.937 E2.42432
G1 X157.632 Y105.379 E2.54537
G1 X156.780 Y109.230 E2.73822
G1 X153.476 Y108.670 E2.90207
G1 X153.259 Y108.872 E2.91655
G1 X152.499 Y109.374 E2.96109
G1 X152.225 Y109.492 E2.97565
G1 X151.517 Y112.718 E3.13712
G1 X149.079 Y112.308 E3.25801
G1 X145.230 Y111.460 E3.45068
G1 X145.780 Y108.181 E3.61324
G1 X145.174 Y107.329 E3.66435
G1 X144.965 Y106.905 E3.68747
G1 X141.802 Y106.209 E3.84582
G1 X142.200 Y105.887 F7200.000
G1 X142.544 Y103.832 E3.94770 F3600
G1 X143.301 Y100.362 E4.12137
G1 X146.401 Y100.882 E4.27506
G1 X147.086 Y100.343 E4.31767
G1 X147.899 Y99.906 E4.36277
G1 X148.569 Y96.870 E4.51479
G1 X150.621 Y97.217 E4.61657
G1 X154.090 Y97.984 E4.79022
G1 X153.570 Y101.098 E4.94456
G1 X154.004 Y101.597 E4.97689
G1 X154.450 Y102.357 E5.02000
G1 X154.534 Y102.575 E5.03139
G1 X157.584 Y103.246 E5.18409
G1 X157.239 Y105.302 E5.28604
G1 X156.472 Y108.772 E5.45979
G1 X153.351 Y108.243 E5.61453
G1 X153.013 Y108.555 E5.63700
G1 X152.305 Y109.022 E5.67849
G1 X151.877 Y109.206 E5.70126
G1 X151.208 Y112.260 E5.85411
G1 X149.155 Y111.915 E5.95591
G1 X145.687 Y111.151 E6.12954
G1 X146.211 Y108.031 E6.28422
G1 X146.042 Y107.862 E6.29592
G1 X145.591 Y107.237 E6.33360
G1 X145.238 Y106.555 E6.37114
G1 X142.259 Y105.900 E6.52027
G1 X142.658 Y105.578 F7200.000
G1 X142.937 Y103.908 E6.60310 F2520
G1 X143.611 Y100.819 E6.75766
G1 X143.924 Y100.872 E6.77320
M106 S255
G1 X146.558 Y101.314 E6.90993 F3600
G1 X146.580 Y101.291 E6.91153
M106 S222
G1 X146.699 Y101.157 E6.92032 F2520
G1 X147.318 Y100.670 E6.95882
G1 X148.017 Y100.297 E6.99755
G1 X148.242 Y100.205 E7.00943
G1 X148.878 Y97.328 E7.15352
G1 X150.545 Y97.610 E7.23619
G1 X153.633 Y98.293 E7.39080
G1 X153.579 Y98.613 E7.40666
M106 S255
G1 X153.144 Y101.217 E7.54187 F3600
G1 X153.164 Y101.240 E7.54343
M106 S222
G1 X153.679 Y101.834 E7.58185 F2520
G1 X154.087 Y102.528 E7.62123
G1 X154.239 Y102.919 E7.64172
G1 X157.127 Y103.555 E7.78630
G1 X156.846 Y105.226 E7.86915
G1 X156.163 Y108.314 E8.02379
G1 X155.851 Y108.261 E8.03928
M106 S255
G1 X153.223 Y107.815 E8.17577 F3600
G1 X153.192 Y107.845 E8.17794
M106 S222
G1 X152.768 Y108.237 E8.20621 F2520
G1 X152.111 Y108.670 E8.24466
G1 X151.530 Y108.927 E8.27572
G1 X150.900 Y111.803 E8.41965
G1 X149.231 Y111.522 E8.50237
G1 X146.144 Y110.842 E8.65695
G1 X146.196 Y110.528 E8.67252
M106 S255
G1 X146.643 Y107.876 E8.81023 F3600
G1 X146.617 Y107.856 E8.81189
M106 S222
G1 X146.346 Y107.601 E8.83012 F2520
G1 X145.918 Y107.005 E8.86596
G1 X145.520 Y106.207 E8.90959
G1 X142.716 Y105.591 E9.04994
G1 X142.264 Y105.506 F7200.000
G1 X141.380 Y105.942 F7200.000
G1 X141.074 Y105.916 E9.06496 F3600
G1 X141.074 Y90.973 E9.79556
G1 X158.950 Y90.973 E10.66956
G1 X158.950 Y101.690 E11.19353
G1 X175.650 Y101.690 E12.01003
