; generated by Slic3r 1.0.0RC3 on 2014-03-11 at 19:40:02

; layer_height = 0.2
; perimeters = 3
; top_solid_layers = 3
; bottom_solid_layers = 3
; fill_density = 1
; perimeter_speed = 60
; infill_speed = 60
; travel_speed = 120
; nozzle_diameter = 0.4
; filament_diameter = 1.75
; extrusion_multiplier = 0.98
; perimeters extrusion width = 0.40mm
; infill extrusion width = 0.67mm
; solid infill extrusion width = 0.67mm
; top infill extrusion width = 0.67mm
; first layer extrusion width = 0.60mm

G21 ; set units to millimeters
M107
M104 S220 ; set temperature
G28 ; home all axes
M106 S255;
G1 Z200 F1200 ; lift nozzle
M109 S220 ; wait for temperature to be reached
G90 ; use absolute coordinates
G92 E0
M82 ; use absolute distances for extrusion
G1 F1800.000 E-1.00000
G92 E0
G1 Z0.300 F7200.000
G1 X127.510 Y91.232 F7200.000
G1 E1.00000 F1800.000
G1 X129.950 Y87.872 E1.28275 F1080.000
G1 X130.390 Y87.332 E1.33018
G1 X130.880 Y86.842 E1.37737
G1 X133.960 Y84.072 E1.65943
G1 X134.480 Y83.652 E1.70495
G1 X135.050 Y83.282 E1.75122
G1 X138.640 Y81.202 E2.03374
G1 X139.260 Y80.882 E2.08125
G1 X139.900 Y80.632 E2.12803
G1 X143.840 Y79.352 E2.41012
G1 X144.510 Y79.182 E2.45719
G1 X145.190 Y79.072 E2.50409
G1 X149.310 Y78.642 E2.78616
G1 X149.990 Y78.602 E2.83254
G1 X150.670 Y78.642 E2.87892
G1 X154.800 Y79.072 E3.16167
G1 X155.480 Y79.182 E3.20857
G1 X156.150 Y79.352 E3.25564
G1 X160.090 Y80.632 E3.53772
G1 X160.730 Y80.882 E3.58451
G1 X161.350 Y81.202 E3.63202
G1 X164.940 Y83.282 E3.91454
G1 X165.510 Y83.652 E3.96081
G1 X166.030 Y84.072 E4.00632
G1 X169.110 Y86.842 E4.28839
G1 X169.600 Y87.332 E4.33557
G1 X170.040 Y87.872 E4.38301
G1 X172.480 Y91.232 E4.66576
G1 X172.850 Y91.802 E4.71203
G1 X173.160 Y92.402 E4.75802
G1 X174.850 Y96.182 E5.03996
G1 X175.100 Y96.832 E5.08738
G1 X175.270 Y97.502 E5.13445
G1 X176.130 Y101.562 E5.41704
G1 X176.240 Y102.242 E5.46394
G1 X176.280 Y102.922 E5.51033
G1 X176.280 Y107.072 E5.79291
G1 X176.240 Y107.752 E5.83929
G1 X176.130 Y108.432 E5.88620
G1 X175.270 Y112.482 E6.16812
G1 X175.100 Y113.152 E6.21519
G1 X174.850 Y113.792 E6.26197
G1 X173.160 Y117.582 E6.54454
G1 X172.850 Y118.192 E6.59113
G1 X172.480 Y118.762 E6.63740
G1 X170.040 Y122.122 E6.92016
G1 X169.600 Y122.662 E6.96759
G1 X169.110 Y123.152 E7.01477
G1 X166.030 Y125.922 E7.29684
G1 X165.500 Y126.352 E7.34331
G1 X164.930 Y126.722 E7.38958
G1 X161.340 Y128.792 E7.67176
G1 X160.730 Y129.102 E7.71835
G1 X160.090 Y129.352 E7.76514
G1 X156.150 Y130.632 E8.04722
G1 X155.490 Y130.802 E8.09363
G1 X154.810 Y130.912 E8.14054
G1 X150.680 Y131.352 E8.42335
G1 X149.990 Y131.392 E8.47041
G1 X149.290 Y131.352 E8.51816
G1 X145.170 Y130.912 E8.80029
G1 X144.500 Y130.802 E8.84652
G1 X143.840 Y130.632 E8.89293
G1 X139.900 Y129.352 E9.17502
G1 X139.260 Y129.102 E9.22180
G1 X138.650 Y128.792 E9.26840
G1 X135.060 Y126.722 E9.55057
G1 X134.490 Y126.352 E9.59685
G1 X133.950 Y125.912 E9.64428
G1 X130.930 Y123.192 E9.92103
G1 X130.470 Y122.752 E9.96437
G1 X129.950 Y122.122 E10.02000
G1 X127.510 Y118.762 E10.30275
G1 X127.140 Y118.192 E10.34902
G1 X126.830 Y117.582 E10.39561
G1 X125.140 Y113.792 E10.67818
G1 X124.890 Y113.152 E10.72496
G1 X124.720 Y112.482 E10.77203
G1 X123.860 Y108.432 E11.05396
G1 X123.750 Y107.752 E11.10086
G1 X123.710 Y107.072 E11.14724
G1 X123.710 Y102.922 E11.42983
G1 X123.750 Y102.242 E11.47621
G1 X123.860 Y101.562 E11.52311
G1 X124.720 Y97.502 E11.80570
G1 X124.890 Y96.832 E11.85277
G1 X125.140 Y96.182 E11.90019
G1 X126.830 Y92.402 E12.18213
G1 X127.140 Y91.802 E12.22812
G1 X127.465 Y91.302 E12.26870
G1 F1800.000 E11.26870
G92 E0
G1 X148.380 Y88.490 F7200.000
G1 E1.00000 F1800.000
G1 X148.504 Y87.877 E1.04260 F540.000
G1 X148.850 Y87.358 E1.08508
G1 X149.369 Y87.012 E1.12756
G1 X149.982 Y86.888 E1.17016
G1 X150.595 Y87.012 E1.21275
G1 X151.113 Y87.357 E1.25516
G1 X151.465 Y87.877 E1.29788
G1 X151.584 Y88.490 E1.34041
G1 X151.465 Y89.103 E1.38294
G1 X151.113 Y89.623 E1.42566
G1 X150.595 Y89.968 E1.46807
G1 X149.982 Y90.092 E1.51067
G1 X149.369 Y89.968 E1.55326
G1 X148.850 Y89.622 E1.59575
G1 X148.504 Y89.103 E1.63823
G1 X148.396 Y88.572 E1.67514
G1 X147.917 Y88.180 F7200.000
G1 F1800.000 E0.67514
G92 E0
G1 X134.374 Y103.794 F7200.000
G1 E1.00000 F1800.000
G1 X134.720 Y104.313 E1.04248 F540.000
G1 X134.844 Y104.926 E1.08508
G1 X134.720 Y105.539 E1.12768
G1 X134.375 Y106.057 E1.17009
G1 X133.855 Y106.409 E1.21280
G1 X133.242 Y106.528 E1.25533
G1 X132.629 Y106.409 E1.29786
G1 X132.109 Y106.057 E1.34058
G1 X131.764 Y105.539 E1.38299
G1 X131.640 Y104.926 E1.42559
G1 X131.764 Y104.313 E1.46819
G1 X132.110 Y103.794 E1.51067
G1 X132.629 Y103.448 E1.55315
G1 X133.242 Y103.324 E1.59575
G1 X133.855 Y103.448 E1.63834
G1 X134.305 Y103.747 E1.67513
G1 X134.921 Y103.685 F7200.000
G1 F1800.000 E0.67513
G92 E0
G1 X165.288 Y104.926 F7200.000
G1 E1.00000 F1800.000
G1 X165.412 Y104.313 E1.04260 F540.000
G1 X165.758 Y103.794 E1.08508
G1 X166.277 Y103.448 E1.12756
G1 X166.890 Y103.324 E1.17016
G1 X167.503 Y103.448 E1.21275
G1 X168.022 Y103.794 E1.25523
G1 X168.368 Y104.313 E1.29772
G1 X168.492 Y104.926 E1.34031
G1 X168.368 Y105.539 E1.38291
G1 X168.023 Y106.057 E1.42532
G1 X167.503 Y106.409 E1.46804
G1 X166.890 Y106.528 E1.51057
G1 X166.277 Y106.409 E1.55310
G1 X165.757 Y106.057 E1.59582
G1 X165.412 Y105.539 E1.63823
G1 X165.304 Y105.008 E1.67514
G1 X164.825 Y104.616 F7200.000
G1 F1800.000 E0.67514
G92 E0
G1 X156.544 Y104.314 F7200.000
G1 E1.00000 F1800.000
G1 X156.544 Y105.686 E1.09347 F1080.000
G1 X156.258 Y107.033 E1.18722
G1 X155.698 Y108.292 E1.28107
G1 X154.890 Y109.406 E1.37477
G1 X153.865 Y110.325 E1.46849
G1 X152.676 Y111.013 E1.56203
G1 X151.364 Y111.437 E1.65593
G1 X149.998 Y111.580 E1.74945
G1 X148.632 Y111.437 E1.84297
G1 X147.320 Y111.013 E1.93687
G1 X146.130 Y110.324 E2.03053
G1 X145.110 Y109.406 E2.12390
G1 X144.299 Y108.294 E2.21764
G1 X143.738 Y107.033 E2.31164
G1 X143.452 Y105.686 E2.40539
G1 X143.452 Y104.314 E2.49886
G1 X143.738 Y102.966 E2.59268
G1 X144.299 Y101.710 E2.68632
G1 X145.109 Y100.595 E2.78021
G1 X146.130 Y99.676 E2.87368
G1 X147.320 Y98.987 E2.96734
G1 X148.632 Y98.563 E3.06125
G1 X149.998 Y98.420 E3.15477
G1 X151.364 Y98.563 E3.24828
G1 X152.676 Y98.987 E3.34219
G1 X153.865 Y99.675 E3.43573
G1 X154.891 Y100.595 E3.52955
G1 X155.698 Y101.712 E3.62340
G1 X156.258 Y102.966 E3.71689
G1 X156.527 Y104.232 E3.80503
G1 X155.987 Y104.372 F7200.000
G1 X155.987 Y105.628 E3.89054 F540.000
G1 X155.726 Y106.860 E3.97632
G1 X155.213 Y108.012 E4.06221
G1 X154.474 Y109.031 E4.14788
G1 X153.536 Y109.871 E4.23363
G1 X152.448 Y110.501 E4.31922
G1 X151.248 Y110.889 E4.40511
G1 X149.998 Y111.020 E4.49070
G1 X148.748 Y110.889 E4.57629
G1 X147.548 Y110.501 E4.66218
G1 X146.459 Y109.871 E4.74783
G1 X145.526 Y109.031 E4.83329
G1 X144.784 Y108.014 E4.91905
G1 X144.270 Y106.860 E5.00503
G1 X144.009 Y105.628 E5.09081
G1 X144.009 Y104.372 E5.17632
G1 X144.270 Y103.139 E5.26214
G1 X144.784 Y101.991 E5.34781
G1 X145.526 Y100.969 E5.43375
G1 X146.459 Y100.129 E5.51927
G1 X147.548 Y99.499 E5.60492
G1 X148.748 Y99.111 E5.69082
G1 X149.998 Y98.980 E5.77640
G1 X151.248 Y99.111 E5.86199
G1 X152.448 Y99.499 E5.94788
G1 X153.536 Y100.129 E6.03347
G1 X154.475 Y100.969 E6.11928
G1 X155.213 Y101.992 E6.20513
G1 X155.726 Y103.139 E6.29071
G1 X155.970 Y104.290 E6.37084
G1 X155.430 Y104.431 F7200.000
G1 X155.430 Y105.569 E6.44840 F540.000
G1 X155.193 Y106.687 E6.52620
G1 X154.727 Y107.733 E6.60413
G1 X154.058 Y108.656 E6.68178
G1 X153.207 Y109.418 E6.75956
G1 X152.221 Y109.990 E6.83719
G1 X151.132 Y110.341 E6.91507
G1 X149.998 Y110.460 E6.99273
G1 X148.864 Y110.341 E7.07039
G1 X147.775 Y109.990 E7.14826
G1 X146.789 Y109.418 E7.22592
G1 X145.942 Y108.656 E7.30347
G1 X145.269 Y107.733 E7.38125
G1 X144.803 Y106.687 E7.45922
G1 X144.566 Y105.569 E7.53702
G1 X144.566 Y104.431 E7.61457
G1 X144.803 Y103.313 E7.69238
G1 X145.269 Y102.271 E7.77008
G1 X145.942 Y101.344 E7.84807
G1 X146.789 Y100.582 E7.92564
G1 X147.775 Y100.010 E8.00329
G1 X148.864 Y99.659 E8.08117
G1 X149.998 Y99.540 E8.15883
G1 X151.132 Y99.659 E8.23649
G1 X152.221 Y100.010 E8.31437
G1 X153.207 Y100.582 E8.39200
G1 X154.058 Y101.344 E8.46980
G1 X154.727 Y102.271 E8.54766
G1 X155.193 Y103.313 E8.62532
G1 X155.413 Y104.349 E8.69744
G1 X155.931 Y104.675 F7200.000
G1 F1800.000 E7.69744
G92 E0
G1 X150.595 Y120.027 F7200.000
G1 E1.00000 F1800.000
G1 X151.114 Y120.378 E1.04265 F540.000
G1 X151.465 Y120.897 E1.08529
G1 X151.584 Y121.510 E1.12782
G1 X151.465 Y122.123 E1.17035
G1 X151.113 Y122.643 E1.21307
G1 X150.595 Y122.988 E1.25548
G1 X149.982 Y123.112 E1.29808
G1 X149.369 Y122.988 E1.34068
G1 X148.850 Y122.642 E1.38316
G1 X148.504 Y122.123 E1.42564
G1 X148.380 Y121.510 E1.46824
G1 X148.504 Y120.897 E1.51083
G1 X148.849 Y120.379 E1.55325
G1 X149.369 Y120.027 E1.59596
G1 X149.982 Y119.908 E1.63849
G1 X150.513 Y120.011 E1.67533
G1 X151.059 Y119.719 F7200.000
G1 X151.680 Y119.416 F7200.000
G1 X151.031 Y118.977 E1.72870 F1080.000
G1 X149.982 Y118.774 E1.80142
G1 X148.933 Y118.977 E1.87415
G1 X148.044 Y119.578 E1.94730
G1 X147.455 Y120.461 E2.01957
G1 X147.243 Y121.510 E2.09240
G1 X147.455 Y122.559 E2.16525
G1 X147.875 Y123.189 E2.21680
G1 X146.171 Y123.010 E2.33345
G1 X142.511 Y121.820 E2.59553
G1 X139.176 Y119.895 E2.85770
G1 X136.318 Y117.322 E3.11960
G1 X134.056 Y114.207 E3.38174
G1 X132.490 Y110.690 E3.64381
G1 X131.786 Y107.381 E3.87423
G1 X133.242 Y107.662 E3.97521
G1 X134.291 Y107.459 E4.04794
G1 X135.180 Y106.858 E4.12109
G1 X135.769 Y105.975 E4.19335
G1 X135.981 Y104.926 E4.26619
G1 X135.769 Y103.877 E4.33904
G1 X135.178 Y102.990 E4.41164
G1 X134.291 Y102.399 E4.48424
G1 X133.242 Y102.187 E4.55707
G1 X131.817 Y102.475 E4.65603
G1 X132.490 Y99.309 E4.87639
G1 X134.055 Y95.794 E5.13839
G1 X136.318 Y92.682 E5.40036
G1 X139.177 Y90.105 E5.66248
G1 X142.511 Y88.180 E5.92461
G1 X146.171 Y86.990 E6.18667
G1 X147.875 Y86.811 E6.30334
G1 X147.455 Y87.441 E6.35489
G1 X147.243 Y88.490 E6.42772
G1 X147.455 Y89.539 E6.50056
G1 X148.046 Y90.426 E6.57317
G1 X148.933 Y91.017 E6.64577
G1 X149.982 Y91.229 E6.71861
G1 X151.031 Y91.017 E6.79145
G1 X151.914 Y90.428 E6.86372
G1 X152.515 Y89.539 E6.93687
G1 X152.718 Y88.490 E7.00960
G1 X152.515 Y87.441 E7.08232
G1 X152.087 Y86.808 E7.13439
G1 X153.825 Y86.990 E7.25339
G1 X157.485 Y88.180 E7.51548
G1 X160.819 Y90.105 E7.77760
G1 X163.683 Y92.683 E8.03994
G1 X165.945 Y95.794 E8.30189
G1 X167.509 Y99.309 E8.56388
G1 X168.177 Y102.447 E8.78231
G1 X166.890 Y102.187 E8.87167
G1 X165.841 Y102.399 E8.94451
G1 X164.954 Y102.990 E9.01711
G1 X164.363 Y103.877 E9.08971
G1 X164.151 Y104.926 E9.16255
G1 X164.363 Y105.975 E9.23539
G1 X164.952 Y106.858 E9.30766
G1 X165.841 Y107.459 E9.38081
G1 X166.890 Y107.662 E9.45354
G1 X168.208 Y107.407 E9.54497
G1 X167.509 Y110.691 E9.77356
G1 X165.944 Y114.207 E10.03561
G1 X163.683 Y117.321 E10.29770
G1 X160.819 Y119.895 E10.55986
G1 X157.485 Y121.820 E10.82200
G1 X153.825 Y123.010 E11.08407
G1 X152.087 Y123.192 E11.20308
G1 X152.515 Y122.559 E11.25516
G1 X152.718 Y121.510 E11.32788
G1 X152.515 Y120.461 E11.40062
G1 X151.916 Y119.576 E11.47342
G1 X151.749 Y119.462 E11.48719
G1 X151.368 Y119.877 F7200.000
G1 X150.813 Y119.502 E11.53280 F1080.000
G1 X149.982 Y119.341 E11.59042
G1 X149.151 Y119.502 E11.64805
G1 X148.446 Y119.978 E11.70598
G1 X147.979 Y120.679 E11.76332
G1 X147.812 Y121.510 E11.82104
G1 X147.979 Y122.341 E11.87876
G1 X148.448 Y123.044 E11.93630
G1 X149.414 Y123.688 E12.01533
G1 X149.336 Y123.902 E12.03081
G1 X146.054 Y123.558 E12.25551
G1 X142.283 Y122.332 E12.52556
G1 X138.847 Y120.348 E12.79570
G1 X135.901 Y117.697 E13.06557
G1 X133.570 Y114.487 E13.33569
G1 X131.958 Y110.864 E13.60574
G1 X131.132 Y106.985 E13.87573
G1 X131.132 Y105.896 E13.94988
G1 X131.299 Y105.846 E13.96171
G1 X131.706 Y106.458 E14.01176
G1 X132.411 Y106.934 E14.06970
G1 X133.242 Y107.095 E14.12732
G1 X134.073 Y106.934 E14.18495
G1 X134.778 Y106.458 E14.24288
G1 X135.245 Y105.757 E14.30022
G1 X135.412 Y104.926 E14.35794
G1 X135.245 Y104.095 E14.41566
G1 X134.776 Y103.392 E14.47320
G1 X134.073 Y102.923 E14.53074
G1 X133.242 Y102.756 E14.58846
G1 X132.411 Y102.923 E14.64618
G1 X131.708 Y103.392 E14.70372
G1 X131.299 Y104.006 E14.75397
G1 X131.132 Y103.956 E14.76580
G1 X131.132 Y103.019 E14.82959
G1 X131.958 Y99.136 E15.09988
G1 X133.570 Y95.514 E15.36986
G1 X135.901 Y92.307 E15.63980
G1 X138.847 Y89.652 E15.90988
G1 X142.283 Y87.668 E16.17999
G1 X146.054 Y86.442 E16.45004
G1 X149.336 Y86.098 E16.67474
G1 X149.414 Y86.312 E16.69022
G1 X148.448 Y86.956 E16.76924
G1 X147.979 Y87.659 E16.82679
G1 X147.812 Y88.490 E16.88450
G1 X147.979 Y89.321 E16.94222
G1 X148.448 Y90.024 E16.99976
G1 X149.151 Y90.493 E17.05731
G1 X149.982 Y90.660 E17.11503
G1 X150.813 Y90.493 E17.17274
G1 X151.514 Y90.026 E17.23009
G1 X151.990 Y89.321 E17.28802
G1 X152.151 Y88.490 E17.34565
G1 X151.990 Y87.659 E17.40327
G1 X151.514 Y86.954 E17.46120
G1 X150.544 Y86.308 E17.54052
G1 X150.622 Y86.094 E17.55600
G1 X153.942 Y86.442 E17.78329
G1 X157.713 Y87.668 E18.05337
G1 X161.148 Y89.652 E18.32345
G1 X164.099 Y92.308 E18.59376
G1 X166.430 Y95.514 E18.86368
G1 X168.042 Y99.136 E19.13365
G1 X168.868 Y103.019 E19.40394
G1 X168.868 Y103.688 E19.44950
G1 X167.721 Y102.923 E19.54335
G1 X166.890 Y102.756 E19.60106
G1 X166.059 Y102.923 E19.65878
G1 X165.356 Y103.392 E19.71632
G1 X164.887 Y104.095 E19.77386
G1 X164.720 Y104.926 E19.83158
G1 X164.887 Y105.757 E19.88930
G1 X165.354 Y106.458 E19.94664
G1 X166.059 Y106.934 E20.00457
G1 X166.890 Y107.095 E20.06220
G1 X167.721 Y106.934 E20.11983
G1 X168.868 Y106.159 E20.21409
G1 X168.868 Y106.985 E20.27036
G1 X168.042 Y110.864 E20.54039
G1 X166.430 Y114.487 E20.81041
G1 X164.099 Y117.696 E21.08049
G1 X161.149 Y120.348 E21.35063
G1 X157.713 Y122.332 E21.62073
G1 X153.942 Y123.558 E21.89078
G1 X150.622 Y123.906 E22.11809
G1 X150.544 Y123.692 E22.13357
G1 X151.514 Y123.046 E22.21288
G1 X151.990 Y122.341 E22.27081
G1 X152.151 Y121.510 E22.32844
G1 X151.990 Y120.679 E22.38607
G1 X151.515 Y119.977 E22.44380
G1 X151.437 Y119.924 E22.45023
G1 F1800.000 E21.45023
G92 E0
G1 X150.052 Y124.525 F7200.000
G1 E1.00000 F1800.000
G1 X145.938 Y124.106 E1.28157 F540.000
G1 X142.055 Y122.843 E1.55960
G1 X138.518 Y120.801 E1.83769
G1 X135.485 Y118.071 E2.11556
G1 X133.085 Y114.767 E2.39366
G1 X131.425 Y111.037 E2.67165
G1 X130.575 Y107.044 E2.94964
G1 X130.575 Y102.960 E3.22770
G1 X131.425 Y98.963 E3.50596
G1 X133.085 Y95.234 E3.78393
G1 X135.485 Y91.933 E4.06182
G1 X138.518 Y89.199 E4.33988
G1 X142.055 Y87.157 E4.61796
G1 X145.938 Y85.894 E4.89599
G1 X149.998 Y85.469 E5.17396
G1 X154.058 Y85.894 E5.45193
G1 X157.941 Y87.157 E5.72997
G1 X161.478 Y89.199 E6.00804
G1 X164.475 Y91.897 E6.28264
G1 X166.915 Y95.234 E6.56412
G1 X168.575 Y98.963 E6.84208
G1 X169.425 Y102.960 E7.12034
G1 X169.425 Y107.044 E7.39840
G1 X168.575 Y111.037 E7.67640
G1 X166.915 Y114.767 E7.95438
G1 X164.515 Y118.071 E8.23247
G1 X161.478 Y120.802 E8.51056
G1 X157.941 Y122.843 E8.78864
G1 X154.058 Y124.106 E9.06667
G1 X150.135 Y124.517 E9.33527
G1 X149.789 Y124.034 F7200.000
G1 F1800.000 E8.33527
G92 E0
G1 X153.358 Y122.663 F7200.000
G1 E1.00000 F1800.000
G1 X152.971 Y122.277 E1.03753 F1080.000
G1 X153.100 Y121.611 E1.08411
G1 X154.021 Y122.532 E1.17360
G1 X154.621 Y122.337 E1.21690
G1 X152.958 Y120.674 E1.37845
G1 F1800.000 E0.37845
G92 E0
G1 X147.858 Y111.601 F7200.000
G1 E1.00000 F1800.000
G1 X157.572 Y121.315 E1.94352 F1080.000
G1 X158.076 Y121.024 E1.98347
G1 X148.914 Y111.863 E2.87334
G1 X149.802 Y111.955 E2.93461
G1 X158.580 Y120.733 E3.78723
G1 X159.083 Y120.443 E3.82718
G1 X150.558 Y111.917 E4.65523
G1 X151.278 Y111.842 E4.70491
G1 X159.587 Y120.152 E5.51202
G1 X160.091 Y119.861 E5.55197
G1 X151.906 Y111.676 E6.34697
G1 X152.507 Y111.482 E6.39032
G1 X160.593 Y119.569 E7.17578
G1 X161.012 Y119.192 E7.21443
G1 X153.064 Y111.244 E7.98645
G1 X153.567 Y110.953 E8.02638
G1 X161.430 Y118.816 E8.79018
G1 X161.849 Y118.440 E8.82883
G1 X154.070 Y110.661 E9.58440
G1 X154.494 Y110.290 E9.62308
G1 X162.267 Y118.064 E10.37813
G1 X162.686 Y117.688 E10.41678
G1 X154.913 Y109.915 E11.17176
