; generated by Slic3r 1.0.0RC3 on 2014-03-11 at 19:47:26

; layer_height = 0.3
; perimeters = 2
; top_solid_layers = 3
; bottom_solid_layers = 3
; fill_density = 0.1
; perimeter_speed = 60
; infill_speed = 60
; travel_speed = 120
; nozzle_diameter = 0.4
; filament_diameter = 1.75
; extrusion_multiplier = 0.98
; perimeters extrusion width = 0.40mm
; infill extrusion width = 0.42mm
; solid infill extrusion width = 0.42mm
; top infill extrusion width = 0.42mm
; first layer extrusion width = 0.60mm

G21 ; set units to millimeters
M107
M104 S220 ; set temperature
G28 ; home all axes
M106 S255;
G1 Z200 F1200 ; lift nozzle
M109 S220 ; wait for temperature to be reached
G90 ; use absolute coordinates
G92 E0
M82 ; use absolute distances for extrusion
G1 F1800.000 E-1.00000
G92 E0
G1 Z0.300 F7200.000
G1 X109.399 Y118.588 F7200.000
G1 E1.00000 F1800.000
G1 X182.199 Y46.018 E7.99937 F1080.000
G1 X183.289 Y45.138 E8.09476
G1 X184.539 Y44.508 E8.19008
G1 X185.899 Y44.168 E8.28553
G1 X187.299 Y44.118 E8.38092
G1 X188.679 Y44.368 E8.47642
G1 X196.789 Y46.748 E9.05194
G1 X198.279 Y47.398 E9.16263
G1 X199.559 Y48.388 E9.27281
G1 X201.429 Y50.248 E9.45241
G1 X202.299 Y51.318 E9.54631
G1 X202.929 Y52.548 E9.64041
G1 X203.289 Y53.878 E9.73423
G1 X203.359 Y55.258 E9.82832
G1 X203.139 Y56.618 E9.92213
G1 X202.639 Y57.908 E10.01634
G1 X193.879 Y74.878 E11.31674
G1 X193.539 Y75.448 E11.36193
G1 X184.419 Y89.428 E12.49851
G1 X184.129 Y89.848 E12.53327
G1 X151.269 Y132.538 E16.20156
G1 X150.709 Y133.178 E16.25946
G1 X119.909 Y163.978 E19.22542
G1 X118.909 Y164.788 E19.31304
G1 X117.779 Y165.398 E19.40048
G1 X116.549 Y165.768 E19.48795
G1 X115.269 Y165.898 E19.57555
G1 X113.989 Y165.768 E19.66316
G1 X112.759 Y165.398 E19.75062
G1 X111.629 Y164.788 E19.83806
G1 X110.629 Y163.978 E19.92569
G1 X98.549 Y151.898 E21.08896
G1 X97.619 Y150.718 E21.19126
G1 X96.979 Y149.368 E21.29299
G1 X96.669 Y147.908 E21.39462
G1 X96.689 Y146.408 E21.49677
G1 X97.049 Y144.958 E21.59850
G1 X104.939 Y123.888 E23.13050
G1 X105.569 Y122.638 E23.22582
G1 X106.439 Y121.548 E23.32078
G1 X109.340 Y118.647 E23.60013
G1 F1800.000 E22.60013
G92 E0
G1 X142.797 Y111.980 F7200.000
G1 E1.00000 F1800.000
G1 X169.169 Y85.608 E3.53955 F1080.000
G1 X171.542 Y87.980 E3.76803
G1 X148.264 Y117.447 E6.32500
G1 X142.856 Y112.039 E6.84575
G1 X143.585 Y111.980 F7200.000
G1 X169.169 Y86.395 E9.30944 F540.000
G1 X170.797 Y88.024 E9.46624
G1 X148.215 Y116.610 E11.94683
G1 X143.644 Y112.039 E12.38700
G1 X143.191 Y111.586 F7200.000
G1 F1800.000 E11.38700
G92 E0
G1 X136.692 Y118.085 F7200.000
G1 E1.00000 F1800.000
G1 X143.081 Y124.474 E1.61523 F1080.000
G1 X116.709 Y150.846 E4.15478
G1 X110.320 Y144.457 E4.77001
G1 X136.633 Y118.144 E7.30388
G1 X136.692 Y118.873 F7200.000
G1 X142.293 Y124.474 E7.84324 F540.000
G1 X116.709 Y150.058 E10.30693
G1 X111.108 Y144.457 E10.84629
G1 X136.633 Y118.932 E13.30429
G1 X137.086 Y118.479 F7200.000
G1 F1800.000 E12.30429
G92 E0
G1 X145.967 Y127.272 F7200.000
G1 E1.00000 F1800.000
G1 X145.428 Y127.972 E1.06016 F1080.000
G1 X115.270 Y158.130 E3.96425
G1 X104.401 Y147.261 E5.01088
G1 X109.975 Y141.688 E5.54758
G1 X108.698 Y140.411 E5.67051
G1 X117.610 Y131.499 E6.52873
G1 X112.301 Y126.189 E7.04003
G1 X114.046 Y124.444 E7.20813
G1 X119.405 Y129.803 E7.72419
G1 X190.417 Y58.791 E14.56239
G1 X185.164 Y53.539 E15.06817
G1 X186.833 Y51.870 E15.22886
G1 X192.079 Y57.116 E15.73399
G1 X194.943 Y54.251 E16.00981
G1 X195.762 Y55.071 E16.08870
G1 X187.315 Y71.438 E17.34285
G1 X178.231 Y85.356 E18.47457
G1 X146.017 Y127.206 E22.07069
G1 X146.408 Y127.612 F7200.000
G1 X145.847 Y128.341 E22.13330 F540.000
G1 X115.270 Y158.918 E25.07779
G1 X103.613 Y147.261 E26.20029
G1 X109.187 Y141.688 E26.73698
G1 X107.910 Y140.411 E26.85991
G1 X116.822 Y131.499 E27.71813
G1 X111.513 Y126.189 E28.22944
G1 X114.046 Y123.656 E28.47340
G1 X119.405 Y129.015 E28.98945
G1 X189.629 Y58.791 E35.75179
G1 X184.377 Y53.539 E36.25758
G1 X186.833 Y51.082 E36.49413
G1 X192.079 Y56.328 E36.99926
G1 X194.943 Y53.463 E37.27508
G1 X196.444 Y54.964 E37.41961
G1 X187.797 Y71.719 E38.70340
G1 X178.685 Y85.678 E39.83854
G1 X146.459 Y127.546 E43.43613
G1 X145.856 Y127.538 F7200.000
G1 F1800.000 E42.43613
G92 E0
G1 X136.367 Y117.853 F7200.000
G1 E1.00000 F1800.000
G1 X134.140 Y115.625 E1.21500 F1080.000
G1 X133.745 Y116.020 E1.25311
G1 X135.972 Y118.248 E1.46810
G1 X135.577 Y118.642 E1.50621
G1 X133.350 Y116.415 E1.72121
G1 X132.955 Y116.810 E1.75932
G1 X135.183 Y119.037 E1.97431
G1 X134.788 Y119.432 E2.01242
G1 X132.560 Y117.204 E2.22742
G1 X132.165 Y117.599 E2.26553
G1 X134.393 Y119.827 E2.48052
G1 X133.998 Y120.222 E2.51863
G1 X131.771 Y117.994 E2.73363
G1 X131.376 Y118.389 E2.77174
G1 X133.603 Y120.616 E2.98673
G1 X133.208 Y121.011 E3.02484
G1 X130.981 Y118.784 E3.23984
G1 X130.586 Y119.179 E3.27795
G1 X132.814 Y121.406 E3.49294
G1 X132.419 Y121.801 E3.53105
G1 X130.191 Y119.573 E3.74605
G1 X129.797 Y119.968 E3.78416
G1 X132.024 Y122.196 E3.99915
G1 X131.629 Y122.591 E4.03726
G1 X129.402 Y120.363 E4.25226
G1 X129.007 Y120.758 E4.29037
G1 X131.234 Y122.985 E4.50536
G1 X130.840 Y123.380 E4.54347
G1 X128.612 Y121.153 E4.75847
G1 X128.217 Y121.548 E4.79658
G1 X130.445 Y123.775 E5.01157
G1 X130.050 Y124.170 E5.04968
G1 X127.822 Y121.942 E5.26468
G1 X127.428 Y122.337 E5.30279
G1 X129.655 Y124.565 E5.51778
G1 X129.260 Y124.960 E5.55589
G1 X127.033 Y122.732 E5.77089
G1 X126.638 Y123.127 E5.80900
G1 X128.865 Y125.354 E6.02399
G1 X128.471 Y125.749 E6.06210
G1 X126.243 Y123.522 E6.27710
G1 X125.848 Y123.917 E6.31521
G1 X128.076 Y126.144 E6.53020
G1 X127.681 Y126.539 E6.56831
G1 X125.453 Y124.311 E6.78331
G1 X125.059 Y124.706 E6.82142
G1 X127.286 Y126.934 E7.03641
G1 X126.891 Y127.328 E7.07452
G1 X124.664 Y125.101 E7.28952
G1 X124.269 Y125.496 E7.32763
G1 X126.496 Y127.723 E7.54262
G1 X126.102 Y128.118 E7.58073
G1 X123.874 Y125.891 E7.79573
G1 X123.479 Y126.285 E7.83384
G1 X125.707 Y128.513 E8.04883
G1 X125.312 Y128.908 E8.08694
G1 X123.084 Y126.680 E8.30194
G1 X122.690 Y127.075 E8.34005
G1 X124.917 Y129.303 E8.55504
G1 X124.522 Y129.697 E8.59315
G1 X122.295 Y127.470 E8.80815
G1 X121.900 Y127.865 E8.84626
G1 X124.128 Y130.092 E9.06125
G1 X123.733 Y130.487 E9.09936
G1 X121.505 Y128.260 E9.31436
G1 X121.110 Y128.654 E9.35247
G1 X123.338 Y130.882 E9.56746
G1 X122.943 Y131.277 E9.60557
G1 X120.716 Y129.049 E9.82057
G1 X120.321 Y129.444 E9.85868
G1 X122.548 Y131.672 E10.07368
G1 X122.153 Y132.066 E10.11178
G1 X119.926 Y129.839 E10.32678
G1 X119.531 Y130.234 E10.36489
G1 X121.759 Y132.461 E10.57989
G1 X121.364 Y132.856 E10.61799
G1 X113.784 Y125.277 E11.34955
G1 X113.390 Y125.672 E11.38766
G1 X120.969 Y133.251 E12.11922
G1 X120.574 Y133.646 E12.15733
G1 X112.995 Y126.066 E12.88888
G1 F1800.000 E11.88888
G92 E0
G1 X117.902 Y131.764 F7200.000
G1 E1.00000 F1800.000
G1 X120.179 Y134.041 E1.21976 F1080.000
G1 X119.784 Y134.435 E1.25787
G1 X117.508 Y132.159 E1.47762
G1 X117.113 Y132.553 E1.51573
G1 X119.390 Y134.830 E1.73549
G1 X118.995 Y135.225 E1.77360
G1 X116.718 Y132.948 E1.99335
G1 X116.323 Y133.343 E2.03146
G1 X118.600 Y135.620 E2.25122
G1 X118.205 Y136.015 E2.28933
G1 X115.928 Y133.738 E2.50908
G1 X115.533 Y134.133 E2.54719
G1 X117.810 Y136.409 E2.76695
G1 X117.415 Y136.804 E2.80506
G1 X115.139 Y134.527 E3.02481
G1 X114.744 Y134.922 E3.06292
G1 X117.021 Y137.199 E3.28268
G1 X116.626 Y137.594 E3.32079
G1 X114.349 Y135.317 E3.54054
G1 X113.954 Y135.712 E3.57865
G1 X116.231 Y137.989 E3.79841
G1 X115.836 Y138.384 E3.83652
G1 X113.559 Y136.107 E4.05627
G1 X113.165 Y136.502 E4.09438
G1 X115.441 Y138.778 E4.31414
G1 X115.047 Y139.173 E4.35225
G1 X112.770 Y136.896 E4.57200
G1 X112.375 Y137.291 E4.61011
G1 X114.652 Y139.568 E4.82987
G1 X114.257 Y139.963 E4.86798
G1 X111.980 Y137.686 E5.08773
G1 X111.585 Y138.081 E5.12584
G1 X113.862 Y140.358 E5.34560
G1 X113.467 Y140.753 E5.38371
G1 X111.190 Y138.476 E5.60346
G1 X110.796 Y138.871 E5.64157
G1 X113.072 Y141.147 E5.86133
G1 X112.678 Y141.542 E5.89944
G1 X110.401 Y139.265 E6.11919
G1 X110.006 Y139.660 E6.15730
G1 X112.283 Y141.937 E6.37706
G1 X111.888 Y142.332 E6.41517
G1 X109.611 Y140.055 E6.63492
G1 X110.493 Y141.726 F7200.000
G1 X111.493 Y142.727 E6.73147 F1080.000
G1 X111.098 Y143.121 E6.76957
G1 X110.098 Y142.121 E6.86612
G1 X109.703 Y142.516 E6.90423
G1 X110.703 Y143.516 E7.00077
G1 X110.309 Y143.911 E7.03888
G1 X109.308 Y142.911 E7.13542
G1 X108.914 Y143.306 E7.17353
G1 X109.914 Y144.306 E7.27007
G1 F1800.000 E6.27007
G92 E0
G1 X115.270 Y157.559 F7200.000
G1 E1.00000 F1800.000
G1 X104.965 Y147.254 E1.99461 F1080.000
G1 X105.360 Y146.859 E2.03272
G1 X115.665 Y157.164 E3.02733
G1 X116.060 Y156.769 E3.06544
G1 X105.755 Y146.464 E4.06004
G1 X106.150 Y146.070 E4.09815
G1 X116.455 Y156.374 E5.09276
G1 X116.849 Y155.979 E5.13087
G1 X106.545 Y145.675 E6.12548
G1 X106.939 Y145.280 E6.16359
G1 X117.244 Y155.585 E7.15820
G1 X117.639 Y155.190 E7.19631
G1 X107.334 Y144.885 E8.19092
G1 X107.729 Y144.490 E8.22902
G1 X118.034 Y154.795 E9.22363
G1 X118.429 Y154.400 E9.26174
G1 X108.124 Y144.095 E10.25635
G1 X108.519 Y143.701 E10.29446
G1 X118.823 Y154.005 E11.28907
G1 X119.218 Y153.610 E11.32718
G1 X116.860 Y151.252 E11.55483
G1 X117.254 Y150.857 E11.59294
G1 X119.613 Y153.216 E11.82060
G1 X120.008 Y152.821 E11.85870
G1 X117.649 Y150.462 E12.08636
G1 X118.044 Y150.067 E12.12447
G1 X120.403 Y152.426 E12.35212
G1 X120.798 Y152.031 E12.39023
G1 X118.439 Y149.673 E12.61788
G1 X118.834 Y149.278 E12.65599
G1 X121.192 Y151.636 E12.88365
G1 X121.587 Y151.242 E12.92176
G1 X119.229 Y148.883 E13.14941
G1 X119.623 Y148.488 E13.18752
G1 X121.982 Y150.847 E13.41517
G1 X122.377 Y150.452 E13.45328
G1 X120.018 Y148.093 E13.68094
G1 X120.413 Y147.698 E13.71905
G1 X122.772 Y150.057 E13.94670
G1 X123.167 Y149.662 E13.98481
G1 X120.808 Y147.304 E14.21246
G1 X121.203 Y146.909 E14.25057
G1 X123.561 Y149.267 E14.47823
G1 X123.956 Y148.873 E14.51634
G1 X121.598 Y146.514 E14.74399
G1 X121.992 Y146.119 E14.78210
G1 X124.351 Y148.478 E15.00975
G1 X124.746 Y148.083 E15.04786
G1 X122.387 Y145.724 E15.27552
G1 X122.782 Y145.329 E15.31363
G1 X125.141 Y147.688 E15.54128
G1 X125.535 Y147.293 E15.57939
G1 X123.177 Y144.935 E15.80704
G1 X123.572 Y144.540 E15.84515
G1 X125.930 Y146.898 E16.07281
G1 X126.325 Y146.504 E16.11092
G1 X123.967 Y144.145 E16.33857
G1 X124.361 Y143.750 E16.37668
G1 X126.720 Y146.109 E16.60433
G1 X127.115 Y145.714 E16.64244
G1 X124.756 Y143.355 E16.87010
G1 X125.151 Y142.960 E16.90821
G1 X127.510 Y145.319 E17.13586
G1 X127.904 Y144.924 E17.17397
G1 X125.546 Y142.566 E17.40162
G1 X125.941 Y142.171 E17.43973
G1 X128.299 Y144.529 E17.66739
G1 X128.694 Y144.135 E17.70550
G1 X126.335 Y141.776 E17.93315
G1 X126.730 Y141.381 E17.97126
G1 X129.089 Y143.740 E18.19892
G1 X129.484 Y143.345 E18.23702
G1 X127.125 Y140.986 E18.46468
G1 X127.520 Y140.592 E18.50279
G1 X129.879 Y142.950 E18.73044
G1 X130.273 Y142.555 E18.76855
G1 X127.915 Y140.197 E18.99621
G1 X128.310 Y139.802 E19.03431
G1 X130.668 Y142.161 E19.26197
G1 X131.063 Y141.766 E19.30008
G1 X128.704 Y139.407 E19.52773
G1 X129.099 Y139.012 E19.56584
G1 X131.458 Y141.371 E19.79350
G1 X131.853 Y140.976 E19.83161
G1 X129.494 Y138.617 E20.05926
G1 X129.889 Y138.223 E20.09737
G1 X132.248 Y140.581 E20.32502
G1 X132.642 Y140.186 E20.36313
G1 X130.284 Y137.828 E20.59079
G1 X130.679 Y137.433 E20.62890
G1 X133.037 Y139.792 E20.85655
G1 X133.432 Y139.397 E20.89466
G1 X131.073 Y137.038 E21.12231
G1 X131.468 Y136.643 E21.16042
G1 X133.827 Y139.002 E21.38808
G1 X134.222 Y138.607 E21.42619
G1 X131.863 Y136.248 E21.65384
G1 X132.258 Y135.854 E21.69195
G1 X134.616 Y138.212 E21.91961
G1 X135.011 Y137.817 E21.95771
G1 X132.653 Y135.459 E22.18537
G1 X133.047 Y135.064 E22.22348
G1 X135.406 Y137.423 E22.45113
G1 X135.801 Y137.028 E22.48924
G1 X133.442 Y134.669 E22.71690
G1 X133.837 Y134.274 E22.75501
G1 X136.196 Y136.633 E22.98266
G1 X136.591 Y136.238 E23.02077
G1 X134.232 Y133.880 E23.24842
G1 X134.627 Y133.485 E23.28653
G1 X136.985 Y135.843 E23.51419
G1 X137.380 Y135.449 E23.55230
G1 X135.022 Y133.090 E23.77995
G1 X135.416 Y132.695 E23.81806
G1 X137.775 Y135.054 E24.04572
G1 X138.170 Y134.659 E24.08383
G1 X135.811 Y132.300 E24.31148
G1 X136.206 Y131.905 E24.34959
G1 X138.565 Y134.264 E24.57724
G1 X138.960 Y133.869 E24.61535
G1 X136.601 Y131.511 E24.84301
G1 X136.996 Y131.116 E24.88112
G1 X139.354 Y133.474 E25.10877
G1 X139.749 Y133.080 E25.14688
G1 X137.391 Y130.721 E25.37454
G1 X137.785 Y130.326 E25.41264
G1 X140.144 Y132.685 E25.64030
G1 X140.539 Y132.290 E25.67841
G1 X138.180 Y129.931 E25.90606
G1 X138.575 Y129.536 E25.94417
G1 X140.934 Y131.895 E26.17183
G1 X141.329 Y131.500 E26.20994
G1 X138.970 Y129.142 E26.43759
G1 X139.365 Y128.747 E26.47570
G1 X141.723 Y131.105 E26.70336
G1 X142.118 Y130.711 E26.74146
G1 X139.760 Y128.352 E26.96912
G1 X140.154 Y127.957 E27.00723
G1 X142.513 Y130.316 E27.23488
G1 X142.908 Y129.921 E27.27299
G1 X140.549 Y127.562 E27.50065
G1 X140.944 Y127.167 E27.53876
G1 X143.303 Y129.526 E27.76641
G1 X143.697 Y129.131 E27.80452
G1 X141.339 Y126.773 E28.03218
G1 X141.734 Y126.378 E28.07028
G1 X144.092 Y128.736 E28.29794
G1 X144.487 Y128.342 E28.33605
G1 X142.128 Y125.983 E28.56370
G1 X142.523 Y125.588 E28.60181
G1 X144.882 Y127.947 E28.82947
G1 X145.264 Y127.539 E28.86760
G1 X142.918 Y125.193 E29.09402
G1 X143.313 Y124.799 E29.13212
G1 X145.607 Y127.093 E29.35359
G1 X145.951 Y126.647 E29.39202
G1 X134.534 Y115.230 E30.49393
G1 X134.929 Y114.836 E30.53204
G1 X146.294 Y126.201 E31.62899
G1 X146.638 Y125.754 E31.66742
G1 X135.324 Y114.441 E32.75941
G1 X135.719 Y114.046 E32.79752
G1 X146.981 Y125.308 E33.88456
G1 X147.325 Y124.862 E33.92299
G1 X136.114 Y113.651 E35.00506
G1 X136.509 Y113.256 E35.04317
G1 X147.668 Y124.416 E36.12029
G1 X148.012 Y123.970 E36.15872
G1 X136.903 Y112.861 E37.23088
G1 X137.298 Y112.467 E37.26899
G1 X148.355 Y123.523 E38.33619
G1 X148.698 Y123.077 E38.37462
G1 X137.693 Y112.072 E39.43686
G1 X138.088 Y111.677 E39.47497
G1 X149.042 Y122.631 E40.53226
G1 X149.385 Y122.185 E40.57069
G1 X138.483 Y111.282 E41.62301
G1 X138.878 Y110.887 E41.66112
G1 X149.729 Y121.739 E42.70849
G1 X150.072 Y121.292 E42.74692
G1 X139.272 Y110.492 E43.78933
G1 X139.667 Y110.098 E43.82743
G1 X150.416 Y120.846 E44.86488
G1 X150.759 Y120.400 E44.90331
G1 X148.342 Y117.983 E45.13661
G1 X148.691 Y117.542 E45.17498
G1 X151.103 Y119.954 E45.40778
G1 X151.446 Y119.508 E45.44621
G1 X149.039 Y117.101 E45.67853
G1 X149.388 Y116.660 E45.71690
G1 X151.790 Y119.061 E45.94874
G1 X152.133 Y118.615 E45.98717
G1 X149.736 Y116.218 E46.21851
G1 X150.085 Y115.777 E46.25688
G1 X152.476 Y118.169 E46.48774
G1 X152.820 Y117.723 E46.52617
G1 X150.433 Y115.336 E46.75654
G1 X150.782 Y114.895 E46.79491
G1 X153.163 Y117.277 E47.02479
G1 X153.507 Y116.830 E47.06322
G1 X151.130 Y114.454 E47.29262
G1 X151.479 Y114.013 E47.33099
G1 X153.850 Y116.384 E47.55990
G1 X154.194 Y115.938 E47.59833
G1 X151.827 Y113.571 E47.82675
G1 X152.176 Y113.130 E47.86512
G1 X154.537 Y115.492 E48.09306
G1 X154.881 Y115.046 E48.13149
G1 X152.524 Y112.689 E48.35893
G1 X152.873 Y112.248 E48.39730
G1 X155.224 Y114.599 E48.62426
G1 X155.568 Y114.153 E48.66269
G1 X153.221 Y111.807 E48.88917
G1 X153.570 Y111.366 E48.92754
G1 X155.911 Y113.707 E49.15352
G1 X156.254 Y113.261 E49.19195
G1 X153.918 Y110.925 E49.41745
G1 X154.267 Y110.483 E49.45582
G1 X156.598 Y112.815 E49.68083
G1 X156.941 Y112.368 E49.71926
G1 X154.615 Y110.042 E49.94379
G1 X154.964 Y109.601 E49.98216
G1 X157.285 Y111.922 E50.20620
G1 X157.628 Y111.476 E50.24463
G1 X155.312 Y109.160 E50.46818
G1 X155.661 Y108.719 E50.50655
G1 X157.972 Y111.030 E50.72961
G1 X158.315 Y110.584 E50.76804
G1 X156.009 Y108.278 E50.99061
G1 X156.358 Y107.836 E51.02898
G1 X158.659 Y110.137 E51.25107
G1 X159.002 Y109.691 E51.28950
G1 X156.706 Y107.395 E51.51110
G1 X157.055 Y106.954 E51.54947
G1 X159.345 Y109.245 E51.77059
G1 X159.689 Y108.799 E51.80902
G1 X157.403 Y106.513 E52.02965
G1 X157.752 Y106.072 E52.06802
G1 X160.032 Y108.353 E52.28816
G1 X160.376 Y107.906 E52.32659
G1 X158.100 Y105.631 E52.54624
G1 X158.449 Y105.190 E52.58461
G1 X160.719 Y107.460 E52.80377
