; generated by Slic3r 1.0.0RC3 on 2014-03-11 at 19:48:53

; layer_height = 0.3
; perimeters = 2
; top_solid_layers = 3
; bottom_solid_layers = 3
; fill_density = 0.1
; perimeter_speed = 60
; infill_speed = 60
; travel_speed = 120
; nozzle_diameter = 0.4
; filament_diameter = 1.75
; extrusion_multiplier = 0.98
; perimeters extrusion width = 0.40mm
; infill extrusion width = 0.42mm
; solid infill extrusion width = 0.42mm
; top infill extrusion width = 0.42mm
; first layer extrusion width = 0.60mm

G21 ; set units to millimeters
M107
M104 S220 ; set temperature
G28 ; home all axes
M106 S255;
G1 Z200 F1200 ; lift nozzle
M109 S220 ; wait for temperature to be reached
G90 ; use absolute coordinates
G92 E0
M82 ; use absolute distances for extrusion
G1 F1800.000 E-1.00000
G92 E0
G1 Z0.300 F7200.000
G1 X90.459 Y87.582 F7200.000
G1 E1.00000 F1800.000
G1 X107.369 Y67.132 E2.80689 F1080.000
G1 X107.789 Y66.672 E2.84930
G1 X108.249 Y66.252 E2.89172
G1 X128.699 Y49.412 E4.69557
G1 X129.769 Y48.692 E4.78339
G1 X130.969 Y48.202 E4.87165
G1 X132.229 Y47.942 E4.95926
G1 X140.019 Y47.182 E5.49221
G1 X140.659 Y47.152 E5.53584
G1 X141.299 Y47.182 E5.57947
G1 X149.089 Y47.942 E6.11243
G1 X150.049 Y48.112 E6.17881
G1 X150.969 Y48.422 E6.24492
G1 X196.289 Y67.292 E9.58768
G1 X197.409 Y67.892 E9.67420
G1 X198.399 Y68.692 E9.76087
G1 X199.209 Y69.672 E9.84744
G1 X199.809 Y70.792 E9.93396
G1 X200.189 Y72.012 E10.02097
G1 X204.009 Y90.432 E11.30192
G1 X211.729 Y139.222 E14.66548
G1 X211.809 Y140.242 E14.73514
G1 X211.809 Y156.282 E15.82734
G1 X211.679 Y157.562 E15.91495
G1 X211.309 Y158.792 E16.00241
G1 X210.699 Y159.922 E16.08985
G1 X209.889 Y160.922 E16.17748
G1 X208.889 Y161.732 E16.26511
G1 X207.759 Y162.342 E16.35255
G1 X206.529 Y162.712 E16.44001
G1 X205.249 Y162.842 E16.52762
G1 X118.409 Y162.842 E22.44076
G1 X116.939 Y162.672 E22.54152
G1 X115.539 Y162.172 E22.64275
G1 X114.289 Y161.382 E22.74344
G1 X113.249 Y160.322 E22.84455
G1 X112.469 Y159.062 E22.94546
G1 X89.569 Y110.122 E26.62468
G1 X89.189 Y109.072 E26.70071
G1 X88.979 Y107.982 E26.77630
G1 X88.219 Y100.192 E27.30926
G1 X88.189 Y99.552 E27.35288
G1 X88.219 Y98.912 E27.39651
G1 X88.979 Y91.122 E27.92947
G1 X89.239 Y89.852 E28.01774
G1 X89.729 Y88.662 E28.10537
G1 X90.412 Y87.651 E28.18844
G1 F1800.000 E27.18844
G92 E0
G1 X117.274 Y94.905 F7200.000
G1 E1.00000 F1800.000
G1 X118.632 Y90.431 E1.31834 F1080.000
G1 X120.835 Y86.308 E1.63668
G1 X123.801 Y82.694 E1.95502
G1 X127.415 Y79.728 E2.27336
G1 X131.538 Y77.525 E2.59170
G1 X136.012 Y76.168 E2.91004
G1 X140.665 Y75.709 E3.22838
G1 X145.317 Y76.168 E3.54672
G1 X149.791 Y77.525 E3.86506
G1 X153.914 Y79.728 E4.18339
G1 X157.528 Y82.694 E4.50173
G1 X160.494 Y86.308 E4.82007
G1 X162.698 Y90.431 E5.13841
G1 X164.055 Y94.905 E5.45675
G1 X164.513 Y99.558 E5.77509
G1 X164.055 Y104.210 E6.09344
G1 X162.698 Y108.684 E6.41178
G1 X160.494 Y112.807 E6.73011
G1 X157.528 Y116.421 E7.04846
G1 X153.914 Y119.387 E7.36679
G1 X149.791 Y121.591 E7.68513
G1 X145.317 Y122.948 E8.00347
G1 X140.665 Y123.406 E8.32181
G1 X136.012 Y122.948 E8.64015
G1 X131.538 Y121.591 E8.95849
G1 X127.415 Y119.387 E9.27683
G1 X123.801 Y116.421 E9.59517
G1 X120.835 Y112.807 E9.91351
G1 X118.632 Y108.684 E10.23185
G1 X117.274 Y104.211 E10.55019
G1 X116.816 Y99.558 E10.86854
G1 X117.266 Y94.988 E11.18119
G1 X117.823 Y95.014 F7200.000
G1 X119.149 Y90.646 E11.49206 F540.000
G1 X121.301 Y86.619 E11.80293
G1 X124.197 Y83.090 E12.11380
G1 X127.726 Y80.194 E12.42467
G1 X131.752 Y78.042 E12.73553
G1 X136.121 Y76.717 E13.04640
G1 X140.665 Y76.269 E13.35727
G1 X145.208 Y76.717 E13.66813
G1 X149.577 Y78.042 E13.97900
G1 X153.603 Y80.194 E14.28987
G1 X157.132 Y83.090 E14.60074
G1 X160.028 Y86.619 E14.91160
G1 X162.181 Y90.646 E15.22247
G1 X163.506 Y95.014 E15.53334
G1 X163.953 Y99.558 E15.84421
G1 X163.506 Y104.101 E16.15508
G1 X162.181 Y108.470 E16.46594
G1 X160.028 Y112.496 E16.77681
G1 X157.132 Y116.025 E17.08768
G1 X153.603 Y118.922 E17.39855
G1 X149.577 Y121.074 E17.70941
G1 X145.208 Y122.399 E18.02028
G1 X140.665 Y122.847 E18.33115
G1 X136.121 Y122.399 E18.64201
G1 X131.753 Y121.074 E18.95288
G1 X127.726 Y118.922 E19.26375
G1 X124.197 Y116.026 E19.57461
G1 X121.301 Y112.496 E19.88548
G1 X119.149 Y108.470 E20.19635
G1 X117.824 Y104.101 E20.50722
G1 X117.376 Y99.558 E20.81810
G1 X117.815 Y95.098 E21.12328
G1 X117.417 Y94.634 F7200.000
G1 F1800.000 E20.12328
G92 E0
G1 X159.057 Y132.600 F7200.000
G1 E1.00000 F1800.000
G1 X162.595 Y128.617 E1.36281 F1080.000
G1 X171.833 Y125.842 E2.01956
G1 X197.187 Y125.842 E3.74602
G1 X197.187 Y141.106 E4.78540
G1 X159.105 Y141.106 E7.37853
G1 X159.057 Y132.684 E7.95206
G1 X159.615 Y132.811 F7200.000
G1 X162.907 Y129.105 E8.28958 F540.000
G1 X171.914 Y126.399 E8.92998
G1 X196.630 Y126.399 E10.61294
G1 X196.630 Y140.549 E11.57646
G1 X159.659 Y140.549 E14.09394
G1 X159.616 Y132.894 E14.61520
G1 X159.317 Y132.340 F7200.000
G1 F1800.000 E13.61520
G92 E0
G1 X160.779 Y143.639 F7200.000
G1 E1.00000 F1800.000
G1 X127.724 Y143.639 E3.25080 F1080.000
G1 X127.724 Y155.431 E4.05370
G1 X119.266 Y155.431 E4.62964
G1 X119.266 Y136.894 E5.89187
G1 X117.635 Y131.802 E6.25597
G1 X112.406 Y127.178 E6.73124
G1 X107.747 Y121.237 E7.24530
G1 X104.281 Y115.021 E7.72993
G1 X96.339 Y106.963 E8.50031
G1 X95.610 Y99.558 E9.00699
G1 X96.336 Y92.179 E9.51184
G1 X104.455 Y84.810 E10.25843
G1 X108.176 Y77.849 E10.79587
G1 X113.035 Y71.928 E11.31745
G1 X118.956 Y67.069 E11.83903
G1 X125.915 Y63.349 E12.37633
G1 X133.284 Y55.300 E13.11939
G1 X140.665 Y54.573 E13.62437
G1 X148.045 Y55.300 E14.12935
G1 X155.414 Y63.349 E14.87241
G1 X162.373 Y67.069 E15.40972
G1 X168.412 Y72.025 E15.94167
G1 X172.133 Y74.203 E16.23528
G1 X193.079 Y74.203 E17.66158
G1 X196.745 Y91.889 E18.89147
G1 X197.559 Y101.734 E19.56406
G1 X196.674 Y111.735 E20.24772
G1 X204.394 Y140.363 E22.26672
G1 X204.394 Y155.431 E23.29272
G1 X195.325 Y155.431 E23.91027
G1 X195.321 Y143.740 E24.70634
G1 X160.863 Y143.640 E27.05268
G1 X160.778 Y144.197 F7200.000
G1 X128.281 Y144.197 E29.26548 F540.000
G1 X128.281 Y155.988 E30.06838
G1 X118.709 Y155.988 E30.72019
G1 X118.709 Y136.981 E32.01442
G1 X117.151 Y132.117 E32.36217
G1 X111.999 Y127.561 E32.83046
G1 X107.282 Y121.547 E33.35094
G1 X103.831 Y115.359 E33.83340
G1 X95.804 Y107.214 E34.61206
G1 X95.050 Y99.558 E35.13590
G1 X95.803 Y91.911 E35.65909
G1 X104.009 Y84.462 E36.41374
G1 X107.710 Y77.538 E36.94834
G1 X112.639 Y71.532 E37.47739
G1 X118.645 Y66.603 E38.00645
G1 X125.569 Y62.903 E38.54100
G1 X133.017 Y54.767 E39.29210
G1 X140.665 Y54.014 E39.81534
G1 X148.312 Y54.767 E40.33858
G1 X155.761 Y62.903 E41.08968
G1 X162.684 Y66.603 E41.62423
G1 X168.731 Y71.566 E42.15692
G1 X172.284 Y73.646 E42.43725
G1 X193.533 Y73.646 E43.88414
G1 X197.298 Y91.810 E45.14722
G1 X198.118 Y101.734 E45.82532
G1 X197.238 Y111.685 E46.50556
G1 X204.951 Y140.289 E48.52283
G1 X204.951 Y155.988 E49.59179
G1 X194.768 Y155.988 E50.28520
G1 X194.764 Y144.296 E51.08135
G1 X160.862 Y144.197 E53.38983
G1 X160.500 Y143.714 F7200.000
G1 F1800.000 E52.38983
G92 E0
G1 X142.107 Y123.660 F7200.000
G1 E1.00000 F1800.000
G1 X158.706 Y140.259 E2.60535 F1080.000
G1 X158.702 Y139.463 E2.65977
G1 X142.827 Y123.589 E4.19502
G1 X143.548 Y123.518 E4.24452
G1 X158.697 Y138.668 E5.70968
G1 X158.693 Y137.872 E5.76410
G1 X144.268 Y123.447 E7.15917
G1 X144.988 Y123.376 E7.20867
G1 X158.688 Y137.076 E8.53364
G1 X158.684 Y136.280 E8.58806
G1 X145.659 Y123.256 E9.84771
G1 X146.266 Y123.072 E9.89110
G1 X158.679 Y135.485 E11.09161
G1 X158.675 Y134.689 E11.14602
G1 X146.873 Y122.888 E12.28739
G1 X147.481 Y122.703 E12.33077
G1 X158.670 Y133.893 E13.41299
G1 X158.666 Y133.098 E13.46741
G1 X148.088 Y122.519 E14.49048
G1 X148.695 Y122.335 E14.53387
G1 X158.732 Y132.373 E15.50465
G1 X159.105 Y131.954 E15.54298
G1 X149.302 Y122.151 E16.49104
G1 X149.909 Y121.967 E16.53443
G1 X159.477 Y131.535 E17.45978
G1 X159.849 Y131.116 E17.49811
G1 X150.430 Y121.696 E18.40909
G1 X150.945 Y121.421 E18.44907
G1 X160.221 Y130.697 E19.34618
G1 X160.593 Y130.278 E19.38451
G1 X151.461 Y121.145 E20.26775
G1 X151.976 Y120.869 E20.30774
G1 X160.965 Y129.858 E21.17710
G1 X161.338 Y129.439 E21.21543
G1 X152.492 Y120.594 E22.07092
G1 X153.008 Y120.318 E22.11091
G1 X161.710 Y129.020 E22.95253
G1 X162.082 Y128.601 E22.99086
G1 X153.523 Y120.043 E23.81860
G1 X154.039 Y119.767 E23.85859
G1 X162.505 Y128.233 E24.67732
G1 X163.113 Y128.050 E24.72077
G1 X154.489 Y119.425 E25.55488
G1 X154.923 Y119.069 E25.59333
G1 X163.721 Y127.867 E26.44426
G1 X164.330 Y127.684 E26.48771
G1 X155.358 Y118.712 E27.35546
G1 X155.792 Y118.355 E27.39391
G1 X164.938 Y127.502 E28.27848
G1 X165.547 Y127.319 E28.32193
G1 X156.227 Y117.999 E29.22332
G1 X156.661 Y117.642 E29.26176
G1 X166.155 Y127.136 E30.17997
G1 X166.764 Y126.953 E30.22342
G1 X157.096 Y117.285 E31.15845
G1 X157.531 Y116.929 E31.19690
G1 X167.372 Y126.771 E32.14874
G1 X167.981 Y126.588 E32.19219
G1 X157.937 Y116.544 E33.16359
G1 X158.294 Y116.109 E33.20203
G1 X168.589 Y126.405 E34.19778
G1 X169.198 Y126.222 E34.24123
G1 X158.650 Y115.675 E35.26134
G1 X159.007 Y115.240 E35.29979
G1 X169.806 Y126.040 E36.34425
G1 X170.415 Y125.857 E36.38770
G1 X159.364 Y114.805 E37.45652
G1 X159.720 Y114.371 E37.49497
G1 X171.023 Y125.674 E38.58814
G1 X171.632 Y125.491 E38.63159
G1 X160.077 Y113.936 E39.74912
G1 X160.434 Y113.502 E39.78757
G1 X172.380 Y125.448 E40.94299
G1 X173.171 Y125.448 E40.99710
G1 X160.790 Y113.067 E42.19454
G1 X161.073 Y112.559 E42.23432
G1 X173.963 Y125.448 E43.48092
G1 X174.754 Y125.448 E43.53503
G1 X161.349 Y112.043 E44.83149
G1 X161.624 Y111.528 E44.87148
G1 X175.545 Y125.448 E46.21781
G1 X176.336 Y125.448 E46.27192
G1 X161.900 Y111.012 E47.66813
G1 X162.176 Y110.496 E47.70811
G1 X177.128 Y125.448 E49.15418
G1 X177.919 Y125.448 E49.20829
G1 X162.451 Y109.981 E50.70423
G1 X162.727 Y109.465 E50.74422
G1 X178.710 Y125.448 E52.29003
G1 X179.501 Y125.448 E52.34414
G1 X163.003 Y108.949 E53.93982
G1 X163.207 Y108.363 E53.98232
G1 X180.293 Y125.448 E55.63476
G1 X181.084 Y125.448 E55.68887
G1 X163.391 Y107.755 E57.40003
G1 X163.575 Y107.148 E57.44341
G1 X181.875 Y125.448 E59.21328
G1 X182.666 Y125.448 E59.26739
G1 X163.759 Y106.541 E61.09598
G1 X163.943 Y105.934 E61.13936
G1 X183.458 Y125.448 E63.02666
G1 X184.249 Y125.448 E63.08077
G1 X164.128 Y105.327 E65.02678
G1 X164.312 Y104.720 E65.07017
G1 X185.040 Y125.448 E67.07489
G1 X185.831 Y125.448 E67.12900
G1 X164.463 Y104.080 E69.19559
G1 X164.534 Y103.360 E69.24509
G1 X186.623 Y125.448 E71.38135
G1 X187.414 Y125.448 E71.43546
G1 X164.605 Y102.640 E73.64137
G1 X164.676 Y101.919 E73.69087
G1 X188.205 Y125.448 E75.96645
G1 X188.996 Y125.448 E76.02056
G1 X164.747 Y101.199 E78.36581
G1 X164.818 Y100.479 E78.41530
G1 X189.788 Y125.448 E80.83021
G1 X190.579 Y125.448 E80.88432
G1 X164.889 Y99.759 E83.36889
G1 X164.846 Y98.925 E83.42599
G1 X191.370 Y125.448 E85.99120
G1 X192.161 Y125.448 E86.04531
G1 X164.760 Y98.047 E88.69541
G1 X164.674 Y97.169 E88.75572
G1 X192.953 Y125.448 E91.49070
G1 X193.744 Y125.448 E91.54481
G1 X164.587 Y96.292 E94.36468
G1 X164.501 Y95.414 E94.42499
G1 X194.535 Y125.448 E97.32975
G1 X195.326 Y125.448 E97.38386
G1 X164.328 Y94.451 E100.38179
G1 X163.984 Y93.315 E100.46296
G1 X196.117 Y125.448 E103.57073
G1 X196.909 Y125.448 E103.62484
G1 X163.639 Y92.179 E106.84247
G1 X163.295 Y91.043 E106.92363
G1 X200.801 Y128.549 E110.55098
G1 X201.093 Y129.632 E110.62772
G1 X197.581 Y126.121 E110.96735
G1 X197.581 Y126.912 E111.02146
G1 X201.385 Y130.716 E111.38935
G1 X201.677 Y131.799 E111.46608
G1 X197.581 Y127.703 E111.86222
G1 X197.581 Y128.494 E111.91633
G1 X201.969 Y132.883 E112.34073
G1 X202.261 Y133.966 E112.41747
G1 X197.581 Y129.286 E112.87012
G1 X197.581 Y130.077 E112.92423
G1 X202.554 Y135.049 E113.40513
G1 X202.846 Y136.133 E113.48187
G1 X197.581 Y130.868 E113.99103
G1 X197.581 Y131.659 E114.04514
G1 X203.138 Y137.216 E114.58256
G1 X203.430 Y138.300 E114.65929
G1 X197.581 Y132.451 E115.22497
G1 X197.581 Y133.242 E115.27908
G1 X203.722 Y139.383 E115.87300
G1 X204.001 Y140.453 E115.94858
G1 X197.581 Y134.033 E116.56943
G1 X197.581 Y134.824 E116.62354
G1 X204.001 Y141.244 E117.24438
G1 X204.001 Y142.035 E117.29849
G1 X197.581 Y135.616 E117.91934
G1 X197.581 Y136.407 E117.97345
G1 X204.001 Y142.826 E118.59429
G1 X204.001 Y143.618 E118.64840
G1 X197.581 Y137.198 E119.26925
G1 X197.581 Y137.989 E119.32336
G1 X204.001 Y144.409 E119.94420
G1 X204.001 Y145.200 E119.99831
G1 X197.581 Y138.781 E120.61916
G1 X197.581 Y139.572 E120.67327
G1 X204.001 Y145.991 E121.29411
G1 X204.001 Y146.783 E121.34822
G1 X197.581 Y140.363 E121.96907
G1 X197.581 Y141.154 E122.02318
G1 X204.001 Y147.574 E122.64402
G1 X204.001 Y148.365 E122.69813
G1 X197.136 Y141.500 E123.36204
G1 X196.345 Y141.500 E123.41616
G1 X204.001 Y149.156 E124.15659
G1 X204.001 Y149.947 E124.21070
G1 X195.553 Y141.500 E125.02766
G1 X194.762 Y141.500 E125.08178
G1 X204.001 Y150.739 E125.97526
G1 X204.001 Y151.530 E126.02937
G1 X193.971 Y141.500 E126.99938
G1 X193.180 Y141.500 E127.05349
G1 X195.024 Y143.345 E127.23191
G1 X194.231 Y143.343 E127.28618
G1 X192.388 Y141.500 E127.46437
G1 X191.597 Y141.500 E127.51848
G1 X193.437 Y143.340 E127.69645
G1 X192.644 Y143.338 E127.75072
G1 X190.806 Y141.500 E127.92847
G1 X190.015 Y141.500 E127.98258
G1 X191.850 Y143.336 E128.16010
G1 X191.057 Y143.334 E128.21437
G1 X189.223 Y141.500 E128.39167
G1 X188.432 Y141.500 E128.44578
G1 X190.263 Y143.331 E128.62286
G1 X189.470 Y143.329 E128.67713
G1 X187.641 Y141.500 E128.85398
G1 X186.850 Y141.500 E128.90809
G1 X188.676 Y143.327 E129.08473
G1 X187.882 Y143.324 E129.13899
G1 X186.058 Y141.500 E129.31540
G1 X185.267 Y141.500 E129.36951
G1 X187.089 Y143.322 E129.54570
G1 X186.295 Y143.320 E129.59997
G1 X184.476 Y141.500 E129.77593
G1 X183.685 Y141.500 E129.83004
G1 X185.502 Y143.317 E130.00578
G1 X184.708 Y143.315 E130.06005
G1 X182.893 Y141.500 E130.23557
G1 X182.102 Y141.500 E130.28968
G1 X183.915 Y143.313 E130.46497
G1 X183.121 Y143.311 E130.51924
G1 X181.311 Y141.500 E130.69431
G1 X180.520 Y141.500 E130.74842
G1 X182.328 Y143.308 E130.92327
G1 X181.534 Y143.306 E130.97754
G1 X179.729 Y141.500 E131.15216
G1 X178.937 Y141.500 E131.20627
G1 X180.741 Y143.304 E131.38067
G1 X179.947 Y143.301 E131.43494
G1 X178.146 Y141.500 E131.60912
G1 X177.355 Y141.500 E131.66323
G1 X179.153 Y143.299 E131.83719
G1 X178.360 Y143.297 E131.89146
G1 X176.564 Y141.500 E132.06519
G1 X175.772 Y141.500 E132.11930
G1 X177.566 Y143.294 E132.29281
G1 X176.773 Y143.292 E132.34708
G1 X174.981 Y141.500 E132.52036
G1 X174.190 Y141.500 E132.57447
G1 X175.979 Y143.290 E132.74754
G1 X175.186 Y143.287 E132.80181
G1 X173.399 Y141.500 E132.97465
G1 X172.607 Y141.500 E133.02876
G1 X174.392 Y143.285 E133.20137
G1 X173.599 Y143.283 E133.25564
G1 X171.816 Y141.500 E133.42804
G1 X171.025 Y141.500 E133.48215
G1 X172.805 Y143.281 E133.65432
G1 X172.012 Y143.278 E133.70859
G1 X170.234 Y141.500 E133.88054
G1 X169.442 Y141.500 E133.93465
G1 X171.218 Y143.276 E134.10637
G1 X170.424 Y143.274 E134.16064
G1 X168.651 Y141.500 E134.33214
G1 X167.860 Y141.500 E134.38625
G1 X169.631 Y143.271 E134.55753
G1 X168.837 Y143.269 E134.61180
G1 X167.069 Y141.500 E134.78286
G1 X166.277 Y141.500 E134.83697
G1 X168.044 Y143.267 E135.00780
G1 X167.250 Y143.264 E135.06207
G1 X165.486 Y141.500 E135.23268
G1 X164.695 Y141.500 E135.28679
G1 X166.457 Y143.262 E135.45718
G1 X165.663 Y143.260 E135.51144
G1 X163.904 Y141.500 E135.68161
G1 X163.112 Y141.500 E135.73572
G1 X164.870 Y143.257 E135.90566
G1 X164.076 Y143.255 E135.95993
G1 X162.321 Y141.500 E136.12965
G1 X161.530 Y141.500 E136.18376
G1 X163.282 Y143.253 E136.35325
G1 X162.489 Y143.251 E136.40752
G1 X160.739 Y141.500 E136.57679
G1 X159.947 Y141.500 E136.63090
G1 X161.695 Y143.248 E136.79995
G1 X160.902 Y143.246 E136.85422
G1 X141.387 Y123.731 E138.74159
G1 X140.667 Y123.802 E138.79109
G1 X160.110 Y143.246 E140.67157
G1 X159.319 Y143.246 E140.72568
G1 X139.789 Y123.716 E142.61448
G1 X138.912 Y123.629 E142.67479
G1 X158.528 Y143.246 E144.57195
G1 X157.737 Y143.246 E144.62606
G1 X138.034 Y123.543 E146.53158
