; generated by Slic3r 1.0.0RC2 on 2014-05-19 at 20:31:55

; layer_height = 0.3
; perimeters = 4
; top_solid_layers = 3
; bottom_solid_layers = 3
; fill_density = 0.1
; perimeter_speed = 60
; infill_speed = 60
; travel_speed = 120
; nozzle_diameter = 0.4
; filament_diameter = 1.75
; extrusion_multiplier = 0.98
; perimeters extrusion width = 0.40mm
; infill extrusion width = 0.42mm
; solid infill extrusion width = 0.42mm
; top infill extrusion width = 0.42mm
; first layer extrusion width = 0.80mm

G21 ; set units to millimeters
M107
M104 S220 ; set temperature
G28 ; home all axes
M106 S255;
G1 Z200 F1200 ; lift nozzle
M109 S220 ; wait for temperature to be reached
G90 ; use absolute coordinates
G92 E0
M82 ; use absolute distances for extrusion
G1 F1800.000 E-1.00000
G92 E0
G1 Z0.400 F7200.000
G1 X114.669 Y82.621 F7200.000
G1 E1.00000 F1800.000
G1 X115.109 Y82.081 E1.08107 F1080.000
G1 X123.889 Y72.311 E2.60991
G1 X124.369 Y71.821 E2.68975
G1 X124.909 Y71.381 E2.77082
G1 X126.069 Y70.531 E2.93820
G1 X126.669 Y70.141 E3.02149
G1 X127.299 Y69.821 E3.10373
G1 X139.289 Y64.471 E4.63187
G1 X139.969 Y64.211 E4.71660
G1 X140.679 Y64.021 E4.80214
G1 X142.089 Y63.731 E4.96969
G1 X142.759 Y63.631 E5.04853
G1 X143.439 Y63.601 E5.12776
G1 X156.559 Y63.601 E6.65479
G1 X157.239 Y63.631 E6.73401
G1 X157.909 Y63.731 E6.81286
G1 X159.319 Y64.021 E6.98040
G1 X160.029 Y64.211 E7.06595
G1 X160.709 Y64.471 E7.15068
G1 X172.689 Y69.821 E8.67775
G1 X173.309 Y70.141 E8.75896
G1 X173.899 Y70.521 E8.84064
G1 X175.069 Y71.371 E9.00896
G1 X175.609 Y71.811 E9.09003
G1 X176.109 Y72.311 E9.17233
G1 X184.889 Y82.081 E10.70117
G1 X185.329 Y82.621 E10.78224
G1 X185.709 Y83.201 E10.86295
G1 X186.429 Y84.441 E11.02984
G1 X186.749 Y85.071 E11.11208
G1 X187.009 Y85.741 E11.19573
G1 X191.059 Y98.241 E12.72506
G1 X191.239 Y98.921 E12.80693
G1 X191.349 Y99.611 E12.88825
G1 X191.499 Y101.041 E13.05560
G1 X191.529 Y101.741 E13.13715
G1 X191.499 Y102.441 E13.21870
G1 X190.129 Y115.511 E14.74825
G1 X190.019 Y116.191 E14.82842
G1 X189.849 Y116.851 E14.90775
G1 X189.409 Y118.231 E15.07633
G1 X189.149 Y118.901 E15.15998
G1 X188.829 Y119.541 E15.24326
G1 X182.269 Y130.921 E16.77208
G1 X181.879 Y131.521 E16.85537
G1 X181.419 Y132.081 E16.93972
G1 X180.449 Y133.151 E17.10782
G1 X179.969 Y133.641 E17.18765
G1 X179.429 Y134.071 E17.26799
G1 X168.819 Y141.791 E18.79519
G1 X168.229 Y142.171 E18.87687
G1 X167.609 Y142.491 E18.95808
G1 X166.289 Y143.081 E19.12636
G1 X165.629 Y143.331 E19.20850
G1 X164.949 Y143.521 E19.29068
G1 X152.119 Y146.251 E20.81739
G1 X151.419 Y146.361 E20.89987
G1 X150.719 Y146.391 E20.98141
G1 X149.269 Y146.391 E21.15018
G1 X148.569 Y146.361 E21.23173
G1 X147.869 Y146.251 E21.31420
G1 X135.039 Y143.521 E22.84091
G1 X134.349 Y143.331 E22.92421
G1 X133.679 Y143.071 E23.00786
G1 X132.369 Y142.481 E23.17508
G1 X131.759 Y142.171 E23.25472
G1 X131.179 Y141.791 E23.33542
G1 X120.569 Y134.071 E24.86262
G1 X120.049 Y133.651 E24.94042
G1 X119.569 Y133.181 E25.01861
G1 X118.469 Y131.961 E25.20980
G1 X118.079 Y131.461 E25.28360
G1 X117.729 Y130.921 E25.35850
G1 X111.169 Y119.541 E26.88732
G1 X110.859 Y118.921 E26.96800
G1 X110.609 Y118.271 E27.04906
G1 X110.159 Y116.891 E27.21800
G1 X109.969 Y116.211 E27.30018
G1 X109.859 Y115.501 E27.38380
G1 X108.499 Y102.431 E28.91323
G1 X108.469 Y101.741 E28.99361
G1 X108.499 Y101.041 E29.07516
G1 X108.649 Y99.611 E29.24251
G1 X108.759 Y98.921 E29.32383
G1 X108.939 Y98.241 E29.40571
G1 X112.989 Y85.741 E30.93504
G1 X113.249 Y85.071 E31.01868
G1 X113.569 Y84.441 E31.10093
G1 X114.289 Y83.201 E31.26781
G1 X114.610 Y82.711 E31.33605
G1 F1800.000 E30.33605
G92 E0
G1 X146.465 Y100.415 F7200.000
G1 E1.00000 F1800.000
G1 X153.559 Y100.415 E1.82578 F540.000
G1 X153.559 Y108.973 E2.82196
G1 X146.465 Y108.973 E3.64774
G1 X146.465 Y100.522 E4.63145
G1 X147.179 Y101.129 F7200.000
G1 X152.845 Y101.129 E5.29099 F540.000
G1 X152.845 Y108.259 E6.12092
G1 X147.179 Y108.259 E6.78046
G1 X147.179 Y101.236 E7.59792
G1 X147.893 Y101.843 F7200.000
G1 X152.131 Y101.843 E8.09122 F540.000
G1 X152.131 Y107.545 E8.75491
G1 X147.893 Y107.545 E9.24821
G1 X147.893 Y101.950 E9.89944
G1 X148.607 Y102.557 F7200.000
G1 X151.417 Y102.557 E10.22649 F540.000
G1 X151.417 Y106.831 E10.72394
G1 X148.607 Y106.831 E11.05100
G1 X148.607 Y102.664 E11.53598
G1 X148.607 Y101.843 F7200.000
G1 X140.201 Y82.123 F7200.000
G1 X143.750 Y80.665 E11.98245 F1080.000
G1 X142.795 Y78.151 E12.29537
G1 X142.655 Y77.091 E12.41991
G1 X142.733 Y75.804 E12.56990
G1 X143.015 Y74.358 E12.74143
G1 X143.322 Y73.381 E12.86061
G1 X143.994 Y74.148 E12.97930
G1 X144.851 Y75.363 E13.15241
G1 X145.447 Y76.505 E13.30224
G1 X145.750 Y77.516 E13.42512
G1 X145.877 Y80.219 E13.74003
G1 X149.973 Y80.084 E14.21701
G1 X154.040 Y80.218 E14.69057
G1 X154.198 Y77.530 E15.00388
G1 X154.505 Y76.505 E15.12852
G1 X155.101 Y75.363 E15.27834
G1 X155.958 Y74.148 E15.45146
G1 X156.624 Y73.388 E15.56907
G1 X156.925 Y74.358 E15.68731
G1 X157.214 Y75.813 E15.85994
G1 X157.296 Y77.095 E16.00948
G1 X157.157 Y78.151 E16.13350
G1 X156.202 Y80.665 E16.44643
G1 X160.011 Y82.227 E16.92553
G1 X163.597 Y84.001 E17.39119
G1 X164.862 Y81.598 E17.70726
G1 X165.567 Y80.779 E17.83298
G1 X166.572 Y79.979 E17.98246
G1 X167.848 Y79.220 E18.15530
G1 X168.772 Y78.797 E18.27360
G1 X168.656 Y79.802 E18.39142
G1 X168.322 Y81.252 E18.56455
G1 X167.876 Y82.456 E18.71404
G1 X167.323 Y83.361 E18.83742
G1 X165.422 Y85.262 E19.15033
G1 X168.190 Y88.163 E19.61695
G1 X168.317 Y88.333 E19.64168
G1 X168.391 Y88.388 E19.65241
G1 X170.882 Y91.326 E20.10075
G1 X172.975 Y89.646 E20.41313
G1 X173.939 Y89.187 E20.53740
G1 X175.181 Y88.866 E20.68673
G1 X176.653 Y88.692 E20.85920
G1 X177.671 Y88.679 E20.97775
G1 X177.156 Y89.551 E21.09567
G1 X176.261 Y90.734 E21.26827
G1 X175.358 Y91.656 E21.41854
G1 X174.480 Y92.262 E21.54268
G1 X171.986 Y93.241 E21.85458
G1 X173.376 Y97.136 E22.33591
G1 X174.482 Y100.968 E22.80018
G1 X177.086 Y100.301 E23.11305
G1 X178.162 Y100.273 E23.23834
G1 X179.436 Y100.487 E23.38865
G1 X180.842 Y100.918 E23.55986
G1 X181.781 Y101.327 E23.67907
G1 X180.956 Y101.913 E23.79689
G1 X179.659 Y102.633 E23.96954
G1 X178.453 Y103.108 E24.12035
G1 X177.420 Y103.304 E24.24282
G1 X174.732 Y103.146 E24.55624
G1 X174.407 Y107.378 E25.05025
G1 X173.870 Y111.262 E25.50661
G1 X176.523 Y111.705 E25.81967
G1 X177.509 Y112.115 E25.94390
G1 X178.583 Y112.830 E26.09416
G1 X179.702 Y113.805 E26.26677
G1 X180.385 Y114.550 E26.38450
G1 X179.393 Y114.747 E26.50224
G1 X177.913 Y114.882 E26.67517
G1 X176.634 Y114.827 E26.82427
G1 X175.583 Y114.573 E26.95011
G1 X173.317 Y113.470 E27.24339
G1 X172.030 Y115.529 E27.52600
G1 X171.252 Y116.980 E27.71765
G1 X169.135 Y120.384 E28.18424
G1 X171.359 Y121.888 E28.49672
G1 X172.101 Y122.670 E28.62214
G1 X172.786 Y123.755 E28.77155
G1 X173.415 Y125.107 E28.94504
G1 X173.740 Y126.069 E29.06321
G1 X172.750 Y125.845 E29.18135
G1 X171.344 Y125.368 E29.35408
G1 X170.197 Y124.792 E29.50350
G1 X169.351 Y124.145 E29.62747
G1 X167.656 Y122.073 E29.93903
G1 X164.372 Y124.595 E30.42084
G1 X163.184 Y125.394 E30.58748
G1 X161.112 Y126.921 E30.88714
G1 X162.511 Y129.111 E31.18962
G1 X162.865 Y130.114 E31.31341
G1 X163.052 Y131.387 E31.46316
G1 X163.076 Y132.874 E31.63621
G1 X162.979 Y133.880 E31.75389
G1 X162.164 Y133.275 E31.87203
G1 X161.085 Y132.266 E32.04407
G1 X160.257 Y131.268 E32.19497
G1 X159.747 Y130.340 E32.31818
G1 X159.051 Y127.746 E32.63076
G1 X155.015 Y128.729 E33.11422
G1 X151.106 Y129.437 E33.57662
G1 X151.484 Y132.084 E33.88785
G1 X151.400 Y133.156 E34.01298
G1 X151.049 Y134.399 E34.16331
G1 X150.473 Y135.761 E34.33550
G1 X149.974 Y136.642 E34.45325
G1 X149.477 Y135.758 E34.57130
G1 X148.892 Y134.399 E34.74344
G1 X148.551 Y133.160 E34.89303
G1 X148.462 Y132.079 E35.01924
G1 X148.840 Y129.437 E35.32991
G1 X144.919 Y128.726 E35.79369
G1 X140.931 Y127.743 E36.27179
G1 X140.207 Y130.323 E36.58366
G1 X139.683 Y131.271 E36.70972
G1 X138.866 Y132.266 E36.85954
G1 X137.777 Y133.275 E37.03236
G1 X136.965 Y133.882 E37.15029
G1 X136.875 Y132.878 E37.26768
G1 X136.895 Y131.388 E37.44114
G1 X137.085 Y130.119 E37.59050
G1 X137.441 Y129.111 E37.71481
G1 X138.898 Y126.831 E38.02980
G1 X135.539 Y124.567 E38.50126
G1 X132.303 Y122.065 E38.97733
G1 X130.603 Y124.143 E39.28976
G1 X129.752 Y124.791 E39.41428
G1 X128.600 Y125.368 E39.56420
G1 X127.201 Y125.845 E39.73627
G1 X126.206 Y126.070 E39.85503
G1 X126.531 Y125.107 E39.97337
G1 X127.158 Y123.758 E40.14643
G1 X127.849 Y122.673 E40.29621
G1 X128.593 Y121.888 E40.42207
G1 X130.820 Y120.382 E40.73497
G1 X128.910 Y117.322 E41.15482
G1 X128.765 Y117.085 E41.18719
G1 X128.719 Y116.971 E41.20154
G1 X128.613 Y116.829 E41.22212
G1 X126.759 Y113.392 E41.67662
G1 X124.364 Y114.574 E41.98746
G1 X123.313 Y114.827 E42.11322
G1 X122.038 Y114.882 E42.26180
G1 X120.553 Y114.747 E42.43530
G1 X119.558 Y114.549 E42.55342
G1 X120.242 Y113.807 E42.67089
G1 X121.363 Y112.830 E42.84386
G1 X122.436 Y112.116 E42.99390
G1 X123.429 Y111.704 E43.11907
G1 X126.063 Y111.260 E43.42991
G1 X125.517 Y107.156 E43.91175
G1 X125.239 Y103.147 E44.37949
G1 X122.527 Y103.305 E44.69570
G1 X121.494 Y103.108 E44.81808
G1 X120.294 Y102.634 E44.96824
G1 X118.996 Y101.913 E45.14109
G1 X118.169 Y101.325 E45.25923
G1 X119.103 Y100.918 E45.37782
G1 X120.516 Y100.487 E45.54978
G1 X121.785 Y100.273 E45.69955
G1 X122.860 Y100.301 E45.82475
G1 X125.463 Y100.968 E46.13749
G1 X126.571 Y97.132 E46.60215
G1 X127.967 Y93.241 E47.08333
G1 X125.469 Y92.261 E47.39566
G1 X124.586 Y91.654 E47.52038
G1 X123.687 Y90.736 E47.66993
G1 X122.798 Y89.554 E47.84211
G1 X122.281 Y88.679 E47.96042
G1 X123.294 Y88.692 E48.07832
G1 X124.771 Y88.866 E48.25149
G1 X126.013 Y89.187 E48.40076
G1 X126.977 Y89.646 E48.52503
G1 X129.073 Y91.329 E48.83794
G1 X131.639 Y88.286 E49.30121
G1 X134.536 Y85.268 E49.78808
G1 X132.629 Y83.361 E50.10203
G1 X132.076 Y82.456 E50.22542
G1 X131.630 Y81.252 E50.37491
G1 X131.296 Y79.802 E50.54804
G1 X131.180 Y78.798 E50.66565
G1 X132.104 Y79.220 E50.78378
G1 X133.375 Y79.979 E50.95615
G1 X134.381 Y80.777 E51.10558
G1 X135.075 Y81.591 E51.23007
G1 X136.326 Y83.969 E51.54276
G1 X140.102 Y82.163 E52.02993
G1 X139.849 Y81.495 F7200.000
G1 X142.835 Y80.268 E52.40570 F1080.000
G1 X142.098 Y78.327 E52.64731
G1 X141.939 Y77.116 E52.78949
G1 X142.023 Y75.714 E52.95297
G1 X142.322 Y74.182 E53.13467
G1 X142.771 Y72.753 E53.30904
G1 X143.107 Y72.271 E53.37738
G1 X143.551 Y72.559 E53.43905
G1 X144.556 Y73.705 E53.61649
G1 X145.462 Y74.991 E53.79954
G1 X146.112 Y76.235 E53.96282
G1 X146.459 Y77.395 E54.10381
G1 X146.557 Y79.482 E54.34696
G1 X149.973 Y79.369 E54.74471
G1 X153.368 Y79.481 E55.14001
G1 X153.490 Y77.405 E55.38202
G1 X153.840 Y76.235 E55.52427
G1 X154.490 Y74.991 E55.68755
G1 X155.396 Y73.705 E55.87060
G1 X156.389 Y72.572 E56.04606
G1 X156.871 Y72.272 E56.11210
G1 X157.165 Y72.722 E56.17469
G1 X157.619 Y74.182 E56.35258
G1 X157.924 Y75.720 E56.53513
G1 X158.013 Y77.119 E56.69829
G1 X157.854 Y78.327 E56.84009
G1 X157.117 Y80.268 E57.08170
G1 X160.299 Y81.573 E57.48200
G1 X163.291 Y83.049 E57.87028
G1 X164.268 Y81.193 E58.11442
G1 X165.070 Y80.263 E58.25740
G1 X166.165 Y79.391 E58.42031
G1 X167.516 Y78.586 E58.60327
G1 X168.890 Y77.957 E58.77918
G1 X169.447 Y77.877 E58.84469
G1 X169.535 Y78.413 E58.90791
G1 X169.360 Y79.924 E59.08489
G1 X169.008 Y81.457 E59.26796
G1 X168.522 Y82.770 E59.43088
G1 X167.888 Y83.806 E59.57226
G1 X166.420 Y85.274 E59.81392
G1 X168.887 Y87.868 E60.23051
G1 X170.977 Y90.334 E60.60679
G1 X172.593 Y89.037 E60.84803
G1 X173.694 Y88.513 E60.98995
G1 X175.049 Y88.162 E61.15285
G1 X176.606 Y87.978 E61.33535
G1 X178.118 Y87.959 E61.51125
G1 X178.657 Y88.114 E61.57658
G1 X178.519 Y88.648 E61.64067
G1 X177.750 Y89.949 E61.81662
G1 X176.803 Y91.201 E61.99927
G1 X175.820 Y92.204 E62.16281
G1 X174.818 Y92.896 E62.30454
G1 X172.891 Y93.653 E62.54547
G1 X174.056 Y96.916 E62.94878
G1 X174.976 Y100.104 E63.33500
G1 X176.987 Y99.589 E63.57659
G1 X178.212 Y99.557 E63.71928
G1 X179.600 Y99.790 E63.88306
G1 X181.090 Y100.247 E64.06444
G1 X182.472 Y100.849 E64.23987
G1 X182.909 Y101.218 E64.30646
G1 X182.573 Y101.640 E64.36930
G1 X181.337 Y102.518 E64.54576
G1 X179.965 Y103.280 E64.72849
G1 X178.653 Y103.797 E64.89259
G1 X177.466 Y104.023 E65.03317
G1 X175.390 Y103.900 E65.27526
G1 X175.121 Y107.427 E65.68696
G1 X174.673 Y110.672 E66.06820
G1 X176.722 Y111.014 E66.31003
G1 X177.847 Y111.483 E66.45186
G1 X179.018 Y112.262 E66.61551
G1 X180.201 Y113.292 E66.79817
G1 X181.217 Y114.400 E66.97312
G1 X181.470 Y114.920 E67.04041
G1 X181.000 Y115.156 E67.10160
G1 X179.495 Y115.455 E67.28012
G1 X177.931 Y115.597 E67.46298
G1 X176.533 Y115.538 E67.62576
G1 X175.340 Y115.249 E67.76873
G1 X173.582 Y114.393 E67.99621
G1 X172.649 Y115.887 E68.20128
G1 X171.872 Y117.335 E68.39245
G1 X170.105 Y120.178 E68.78208
G1 X171.824 Y121.340 E69.02360
G1 X172.667 Y122.229 E69.16624
G1 X173.415 Y123.412 E69.32913
G1 X174.079 Y124.841 E69.51252
G1 X174.564 Y126.276 E69.68886
G1 X174.589 Y126.850 E69.75570
G1 X174.056 Y126.872 E69.81782
G1 X172.556 Y126.533 E69.99682
G1 X171.068 Y126.028 E70.17966
G1 X169.817 Y125.400 E70.34264
G1 X168.851 Y124.662 E70.48412
G1 X167.541 Y123.061 E70.72489
G1 X164.790 Y125.174 E71.12867
G1 X163.596 Y125.978 E71.29617
G1 X162.073 Y127.100 E71.51629
G1 X163.157 Y128.796 E71.75057
G1 X163.562 Y129.942 E71.89201
G1 X163.765 Y131.329 E72.05520
G1 X163.791 Y132.902 E72.23830
G1 X163.644 Y134.427 E72.41660
G1 X163.450 Y134.948 E72.48125
G1 X162.946 Y134.745 E72.54455
G1 X161.706 Y133.825 E72.72421
G1 X160.564 Y132.756 E72.90622
G1 X159.663 Y131.672 E73.07031
G1 X159.080 Y130.608 E73.21150
G1 X158.542 Y128.605 E73.45293
G1 X155.168 Y129.427 E73.85717
G1 X151.910 Y130.016 E74.24246
G1 X152.202 Y132.061 E74.48291
G1 X152.106 Y133.282 E74.62543
G1 X151.725 Y134.636 E74.78917
G1 X151.114 Y136.078 E74.97137
G1 X150.352 Y137.423 E75.15135
G1 X149.986 Y137.809 E75.21330
G1 X149.585 Y137.406 E75.27955
G1 X148.836 Y136.075 E75.45728
G1 X148.216 Y134.636 E75.63959
G1 X147.845 Y133.285 E75.80270
G1 X147.744 Y132.058 E75.94600
G1 X148.036 Y130.016 E76.18605
G1 X144.773 Y129.426 E76.57193
G1 X141.431 Y128.603 E76.97253
G1 X140.872 Y130.596 E77.21350
G1 X140.276 Y131.674 E77.35683
G1 X139.387 Y132.757 E77.51991
G1 X138.235 Y133.825 E77.70275
G1 X136.995 Y134.752 E77.88301
G1 X136.523 Y134.948 E77.94239
G1 X136.295 Y134.398 E78.01172
G1 X136.160 Y132.905 E78.18619
G1 X136.181 Y131.330 E78.36958
G1 X136.389 Y129.945 E78.53252
G1 X136.795 Y128.796 E78.67434
G1 X137.920 Y127.035 E78.91761
G1 X135.118 Y125.145 E79.31096
G1 X132.416 Y123.055 E79.70859
G1 X131.103 Y124.660 E79.94999
G1 X130.131 Y125.399 E80.09203
G1 X128.877 Y126.029 E80.25537
G1 X127.395 Y126.533 E80.43754
G1 X125.897 Y126.872 E80.61627
G1 X125.389 Y126.850 E80.67555
G1 X125.393 Y126.244 E80.74610
G1 X125.867 Y124.841 E80.91846
G1 X126.530 Y123.415 E81.10152
G1 X127.283 Y122.231 E81.26479
G1 X128.128 Y121.340 E81.40775
G1 X129.849 Y120.176 E81.64957
G1 X128.009 Y117.215 E82.05535
G1 X126.457 Y114.337 E82.43589
G1 X124.608 Y115.249 E82.67583
G1 X123.413 Y115.538 E82.81893
G1 X122.021 Y115.597 E82.98114
G1 X120.451 Y115.455 E83.16461
G1 X118.967 Y115.159 E83.34070
G1 X118.504 Y114.917 E83.40151
G1 X118.743 Y114.379 E83.47011
G1 X119.743 Y113.294 E83.64184
G1 X120.928 Y112.262 E83.82476
G1 X122.098 Y111.483 E83.98825
G1 X123.230 Y111.013 E84.13094
G1 X125.264 Y110.670 E84.37098
G1 X124.807 Y107.228 E84.77517
G1 X124.576 Y103.901 E85.16332
G1 X122.480 Y104.023 E85.40762
G1 X121.294 Y103.797 E85.54813
G1 X119.988 Y103.281 E85.71159
G1 X118.615 Y102.518 E85.89445
G1 X117.397 Y101.653 E86.06826
G1 X117.068 Y101.218 E86.13177
G1 X117.495 Y100.839 E86.19820
G1 X118.855 Y100.247 E86.37083
G1 X120.352 Y99.790 E86.55294
G1 X121.734 Y99.557 E86.71614
G1 X122.959 Y99.589 E86.85876
G1 X124.969 Y100.104 E87.10026
G1 X125.892 Y96.911 E87.48714
G1 X127.062 Y93.653 E87.89003
G1 X125.132 Y92.896 E88.13127
G1 X124.125 Y92.203 E88.27357
G1 X123.144 Y91.203 E88.43660
G1 X122.203 Y89.951 E88.61883
G1 X121.449 Y88.674 E88.79146
G1 X121.324 Y88.114 E88.85833
G1 X121.839 Y87.959 E88.92091
