; generated by Slic3r 1.0.0RC3 on 2014-03-11 at 19:33:19

; layer_height = 0.3
; perimeters = 2
; top_solid_layers = 3
; bottom_solid_layers = 3
; fill_density = 0.1
; perimeter_speed = 60
; infill_speed = 60
; travel_speed = 120
; nozzle_diameter = 0.4
; filament_diameter = 1.75
; extrusion_multiplier = 0.98
; perimeters extrusion width = 0.40mm
; infill extrusion width = 0.42mm
; solid infill extrusion width = 0.42mm
; top infill extrusion width = 0.42mm
; first layer extrusion width = 0.60mm

G21 ; set units to millimeters
M107
M104 S220 ; set temperature
G28 ; home all axes
M106 S255;
G1 Z200 F1200 ; lift nozzle
M109 S220 ; wait for temperature to be reached
G90 ; use absolute coordinates
G92 E0
M82 ; use absolute distances for extrusion
G1 F1800.000 E-1.00000
G92 E0
G1 Z0.300 F7200.000
G1 X126.076 Y58.984 F7200.000
G1 E1.00000 F1800.000
G1 X126.686 Y57.854 E1.08744 F1080.000
G1 X127.496 Y56.854 E1.17507
G1 X128.496 Y56.044 E1.26270
G1 X129.626 Y55.434 E1.35014
G1 X130.856 Y55.064 E1.43760
G1 X132.136 Y54.934 E1.52520
G1 X167.856 Y54.934 E3.95746
G1 X169.136 Y55.064 E4.04507
G1 X170.366 Y55.434 E4.13253
G1 X171.496 Y56.044 E4.21997
G1 X172.496 Y56.854 E4.30760
G1 X173.306 Y57.854 E4.39523
G1 X173.916 Y58.984 E4.48267
G1 X174.286 Y60.214 E4.57013
G1 X174.416 Y61.494 E4.65773
G1 X174.416 Y145.184 E10.35639
G1 X174.286 Y146.464 E10.44399
G1 X173.906 Y147.704 E10.53230
G1 X173.306 Y148.834 E10.61942
G1 X172.486 Y149.834 E10.70748
G1 X171.486 Y150.644 E10.79511
G1 X170.346 Y151.254 E10.88315
G1 X166.516 Y152.824 E11.16500
G1 X165.446 Y153.154 E11.24125
G1 X160.986 Y154.144 E11.55233
G1 X160.296 Y154.264 E11.60002
G1 X155.626 Y154.784 E11.91998
G1 X150.196 Y154.984 E12.28997
G1 X149.666 Y154.984 E12.32606
G1 X144.726 Y154.754 E12.66280
G1 X144.236 Y154.714 E12.69628
G1 X139.516 Y154.144 E13.02001
G1 X138.946 Y154.044 E13.05941
G1 X134.616 Y153.124 E13.36083
G1 X133.546 Y152.804 E13.43688
G1 X129.706 Y151.274 E13.71835
G1 X128.556 Y150.674 E13.80667
G1 X127.546 Y149.864 E13.89483
G1 X126.706 Y148.864 E13.98376
G1 X126.086 Y147.724 E14.07212
G1 X125.706 Y146.474 E14.16108
G1 X125.576 Y145.184 E14.24936
G1 X125.576 Y61.494 E19.94802
G1 X125.706 Y60.214 E20.03562
G1 X126.052 Y59.064 E20.11739
G1 F1800.000 E19.11739
G92 E0
G1 X136.608 Y66.366 F7200.000
G1 E1.00000 F1800.000
G1 X137.187 Y66.366 E1.03939 F540.000
G1 X137.240 Y65.825 E1.07640
G1 X137.370 Y65.390 E1.10732
G1 X137.582 Y64.988 E1.13825
G1 X137.869 Y64.636 E1.16919
G1 X138.218 Y64.346 E1.20013
G1 X138.618 Y64.130 E1.23107
G1 X139.053 Y63.996 E1.26202
G1 X139.505 Y63.951 E1.29298
G1 X139.958 Y63.996 E1.32394
G1 X140.392 Y64.130 E1.35488
G1 X140.792 Y64.346 E1.38583
G1 X141.142 Y64.636 E1.41677
G1 X141.428 Y64.988 E1.44770
G1 X141.640 Y65.390 E1.47864
G1 X141.771 Y65.825 E1.50956
G1 X141.815 Y66.277 E1.54048
G1 X141.771 Y66.729 E1.57141
G1 X141.640 Y67.164 E1.60232
G1 X141.428 Y67.565 E1.63325
G1 X141.142 Y67.918 E1.66419
G1 X140.792 Y68.208 E1.69513
G1 X140.392 Y68.424 E1.72608
G1 X139.958 Y68.558 E1.75703
G1 X139.505 Y68.603 E1.78799
G1 X139.053 Y68.558 E1.81894
G1 X138.618 Y68.424 E1.84989
G1 X138.218 Y68.208 E1.88084
G1 X137.869 Y67.918 E1.91178
G1 X136.661 Y66.431 E2.04225
G1 X137.759 Y66.316 F7200.000
G1 X137.789 Y65.933 E2.06843 F540.000
G1 X137.888 Y65.602 E2.09195
G1 X138.049 Y65.297 E2.11545
G1 X138.267 Y65.029 E2.13893
G1 X138.532 Y64.810 E2.16238
G1 X138.834 Y64.646 E2.18582
G1 X139.163 Y64.545 E2.20923
G1 X139.505 Y64.511 E2.23263
G1 X139.847 Y64.545 E2.25604
G1 X140.176 Y64.646 E2.27945
G1 X140.479 Y64.810 E2.30288
G1 X140.744 Y65.029 E2.32634
G1 X140.961 Y65.297 E2.34981
G1 X141.123 Y65.602 E2.37331
G1 X141.222 Y65.933 E2.39683
G1 X141.255 Y66.277 E2.42036
G1 X141.222 Y66.621 E2.44389
G1 X141.122 Y66.952 E2.46740
G1 X140.961 Y67.257 E2.49090
G1 X140.744 Y67.524 E2.51438
G1 X140.479 Y67.744 E2.53783
G1 X140.176 Y67.908 E2.56127
G1 X139.847 Y68.009 E2.58468
G1 X139.505 Y68.043 E2.60809
G1 X139.163 Y68.009 E2.63149
G1 X138.834 Y67.908 E2.65490
G1 X138.532 Y67.744 E2.67834
G1 X138.267 Y67.524 E2.70179
G1 X137.778 Y66.923 E2.75455
G1 X137.818 Y66.923 E2.75726
G1 X137.767 Y66.400 E2.79306
G1 X137.430 Y66.118 F7200.000
G1 F1800.000 E1.79306
G92 E0
G1 X157.970 Y66.273 F7200.000
G1 E1.00000 F1800.000
G1 X158.015 Y65.814 E1.03141 F540.000
G1 X158.151 Y65.373 E1.06283
G1 X158.370 Y64.967 E1.09424
G1 X158.664 Y64.612 E1.12565
G1 X159.022 Y64.321 E1.15706
G1 X159.430 Y64.106 E1.18845
G1 X159.871 Y63.973 E1.21985
G1 X160.330 Y63.928 E1.25124
G1 X160.789 Y63.973 E1.28264
G1 X161.231 Y64.106 E1.31403
G1 X161.638 Y64.321 E1.34542
G1 X161.996 Y64.612 E1.37683
G1 X162.291 Y64.967 E1.40823
G1 X162.510 Y65.373 E1.43965
G1 X162.645 Y65.814 E1.47107
G1 X162.691 Y66.274 E1.50249
G1 X162.645 Y66.733 E1.53391
G1 X162.510 Y67.174 E1.56532
G1 X162.291 Y67.580 E1.59673
G1 X161.996 Y67.935 E1.62815
G1 X161.638 Y68.226 E1.65954
G1 X161.231 Y68.441 E1.69095
G1 X160.789 Y68.574 E1.72234
G1 X160.330 Y68.619 E1.75374
G1 X159.871 Y68.574 E1.78513
G1 X159.438 Y68.444 E1.81594
G1 X159.022 Y68.232 E1.84771
G1 X158.660 Y67.929 E1.87988
G1 X158.370 Y67.580 E1.91078
G1 X158.151 Y67.174 E1.94220
G1 X158.015 Y66.733 E1.97362
G1 X157.978 Y66.357 E1.99935
G1 X158.534 Y66.314 F7200.000
G1 X158.564 Y65.925 E2.02594 F540.000
G1 X158.667 Y65.589 E2.04982
G1 X158.834 Y65.280 E2.07372
G1 X159.058 Y65.010 E2.09764
G1 X159.331 Y64.788 E2.12159
G1 X159.642 Y64.624 E2.14555
G1 X159.980 Y64.522 E2.16954
G1 X160.330 Y64.488 E2.19353
G1 X160.681 Y64.522 E2.21753
G1 X161.018 Y64.624 E2.24151
G1 X161.329 Y64.788 E2.26548
G1 X161.602 Y65.010 E2.28942
G1 X161.827 Y65.280 E2.31335
G1 X161.993 Y65.589 E2.33725
G1 X162.096 Y65.925 E2.36113
G1 X162.131 Y66.274 E2.38500
G1 X162.096 Y66.622 E2.40888
G1 X161.993 Y66.958 E2.43276
G1 X161.827 Y67.267 E2.45665
G1 X161.602 Y67.537 E2.48058
G1 X161.329 Y67.759 E2.50452
G1 X161.018 Y67.923 E2.52849
G1 X160.681 Y68.025 E2.55248
G1 X160.330 Y68.059 E2.57647
G1 X159.979 Y68.025 E2.60047
G1 X159.645 Y67.924 E2.62425
G1 X159.331 Y67.765 E2.64822
G1 X159.056 Y67.535 E2.67261
G1 X158.834 Y67.267 E2.69635
G1 X158.667 Y66.958 E2.72025
G1 X158.564 Y66.622 E2.74414
G1 X158.542 Y66.397 E2.75956
G1 X158.199 Y66.112 F7200.000
G1 F1800.000 E1.75956
G92 E0
G1 X160.355 Y139.032 F7200.000
G1 E1.00000 F1800.000
G1 X160.835 Y139.076 E1.03285 F540.000
G1 X161.300 Y139.207 E1.06570
G1 X161.732 Y139.421 E1.09854
G1 X162.115 Y139.714 E1.13139
G1 X162.435 Y140.076 E1.16427
G1 X162.676 Y140.494 E1.19715
G1 X162.826 Y140.954 E1.23006
G1 X162.877 Y141.435 E1.26300
G1 X162.826 Y141.916 E1.29594
G1 X162.676 Y142.375 E1.32886
G1 X162.435 Y142.794 E1.36175
G1 X162.115 Y143.156 E1.39461
G1 X161.732 Y143.449 E1.42746
G1 X161.300 Y143.663 E1.46030
G1 X160.835 Y143.794 E1.49315
G1 X160.355 Y143.838 E1.52601
G1 X159.875 Y143.794 E1.55886
G1 X159.410 Y143.663 E1.59170
G1 X158.978 Y143.449 E1.62455
G1 X158.595 Y143.156 E1.65739
G1 X158.275 Y142.794 E1.69026
G1 X158.035 Y142.375 E1.72315
G1 X157.884 Y141.916 E1.75607
G1 X157.834 Y141.435 E1.78901
G1 X157.885 Y140.954 E1.82194
G1 X158.035 Y140.494 E1.85486
G1 X158.275 Y140.076 E1.88776
G1 X158.595 Y139.714 E1.92062
G1 X158.978 Y139.421 E1.95347
G1 X159.410 Y139.207 E1.98630
G1 X159.875 Y139.076 E2.01916
G1 X160.272 Y139.039 E2.04632
G1 X160.355 Y139.591 F7200.000
G1 X160.734 Y139.626 E2.07221 F540.000
G1 X161.099 Y139.729 E2.09802
G1 X161.436 Y139.896 E2.12370
G1 X161.734 Y140.124 E2.14919
G1 X161.980 Y140.402 E2.17450
G1 X162.164 Y140.722 E2.19962
G1 X162.278 Y141.071 E2.22462
G1 X162.316 Y141.435 E2.24954
G1 X162.278 Y141.799 E2.27446
G1 X162.164 Y142.148 E2.29945
G1 X161.980 Y142.468 E2.32458
G1 X161.734 Y142.746 E2.34989
G1 X161.436 Y142.973 E2.37538
G1 X161.099 Y143.141 E2.40106
G1 X160.734 Y143.244 E2.42687
G1 X160.355 Y143.279 E2.45276
G1 X159.976 Y143.244 E2.47865
G1 X159.612 Y143.141 E2.50447
G1 X159.274 Y142.973 E2.53014
G1 X158.976 Y142.746 E2.55564
G1 X158.730 Y142.468 E2.58094
G1 X158.546 Y142.148 E2.60607
G1 X158.432 Y141.799 E2.63106
G1 X158.394 Y141.435 E2.65599
G1 X158.432 Y141.071 E2.68091
G1 X158.546 Y140.722 E2.70590
G1 X158.730 Y140.402 E2.73103
G1 X158.976 Y140.124 E2.75633
G1 X159.274 Y139.896 E2.78183
G1 X159.612 Y139.729 E2.80750
G1 X159.976 Y139.626 E2.83332
G1 X160.272 Y139.599 E2.85352
G1 X160.555 Y139.268 F7200.000
G1 F1800.000 E1.85352
G92 E0
G1 X141.911 Y141.076 F7200.000
G1 E1.00000 F1800.000
G1 X141.960 Y141.545 E1.03208 F540.000
G1 X141.911 Y142.014 E1.06416
G1 X141.769 Y142.463 E1.09624
G1 X141.539 Y142.873 E1.12829
G1 X141.233 Y143.230 E1.16032
G1 X140.863 Y143.521 E1.19234
G1 X140.444 Y143.734 E1.22434
G1 X139.993 Y143.865 E1.25633
G1 X139.525 Y143.909 E1.28833
G1 X139.058 Y143.865 E1.32033
G1 X138.606 Y143.734 E1.35232
G1 X138.188 Y143.521 E1.38432
G1 X137.818 Y143.230 E1.41634
G1 X137.511 Y142.873 E1.44837
G1 X137.282 Y142.462 E1.48043
G1 X137.139 Y142.014 E1.51250
G1 X137.091 Y141.545 E1.54459
G1 X137.139 Y141.076 E1.57667
G1 X137.282 Y140.627 E1.60874
G1 X137.724 Y139.836 E1.67049
G1 X137.848 Y139.836 E1.67893
G1 X138.188 Y139.569 E1.70832
G1 X138.606 Y139.355 E1.74032
G1 X139.058 Y139.224 E1.77232
G1 X139.525 Y139.180 E1.80431
G1 X139.993 Y139.224 E1.83630
G1 X140.445 Y139.355 E1.86831
G1 X140.863 Y139.569 E1.90031
G1 X141.233 Y139.859 E1.93232
G1 X141.539 Y140.216 E1.96435
G1 X141.769 Y140.627 E1.99641
G1 X141.886 Y140.997 E2.02279
G1 X141.363 Y141.190 F7200.000
G1 X141.400 Y141.545 E2.04707 F540.000
G1 X141.363 Y141.900 E2.07136
G1 X141.255 Y142.240 E2.09568
G1 X141.080 Y142.553 E2.12008
G1 X140.846 Y142.826 E2.14458
G1 X140.562 Y143.049 E2.16920
G1 X140.238 Y143.214 E2.19391
G1 X139.889 Y143.316 E2.21871
G1 X139.525 Y143.350 E2.24355
G1 X139.162 Y143.316 E2.26839
G1 X138.812 Y143.214 E2.29318
G1 X138.489 Y143.049 E2.31790
G1 X138.205 Y142.826 E2.34251
G1 X137.971 Y142.553 E2.36701
G1 X137.796 Y142.240 E2.39141
G1 X137.688 Y141.900 E2.41574
G1 X137.651 Y141.545 E2.44002
G1 X137.688 Y141.190 E2.46430
G1 X137.796 Y140.850 E2.48862
G1 X138.051 Y140.393 E2.52427
G1 X138.094 Y140.393 E2.52721
G1 X138.205 Y140.264 E2.53878
G1 X138.489 Y140.041 E2.56339
G1 X138.813 Y139.875 E2.58811
G1 X139.162 Y139.774 E2.61290
G1 X139.525 Y139.740 E2.63774
G1 X139.889 Y139.774 E2.66258
G1 X140.238 Y139.875 E2.68738
G1 X140.562 Y140.041 E2.71209
G1 X140.846 Y140.264 E2.73670
G1 X141.080 Y140.537 E2.76121
G1 X141.255 Y140.850 E2.78561
G1 X141.338 Y141.110 E2.80424
G1 X141.698 Y141.313 F7200.000
G1 F1800.000 E1.80424
G92 E0
G1 X140.470 Y146.785 F7200.000
G1 E1.00000 F1800.000
G1 X136.174 Y145.886 E1.29892 F1080.000
G1 X132.994 Y144.614 E1.53212
G1 X132.994 Y62.351 E7.13363
G1 X167.006 Y62.351 E9.44964
G1 X167.006 Y144.619 E15.05145
G1 X163.705 Y145.958 E15.29402
G1 X159.440 Y146.899 E15.59143
G1 X154.842 Y147.414 E15.90647
G1 X149.973 Y147.586 E16.23822
G1 X145.104 Y147.357 E16.57015
G1 X140.553 Y146.795 E16.88236
G1 X140.429 Y147.341 F7200.000
G1 X140.356 Y147.339 E16.88734 F540.000
G1 X136.062 Y146.435 E17.18617
G1 X132.437 Y144.991 E17.45189
G1 X132.437 Y61.794 E23.11701
G1 X167.564 Y61.794 E25.50889
G1 X167.563 Y144.993 E31.17411
G1 X163.882 Y146.489 E31.44469
G1 X159.519 Y147.452 E31.74895
G1 X154.883 Y147.970 E32.06656
G1 X149.970 Y148.143 E32.40133
G1 X145.057 Y147.912 E32.73626
G1 X140.512 Y147.351 E33.04804
G1 X140.396 Y147.276 F7200.000
G1 F1800.000 E32.04804
G92 E0
G1 X138.799 Y144.200 F7200.000
G1 E1.00000 F1800.000
G1 X141.064 Y146.466 E1.21919 F1080.000
G1 X141.966 Y146.576 E1.28137
G1 X139.681 Y144.290 E1.50254
G1 X140.353 Y144.171 E1.54926
G1 X142.868 Y146.686 E1.79265
G1 X143.770 Y146.797 E1.85483
G1 X140.912 Y143.938 E2.13145
G1 X141.380 Y143.615 E2.17040
G1 X144.672 Y146.907 E2.48894
G1 X145.540 Y146.983 E2.54852
G1 X141.768 Y143.211 E2.91348
G1 X142.073 Y142.725 E2.95277
G1 X146.370 Y147.022 E3.36857
G1 X147.201 Y147.061 E3.42548
G1 X142.283 Y142.143 E3.90135
G1 X142.342 Y141.410 E3.95168
G1 X148.032 Y147.100 E4.50230
G1 X148.863 Y147.139 E4.55920
G1 X142.055 Y140.332 E5.21795
G1 F1800.000 E4.21795
G92 E0
G1 X136.054 Y145.414 F7200.000
G1 E1.00000 F1800.000
G1 X133.387 Y142.747 E1.25801 F1080.000
G1 X133.387 Y141.956 E1.31218
G1 X137.114 Y145.682 E1.67276
G1 X138.118 Y145.894 E1.74297
G1 X133.387 Y141.164 E2.20068
G1 X133.387 Y140.372 E2.25485
G1 X139.122 Y146.106 E2.80971
G1 X140.125 Y146.319 E2.87992
G1 X133.387 Y139.581 E3.53192
G1 X133.387 Y138.789 E3.58609
G1 X136.779 Y142.181 E3.91430
G1 X136.718 Y141.327 E3.97284
G1 X133.387 Y137.997 E4.29507
G1 X133.387 Y137.206 E4.34924
G1 X136.854 Y140.672 E4.68471
G1 X137.107 Y140.133 E4.72544
G1 X133.387 Y136.414 E5.08534
G1 X133.387 Y135.622 E5.13951
G1 X137.391 Y139.625 E5.52687
G1 X137.873 Y139.316 E5.56607
G1 X133.387 Y134.831 E6.00008
G1 X133.387 Y134.039 E6.05425
G1 X138.378 Y139.030 E6.53716
G1 X138.978 Y138.837 E6.58024
G1 X133.387 Y133.247 E7.12117
G1 X133.387 Y132.456 E7.17534
G1 X139.736 Y138.805 E7.78969
G1 X140.837 Y139.113 E7.86791
G1 X133.387 Y131.664 E8.58875
G1 X133.387 Y130.872 E8.64292
G1 X149.693 Y147.178 E10.22078
G1 X150.481 Y147.174 E10.27464
G1 X133.387 Y130.081 E11.92867
G1 X133.387 Y129.289 E11.98284
G1 X151.245 Y147.147 E13.71086
G1 X152.010 Y147.120 E13.76321
G1 X133.387 Y128.497 E15.56523
G1 X133.387 Y127.706 E15.61940
G1 X152.775 Y147.093 E17.49541
G1 X153.539 Y147.066 E17.54776
G1 X133.387 Y126.914 E19.49777
G1 X133.387 Y126.122 E19.55194
G1 X154.304 Y147.039 E21.57594
G1 X155.051 Y146.994 E21.62715
G1 X133.387 Y125.331 E23.72344
G1 X133.387 Y124.539 E23.77761
G1 X155.763 Y146.915 E25.94279
G1 X156.475 Y146.835 E25.99181
G1 X133.387 Y123.747 E28.22588
G1 X133.387 Y122.956 E28.28005
G1 X157.187 Y146.755 E30.58301
G1 X157.899 Y146.675 E30.63202
G1 X133.387 Y122.164 E33.00387
G1 X133.387 Y121.372 E33.05804
G1 X158.611 Y146.596 E35.49878
G1 X159.323 Y146.516 E35.54780
G1 X133.387 Y120.581 E38.05742
G1 X133.387 Y119.789 E38.11159
G1 X159.976 Y146.377 E40.68443
G1 X160.624 Y146.234 E40.72987
G1 X133.387 Y118.997 E43.36547
G1 X133.387 Y118.206 E43.41963
G1 X157.651 Y142.469 E45.76749
G1 X157.441 Y141.468 E45.83750
G1 X133.387 Y117.414 E48.16505
G1 X133.387 Y116.622 E48.21922
G1 X157.531 Y140.766 E50.55553
G1 X157.752 Y140.195 E50.59741
G1 X133.387 Y115.831 E52.95507
G1 X133.387 Y115.039 E53.00924
G1 X158.066 Y139.718 E55.39727
G1 X158.461 Y139.321 E55.43558
G1 X133.387 Y114.247 E57.86181
G1 X133.387 Y113.456 E57.91598
G1 X158.935 Y139.003 E60.38808
G1 X159.496 Y138.773 E60.42961
G1 X133.387 Y112.664 E62.95607
G1 X133.387 Y111.872 E63.01024
G1 X160.168 Y138.653 E65.60171
G1 X161.027 Y138.721 E65.66065
G1 X133.387 Y111.081 E68.33524
G1 X133.387 Y110.289 E68.38940
G1 X166.613 Y143.514 E71.60445
G1 X166.613 Y142.723 E71.65862
G1 X133.387 Y109.497 E74.87367
G1 X133.387 Y108.706 E74.92784
G1 X166.613 Y141.931 E78.14289
G1 X166.613 Y141.139 E78.19706
G1 X133.387 Y107.914 E81.41211
G1 X133.387 Y107.122 E81.46628
G1 X166.613 Y140.348 E84.68133
G1 X166.613 Y139.556 E84.73550
G1 X133.387 Y106.331 E87.95055
G1 X133.387 Y105.539 E88.00472
G1 X166.613 Y138.764 E91.21977
G1 X166.613 Y137.973 E91.27394
G1 X133.387 Y104.748 E94.48899
G1 X133.387 Y103.956 E94.54316
G1 X166.613 Y137.181 E97.75821
G1 X166.613 Y136.389 E97.81237
G1 X133.387 Y103.164 E101.02742
G1 X133.387 Y102.373 E101.08159
G1 X166.613 Y135.598 E104.29664
G1 X166.613 Y134.806 E104.35081
G1 X133.387 Y101.581 E107.56586
G1 X133.387 Y100.789 E107.62003
G1 X166.613 Y134.014 E110.83508
G1 X166.613 Y133.223 E110.88925
G1 X133.387 Y99.998 E114.10430
G1 X133.387 Y99.206 E114.15847
G1 X166.613 Y132.431 E117.37352
G1 X166.613 Y131.639 E117.42769
G1 X133.387 Y98.414 E120.64274
G1 X133.387 Y97.623 E120.69691
G1 X166.613 Y130.848 E123.91196
G1 X166.613 Y130.056 E123.96613
G1 X133.387 Y96.831 E127.18118
G1 X133.387 Y96.039 E127.23535
G1 X166.613 Y129.264 E130.45040
G1 X166.613 Y128.473 E130.50457
G1 X133.387 Y95.248 E133.71962
G1 X133.387 Y94.456 E133.77379
G1 X166.613 Y127.681 E136.98884
G1 X166.613 Y126.889 E137.04300
G1 X133.387 Y93.664 E140.25806
G1 X133.387 Y92.873 E140.31222
G1 X166.613 Y126.098 E143.52727
G1 X166.613 Y125.306 E143.58144
G1 X133.387 Y92.081 E146.79649
