; generated by Slic3r 1.0.0RC2 on 2014-05-20 at 08:49:24

; layer_height = 0.3
; perimeters = 2
; top_solid_layers = 3
; bottom_solid_layers = 3
; fill_density = 0.1
; perimeter_speed = 60
; infill_speed = 60
; travel_speed = 120
; nozzle_diameter = 0.4
; filament_diameter = 1.75
; extrusion_multiplier = 0.98
; perimeters extrusion width = 0.40mm
; infill extrusion width = 0.42mm
; solid infill extrusion width = 0.42mm
; top infill extrusion width = 0.42mm
; first layer extrusion width = 0.80mm

G21 ; set units to millimeters
M107
M104 S220 ; set temperature
G28 ; home all axes
M106 S255;
G1 Z200 F1200 ; lift nozzle
M109 S220 ; wait for temperature to be reached
G90 ; use absolute coordinates
G92 E0
M82 ; use absolute distances for extrusion
G1 F1800.000 E-1.00000
G92 E0
G1 Z0.400 F7200.000
G1 X77.807 Y43.092 F7200.000
G1 E1.00000 F1800.000
G1 X78.597 Y42.092 E1.14833 F1080.000
G1 X79.557 Y41.262 E1.29603
G1 X80.657 Y40.632 E1.44357
G1 X101.147 Y31.322 E4.06303
G1 X102.507 Y30.872 E4.22976
G1 X103.927 Y30.722 E4.39596
G1 X210.907 Y30.872 E16.84736
G1 X212.337 Y31.022 E17.01471
G1 X213.687 Y31.482 E17.18070
G1 X214.927 Y32.212 E17.34818
G1 X215.977 Y33.192 E17.51535
G1 X216.787 Y34.362 E17.68097
G1 X220.837 Y41.782 E18.66486
G1 X221.317 Y42.872 E18.80348
G1 X221.587 Y44.012 E18.93983
G1 X230.657 Y105.102 E26.12803
G1 X231.577 Y114.392 E27.21458
G1 X231.607 Y115.052 E27.29148
G1 X231.577 Y115.712 E27.36837
G1 X230.697 Y124.662 E28.41509
G1 X230.607 Y125.312 E28.49146
G1 X230.447 Y125.952 E28.56824
G1 X227.837 Y134.562 E29.61539
G1 X227.607 Y135.182 E29.69236
G1 X227.327 Y135.772 E29.76837
G1 X223.087 Y143.712 E30.81602
G1 X222.637 Y144.452 E30.91682
G1 X213.547 Y157.202 E32.73932
G1 X212.657 Y158.212 E32.89600
G1 X211.597 Y159.022 E33.05127
G1 X210.387 Y159.602 E33.20744
G1 X198.697 Y163.872 E34.65597
G1 X190.107 Y166.442 E35.69954
G1 X189.577 Y166.582 E35.76335
G1 X188.807 Y166.732 E35.85465
G1 X91.707 Y179.222 E47.24922
G1 X90.847 Y179.272 E47.34948
G1 X85.867 Y179.272 E47.92910
G1 X84.567 Y179.152 E48.08105
G1 X83.317 Y178.772 E48.23312
G1 X82.157 Y178.162 E48.38566
G1 X81.147 Y177.332 E48.53781
G1 X76.097 Y172.332 E49.36494
G1 X75.407 Y171.542 E49.48702
G1 X70.687 Y165.122 E50.41446
G1 X69.987 Y163.932 E50.57515
G1 X69.547 Y162.622 E50.73599
G1 X69.387 Y161.252 E50.89653
G1 X68.387 Y98.232 E58.23234
G1 X68.387 Y88.692 E59.34270
G1 X68.417 Y88.032 E59.41959
G1 X68.507 Y87.382 E59.49597
G1 X76.847 Y45.432 E64.47408
G1 X77.217 Y44.212 E64.62246
G1 X77.757 Y43.187 E64.75733
G1 F1800.000 E63.75733
G92 E0
G1 X82.102 Y128.678 F7200.000
G1 E1.00000 F1800.000
G1 X91.956 Y128.678 E2.14683 F1080.000
G1 X91.969 Y129.985 E2.29899
G1 X91.967 Y154.262 E5.12456
G1 X82.098 Y154.262 E6.27319
G1 X82.102 Y128.785 E9.23844
G1 X82.814 Y129.392 F7200.000
G1 X91.249 Y129.392 E10.22015 F756.000
G1 X91.253 Y153.548 E13.03162
G1 X82.813 Y153.548 E14.01400
G1 X82.814 Y129.499 E16.81301
G1 X82.814 Y128.678 F7200.000
G1 X79.177 Y125.630 F7200.000
G1 X99.179 Y125.629 E19.14103 F1080.000
G1 X99.179 Y130.906 E19.75520
G1 X121.295 Y130.906 E22.32932
G1 X121.295 Y121.428 E23.43253
G1 X128.511 Y121.428 E24.27236
G1 X128.502 Y149.958 E27.59300
G1 X109.384 Y149.958 E29.81809
G1 X91.525 Y170.064 E32.94812
G1 X90.340 Y171.450 E33.16037
G1 X86.331 Y171.450 E33.62694
G1 X81.671 Y166.838 E34.39010
G1 X77.215 Y160.782 E35.26512
G1 X77.215 Y129.912 E38.85811
G1 X79.132 Y125.727 E39.39385
G1 X78.719 Y124.916 F7200.000
G1 X99.893 Y124.915 E41.85834 F756.000
G1 X99.893 Y130.192 E42.47252
G1 X120.581 Y130.192 E44.88039
G1 X120.581 Y120.714 E45.98360
G1 X129.225 Y120.714 E46.98967
G1 X129.225 Y148.942 E50.27518
G1 X129.209 Y150.672 E50.47656
G1 X109.705 Y150.672 E52.74660
G1 X92.063 Y170.533 E55.83850
G1 X90.669 Y172.164 E56.08825
G1 X86.037 Y172.164 E56.62729
G1 X81.129 Y167.306 E57.43113
G1 X76.501 Y161.017 E58.33993
G1 X76.501 Y129.756 E61.97838
G1 X78.674 Y125.013 E62.58558
G1 X79.280 Y125.357 F7200.000
G1 X91.544 Y128.196 F7200.000
G1 X89.460 Y126.111 E62.93101 F1080.000
G1 X88.443 Y126.111 E63.05011
G1 X90.528 Y128.196 E63.39554
G1 X89.511 Y128.196 E63.51465
G1 X87.426 Y126.111 E63.86008
G1 X86.410 Y126.111 E63.97919
G1 X88.494 Y128.196 E64.32461
G1 X87.478 Y128.196 E64.44372
G1 X85.393 Y126.112 E64.78914
G1 X84.376 Y126.112 E64.90825
G1 X86.461 Y128.196 E65.25366
G1 X85.444 Y128.196 E65.37277
G1 X83.360 Y126.112 E65.71818
G1 X82.343 Y126.112 E65.83729
G1 X84.428 Y128.196 E66.18270
G1 X83.411 Y128.196 E66.30181
G1 X81.327 Y126.112 E66.64722
G1 X80.310 Y126.112 E66.76633
G1 X82.395 Y128.196 E67.11173
G1 X81.621 Y128.439 E67.20676
G1 X79.426 Y126.244 E67.57046
G1 X79.106 Y126.941 E67.66031
G1 X81.620 Y129.455 E68.07692
G1 X81.620 Y130.472 E68.19601
G1 X78.787 Y127.638 E68.66551
G1 X78.467 Y128.336 E68.75537
G1 X81.620 Y131.488 E69.27777
G1 X81.620 Y132.505 E69.39686
G1 X78.148 Y129.033 E69.97216
G1 X77.828 Y129.730 E70.06201
G1 X81.620 Y133.521 E70.69021
G1 X81.620 Y134.538 E70.80930
G1 X77.697 Y130.615 E71.45927
G1 X77.697 Y131.632 E71.57838
G1 X81.619 Y135.554 E72.22831
G1 X81.619 Y136.571 E72.34740
G1 X77.697 Y132.648 E72.99731
G1 X77.697 Y133.665 E73.11642
G1 X81.619 Y137.587 E73.76631
G1 X81.619 Y138.604 E73.88540
G1 X77.697 Y134.682 E74.53526
G1 X77.697 Y135.698 E74.65436
G1 X81.619 Y139.620 E75.30420
G1 X81.619 Y140.637 E75.42329
G1 X77.697 Y136.715 E76.07309
G1 X77.697 Y137.732 E76.19220
G1 X81.619 Y141.653 E76.84198
G1 X81.618 Y142.670 E76.96107
G1 X77.697 Y138.748 E77.61082
G1 X77.697 Y139.765 E77.72993
G1 X81.618 Y143.686 E78.37965
G1 X81.618 Y144.703 E78.49874
G1 X77.697 Y140.782 E79.14844
G1 X77.697 Y141.798 E79.26755
G1 X81.618 Y145.719 E79.91722
G1 X81.618 Y146.736 E80.03631
G1 X77.697 Y142.815 E80.68596
G1 X77.697 Y143.832 E80.80507
G1 X81.618 Y147.752 E81.45468
G1 X81.617 Y148.769 E81.57377
G1 X77.697 Y144.848 E82.22336
G1 X77.697 Y145.865 E82.34247
G1 X81.617 Y149.785 E82.99204
G1 X81.617 Y150.802 E83.11113
G1 X77.697 Y146.882 E83.76067
G1 X77.697 Y147.898 E83.87978
G1 X81.617 Y151.818 E84.52929
G1 X81.617 Y152.835 E84.64838
G1 X77.697 Y148.915 E85.29786
G1 X77.697 Y149.931 E85.41697
G1 X81.617 Y153.851 E86.06643
G1 X79.063 Y162.481 F7200.000
G1 X87.550 Y170.968 E87.47270 F1080.000
G1 X88.567 Y170.968 E87.59181
G1 X77.697 Y160.098 E89.39288
G1 X77.697 Y159.081 E89.51199
G1 X89.584 Y170.968 E91.48151
G1 X90.340 Y170.708 E91.57524
G1 X77.697 Y158.065 E93.67011
G1 X77.697 Y157.048 E93.78922
G1 X90.809 Y170.160 E95.96174
G1 X91.280 Y169.614 E96.04619
G1 X77.697 Y156.031 E98.29675
G1 X77.697 Y155.015 E98.41586
G1 X91.758 Y169.076 E100.74567
G1 X92.236 Y168.538 E100.83004
G1 X77.697 Y153.998 E103.23908
G1 X77.697 Y152.981 E103.35819
G1 X92.715 Y167.999 E105.84647
G1 X93.193 Y167.461 E105.93084
G1 X77.697 Y151.965 E108.49836
G1 X77.697 Y150.948 E108.61747
G1 X93.671 Y166.922 E111.26423
G1 X94.149 Y166.384 E111.34860
G1 X82.509 Y154.744 E113.27724
G1 X83.526 Y154.744 E113.39635
G1 X94.628 Y165.846 E115.23578
G1 X95.106 Y165.307 E115.32015
G1 X84.543 Y154.744 E117.07037
G1 X85.559 Y154.744 E117.18948
G1 X95.584 Y164.769 E118.85049
G1 X96.062 Y164.230 E118.93486
G1 X86.576 Y154.744 E120.50667
G1 X87.592 Y154.744 E120.62578
G1 X96.541 Y163.692 E122.10838
G1 X97.019 Y163.154 E122.19275
G1 X88.609 Y154.744 E123.58614
G1 X89.626 Y154.744 E123.70525
G1 X97.497 Y162.615 E125.00944
G1 X97.975 Y162.077 E125.09381
G1 X90.642 Y154.744 E126.30878
G1 X91.659 Y154.744 E126.42789
G1 X98.454 Y161.538 E127.55366
G1 X98.932 Y161.000 E127.63803
G1 X92.449 Y154.517 E128.71218
G1 X92.449 Y153.500 E128.83128
G1 X99.410 Y160.462 E129.98465
G1 X99.888 Y159.923 E130.06903
G1 X92.449 Y152.484 E131.30162
G1 X92.449 Y151.467 E131.42072
G1 X100.367 Y159.385 E132.73255
G1 X100.845 Y158.846 E132.81692
G1 X92.449 Y150.451 E134.20797
G1 X92.449 Y149.434 E134.32707
G1 X101.323 Y158.308 E135.79734
G1 X101.801 Y157.770 E135.88171
G1 X92.449 Y148.418 E137.43121
G1 X92.449 Y147.401 E137.55031
G1 X102.280 Y157.231 E139.17904
G1 X102.758 Y156.693 E139.26341
G1 X92.450 Y146.385 E140.97136
G1 X92.450 Y145.368 E141.09046
G1 X103.236 Y156.154 E142.87764
G1 X103.714 Y155.616 E142.96201
G1 X92.450 Y144.351 E144.82841
G1 X92.450 Y143.335 E144.94751
G1 X104.193 Y155.078 E146.89313
G1 X104.671 Y154.539 E146.97751
G1 X92.450 Y142.318 E149.00236
G1 X92.450 Y141.302 E149.12146
G1 X105.149 Y154.001 E151.22553
G1 X105.627 Y153.462 E151.30990
G1 X92.450 Y140.285 E153.49321
G1 X92.450 Y139.269 E153.61231
G1 X106.106 Y152.924 E155.87483
G1 X106.584 Y152.385 E155.95921
G1 X92.450 Y138.252 E158.30096
G1 X92.450 Y137.235 E158.42006
G1 X107.062 Y151.847 E160.84104
G1 X107.540 Y151.309 E160.92541
G1 X92.450 Y136.219 E163.42561
G1 X92.451 Y135.202 E163.54471
G1 X108.018 Y150.770 E166.12414
G1 X108.497 Y150.232 E166.20851
G1 X92.451 Y134.186 E168.86716
G1 X92.451 Y133.169 E168.98626
G1 X108.975 Y149.693 E171.72414
G1 X109.774 Y149.476 E171.82120
G1 X92.451 Y132.153 E174.69152
G1 X92.451 Y131.136 E174.81062
G1 X110.791 Y149.476 E177.84937
G1 X111.808 Y149.476 E177.96848
G1 X92.451 Y130.119 E181.17566
G1 X92.442 Y129.094 E181.29584
G1 X112.824 Y149.476 E184.67298
G1 X113.841 Y149.476 E184.79209
G1 X90.476 Y126.111 E188.66336
G1 X91.493 Y126.111 E188.78247
G1 X114.858 Y149.476 E192.65374
G1 X115.874 Y149.476 E192.77285
G1 X92.509 Y126.111 E196.64413
G1 X93.526 Y126.111 E196.76324
G1 X116.891 Y149.476 E200.63452
G1 X117.908 Y149.476 E200.75363
G1 X99.819 Y131.388 E203.75061
G1 X100.836 Y131.388 E203.86972
G1 X118.924 Y149.476 E206.86670
G1 X119.941 Y149.476 E206.98581
G1 X101.853 Y131.388 E209.98279
G1 X102.869 Y131.388 E210.10190
G1 X120.958 Y149.476 E213.09889
G1 X121.974 Y149.476 E213.21800
G1 X103.886 Y131.388 E216.21498
G1 X104.903 Y131.388 E216.33409
G1 X122.991 Y149.476 E219.33107
G1 X124.007 Y149.476 E219.45018
G1 X105.919 Y131.388 E222.44716
G1 X106.936 Y131.388 E222.56627
G1 X125.024 Y149.476 E225.56326
G1 X126.041 Y149.476 E225.68237
G1 X107.953 Y131.388 E228.67935
G1 X108.969 Y131.388 E228.79846
G1 X127.057 Y149.476 E231.79544
G1 X128.011 Y149.413 E231.90744
G1 X109.986 Y131.388 E234.89401
G1 X111.003 Y131.388 E235.01312
G1 X128.021 Y148.406 E237.83281
G1 X128.021 Y147.390 E237.95188
G1 X112.019 Y131.388 E240.60317
G1 X113.036 Y131.388 E240.72228
G1 X128.021 Y146.373 E243.20518
G1 X128.022 Y145.357 E243.32425
G1 X114.053 Y131.388 E245.63875
G1 X115.069 Y131.388 E245.75786
G1 X128.022 Y144.341 E247.90397
G1 X128.022 Y143.324 E248.02304
G1 X116.086 Y131.388 E250.00075
G1 X117.103 Y131.388 E250.11986
G1 X128.023 Y142.308 E251.92917
G1 X128.023 Y141.292 E252.04825
G1 X118.119 Y131.388 E253.68917
G1 X119.136 Y131.388 E253.80828
G1 X128.023 Y140.275 E255.28080
G1 X128.023 Y139.259 E255.39988
G1 X120.153 Y131.388 E256.70401
G1 X121.169 Y131.388 E256.82312
G1 X128.024 Y138.243 E257.95885
G1 X128.024 Y137.226 E258.07792
G1 X121.777 Y130.979 E259.11301
G1 X121.777 Y129.963 E259.23212
G1 X128.024 Y136.210 E260.26726
G1 X128.025 Y135.194 E260.38633
G1 X121.777 Y128.946 E261.42153
G1 X121.777 Y127.929 E261.54064
G1 X128.025 Y134.177 E262.57588
G1 X128.025 Y133.161 E262.69495
G1 X121.777 Y126.913 E263.73025
G1 X121.777 Y125.896 E263.84936
G1 X128.026 Y132.145 E264.88471
G1 X128.026 Y131.128 E265.00378
G1 X121.777 Y124.879 E266.03918
G1 X121.777 Y123.863 E266.15829
G1 X128.026 Y130.112 E267.19374
G1 X128.027 Y129.096 E267.31282
G1 X121.777 Y122.846 E268.34832
G1 X121.857 Y121.910 E268.45844
G1 X128.027 Y128.079 E269.48071
G1 X128.027 Y127.063 E269.59979
G1 X122.874 Y121.910 E270.45367
G1 X123.890 Y121.910 E270.57278
G1 X128.028 Y126.047 E271.25826
G1 X128.028 Y125.030 E271.37733
G1 X124.907 Y121.910 E271.89442
G1 X125.924 Y121.910 E272.01353
G1 X128.028 Y124.014 E272.36223
G1 X128.029 Y122.998 E272.48130
G1 X126.940 Y121.910 E272.66160
G1 X127.957 Y121.910 E272.78071
G1 X128.029 Y121.981 E272.79261
G1 F1800.000 E271.79261
G92 E0
G1 X98.697 Y126.199 F7200.000
G1 E1.00000 F1800.000
G1 X98.609 Y126.111 E1.01454 F1080.000
G1 X97.593 Y126.111 E1.13365
G1 X98.697 Y127.216 E1.31663
G1 X98.697 Y128.232 E1.43574
G1 X96.576 Y126.111 E1.78717
G1 X95.559 Y126.111 E1.90627
G1 X98.697 Y129.249 E2.42614
G1 X98.697 Y130.266 E2.54525
G1 X94.543 Y126.111 E3.23357
G1 X82.213 Y128.792 F7200.000
G1 X81.895 Y166.329 F7200.000
G1 X86.534 Y170.968 E4.00220 F1080.000
G1 F1800.000 E3.00220
G92 E0
G1 X102.034 Y90.238 F7200.000
G1 E1.00000 F1800.000
G1 X88.379 Y81.296 E2.89975 F1080.000
G1 X88.376 Y72.043 E3.97664
G1 X115.689 Y72.043 E7.15554
G1 X115.689 Y81.296 E8.23242
G1 X102.123 Y90.180 E10.11973
G1 X102.034 Y89.385 F7200.000
G1 X89.093 Y80.910 E11.92014 F756.000
G1 X89.091 Y72.757 E12.86897
G1 X114.975 Y72.757 E15.88161
G1 X114.975 Y80.910 E16.83044
G1 X102.123 Y89.326 E18.61839
G1 X101.565 Y89.923 F7200.000
G1 X102.034 Y96.139 F7200.000
G1 X115.335 Y104.865 E20.46993 F1080.000
G1 X115.335 Y113.177 E21.43735
G1 X88.730 Y113.177 E24.53398
G1 X88.733 Y104.865 E25.50142
G1 X101.944 Y96.198 E27.34046
G1 X102.034 Y96.994 F7200.000
G1 X114.621 Y105.251 E29.09259 F756.000
G1 X114.621 Y112.463 E29.93201
G1 X89.444 Y112.463 E32.86237
G1 X89.447 Y105.251 E33.70179
G1 X101.944 Y97.052 E35.44144
G1 X102.503 Y96.455 F7200.000
G1 X120.119 Y97.014 F7200.000
G1 X120.119 Y118.293 E37.91814 F1080.000
G1 X83.946 Y118.293 E42.12834
G1 X83.949 Y97.014 E44.60504
G1 X76.211 Y97.014 E45.50570
G1 X76.211 Y89.813 E46.34381
G1 X83.949 Y89.813 E47.24447
G1 X83.946 Y66.266 E49.98506
G1 X120.119 Y66.266 E54.19527
G1 X120.119 Y89.813 E56.93586
G1 X127.786 Y89.813 E57.82826
G1 X127.786 Y97.014 E58.66637
G1 X120.226 Y97.014 E59.54631
G1 X120.833 Y97.728 F7200.000
G1 X120.833 Y119.007 E62.02300 F756.000
G1 X83.231 Y119.007 E66.39946
G1 X83.235 Y97.728 E68.87616
G1 X75.497 Y97.728 E69.77680
G1 X75.497 Y89.099 E70.78116
G1 X83.235 Y89.099 E71.68181
G1 X83.231 Y65.552 E74.42240
G1 X120.833 Y65.552 E78.79886
G1 X120.833 Y89.099 E81.53945
G1 X128.501 Y89.099 E82.43185
G1 X128.501 Y97.728 E83.43621
G1 X120.940 Y97.728 E84.31614
G1 X120.119 Y97.728 F7200.000
G1 X120.820 Y90.295 F7200.000
G1 X127.057 Y96.532 E85.34613 F1080.000
G1 X127.304 Y95.766 E85.44011
G1 X121.833 Y90.295 E86.34364
G1 X122.846 Y90.295 E86.46196
G1 X127.304 Y94.753 E87.19815
G1 X127.304 Y93.740 E87.31648
G1 X123.860 Y90.295 E87.88534
G1 X124.873 Y90.295 E88.00366
G1 X127.304 Y92.726 E88.40518
G1 X127.304 Y91.713 E88.52351
G1 X125.886 Y90.295 E88.75770
G1 X126.900 Y90.295 E88.87602
G1 X127.304 Y90.700 E88.94288
G1 X113.047 Y102.788 F7200.000
G1 X99.251 Y88.992 E91.22113 F1080.000
G1 X96.315 Y87.069 F7200.000
G1 X110.102 Y100.856 E93.49782 F1080.000
G1 X107.156 Y98.923 F7200.000
G1 X93.379 Y85.146 E95.77296 F1080.000
G1 X90.443 Y83.223 F7200.000
G1 X104.210 Y96.991 E98.04655 F1080.000
G1 X101.874 Y95.668 F7200.000
G1 X84.430 Y78.223 E100.92734 F1080.000
G1 X84.430 Y79.237 E101.04568
G1 X101.262 Y96.069 E103.82539
G1 X100.650 Y96.471 E103.91085
G1 X84.430 Y80.250 E106.58949
G1 X84.430 Y81.264 E106.70783
G1 X100.038 Y96.872 E109.28540
G1 X99.427 Y97.273 E109.37085
G1 X84.430 Y82.277 E111.84735
G1 X84.430 Y83.291 E111.96569
G1 X98.815 Y97.675 E114.34111
G1 X98.203 Y98.076 E114.42657
G1 X84.430 Y84.304 E116.70092
G1 X84.431 Y85.317 E116.81926
G1 X97.591 Y98.478 E118.99254
G1 X96.979 Y98.879 E119.07799
G1 X84.431 Y86.331 E121.15019
G1 X84.431 Y87.344 E121.26854
G1 X96.367 Y99.280 E123.23967
G1 X95.755 Y99.682 E123.32512
G1 X84.431 Y88.358 E125.19518
G1 X84.431 Y89.371 E125.31352
G1 X95.143 Y100.083 E127.08250
G1 X94.531 Y100.485 E127.16796
G1 X84.342 Y90.295 E128.85069
G1 X83.328 Y90.295 E128.96902
G1 X93.920 Y100.886 E130.71804
G1 X93.308 Y101.287 E130.80349
G1 X82.315 Y90.295 E132.61880
G1 X81.302 Y90.295 E132.73713
G1 X92.696 Y101.689 E134.61872
G1 X92.084 Y102.090 E134.70418
G1 X80.289 Y90.295 E136.65206
G1 X79.275 Y90.295 E136.77038
G1 X91.472 Y102.492 E138.78455
G1 X90.860 Y102.893 E138.87000
G1 X78.262 Y90.295 E140.95046
G1 X76.693 Y95.819 F7200.000
G1 X77.406 Y96.532 E141.06821 F1080.000
G1 X78.419 Y96.532 E141.18653
G1 X76.693 Y94.806 E141.47161
G1 X76.693 Y93.792 E141.58993
G1 X79.433 Y96.532 E142.04234
G1 X80.446 Y96.532 E142.16066
G1 X76.693 Y92.779 E142.78041
