; generated by Slic3r 1.0.0RC2 on 2014-05-20 at 09:50:57

; layer_height = 0.3
; perimeters = 4
; top_solid_layers = 3
; bottom_solid_layers = 3
; fill_density = 0.1
; perimeter_speed = 60
; infill_speed = 60
; travel_speed = 120
; nozzle_diameter = 0.4
; filament_diameter = 1.75
; extrusion_multiplier = 0.98
; perimeters extrusion width = 0.40mm
; infill extrusion width = 0.42mm
; solid infill extrusion width = 0.42mm
; top infill extrusion width = 0.42mm
; first layer extrusion width = 0.80mm

G21 ; set units to millimeters
M107
M104 S220 ; set temperature
G28 ; home all axes
M106 S255;
G1 Z200 F1200 ; lift nozzle
M109 S220 ; wait for temperature to be reached
G90 ; use absolute coordinates
G92 E0
M82 ; use absolute distances for extrusion
G1 F1800.000 E-1.00000
G92 E0
G1 Z0.400 F7200.000
G1 X94.930 Y82.081 F7200.000
G1 E1.00000 F1800.000
G1 X103.710 Y72.311 E2.52884 F1080.000
G1 X104.190 Y71.821 E2.60867
G1 X104.730 Y71.381 E2.68975
G1 X105.890 Y70.531 E2.85713
G1 X106.490 Y70.141 E2.94042
G1 X107.120 Y69.821 E3.02266
G1 X119.110 Y64.471 E4.55079
G1 X119.790 Y64.211 E4.63553
G1 X120.500 Y64.021 E4.72107
G1 X121.910 Y63.731 E4.88862
G1 X122.580 Y63.631 E4.96746
G1 X123.260 Y63.601 E5.04668
G1 X136.560 Y63.601 E6.59467
G1 X178.360 Y64.711 E11.46148
G1 X179.630 Y64.861 E11.61032
G1 X180.850 Y65.261 E11.75976
G1 X181.970 Y65.881 E11.90875
G1 X197.870 Y76.771 E14.15179
G1 X198.990 Y77.731 E14.32348
G1 X199.870 Y78.921 E14.49575
G1 X209.800 Y95.871 E16.78217
G1 X210.490 Y97.501 E16.98818
G1 X210.720 Y99.261 E17.19477
G1 X210.720 Y119.631 E19.56563
G1 X210.490 Y121.391 E19.77222
G1 X209.800 Y123.031 E19.97931
G1 X199.900 Y139.881 E22.25392
G1 X199.120 Y140.951 E22.40804
G1 X198.140 Y141.851 E22.56290
G1 X197.010 Y142.541 E22.71700
G1 X195.760 Y142.991 E22.87163
G1 X194.450 Y143.191 E23.02587
G1 X130.880 Y146.391 E30.43414
G1 X129.090 Y146.391 E30.64248
G1 X128.390 Y146.361 E30.72403
G1 X127.690 Y146.251 E30.80650
G1 X114.860 Y143.521 E32.33321
G1 X114.170 Y143.331 E32.41651
G1 X113.500 Y143.071 E32.50016
G1 X112.190 Y142.481 E32.66738
G1 X111.580 Y142.171 E32.74702
G1 X111.000 Y141.791 E32.82772
G1 X100.390 Y134.071 E34.35492
G1 X99.870 Y133.651 E34.43272
G1 X99.390 Y133.181 E34.51091
G1 X98.610 Y132.331 E34.64518
G1 X98.290 Y131.961 E34.70211
G1 X97.900 Y131.461 E34.77592
G1 X97.550 Y130.921 E34.85082
G1 X90.990 Y119.541 E36.37964
G1 X90.680 Y118.921 E36.46032
G1 X90.430 Y118.271 E36.54138
G1 X89.980 Y116.891 E36.71032
G1 X89.790 Y116.211 E36.79249
G1 X89.680 Y115.501 E36.87612
G1 X88.320 Y102.431 E38.40555
G1 X88.290 Y101.741 E38.48593
G1 X88.320 Y101.041 E38.56748
G1 X88.470 Y99.611 E38.73483
G1 X88.580 Y98.921 E38.81615
G1 X88.760 Y98.241 E38.89802
G1 X92.810 Y85.741 E40.42735
G1 X93.070 Y85.071 E40.51100
G1 X93.390 Y84.441 E40.59324
G1 X94.110 Y83.201 E40.76013
G1 X94.490 Y82.621 E40.84084
G1 X94.862 Y82.164 E40.90944
G1 F1800.000 E39.90944
G92 E0
G1 X183.119 Y104.164 F7200.000
G1 E1.00000 F1800.000
G1 X186.468 Y104.897 E1.39908 F1080.000
G1 X187.005 Y104.520 E1.47542
G1 X187.692 Y104.180 E1.56467
G1 X188.565 Y100.974 E1.95141
G1 X190.576 Y101.413 E2.19096
G1 X195.002 Y102.604 E2.72444
G1 X194.265 Y105.954 E3.12375
G1 X194.504 Y106.255 E3.16850
G1 X194.999 Y107.185 E3.29105
G1 X198.199 Y108.060 E3.67720
G1 X197.754 Y110.073 E3.91716
G1 X196.539 Y114.492 E4.45046
G1 X193.223 Y113.756 E4.84577
G1 X193.107 Y113.861 E4.86404
G1 X192.265 Y114.354 E4.97755
G1 X191.979 Y114.464 E5.01322
G1 X191.104 Y117.690 E5.40229
G1 X189.090 Y117.245 E5.64237
G1 X184.671 Y116.043 E6.17536
G1 X185.400 Y112.706 E6.57285
G1 X184.928 Y111.991 E6.67263
G1 X184.702 Y111.469 E6.73881
G1 X181.473 Y110.601 E7.12802
G1 X181.917 Y108.585 E7.36827
G1 X183.091 Y104.267 E7.88905
G1 X183.630 Y105.007 F7200.000
G1 X186.625 Y105.662 E8.24597 F756.000
G1 X187.357 Y105.142 E8.35049
G1 X188.066 Y104.791 E8.44259
G1 X188.283 Y104.722 E8.46902
G1 X189.076 Y101.816 E8.81956
G1 X190.407 Y102.107 E8.97813
G1 X194.157 Y103.116 E9.43018
G1 X193.495 Y106.130 E9.78940
G1 X193.905 Y106.651 E9.86647
G1 X194.287 Y107.369 E9.96111
G1 X194.426 Y107.767 E10.01029
G1 X197.355 Y108.570 E10.36372
G1 X197.060 Y109.902 E10.52247
G1 X196.031 Y113.647 E10.97461
G1 X193.028 Y112.982 E11.33253
G1 X192.683 Y113.282 E11.38578
G1 X192.004 Y113.680 E11.47748
G1 X191.388 Y113.927 E11.55465
G1 X190.593 Y116.846 E11.90672
G1 X189.261 Y116.551 E12.06551
G1 X185.515 Y115.532 E12.51735
G1 X186.174 Y112.509 E12.87744
G1 X186.007 Y112.328 E12.90615
G1 X185.556 Y111.645 E13.00140
G1 X185.223 Y110.873 E13.09926
G1 X182.317 Y110.088 E13.44959
G1 X182.611 Y108.755 E13.60843
G1 X183.602 Y105.110 E14.04812
G1 X183.794 Y104.312 F7200.000
G1 F1800.000 E13.04812
G92 E0
G1 X188.278 Y118.504 F7200.000
G1 E1.00000 F1800.000
G1 X188.748 Y118.632 E1.05666 F540.000
G1 X191.570 Y119.256 E1.39296
G1 X191.570 Y133.945 E3.10257
G1 X188.278 Y133.945 E3.48561
G1 X188.278 Y118.611 E5.27022
G1 X192.705 Y117.245 F7200.000
G1 X193.186 Y115.470 E5.48421 F1080.000
G1 X193.507 Y115.282 E5.52748
G1 X197.557 Y116.180 E6.01026
G1 X199.140 Y110.417 E6.70590
G1 X199.887 Y107.041 E7.10828
G1 X195.968 Y105.969 E7.58111
G1 X195.796 Y105.640 E7.62436
G1 X196.675 Y101.653 E8.09951
G1 X201.476 Y101.653 E8.65837
G1 X201.476 Y117.245 E10.47301
G1 X192.812 Y117.245 E11.48145
G1 X192.284 Y117.959 F7200.000
G1 X192.284 Y134.659 E13.42516 F1080.000
G1 X187.564 Y134.659 E13.97444
G1 X187.564 Y117.570 E15.96340
G1 X188.919 Y117.939 E16.12682
G1 X191.615 Y118.535 E16.44819
G1 X192.574 Y115.000 E16.87445
G1 X193.388 Y114.524 E16.98421
G1 X197.048 Y115.336 E17.42054
G1 X198.447 Y110.245 E18.03501
G1 X199.043 Y107.551 E18.35618
G1 X195.483 Y106.577 E18.78574
G1 X195.043 Y105.740 E18.89578
G1 X195.847 Y102.091 E19.33064
G1 X193.267 Y101.397 E19.64156
G1 X193.327 Y100.939 E19.69532
G1 X202.190 Y100.939 E20.72689
G1 X202.190 Y117.959 E22.70777
G1 X192.391 Y117.959 E23.84836
G1 X182.944 Y117.245 F7200.000
G1 X177.162 Y117.245 E24.52136 F1080.000
G1 X177.162 Y101.653 E26.33600
G1 X186.900 Y101.653 E27.46941
G1 X186.483 Y103.184 E27.65407
G1 X186.157 Y103.367 E27.69753
G1 X182.097 Y102.478 E28.18130
G1 X180.530 Y108.244 E28.87675
G1 X179.785 Y111.626 E29.27982
G1 X183.661 Y112.668 E29.74698
G1 X183.876 Y112.996 E29.79263
G1 X182.967 Y117.140 E30.28640
G1 X183.828 Y116.553 F7200.000
G1 X187.319 Y117.503 E30.70753 F1080.000
G1 X187.258 Y117.959 E30.76102
G1 X176.447 Y117.959 E32.01927
G1 X176.447 Y100.939 E34.00015
G1 X187.834 Y100.939 E35.32545
G1 X187.088 Y103.682 E35.65630
G1 X186.652 Y103.897 E35.71280
G1 X186.317 Y104.133 E35.76047
G1 X182.608 Y103.321 E36.20246
G1 X181.223 Y108.414 E36.81681
G1 X180.629 Y111.113 E37.13847
G1 X184.183 Y112.069 E37.56680
G1 X184.300 Y112.337 E37.60086
G1 X184.639 Y112.848 E37.67225
G1 X183.851 Y116.449 E38.10123
G1 X186.850 Y118.673 F7200.000
G1 X175.733 Y118.673 E39.39512 F1080.000
G1 X175.733 Y100.225 E41.54224
G1 X202.905 Y100.225 E44.70471
G1 X202.905 Y118.673 E46.85183
G1 X192.998 Y118.673 E48.00489
G1 X192.998 Y135.373 E49.94860
G1 X186.850 Y135.373 E50.66413
G1 X186.850 Y118.780 E52.59537
G1 X186.136 Y119.387 F7200.000
G1 X175.019 Y119.387 E53.88926 F756.000
G1 X175.019 Y99.511 E56.20262
G1 X203.619 Y99.511 E59.53133
G1 X203.619 Y119.387 E61.84470
G1 X193.712 Y119.387 E62.99775
G1 X193.712 Y136.087 E64.94146
G1 X186.136 Y136.087 E65.82323
G1 X186.136 Y119.494 E67.75448
G1 X186.136 Y118.673 F7200.000
G1 X191.090 Y119.709 F7200.000
G1 X191.002 Y119.622 E67.76967 F1080.000
G1 X189.632 Y119.319 E67.94230
G1 X191.090 Y120.777 E68.19588
G1 X191.090 Y121.844 E68.32717
G1 X188.758 Y119.513 E68.73267
G1 X188.758 Y120.581 E68.86396
G1 X191.090 Y122.912 E69.26945
G1 X191.090 Y123.979 E69.40075
G1 X188.758 Y121.648 E69.80624
G1 X188.758 Y122.715 E69.93753
G1 X191.090 Y125.046 E70.34303
G1 X191.090 Y126.114 E70.47432
G1 X188.758 Y123.783 E70.87982
G1 X188.758 Y124.850 E71.01111
G1 X191.090 Y127.181 E71.41660
G1 X191.090 Y128.248 E71.54790
G1 X188.758 Y125.917 E71.95339
G1 X188.758 Y126.985 E72.08468
G1 X191.090 Y129.316 E72.49018
G1 X191.090 Y130.383 E72.62147
G1 X188.758 Y128.052 E73.02696
G1 X188.758 Y129.120 E73.15826
G1 X191.090 Y131.451 E73.56375
G1 X191.090 Y132.518 E73.69504
G1 X188.758 Y130.187 E74.10054
G1 X188.758 Y131.254 E74.23183
G1 X190.969 Y133.465 E74.61631
G1 X189.901 Y133.465 E74.74760
G1 X188.758 Y132.322 E74.94641
G1 X188.758 Y133.389 E75.07770
G1 X188.834 Y133.465 E75.09083
G1 X193.112 Y120.204 F7200.000
G1 X191.250 Y116.716 F7200.000
G1 X201.695 Y118.787 F7200.000
G1 X198.376 Y116.408 F7200.000
G1 X198.074 Y116.106 E75.14439 F1080.000
G1 X198.308 Y115.253 E75.25534
G1 X199.464 Y116.408 E75.46020
G1 X200.552 Y116.408 E75.59659
G1 X198.543 Y114.399 E75.95274
G1 X198.778 Y113.546 E76.06369
G1 X200.640 Y115.408 E76.39389
G1 X200.640 Y114.321 E76.53028
G1 X199.012 Y112.693 E76.81890
G1 X199.247 Y111.839 E76.92985
G1 X200.640 Y113.233 E77.17688
G1 X200.640 Y112.145 E77.31327
G1 X199.481 Y110.986 E77.51873
G1 X199.698 Y110.115 E77.63125
G1 X200.640 Y111.057 E77.79824
G1 X200.640 Y109.969 E77.93463
G1 X199.895 Y109.224 E78.06670
G1 X200.558 Y108.799 E78.16542
G1 X200.640 Y108.881 E78.17994
G1 X196.404 Y105.591 F7200.000
G1 X196.317 Y105.504 E78.19541 F1080.000
G1 X196.513 Y104.613 E78.30993
G1 X197.902 Y106.001 E78.55627
G1 X199.400 Y106.411 E78.75109
G1 X196.710 Y103.721 E79.22831
G1 X196.906 Y102.829 E79.34283
G1 X200.389 Y106.312 E79.96053
G1 X200.640 Y105.475 E80.07016
G1 X197.298 Y102.133 E80.66287
G1 X198.386 Y102.133 E80.79936
G1 X200.640 Y104.386 E81.19905
G1 X200.640 Y103.298 E81.33554
G1 X199.475 Y102.133 E81.54221
G1 X200.563 Y102.133 E81.67870
G1 X200.640 Y102.210 E81.69234
G1 X200.441 Y107.875 F7200.000
G1 X200.511 Y107.946 E81.70391 F360.000
G1 X197.569 Y116.679 F7200.000
G1 X197.614 Y116.724 E81.71059 F360.000
G1 X197.569 Y116.679 F7200.000
G1 X196.670 Y116.698 E81.80581 F360.000
G1 X196.732 Y116.760 E81.81507 F360.000
G1 X195.445 Y116.487 F7200.000
G1 X195.363 Y116.406 E81.83830 F360.000
G1 X193.644 Y116.437 E82.18512 F360.000
G1 X193.756 Y116.549 E82.21716 F360.000
G1 X185.123 Y117.442 F7200.000
G1 X185.094 Y117.413 E82.21977 F360.000
G1 X184.579 Y117.462 E82.25347 F360.000
G1 X184.319 Y117.202 E82.27730 F360.000
G1 X184.014 Y117.462 E82.30333 F360.000
G1 X183.544 Y116.991 E82.34657 F360.000
G1 X183.413 Y117.425 E82.37601 F360.000
G1 X183.450 Y117.462 E82.37938 F360.000
G1 X175.619 Y108.263 F7200.000
G1 X185.377 Y102.457 F7200.000
G1 X185.330 Y102.411 E82.38708 F360.000
G1 X184.090 Y102.186 F7200.000
G1 X184.058 Y102.154 E82.38963 F360.000
G1 X183.750 Y102.328 E82.40924 F360.000
G1 X183.576 Y102.154 E82.42292 F360.000
G1 X183.112 Y102.171 E82.44872 F360.000
G1 X183.134 Y102.193 E82.45047 F360.000
G1 X189.928 Y100.742 F7200.000
G1 X190.629 Y100.717 E82.50921 F360.000
G1 X190.678 Y100.765 E82.51496 F360.000
G1 X189.962 Y100.776 F7200.000
G1 X189.928 Y100.742 E82.51894 F360.000
G1 X191.889 Y100.982 F7200.000
G1 X191.940 Y101.033 E82.52727 F360.000
G1 X181.304 Y102.202 F7200.000
G1 X181.236 Y102.133 E82.53919 F1080.000
G1 X180.168 Y102.133 E82.67054
G1 X181.076 Y103.041 E82.82852
G1 X180.848 Y103.881 E82.93555
G1 X179.101 Y102.133 E83.23960
G1 X178.033 Y102.133 E83.37096
G1 X180.620 Y104.720 E83.82107
G1 X180.392 Y105.560 E83.92810
G1 X177.642 Y102.810 E84.40659
G1 X177.642 Y103.877 E84.53795
G1 X180.163 Y106.399 E84.97675
G1 X179.935 Y107.239 E85.08378
G1 X177.642 Y104.945 E85.48287
G1 X177.642 Y106.013 E85.61423
G1 X179.709 Y108.080 E85.97387
G1 X179.516 Y108.955 E86.08411
G1 X177.642 Y107.080 E86.41023
G1 X177.642 Y108.148 E86.54159
G1 X179.323 Y109.830 E86.83419
G1 X179.131 Y110.705 E86.94442
G1 X177.642 Y109.216 E87.20351
G1 X177.642 Y110.283 E87.33486
G1 X178.938 Y111.580 E87.56043
G1 X179.875 Y112.517 F7200.000
G1 X182.839 Y115.481 E88.07618 F1080.000
G1 X182.647 Y116.357 E88.18646
G1 X177.642 Y111.351 E89.05745
G1 X177.642 Y112.418 E89.18880
G1 X181.988 Y116.765 E89.94500
G1 X180.920 Y116.765 E90.07635
G1 X177.642 Y113.486 E90.64678
G1 X177.642 Y114.554 E90.77814
G1 X179.852 Y116.765 E91.16280
G1 X178.785 Y116.765 E91.29416
G1 X177.642 Y115.621 E91.49306
G1 X177.642 Y116.689 E91.62441
G1 X177.717 Y116.765 E91.63755
G1 X181.336 Y112.910 F7200.000
G1 X183.032 Y114.606 E91.93264 F1080.000
G1 X183.224 Y113.730 E92.04292
G1 X182.404 Y112.910 E92.18551
G1 F1800.000 E91.18551
G92 E0
G1 X188.258 Y96.389 F7200.000
G1 E1.00000 F1800.000
G1 X188.258 Y84.853 E2.34256 F540.000
G1 X191.546 Y84.853 E2.72514
G1 X191.546 Y96.389 E4.06770
G1 X188.366 Y96.389 E4.43781
G1 X187.544 Y97.103 F7200.000
G1 X187.544 Y84.139 E5.94662 F540.000
G1 X192.260 Y84.139 E6.49544
G1 X192.260 Y97.103 E8.00424
G1 X187.651 Y97.103 E8.54059
G1 X186.830 Y97.817 F7200.000
G1 X186.830 Y83.425 E10.21564 F1080.000
G1 X192.974 Y83.425 E10.93070
G1 X192.974 Y97.817 E12.60575
G1 X186.937 Y97.817 E13.30834
G1 X186.116 Y98.531 F7200.000
G1 X186.116 Y82.711 E15.14963 F756.000
G1 X193.688 Y82.711 E16.03093
G1 X193.688 Y98.531 E17.87222
G1 X186.223 Y98.531 E18.74106
G1 X186.473 Y97.913 F7200.000
G1 X188.814 Y95.908 F7200.000
G1 X188.739 Y95.833 E18.75407 F1080.000
G1 X188.739 Y94.771 E18.88419
G1 X189.876 Y95.908 E19.08121
G1 X190.939 Y95.908 E19.21133
G1 X188.739 Y93.708 E19.59238
G1 X188.739 Y92.645 E19.72249
G1 X191.065 Y94.972 E20.12542
G1 X191.065 Y93.910 E20.25554
G1 X188.739 Y91.583 E20.65846
G1 X188.739 Y90.520 E20.78858
G1 X191.065 Y92.847 E21.19151
G1 X191.065 Y91.784 E21.32163
G1 X188.739 Y89.458 E21.72455
G1 X188.739 Y88.395 E21.85467
G1 X191.065 Y90.722 E22.25760
G1 X191.065 Y89.659 E22.38772
G1 X188.739 Y87.332 E22.79064
G1 X188.739 Y86.270 E22.92076
G1 X191.065 Y88.597 E23.32369
G1 X191.065 Y87.534 E23.45381
G1 X188.865 Y85.334 E23.83485
G1 X189.928 Y85.334 E23.96496
G1 X191.065 Y86.471 E24.16199
G1 X191.065 Y85.409 E24.29211
G1 X190.990 Y85.334 E24.30512
G1 F1800.000 E23.30512
G92 E0
G1 X175.640 Y92.760 F7200.000
G1 E1.00000 F1800.000
G1 X164.830 Y92.760 E2.25816 F1080.000
G1 X164.830 Y73.966 E4.44554
G1 X175.640 Y73.966 E5.70370
G1 X175.640 Y92.652 E7.87861
G1 X176.354 Y93.474 F7200.000
G1 X164.116 Y93.474 E9.30301 F1080.000
G1 X164.116 Y73.252 E11.65663
G1 X176.354 Y73.252 E13.08103
G1 X176.354 Y93.367 E15.42218
G1 X177.068 Y94.188 F7200.000
G1 X163.402 Y94.188 E17.01282 F1080.000
G1 X163.402 Y72.538 E19.53268
G1 X177.068 Y72.538 E21.12333
G1 X177.068 Y94.081 E23.63072
G1 X177.783 Y94.902 F7200.000
G1 X162.688 Y94.902 E25.38761 F756.000
G1 X162.688 Y71.824 E28.07371
G1 X177.783 Y71.824 E29.83060
G1 X177.783 Y94.795 E32.50423
G1 X177.164 Y94.545 F7200.000
G1 X165.384 Y92.278 F7200.000
G1 X165.312 Y92.206 E32.51621 F1080.000
G1 X165.312 Y91.186 E32.63604
G1 X166.404 Y92.278 E32.81749
G1 X167.423 Y92.278 E32.93732
G1 X165.312 Y90.166 E33.28824
G1 X165.312 Y89.147 E33.40807
G1 X168.443 Y92.278 E33.92845
G1 X169.463 Y92.278 E34.04828
G1 X165.312 Y88.127 E34.73812
G1 X165.312 Y87.107 E34.85796
G1 X170.483 Y92.278 E35.71727
G1 X171.502 Y92.278 E35.83710
G1 X165.312 Y86.087 E36.86588
G1 X165.312 Y85.068 E36.98571
G1 X172.522 Y92.278 E38.18395
G1 X173.542 Y92.278 E38.30378
G1 X165.312 Y84.048 E39.67149
G1 X165.312 Y83.028 E39.79132
G1 X174.561 Y92.278 E41.32850
G1 X175.158 Y91.855 E41.41445
G1 X165.312 Y82.009 E43.05083
G1 X165.312 Y80.989 E43.17066
G1 X175.158 Y90.835 E44.80704
G1 X175.158 Y89.816 E44.92687
G1 X165.312 Y79.969 E46.56324
G1 X165.312 Y78.949 E46.68307
G1 X175.158 Y88.796 E48.31945
G1 X175.158 Y87.776 E48.43928
G1 X165.312 Y77.930 E50.07566
G1 X165.312 Y76.910 E50.19549
G1 X175.158 Y86.756 E51.83186
G1 X175.158 Y85.737 E51.95169
G1 X165.312 Y75.890 E53.58807
G1 X165.312 Y74.870 E53.70790
G1 X175.158 Y84.717 E55.34428
G1 X175.158 Y83.697 E55.46411
G1 X165.909 Y74.448 E57.00128
G1 X166.928 Y74.448 E57.12111
G1 X175.158 Y82.678 E58.48882
G1 X175.158 Y81.658 E58.60865
G1 X167.948 Y74.448 E59.80689
G1 X168.968 Y74.448 E59.92672
G1 X175.158 Y80.638 E60.95550
G1 X175.158 Y79.618 E61.07533
G1 X169.988 Y74.448 E61.93464
G1 X171.007 Y74.448 E62.05447
G1 X175.158 Y78.599 E62.74432
G1 X175.158 Y77.579 E62.86415
G1 X172.027 Y74.448 E63.38452
G1 X173.047 Y74.448 E63.50435
