; generated by Slic3r 1.0.0RC3 on 2014-03-11 at 09:33:12

; layer_height = 0.3
; perimeters = 1
; top_solid_layers = 3
; bottom_solid_layers = 3
; fill_density = 0.1
; perimeter_speed = 60
; infill_speed = 60
; travel_speed = 120
; nozzle_diameter = 0.4
; filament_diameter = 1.75
; extrusion_multiplier = 0.98
; perimeters extrusion width = 0.40mm
; infill extrusion width = 0.42mm
; solid infill extrusion width = 0.42mm
; top infill extrusion width = 0.42mm
; first layer extrusion width = 0.60mm

G21 ; set units to millimeters
M107
M104 S220 ; set temperature
G28 ; home all axes
M106 S255;
G1 Z200 F1200 ; lift nozzle
M109 S220 ; wait for temperature to be reached
G90 ; use absolute coordinates
G92 E0
M82 ; use absolute distances for extrusion
G1 F1800.000 E-1.00000
G92 E0
G1 Z0.300 F7200.000
G1 X115.550 Y64.860 F7200.000
G1 E1.00000 F1800.000
G1 X116.360 Y63.860 E1.08763 F1080.000
G1 X117.360 Y63.050 E1.17526
G1 X118.490 Y62.440 E1.26270
G1 X119.720 Y62.070 E1.35016
G1 X121.000 Y61.940 E1.43776
G1 X179.000 Y61.940 E5.38712
G1 X180.280 Y62.070 E5.47473
G1 X181.510 Y62.440 E5.56219
G1 X182.640 Y63.050 E5.64963
G1 X183.640 Y63.860 E5.73726
G1 X184.450 Y64.860 E5.82489
G1 X185.060 Y65.990 E5.91232
G1 X185.430 Y67.220 E5.99979
G1 X185.560 Y68.500 E6.08739
G1 X185.560 Y141.500 E11.05814
G1 X185.430 Y142.780 E11.14574
G1 X185.060 Y144.010 E11.23321
G1 X184.450 Y145.140 E11.32064
G1 X183.640 Y146.140 E11.40827
G1 X182.640 Y146.950 E11.49590
G1 X181.510 Y147.560 E11.58334
G1 X180.280 Y147.930 E11.67080
G1 X179.000 Y148.060 E11.75841
G1 X121.000 Y148.060 E15.70777
G1 X119.720 Y147.930 E15.79537
G1 X118.490 Y147.560 E15.88283
G1 X117.360 Y146.950 E15.97027
G1 X116.360 Y146.140 E16.05790
G1 X115.550 Y145.140 E16.14553
G1 X114.940 Y144.010 E16.23297
G1 X114.570 Y142.780 E16.32043
G1 X114.440 Y141.500 E16.40804
G1 X114.440 Y68.500 E21.37878
G1 X114.570 Y67.220 E21.46639
G1 X114.940 Y65.990 E21.55385
G1 X115.510 Y64.934 E21.63560
G1 F1800.000 E20.63560
G92 E0
G1 X172.568 Y84.119 F7200.000
G1 E1.00000 F1800.000
G1 X172.764 Y83.754 E1.02818 F540.000
G1 X173.026 Y83.434 E1.05636
G1 X173.346 Y83.172 E1.08454
G1 X173.711 Y82.976 E1.11273
G1 X174.107 Y82.856 E1.14091
G1 X174.519 Y82.816 E1.16909
G1 X174.931 Y82.856 E1.19727
G1 X175.327 Y82.976 E1.22545
G1 X175.692 Y83.172 E1.25363
G1 X176.012 Y83.434 E1.28181
G1 X176.274 Y83.754 E1.31000
G1 X176.469 Y84.119 E1.33818
G1 X176.590 Y84.515 E1.36636
G1 X176.630 Y84.927 E1.39454
G1 X176.590 Y85.339 E1.42272
G1 X176.469 Y85.735 E1.45090
G1 X176.274 Y86.100 E1.47909
G1 X176.012 Y86.420 E1.50727
G1 X175.692 Y86.682 E1.53545
G1 X175.327 Y86.877 E1.56363
G1 X174.931 Y86.998 E1.59181
G1 X174.519 Y87.038 E1.61999
G1 X174.107 Y86.998 E1.64818
G1 X173.711 Y86.877 E1.67636
G1 X173.346 Y86.682 E1.70454
G1 X173.026 Y86.420 E1.73272
G1 X172.764 Y86.100 E1.76090
G1 X172.568 Y85.735 E1.78909
G1 X172.448 Y85.339 E1.81726
G1 X172.408 Y84.927 E1.84545
G1 X172.448 Y84.515 E1.87363
G1 X172.544 Y84.199 E1.89612
G1 X173.070 Y84.383 F7200.000
G1 X173.229 Y84.065 E1.92033 F540.000
G1 X173.422 Y83.830 E1.94104
G1 X173.657 Y83.637 E1.96175
G1 X173.925 Y83.494 E1.98246
G1 X174.216 Y83.405 E2.00317
G1 X174.519 Y83.375 E2.02388
G1 X174.822 Y83.405 E2.04459
G1 X175.113 Y83.494 E2.06530
G1 X175.381 Y83.637 E2.08601
G1 X175.616 Y83.830 E2.10672
G1 X175.809 Y84.065 E2.12743
G1 X175.952 Y84.333 E2.14814
G1 X176.041 Y84.624 E2.16885
G1 X176.070 Y84.927 E2.18956
G1 X176.041 Y85.230 E2.21026
G1 X175.952 Y85.521 E2.23097
G1 X175.809 Y85.789 E2.25168
G1 X175.616 Y86.024 E2.27239
G1 X175.381 Y86.217 E2.29310
G1 X175.113 Y86.360 E2.31381
G1 X174.822 Y86.449 E2.33452
G1 X174.519 Y86.478 E2.35523
G1 X174.216 Y86.449 E2.37594
G1 X173.925 Y86.360 E2.39665
G1 X173.657 Y86.217 E2.41736
G1 X173.422 Y86.024 E2.43807
G1 X173.229 Y85.789 E2.45878
G1 X173.086 Y85.521 E2.47949
G1 X172.997 Y85.230 E2.50020
G1 X172.968 Y84.927 E2.52091
G1 X172.997 Y84.624 E2.54162
G1 X173.046 Y84.463 E2.55308
G1 F1800.000 E1.55308
G92 E0
G1 X128.238 Y86.002 F7200.000
G1 E1.00000 F1800.000
G1 X128.197 Y86.414 E1.02818 F540.000
G1 X128.077 Y86.810 E1.05637
G1 X127.882 Y87.175 E1.08455
G1 X127.619 Y87.495 E1.11273
G1 X127.299 Y87.758 E1.14091
G1 X126.934 Y87.953 E1.16909
G1 X126.538 Y88.073 E1.19727
G1 X126.127 Y88.114 E1.22545
G1 X125.715 Y88.073 E1.25364
G1 X125.319 Y87.953 E1.28182
G1 X124.954 Y87.758 E1.31000
G1 X124.634 Y87.495 E1.33818
G1 X124.371 Y87.175 E1.36636
G1 X124.176 Y86.810 E1.39454
G1 X124.056 Y86.414 E1.42273
G1 X124.015 Y86.002 E1.45091
G1 X124.056 Y85.590 E1.47909
G1 X124.176 Y85.194 E1.50727
G1 X124.371 Y84.829 E1.53545
G1 X124.634 Y84.509 E1.56363
G1 X124.954 Y84.247 E1.59181
G1 X125.319 Y84.052 E1.62000
G1 X125.715 Y83.932 E1.64818
G1 X126.127 Y83.891 E1.67636
G1 X126.538 Y83.932 E1.70454
G1 X126.934 Y84.052 E1.73272
G1 X127.299 Y84.247 E1.76090
G1 X127.619 Y84.509 E1.78909
G1 X127.882 Y84.829 E1.81727
G1 X128.077 Y85.194 E1.84545
G1 X128.197 Y85.590 E1.87363
G1 X128.230 Y85.919 E1.89612
G1 X127.673 Y85.950 F7200.000
G1 X127.648 Y86.305 E1.92033 F540.000
G1 X127.560 Y86.596 E1.94104
G1 X127.417 Y86.864 E1.96175
G1 X127.224 Y87.099 E1.98246
G1 X126.988 Y87.292 E2.00317
G1 X126.720 Y87.436 E2.02388
G1 X126.429 Y87.524 E2.04459
G1 X126.127 Y87.554 E2.06530
G1 X125.824 Y87.524 E2.08601
G1 X125.533 Y87.436 E2.10672
G1 X125.265 Y87.292 E2.12743
G1 X125.029 Y87.099 E2.14814
G1 X124.837 Y86.864 E2.16885
G1 X124.693 Y86.596 E2.18956
G1 X124.605 Y86.305 E2.21027
G1 X124.575 Y86.002 E2.23098
G1 X124.605 Y85.700 E2.25169
G1 X124.693 Y85.409 E2.27239
G1 X124.837 Y85.140 E2.29310
G1 X125.029 Y84.905 E2.31381
G1 X125.265 Y84.712 E2.33452
G1 X125.533 Y84.569 E2.35523
G1 X125.824 Y84.481 E2.37594
G1 X126.127 Y84.451 E2.39665
G1 X126.429 Y84.481 E2.41736
G1 X126.720 Y84.569 E2.43807
G1 X126.988 Y84.712 E2.45878
G1 X127.224 Y84.905 E2.47949
G1 X127.417 Y85.140 E2.50020
G1 X127.560 Y85.409 E2.52091
G1 X127.648 Y85.700 E2.54162
G1 X127.665 Y85.867 E2.55308
G1 F1800.000 E1.55308
G92 E0
G1 X130.408 Y75.643 F7200.000
G1 E1.00000 F1800.000
G1 X169.592 Y75.643 E3.66807 F1080.000
G1 X169.592 Y134.357 E7.66606
G1 X130.408 Y134.357 E10.33413
G1 X130.408 Y75.726 E14.32643
G1 X130.966 Y76.200 F7200.000
G1 X169.034 Y76.200 E16.91863 F540.000
G1 X169.034 Y133.800 E20.84075
G1 X130.966 Y133.800 E23.43296
G1 X130.966 Y76.284 E27.34939
G1 F1800.000 E26.34939
G92 E0
G1 X140.890 Y134.953 F7200.000
G1 E1.00000 F1800.000
G1 X141.301 Y134.912 E1.02818 F540.000
G1 X141.713 Y134.953 E1.05636
G1 X142.109 Y135.073 E1.08454
G1 X142.474 Y135.268 E1.11273
G1 X142.794 Y135.531 E1.14091
G1 X143.057 Y135.851 E1.16909
G1 X143.252 Y136.216 E1.19727
G1 X143.372 Y136.612 E1.22545
G1 X143.413 Y137.023 E1.25363
G1 X143.372 Y137.435 E1.28181
G1 X143.252 Y137.831 E1.31000
G1 X143.057 Y138.196 E1.33818
G1 X142.794 Y138.516 E1.36636
G1 X142.474 Y138.779 E1.39454
G1 X142.109 Y138.974 E1.42272
G1 X141.713 Y139.094 E1.45090
G1 X141.301 Y139.135 E1.47909
G1 X140.890 Y139.094 E1.50727
G1 X140.494 Y138.974 E1.53545
G1 X140.129 Y138.779 E1.56363
G1 X139.809 Y138.516 E1.59181
G1 X139.546 Y138.196 E1.61999
G1 X139.351 Y137.831 E1.64818
G1 X139.231 Y137.435 E1.67636
G1 X139.190 Y137.023 E1.70454
G1 X139.231 Y136.612 E1.73272
G1 X139.351 Y136.216 E1.76090
G1 X139.546 Y135.851 E1.78908
G1 X139.809 Y135.531 E1.81727
G1 X140.129 Y135.268 E1.84545
G1 X140.494 Y135.073 E1.87363
G1 X140.810 Y134.977 E1.89612
G1 X140.949 Y135.517 F7200.000
G1 X141.301 Y135.472 E1.92033 F540.000
G1 X141.604 Y135.502 E1.94104
G1 X141.895 Y135.590 E1.96175
G1 X142.163 Y135.733 E1.98246
G1 X142.398 Y135.926 E2.00317
G1 X142.591 Y136.162 E2.02388
G1 X142.735 Y136.430 E2.04459
G1 X142.823 Y136.721 E2.06530
G1 X142.853 Y137.023 E2.08601
G1 X142.823 Y137.326 E2.10672
G1 X142.735 Y137.617 E2.12743
G1 X142.591 Y137.885 E2.14814
G1 X142.398 Y138.121 E2.16885
G1 X142.163 Y138.313 E2.18956
G1 X141.895 Y138.457 E2.21027
G1 X141.604 Y138.545 E2.23097
G1 X141.301 Y138.575 E2.25168
G1 X140.999 Y138.545 E2.27239
G1 X140.708 Y138.457 E2.29310
G1 X140.439 Y138.313 E2.31381
G1 X140.204 Y138.121 E2.33452
G1 X140.011 Y137.885 E2.35523
G1 X139.868 Y137.617 E2.37594
G1 X139.780 Y137.326 E2.39665
G1 X139.750 Y137.023 E2.41736
G1 X139.780 Y136.721 E2.43807
G1 X139.868 Y136.430 E2.45878
G1 X140.011 Y136.162 E2.47949
G1 X140.204 Y135.926 E2.50020
G1 X140.439 Y135.733 E2.52091
G1 X140.708 Y135.590 E2.54162
G1 X140.869 Y135.541 E2.55308
G1 F1800.000 E1.55308
G92 E0
G1 X167.270 Y137.023 F7200.000
G1 E1.00000 F1800.000
G1 X167.310 Y136.612 E1.02818 F540.000
G1 X167.430 Y136.216 E1.05636
G1 X167.626 Y135.851 E1.08454
G1 X167.888 Y135.531 E1.11273
G1 X168.208 Y135.268 E1.14091
G1 X168.573 Y135.073 E1.16909
G1 X168.969 Y134.953 E1.19727
G1 X169.381 Y134.912 E1.22545
G1 X169.793 Y134.953 E1.25363
G1 X170.189 Y135.073 E1.28181
G1 X170.554 Y135.268 E1.31000
G1 X170.874 Y135.531 E1.33818
G1 X171.136 Y135.851 E1.36636
G1 X171.332 Y136.216 E1.39454
G1 X171.452 Y136.612 E1.42272
G1 X171.492 Y137.023 E1.45090
G1 X171.452 Y137.435 E1.47909
G1 X171.332 Y137.831 E1.50727
G1 X171.136 Y138.196 E1.53545
G1 X170.874 Y138.516 E1.56363
G1 X170.554 Y138.779 E1.59181
G1 X170.189 Y138.974 E1.62000
G1 X169.793 Y139.094 E1.64817
G1 X169.381 Y139.135 E1.67636
G1 X168.969 Y139.094 E1.70454
G1 X168.573 Y138.974 E1.73272
G1 X168.208 Y138.779 E1.76090
G1 X167.888 Y138.516 E1.78908
G1 X167.626 Y138.196 E1.81727
G1 X167.430 Y137.831 E1.84545
G1 X167.310 Y137.435 E1.87363
G1 X167.278 Y137.107 E1.89612
G1 X167.835 Y137.076 F7200.000
G1 X167.859 Y136.721 E1.92033 F540.000
G1 X167.948 Y136.430 E1.94104
G1 X168.091 Y136.162 E1.96175
G1 X168.284 Y135.926 E1.98246
G1 X168.519 Y135.733 E2.00317
G1 X168.787 Y135.590 E2.02388
G1 X169.078 Y135.502 E2.04459
G1 X169.381 Y135.472 E2.06530
G1 X169.684 Y135.502 E2.08601
G1 X169.975 Y135.590 E2.10672
G1 X170.243 Y135.733 E2.12743
G1 X170.478 Y135.926 E2.14814
G1 X170.671 Y136.162 E2.16885
G1 X170.814 Y136.430 E2.18956
G1 X170.903 Y136.721 E2.21027
G1 X170.932 Y137.023 E2.23097
G1 X170.903 Y137.326 E2.25168
G1 X170.814 Y137.617 E2.27239
G1 X170.671 Y137.885 E2.29310
G1 X170.478 Y138.121 E2.31381
G1 X170.243 Y138.313 E2.33452
G1 X169.975 Y138.457 E2.35523
G1 X169.684 Y138.545 E2.37594
G1 X169.381 Y138.575 E2.39665
G1 X169.078 Y138.545 E2.41736
G1 X168.787 Y138.457 E2.43807
G1 X168.519 Y138.313 E2.45878
G1 X168.284 Y138.121 E2.47949
G1 X168.091 Y137.885 E2.50020
G1 X167.948 Y137.617 E2.52091
G1 X167.859 Y137.326 E2.54162
G1 X167.843 Y137.159 E2.55308
G1 F1800.000 E1.55308
G92 E0
G1 X178.143 Y140.643 F7200.000
G1 E1.00000 F1800.000
G1 X121.857 Y140.643 E4.83264 F1080.000
G1 X121.857 Y69.357 E9.68666
G1 X178.143 Y69.357 E13.51930
G1 X178.143 Y140.559 E18.36763
G1 X178.700 Y141.200 F7200.000
G1 X121.300 Y141.200 E22.27614 F540.000
G1 X121.300 Y68.800 E27.20603
G1 X178.700 Y68.800 E31.11453
G1 X178.700 Y141.116 E36.03873
G1 F1800.000 E35.03873
G92 E0
G1 X167.808 Y135.087 F7200.000
G1 E1.00000 F1800.000
G1 X167.472 Y134.751 E1.03252 F1080.000
G1 X166.680 Y134.751 E1.08676
G1 X167.415 Y135.486 E1.15794
G1 X167.112 Y135.975 E1.19734
G1 X165.888 Y134.751 E1.31589
G1 X165.096 Y134.751 E1.37013
G1 X166.918 Y136.574 E1.54661
G1 X166.907 Y137.354 E1.60005
G1 X164.304 Y134.751 E1.85210
G1 F1800.000 E0.85210
G92 E0
G1 X144.499 Y134.751 F7200.000
G1 E1.00000 F1800.000
G1 X149.997 Y140.249 E1.53238 F1080.000
G1 X150.789 Y140.249 E1.58662
G1 X145.291 Y134.751 E2.11899
G1 X146.083 Y134.751 E2.17323
G1 X151.582 Y140.249 E2.70561
G1 X152.374 Y140.249 E2.75985
G1 X146.876 Y134.751 E3.29222
G1 X147.668 Y134.751 E3.34646
G1 X153.166 Y140.249 E3.87884
G1 X153.958 Y140.249 E3.93308
G1 X148.460 Y134.751 E4.46545
G1 X149.252 Y134.751 E4.51969
G1 X154.750 Y140.249 E5.05207
G1 X155.542 Y140.249 E5.10631
G1 X150.044 Y134.751 E5.63868
G1 X150.836 Y134.751 E5.69292
G1 X156.335 Y140.249 E6.22530
G1 X157.127 Y140.249 E6.27954
G1 X151.629 Y134.751 E6.81191
G1 X152.421 Y134.751 E6.86615
G1 X157.919 Y140.249 E7.39853
G1 X158.711 Y140.249 E7.45277
G1 X153.213 Y134.751 E7.98514
G1 X154.005 Y134.751 E8.03938
G1 X159.503 Y140.249 E8.57176
G1 X160.296 Y140.249 E8.62600
G1 X154.797 Y134.751 E9.15837
G1 X155.590 Y134.751 E9.21261
G1 X161.088 Y140.249 E9.74499
G1 X161.880 Y140.249 E9.79923
G1 X156.382 Y134.751 E10.33160
G1 X157.174 Y134.751 E10.38584
G1 X162.672 Y140.249 E10.91822
G1 X163.464 Y140.249 E10.97246
G1 X157.966 Y134.751 E11.50483
G1 X158.758 Y134.751 E11.55907
G1 X164.256 Y140.249 E12.09145
G1 X165.049 Y140.249 E12.14569
G1 X159.550 Y134.751 E12.67806
G1 X160.343 Y134.751 E12.73230
G1 X165.841 Y140.249 E13.26468
G1 X166.633 Y140.249 E13.31892
G1 X161.135 Y134.751 E13.85129
G1 X161.927 Y134.751 E13.90553
G1 X167.425 Y140.249 E14.43791
G1 X168.217 Y140.249 E14.49215
G1 X162.719 Y134.751 E15.02452
G1 X163.511 Y134.751 E15.07876
G1 X169.009 Y140.249 E15.61114
G1 X169.051 Y139.498 E15.66264
G1 X169.802 Y140.249 E15.73537
G1 X169.831 Y139.486 E15.78765
G1 X170.594 Y140.249 E15.86152
G1 X171.386 Y140.249 E15.91576
G1 X170.429 Y139.292 E16.00841
G1 X170.918 Y138.989 E16.04781
G1 X172.178 Y140.249 E16.16979
G1 X172.970 Y140.249 E16.22403
G1 X171.318 Y138.596 E16.38406
G1 X171.627 Y138.114 E16.42331
G1 X173.763 Y140.249 E16.63008
G1 X174.555 Y140.249 E16.68431
G1 X171.835 Y137.529 E16.94768
G1 X171.863 Y136.765 E17.00006
G1 X175.347 Y140.249 E17.33745
G1 X176.139 Y140.249 E17.39169
G1 X169.985 Y134.095 E17.98754
G1 X169.985 Y133.303 E18.04178
G1 X176.931 Y140.249 E18.71434
G1 X177.723 Y140.249 E18.76858
G1 X169.985 Y132.511 E19.51784
G1 X169.985 Y131.719 E19.57208
G1 X177.749 Y139.483 E20.32383
G1 X177.749 Y138.690 E20.37806
G1 X169.985 Y130.927 E21.12981
G1 X169.985 Y130.134 E21.18405
G1 X177.749 Y137.898 E21.93579
G1 X177.749 Y137.106 E21.99003
G1 X169.985 Y129.342 E22.74178
G1 X169.985 Y128.550 E22.79602
G1 X177.749 Y136.314 E23.54776
G1 X177.749 Y135.522 E23.60200
G1 X169.985 Y127.758 E24.35375
G1 X169.985 Y126.966 E24.40799
G1 X177.749 Y134.729 E25.15973
G1 X177.749 Y133.937 E25.21397
G1 X169.985 Y126.174 E25.96572
G1 X169.985 Y125.381 E26.01996
G1 X177.749 Y133.145 E26.77170
G1 X177.749 Y132.353 E26.82594
G1 X169.985 Y124.589 E27.57768
G1 X169.985 Y123.797 E27.63192
G1 X177.749 Y131.561 E28.38367
G1 X177.749 Y130.769 E28.43791
G1 X169.985 Y123.005 E29.18965
G1 X169.985 Y122.213 E29.24389
G1 X177.749 Y129.976 E29.99564
G1 X177.749 Y129.184 E30.04988
G1 X169.985 Y121.421 E30.80162
G1 X169.985 Y120.628 E30.85586
G1 X177.749 Y128.392 E31.60761
G1 X177.749 Y127.600 E31.66185
G1 X169.985 Y119.836 E32.41359
G1 X169.985 Y119.044 E32.46783
G1 X177.749 Y126.808 E33.21958
G1 X177.749 Y126.015 E33.27381
G1 X169.985 Y118.252 E34.02556
G1 X169.985 Y117.460 E34.07980
G1 X177.749 Y125.223 E34.83154
G1 X177.749 Y124.431 E34.88578
G1 X169.985 Y116.667 E35.63753
G1 X169.985 Y115.875 E35.69177
G1 X177.749 Y123.639 E36.44351
G1 X177.749 Y122.847 E36.49775
G1 X169.985 Y115.083 E37.24950
G1 X169.985 Y114.291 E37.30374
G1 X177.749 Y122.055 E38.05548
G1 X177.749 Y121.262 E38.10972
G1 X169.985 Y113.499 E38.86147
G1 X169.985 Y112.707 E38.91571
G1 X177.749 Y120.470 E39.66745
G1 X177.749 Y119.678 E39.72169
G1 X169.985 Y111.914 E40.47344
G1 X169.985 Y111.122 E40.52767
G1 X177.749 Y118.886 E41.27942
G1 X177.749 Y118.094 E41.33366
G1 X169.985 Y110.330 E42.08540
G1 X169.985 Y109.538 E42.13964
G1 X177.749 Y117.302 E42.89139
G1 X177.749 Y116.509 E42.94563
G1 X169.985 Y108.746 E43.69737
G1 X169.985 Y107.953 E43.75161
G1 X177.749 Y115.717 E44.50336
G1 X177.749 Y114.925 E44.55760
G1 X169.985 Y107.161 E45.30934
G1 X169.985 Y106.369 E45.36358
G1 X177.749 Y114.133 E46.11533
G1 X177.749 Y113.341 E46.16957
G1 X169.985 Y105.577 E46.92131
G1 X169.985 Y104.785 E46.97555
G1 X177.749 Y112.548 E47.72730
G1 X177.749 Y111.756 E47.78153
G1 X169.985 Y103.993 E48.53328
G1 X169.985 Y103.200 E48.58752
G1 X177.749 Y110.964 E49.33926
G1 X177.749 Y110.172 E49.39350
G1 X169.985 Y102.408 E50.14525
G1 X169.985 Y101.616 E50.19949
G1 X177.749 Y109.380 E50.95123
G1 X177.749 Y108.588 E51.00547
G1 X169.985 Y100.824 E51.75722
G1 X169.985 Y100.032 E51.81146
G1 X177.749 Y107.795 E52.56320
G1 X177.749 Y107.003 E52.61744
G1 X169.985 Y99.240 E53.36919
