; generated by Slic3r 1.0.0RC3 on 2014-03-03 at 10:45:19

; layer_height = 0.2
; perimeters = 3
; top_solid_layers = 3
; bottom_solid_layers = 3
; fill_density = 0.20
; perimeter_speed = 60
; infill_speed = 60
; travel_speed = 120
; nozzle_diameter = 0.4
; filament_diameter = 1.75
; extrusion_multiplier = 0.98
; perimeters extrusion width = 0.40mm
; infill extrusion width = 0.67mm
; solid infill extrusion width = 0.67mm
; top infill extrusion width = 0.67mm
; first layer extrusion width = 0.60mm

G21 ; set units to millimeters
M107
M104 S220 ; set temperature
G28 ; home all axes
M106 S255;
G1 Z200 F1200 ; lift nozzle
M109 S220 ; wait for temperature to be reached
G90 ; use absolute coordinates
G92 E0
M82 ; use absolute distances for extrusion
G1 F1800.000 E-1.00000
G92 E0
G1 Z0.300 F7200.000
G1 X105.483 Y93.253 F7200.000
G1 E1.00000 F1800.000
G1 X106.533 Y92.123 E1.10503 F1080.000
G1 X107.813 Y91.263 E1.21004
G1 X109.253 Y90.733 E1.31452
G1 X110.783 Y90.553 E1.41942
G1 X189.173 Y90.553 E6.75718
G1 X190.703 Y90.733 E6.86208
G1 X192.143 Y91.273 E6.96681
G1 X193.423 Y92.123 E7.07143
G1 X194.473 Y93.253 E7.17647
G1 X198.813 Y99.213 E7.67849
G1 X199.503 Y100.403 E7.77216
G1 X199.923 Y101.703 E7.86518
G1 X200.073 Y103.073 E7.95903
G1 X200.073 Y107.463 E8.25795
G1 X199.903 Y108.953 E8.36007
G1 X199.393 Y110.363 E8.46217
G1 X198.583 Y111.623 E8.56416
G1 X194.243 Y116.913 E9.03008
G1 X193.203 Y117.923 E9.12880
G1 X191.973 Y118.683 E9.22725
G1 X190.613 Y119.153 E9.32523
G1 X189.173 Y119.313 E9.42389
G1 X110.783 Y119.313 E14.76165
G1 X109.343 Y119.153 E14.86031
G1 X107.973 Y118.683 E14.95893
G1 X106.743 Y117.923 E15.05738
G1 X105.713 Y116.903 E15.15609
G1 X101.373 Y111.603 E15.62254
G1 X100.563 Y110.353 E15.72396
G1 X100.053 Y108.943 E15.82606
G1 X99.883 Y107.453 E15.92817
G1 X99.883 Y103.063 E16.22710
G1 X100.033 Y101.693 E16.32094
G1 X100.453 Y100.393 E16.41397
G1 X101.143 Y99.203 E16.50763
G1 X105.434 Y93.321 E17.00342
G1 F1800.000 E16.00342
G92 E0
G1 X115.861 Y99.377 F7200.000
G1 E1.00000 F1800.000
G1 X119.759 Y98.320 E1.27502 F540.000
G1 X120.461 Y98.165 E1.32397
G1 X121.171 Y100.830 E1.51174
G1 X121.962 Y101.171 E1.57041
G1 X122.589 Y101.576 E1.62127
G1 X122.811 Y101.780 E1.64176
G1 X124.056 Y101.443 E1.72959
G1 X125.550 Y101.118 E1.83371
G1 X126.607 Y105.005 E2.10802
G1 X126.764 Y105.706 E2.15695
G1 X124.084 Y106.436 E2.34609
G1 X123.849 Y107.045 E2.39053
G1 X123.462 Y107.701 E2.44242
G1 X123.143 Y108.069 E2.47553
G1 X123.482 Y109.306 E2.56284
G1 X123.809 Y110.791 E2.66640
G1 X119.923 Y111.860 E2.94085
G1 X119.222 Y112.015 E2.98972
G1 X118.486 Y109.329 E3.17937
G1 X118.051 Y109.177 E3.21074
G1 X117.383 Y108.825 E3.26216
G1 X116.846 Y108.403 E3.30869
G1 X115.612 Y108.738 E3.39574
G1 X114.118 Y109.068 E3.49991
G1 X113.072 Y105.169 E3.77481
G1 X112.919 Y104.468 E3.82365
G1 X115.594 Y103.747 E4.01229
G1 X115.675 Y103.478 E4.03145
G1 X116.001 Y102.812 E4.08191
G1 X116.517 Y102.077 E4.14310
G1 X116.190 Y100.873 E4.22804
G1 X115.879 Y99.459 E4.32665
G1 X115.723 Y98.837 F7200.000
G1 F1800.000 E3.32665
G92 E0
G1 X121.711 Y98.532 F7200.000
G1 E1.00000 F1800.000
G1 X187.877 Y98.532 E5.50536 F1080.000
G1 X187.877 Y111.343 E6.37772
G1 X125.071 Y111.343 E10.65431
G1 X124.564 Y109.038 E10.81501
G1 X124.375 Y108.347 E10.86386
G1 X124.851 Y107.543 E10.92745
G1 X124.921 Y107.363 E10.94061
G1 X128.082 Y106.502 E11.16373
G1 X127.689 Y104.737 E11.28683
G1 X126.346 Y99.800 E11.63527
G1 X123.793 Y100.360 E11.81325
G1 X123.065 Y100.557 E11.86462
G1 X122.508 Y100.198 E11.90974
G1 X122.107 Y100.017 E11.93967
G1 X121.733 Y98.613 E12.03864
G1 X120.987 Y97.975 F7200.000
G1 X188.434 Y97.975 E16.63129 F1080.000
G1 X188.434 Y111.900 E17.57952
G1 X123.209 Y111.900 E22.02085
G1 X123.161 Y111.547 E22.04513
G1 X124.467 Y111.188 E22.13733
G1 X124.023 Y109.172 E22.27788
G1 X123.760 Y108.211 E22.34573
G1 X123.915 Y108.030 E22.36198
G1 X124.350 Y107.294 E22.42016
G1 X124.502 Y106.900 E22.44896
G1 X127.423 Y106.104 E22.65509
G1 X127.148 Y104.871 E22.74111
G1 X125.948 Y100.459 E23.05248
G1 X123.924 Y100.901 E23.19353
G1 X122.970 Y101.160 E23.26086
G1 X122.235 Y100.685 E23.32047
G1 X121.638 Y100.421 E23.36490
G1 X121.008 Y98.056 E23.53156
G1 F1800.000 E22.53156
G92 E0
G1 X116.600 Y109.624 F7200.000
G1 E1.00000 F1800.000
G1 X116.768 Y109.761 E1.01476 F540.000
G1 X117.564 Y110.181 E1.07606
G1 X117.883 Y111.343 E1.15812
G1 X112.094 Y111.343 E1.55231
G1 X112.094 Y107.202 E1.83434
G1 X112.452 Y107.154 E1.85891
G1 X113.319 Y110.386 E2.08676
G1 X115.879 Y109.820 E2.26529
G1 X116.520 Y109.646 E2.31052
G1 F1800.000 E1.31052
G92 E0
G1 X114.757 Y102.819 F7200.000
G1 E1.00000 F1800.000
G1 X112.094 Y103.536 E1.18776 F540.000
G1 X112.094 Y98.532 E1.52852
G1 X114.534 Y98.532 E1.69464
G1 X115.108 Y101.139 E1.87644
G1 X115.305 Y101.866 E1.92769
G1 X115.033 Y102.256 E1.96008
G1 X114.793 Y102.744 E1.99714
G1 X115.205 Y103.170 F7200.000
G1 X115.150 Y103.290 E2.00613 F1080.000
G1 X112.262 Y104.068 E2.20984
G1 X112.531 Y105.300 E2.29573
G1 X113.719 Y109.727 E2.60782
G1 X115.745 Y109.279 E2.74917
G1 X116.722 Y109.014 E2.81808
G1 X117.076 Y109.293 E2.84877
G1 X117.824 Y109.687 E2.90639
G1 X118.028 Y109.767 E2.92130
G1 X118.613 Y111.900 E3.07194
G1 X111.537 Y111.900 E3.55379
G1 X111.537 Y97.975 E4.50202
G1 X117.544 Y97.975 E4.91104
G1 X117.591 Y98.331 E4.93548
G1 X115.202 Y98.979 E5.10400
G1 X115.649 Y101.006 E5.24538
G1 X115.912 Y101.973 E5.31361
G1 X115.517 Y102.534 E5.36031
G1 X115.242 Y103.095 E5.40286
G1 F1800.000 E4.40286
G92 E0
G1 X110.980 Y105.255 F7200.000
G1 E1.00000 F1800.000
G1 X110.979 Y97.418 E1.53364 F540.000
G1 X188.991 Y97.418 E6.84567
G1 X188.991 Y112.458 E7.86976
G1 X110.980 Y112.458 E13.18175
G1 X110.980 Y105.338 E13.66652
G1 X111.462 Y104.976 F7200.000
G1 F1800.000 E12.66652
G92 E0
G1 X190.843 Y104.491 F7200.000
G1 E1.00000 F1800.000
G1 X192.101 Y104.491 E1.08564 F540.000
G1 X192.101 Y106.055 E1.19211
G1 X190.843 Y106.055 E1.27775
G1 X190.843 Y104.575 E1.37854
G1 X190.286 Y103.934 F7200.000
G1 X192.658 Y103.934 E1.54004 F540.000
G1 X192.658 Y106.612 E1.72238
G1 X190.286 Y106.612 E1.88389
G1 X190.286 Y104.018 E2.06054
G1 X189.729 Y103.377 F7200.000
G1 X193.215 Y103.377 E2.29791 F540.000
G1 X193.215 Y107.169 E2.55611
G1 X189.729 Y107.169 E2.79348
G1 X189.729 Y103.461 E3.04600
G1 X190.211 Y103.656 F7200.000
G1 F1800.000 E2.04600
G92 E0
G1 X109.115 Y104.479 F7200.000
G1 E1.00000 F1800.000
G1 X109.115 Y106.043 E1.10647 F540.000
G1 X107.857 Y106.043 E1.19211
G1 X107.857 Y104.479 E1.29859
G1 X109.031 Y104.479 E1.37854
G1 X109.672 Y103.922 F7200.000
G1 X109.672 Y106.600 E1.56088 F540.000
G1 X107.300 Y106.600 E1.72238
G1 X107.300 Y103.922 E1.90472
G1 X109.588 Y103.922 E2.06054
G1 X110.229 Y103.365 F7200.000
G1 X110.229 Y107.157 E2.31874 F540.000
G1 X106.743 Y107.157 E2.55611
G1 X106.743 Y103.365 E2.81432
G1 X110.145 Y103.365 E3.04600
G1 X109.950 Y103.847 F7200.000
G1 F1800.000 E2.04600
G92 E0
G1 X125.345 Y110.671 F7200.000
G1 E1.00000 F1800.000
G1 X125.322 Y110.648 E1.00224 F1080.000
G1 X126.136 Y110.671 E1.05795
G1 X125.099 Y109.634 E1.15828
G1 X124.851 Y108.595 E1.23128
G1 X126.927 Y110.671 E1.43205
G1 X127.718 Y110.671 E1.48616
G1 X125.041 Y107.994 E1.74507
G1 X125.462 Y107.624 E1.78341
G1 X128.510 Y110.671 E2.07813
G1 X129.301 Y110.671 E2.13224
G1 X126.084 Y107.454 E2.44334
G1 X126.706 Y107.285 E2.48742
G1 X130.092 Y110.671 E2.81490
G1 X130.883 Y110.671 E2.86901
G1 X127.328 Y107.116 E3.21287
G1 X127.950 Y106.946 E3.25695
G1 X131.675 Y110.671 E3.61718
G1 X132.466 Y110.671 E3.67129
G1 X128.540 Y106.745 E4.05097
G1 X128.313 Y105.727 E4.12229
G1 X133.257 Y110.671 E4.60043
G1 X134.048 Y110.671 E4.65454
G1 X128.087 Y104.709 E5.23112
G1 X127.795 Y103.627 E5.30778
G1 X134.839 Y110.671 E5.98904
G1 X135.631 Y110.671 E6.04315
G1 X127.500 Y102.540 E6.82955
G1 X127.204 Y101.453 E6.90658
G1 X136.422 Y110.671 E7.79809
G1 X137.213 Y110.671 E7.85220
G1 X126.908 Y100.366 E8.84883
G1 X127.009 Y99.676 E8.89655
G1 X138.004 Y110.671 E9.95995
G1 X138.796 Y110.671 E10.01406
G1 X127.050 Y98.926 E11.14999
G1 X127.842 Y98.926 E11.20410
G1 X139.587 Y110.671 E12.34002
G1 X140.378 Y110.671 E12.39413
G1 X128.633 Y98.926 E13.53006
G1 X129.424 Y98.926 E13.58417
G1 X141.169 Y110.671 E14.72010
G1 X141.961 Y110.671 E14.77421
G1 X130.215 Y98.926 E15.91013
G1 X131.007 Y98.926 E15.96424
G1 X142.752 Y110.671 E17.10017
G1 X143.543 Y110.671 E17.15428
G1 X131.798 Y98.926 E18.29020
G1 X132.589 Y98.926 E18.34431
G1 X144.334 Y110.671 E19.48024
G1 X145.126 Y110.671 E19.53435
G1 X133.380 Y98.926 E20.67027
G1 X134.172 Y98.926 E20.72438
G1 X145.917 Y110.671 E21.86031
G1 X146.708 Y110.671 E21.91442
G1 X134.963 Y98.926 E23.05035
G1 X135.754 Y98.926 E23.10446
G1 X147.499 Y110.671 E24.24038
G1 X148.291 Y110.671 E24.29449
G1 X136.545 Y98.926 E25.43042
G1 X137.337 Y98.926 E25.48453
G1 X149.082 Y110.671 E26.62045
G1 X149.873 Y110.671 E26.67456
G1 X138.128 Y98.926 E27.81049
G1 X138.919 Y98.926 E27.86460
G1 X150.664 Y110.671 E29.00052
G1 X151.455 Y110.671 E29.05463
G1 X139.710 Y98.926 E30.19056
G1 X140.501 Y98.926 E30.24467
G1 X152.247 Y110.671 E31.38059
G1 X153.038 Y110.671 E31.43470
G1 X141.293 Y98.926 E32.57063
G1 X142.084 Y98.926 E32.62474
G1 X153.829 Y110.671 E33.76067
G1 X154.620 Y110.671 E33.81478
G1 X142.875 Y98.926 E34.95070
G1 X143.666 Y98.926 E35.00481
G1 X155.412 Y110.671 E36.14074
G1 X156.203 Y110.671 E36.19485
G1 X144.458 Y98.926 E37.33077
G1 X145.249 Y98.926 E37.38488
G1 X156.994 Y110.671 E38.52081
G1 X157.785 Y110.671 E38.57492
G1 X146.040 Y98.926 E39.71084
G1 X146.831 Y98.926 E39.76495
G1 X158.577 Y110.671 E40.90088
G1 X159.368 Y110.671 E40.95499
G1 X147.623 Y98.926 E42.09092
G1 X148.414 Y98.926 E42.14503
G1 X160.159 Y110.671 E43.28095
G1 X160.950 Y110.671 E43.33506
G1 X149.205 Y98.926 E44.47099
G1 X149.996 Y98.926 E44.52510
G1 X161.742 Y110.671 E45.66102
G1 X162.533 Y110.671 E45.71513
G1 X150.788 Y98.926 E46.85106
G1 X151.579 Y98.926 E46.90517
G1 X163.324 Y110.671 E48.04109
G1 X164.115 Y110.671 E48.09520
G1 X152.370 Y98.926 E49.23113
G1 X153.161 Y98.926 E49.28524
G1 X164.907 Y110.671 E50.42116
G1 X165.698 Y110.671 E50.47527
G1 X153.953 Y98.926 E51.61120
G1 X154.744 Y98.926 E51.66531
G1 X166.489 Y110.671 E52.80124
G1 X167.280 Y110.671 E52.85535
G1 X155.535 Y98.926 E53.99127
G1 X156.326 Y98.926 E54.04538
G1 X168.071 Y110.671 E55.18131
G1 X168.863 Y110.671 E55.23542
G1 X157.117 Y98.926 E56.37134
G1 X157.909 Y98.926 E56.42545
G1 X169.654 Y110.671 E57.56138
G1 X170.445 Y110.671 E57.61549
G1 X158.700 Y98.926 E58.75141
G1 X159.491 Y98.926 E58.80552
G1 X171.236 Y110.671 E59.94145
G1 X172.028 Y110.671 E59.99556
G1 X160.282 Y98.926 E61.13149
G1 X161.074 Y98.926 E61.18560
G1 X172.819 Y110.671 E62.32152
G1 X173.610 Y110.671 E62.37563
G1 X161.865 Y98.926 E63.51156
G1 X162.656 Y98.926 E63.56567
G1 X174.401 Y110.671 E64.70159
G1 X175.193 Y110.671 E64.75570
G1 X163.447 Y98.926 E65.89163
G1 X164.239 Y98.926 E65.94574
G1 X175.984 Y110.671 E67.08166
G1 X176.775 Y110.671 E67.13577
G1 X165.030 Y98.926 E68.27170
G1 X165.821 Y98.926 E68.32581
G1 X177.566 Y110.671 E69.46173
G1 X178.358 Y110.671 E69.51584
G1 X166.612 Y98.926 E70.65177
G1 X167.404 Y98.926 E70.70588
G1 X179.149 Y110.671 E71.84181
G1 X179.940 Y110.671 E71.89592
G1 X168.195 Y98.926 E73.03184
G1 X168.986 Y98.926 E73.08595
G1 X180.731 Y110.671 E74.22188
G1 X181.523 Y110.671 E74.27599
G1 X169.777 Y98.926 E75.41191
G1 X170.569 Y98.926 E75.46602
G1 X182.314 Y110.671 E76.60195
G1 X183.105 Y110.671 E76.65606
G1 X171.360 Y98.926 E77.79198
G1 X172.151 Y98.926 E77.84609
G1 X183.896 Y110.671 E78.98202
G1 X184.687 Y110.671 E79.03613
G1 X172.942 Y98.926 E80.17206
G1 X173.733 Y98.926 E80.22617
G1 X185.479 Y110.671 E81.36209
G1 X186.270 Y110.671 E81.41620
G1 X174.525 Y98.926 E82.55213
G1 X175.316 Y98.926 E82.60624
G1 X187.061 Y110.671 E83.74216
G1 X187.204 Y110.023 E83.78755
G1 X176.107 Y98.926 E84.86080
G1 X176.898 Y98.926 E84.91491
G1 X187.204 Y109.232 E85.91164
G1 X187.204 Y108.441 E85.96575
G1 X177.690 Y98.926 E86.88596
G1 X178.481 Y98.926 E86.94007
G1 X187.204 Y107.649 E87.78376
G1 X187.204 Y106.858 E87.83787
G1 X179.272 Y98.926 E88.60503
G1 X180.063 Y98.926 E88.65914
G1 X187.204 Y106.067 E89.34978
G1 X187.204 Y105.276 E89.40389
G1 X180.855 Y98.926 E90.01800
G1 X181.646 Y98.926 E90.07211
G1 X187.204 Y104.484 E90.60971
G1 X187.204 Y103.693 E90.66382
G1 X182.437 Y98.926 E91.12488
G1 X183.228 Y98.926 E91.17899
G1 X187.204 Y102.902 E91.56354
G1 X187.204 Y102.111 E91.61765
G1 X184.020 Y98.926 E91.92567
G1 X184.811 Y98.926 E91.97978
G1 X187.204 Y101.319 E92.21128
G1 X187.204 Y100.528 E92.26539
G1 X185.602 Y98.926 E92.42036
G1 X186.393 Y98.926 E92.47447
G1 X187.204 Y99.737 E92.55292
G1 X187.204 Y98.946 E92.60703
G1 X187.185 Y98.926 E92.60896
G1 F1800.000 E91.60896
G92 E0
G1 X191.412 Y105.466 F7200.000
G1 E1.00000 F1800.000
G1 X191.432 Y105.486 E1.00193 F360.000
G1 F1800.000 E0.00193
G92 E0
G1 X125.799 Y99.339 F7200.000
G1 E1.00000 F1800.000
G1 X125.779 Y99.319 E1.00189 F360.000
G1 F1800.000 E0.00189
G92 E0
G1 X120.193 Y97.816 F7200.000
G1 E1.00000 F1800.000
G1 X120.183 Y97.806 E1.00076 F360.000
G1 X119.670 Y97.917 E1.02902 F360.000
G1 X119.690 Y97.937 E1.03054 F360.000
G1 X118.160 Y98.165 F7200.000
G1 X118.140 Y98.145 E1.03245 F360.000
G1 F1800.000 E0.03245
G92 E0
G1 X115.911 Y98.373 F7200.000
G1 E1.00000 F1800.000
G1 X115.901 Y98.363 E1.00064 F360.000
G1 X115.488 Y98.473 E1.01995 F360.000
G1 X115.508 Y98.493 E1.02121 F360.000
G1 X114.568 Y98.561 F7200.000
G1 X114.550 Y98.543 E1.02304 F360.000
G1 X114.568 Y98.561 F7200.000
G1 X114.749 Y99.565 E1.09551 F360.000
G1 X113.728 Y98.543 E1.19818 F360.000
G1 X112.906 Y98.543 E1.25660 F360.000
G1 X114.982 Y100.620 E1.46526 F360.000
G1 X115.252 Y101.712 E1.54519 F360.000
G1 X112.105 Y98.565 E1.86137 F360.000
G1 X112.105 Y99.387 E1.91979 F360.000
G1 X115.005 Y102.287 E2.21117 F360.000
G1 X114.714 Y102.819 E2.25423 F360.000
G1 X112.105 Y100.210 E2.51642 F360.000
G1 X112.105 Y101.032 E2.57484 F360.000
G1 X114.067 Y102.993 E2.77194 F360.000
G1 X113.419 Y103.168 E2.81960 F360.000
G1 X112.105 Y101.854 E2.95161 F360.000
G1 X112.105 Y102.676 E3.01003 F360.000
G1 X112.771 Y103.342 E3.07695 F360.000
G1 X112.105 Y103.498 E3.12555 F360.000
G1 X112.124 Y103.516 E3.12738 F360.000
G1 X111.935 Y104.442 F7200.000
G1 X111.948 Y104.455 E3.12836 F360.000
G1 X111.925 Y105.048 E3.15996 F360.000
G1 X111.944 Y105.067 E3.16139 F360.000
G1 X112.105 Y106.605 F7200.000
G1 X112.124 Y106.624 E3.16321 F360.000
G1 F1800.000 E2.16321
G92 E0
G1 X112.492 Y108.844 F7200.000
G1 E1.00000 F1800.000
G1 X112.506 Y108.858 E1.00076 F360.000
G1 X112.482 Y109.274 E1.01658 F360.000
G1 X112.501 Y109.293 E1.01760 F360.000
G1 X112.662 Y110.755 F7200.000
G1 X112.682 Y110.775 E1.01952 F360.000
G1 X113.290 Y110.931 F7200.000
G1 X113.314 Y110.955 E1.02067 F360.000
G1 X114.285 Y110.765 F7200.000
G1 X115.089 Y110.576 E1.09150 F360.000
G1 X115.287 Y110.775 E1.11557 F360.000
G1 X115.902 Y110.397 E1.17745 F360.000
G1 X116.279 Y110.775 E1.22328 F360.000
G1 X117.048 Y110.551 E1.29197 F360.000
G1 X117.087 Y110.590 E1.29661 F360.000
G1 F1800.000 E0.29661
G92 E0
G1 X114.295 Y110.775 F7200.000
G1 E1.00000 F1800.000
G1 X114.285 Y110.765 E1.00121 F360.000
G1 F1800.000 E0.00121
G92 E0
G1 X120.702 Y112.059 F7200.000
G1 E1.00000 F1800.000
G1 X121.088 Y111.942 E1.01756 F360.000
G1 X121.108 Y111.962 E1.01877 F360.000
G1 X120.712 Y112.069 F7200.000
G1 X120.702 Y112.059 E1.01939 F360.000
G1 X122.035 Y111.879 F7200.000
G1 X122.045 Y111.889 E1.02035 F360.000
G1 F1800.000 E0.02035
G92 E0
G1 X108.446 Y105.474 F7200.000
G1 E1.00000 F1800.000
G1 X108.426 Y105.454 E1.00193 F360.000
G1 F1800.000 E0.00193
G92 E0
G1 X122.468 Y99.748 F7200.000
G1 E1.00000 F1800.000
G1 X122.434 Y99.714 E1.00353 F1080.000
G1 X122.492 Y98.926 E1.06134
G1 X123.576 Y100.010 E1.17352
G1 X124.265 Y99.853 E1.22521
G1 X123.338 Y98.926 E1.32110
G1 X124.185 Y98.926 E1.38300
G1 X124.959 Y99.701 E1.46315
G1 X125.052 Y98.947 E1.51868
G1 X125.031 Y98.926 E1.52088
G1 F1800.000 E0.52088
G92 E0
G1 X114.199 Y98.926 F7200.000
G1 E1.00000 F1800.000
G1 X114.222 Y98.949 E1.00234 F1080.000
G1 X114.456 Y100.009 E1.07986
