; generated by Slic3r 1.0.0RC3 on 2014-03-03 at 10:47:19

; layer_height = 0.2
; perimeters = 3
; top_solid_layers = 3
; bottom_solid_layers = 3
; fill_density = 0.20
; perimeter_speed = 60
; infill_speed = 60
; travel_speed = 120
; nozzle_diameter = 0.4
; filament_diameter = 1.75
; extrusion_multiplier = 0.98
; perimeters extrusion width = 0.40mm
; infill extrusion width = 0.67mm
; solid infill extrusion width = 0.67mm
; top infill extrusion width = 0.67mm
; first layer extrusion width = 0.60mm

G21 ; set units to millimeters
M107
M104 S220 ; set temperature
G28 ; home all axes
M106 S255;
G1 Z200 F1200 ; lift nozzle
M109 S220 ; wait for temperature to be reached
G90 ; use absolute coordinates
G92 E0
M82 ; use absolute distances for extrusion
G1 F1800.000 E-1.00000
G92 E0
G1 Z0.300 F7200.000
G1 X88.454 Y39.513 F7200.000
G1 E1.00000 F1800.000
G1 X88.994 Y38.373 E1.08589 F1080.000
G1 X89.744 Y37.343 E1.17265
G1 X90.674 Y36.493 E1.25844
G1 X91.754 Y35.823 E1.34498
G1 X92.944 Y35.383 E1.43138
G1 X94.194 Y35.183 E1.51757
G1 X111.734 Y34.033 E2.71448
G1 X112.394 Y33.993 E2.75950
G1 X113.084 Y33.993 E2.80649
G1 X113.764 Y34.053 E2.85297
G1 X151.834 Y39.733 E5.47394
G1 X152.774 Y39.953 E5.53968
G1 X194.534 Y52.683 E8.51240
G1 X195.904 Y53.273 E8.61397
G1 X197.094 Y54.163 E8.71515
G1 X198.064 Y55.293 E8.81656
G1 X198.744 Y56.613 E8.91767
G1 X209.454 Y84.633 E10.96024
G1 X211.304 Y90.293 E11.36571
G1 X211.464 Y90.883 E11.40733
G1 X211.574 Y91.473 E11.44820
G1 X211.874 Y93.753 E11.60479
G1 X211.934 Y94.683 E11.66825
G1 X211.854 Y95.603 E11.73113
G1 X203.534 Y150.033 E15.48045
G1 X203.104 Y151.573 E15.58932
G1 X202.314 Y152.963 E15.69819
G1 X201.204 Y154.123 E15.80751
G1 X188.414 Y164.573 E16.93214
G1 X187.204 Y165.353 E17.03017
G1 X185.864 Y165.853 E17.12756
G1 X148.524 Y175.223 E19.74896
G1 X147.834 Y175.353 E19.79677
G1 X147.134 Y175.413 E19.84461
G1 X128.934 Y176.003 E21.08454
G1 X127.514 Y175.893 E21.18152
G1 X126.154 Y175.483 E21.27824
G1 X124.914 Y174.783 E21.37520
G1 X123.844 Y173.833 E21.47263
G1 X123.014 Y172.683 E21.56921
G1 X122.454 Y171.373 E21.66622
G1 X89.194 Y62.573 E29.41310
G1 X89.004 Y61.763 E29.46976
G1 X88.914 Y60.943 E29.52593
G1 X88.074 Y42.013 E30.81618
G1 X88.144 Y40.743 E30.90279
G1 X88.434 Y39.594 E30.98348
G1 F1800.000 E29.98348
G92 E0
G1 X180.085 Y64.297 F7200.000
G1 E1.00000 F1800.000
G1 X180.330 Y63.385 E1.06434 F540.000
G1 X180.824 Y62.387 E1.14015
G1 X181.503 Y61.504 E1.21597
G1 X182.341 Y60.771 E1.29179
G1 X183.306 Y60.215 E1.36761
G1 X184.361 Y59.858 E1.44345
G1 X185.465 Y59.713 E1.51927
G1 X186.576 Y59.787 E1.59511
G1 X187.652 Y60.075 E1.67094
G1 X188.650 Y60.568 E1.74677
G1 X189.534 Y61.245 E1.82258
G1 X190.268 Y62.082 E1.89840
G1 X190.825 Y63.047 E1.97422
G1 X191.187 Y64.113 E2.05089
G1 X191.423 Y66.198 E2.19377
G1 X191.350 Y67.296 E2.26871
G1 X191.061 Y68.371 E2.34452
G1 X190.567 Y69.369 E2.42034
G1 X189.889 Y70.252 E2.49615
G1 X189.050 Y70.985 E2.57198
G1 X188.085 Y71.541 E2.64780
G1 X187.031 Y71.898 E2.72363
G1 X185.926 Y72.043 E2.79946
G1 X184.815 Y71.969 E2.87529
G1 X183.740 Y71.681 E2.95112
G1 X182.741 Y71.188 E3.02694
G1 X181.857 Y70.511 E3.10277
G1 X181.123 Y69.674 E3.17859
G1 X180.566 Y68.709 E3.25440
G1 X180.205 Y67.643 E3.33108
G1 X179.969 Y65.558 E3.47395
G1 X180.041 Y64.460 E3.54890
G1 X180.063 Y64.378 E3.55468
G1 X180.594 Y64.551 F7200.000
G1 X180.854 Y63.582 E3.62301 F540.000
G1 X181.299 Y62.683 E3.69134
G1 X181.911 Y61.887 E3.75969
G1 X182.666 Y61.226 E3.82805
G1 X183.536 Y60.725 E3.89640
G1 X184.487 Y60.403 E3.96477
G1 X185.483 Y60.273 E4.03313
G1 X185.596 Y60.280 E4.04085
G1 X186.485 Y60.339 E4.10150
G1 X187.454 Y60.599 E4.16987
G1 X188.355 Y61.043 E4.23823
G1 X189.151 Y61.654 E4.30658
G1 X189.813 Y62.408 E4.37492
G1 X190.315 Y63.278 E4.44326
G1 X190.640 Y64.235 E4.51211
G1 X190.863 Y66.211 E4.64751
G1 X190.798 Y67.205 E4.71531
G1 X190.537 Y68.174 E4.78364
G1 X190.092 Y69.073 E4.85198
G1 X189.480 Y69.869 E4.92031
G1 X188.725 Y70.530 E4.98867
G1 X187.855 Y71.031 E5.05703
G1 X186.904 Y71.353 E5.12539
G1 X185.908 Y71.483 E5.19376
G1 X184.907 Y71.417 E5.26213
G1 X183.937 Y71.157 E5.33049
G1 X183.036 Y70.713 E5.39885
G1 X182.240 Y70.102 E5.46721
G1 X181.578 Y69.347 E5.53555
G1 X181.076 Y68.478 E5.60388
G1 X180.751 Y67.521 E5.67274
G1 X180.528 Y65.545 E5.80814
G1 X180.588 Y64.635 E5.87025
G1 X181.146 Y64.643 F7200.000
G1 X181.378 Y63.780 E5.93110 F540.000
G1 X181.774 Y62.979 E5.99196
G1 X182.319 Y62.270 E6.05283
G1 X182.992 Y61.681 E6.11371
G1 X183.767 Y61.235 E6.17460
G1 X184.614 Y60.948 E6.23550
G1 X185.559 Y60.836 E6.30033
G1 X186.393 Y60.891 E6.35724
G1 X187.257 Y61.123 E6.41814
G1 X188.059 Y61.518 E6.47904
G1 X188.769 Y62.062 E6.53991
G1 X189.358 Y62.735 E6.60078
G1 X189.805 Y63.509 E6.66164
G1 X190.093 Y64.357 E6.72268
G1 X190.304 Y66.224 E6.85059
G1 X190.245 Y67.113 E6.91125
G1 X190.013 Y67.976 E6.97210
G1 X189.617 Y68.777 E7.03296
G1 X189.072 Y69.486 E7.09383
G1 X188.399 Y70.074 E7.15471
G1 X187.624 Y70.521 E7.21560
G1 X186.777 Y70.808 E7.27650
G1 X185.890 Y70.924 E7.33741
G1 X184.998 Y70.865 E7.39831
G1 X184.134 Y70.633 E7.45921
G1 X183.332 Y70.238 E7.52011
G1 X182.623 Y69.693 E7.58099
G1 X182.033 Y69.021 E7.64186
G1 X181.586 Y68.247 E7.70272
G1 X181.298 Y67.399 E7.76375
G1 X181.087 Y65.532 E7.89167
G1 X181.140 Y64.726 E7.94664
G1 X180.727 Y64.275 F7200.000
G1 F1800.000 E6.94664
G92 E0
G1 X191.446 Y90.050 F7200.000
G1 E1.00000 F1800.000
G1 X192.454 Y89.709 E1.07243 F540.000
G1 X193.509 Y89.571 E1.14486
G1 X194.570 Y89.641 E1.21730
G1 X195.598 Y89.917 E1.28973
G1 X196.552 Y90.387 E1.36215
G1 X197.395 Y91.035 E1.43458
G1 X198.097 Y91.834 E1.50701
G1 X198.628 Y92.755 E1.57942
G1 X198.970 Y93.762 E1.65183
G1 X199.109 Y94.817 E1.72425
G1 X199.038 Y95.878 E1.79666
G1 X198.762 Y96.905 E1.86908
G1 X198.291 Y97.858 E1.94150
G1 X197.642 Y98.701 E2.01391
G1 X196.842 Y99.402 E2.08634
G1 X195.920 Y99.933 E2.15877
G1 X195.251 Y100.159 E2.20685
G1 X195.251 Y100.504 E2.23032
G1 X192.796 Y100.342 E2.39785
G1 X191.769 Y100.066 E2.47028
G1 X190.815 Y99.596 E2.54271
G1 X189.971 Y98.948 E2.61514
G1 X189.270 Y98.149 E2.68756
G1 X188.738 Y97.228 E2.75997
G1 X188.396 Y96.221 E2.83239
G1 X188.258 Y95.166 E2.90480
G1 X188.328 Y94.105 E2.97721
G1 X188.604 Y93.078 E3.04964
G1 X189.076 Y92.125 E3.12204
G1 X189.724 Y91.282 E3.19448
G1 X190.525 Y90.581 E3.26690
G1 X191.374 Y90.092 E3.33363
G1 X191.677 Y90.561 F7200.000
G1 X192.581 Y90.255 E3.39860 F540.000
G1 X192.692 Y90.240 E3.40626
G1 X193.527 Y90.131 E3.46357
G1 X194.479 Y90.194 E3.52854
G1 X195.400 Y90.441 E3.59351
G1 X196.256 Y90.863 E3.65847
G1 X197.013 Y91.443 E3.72342
G1 X197.642 Y92.160 E3.78837
G1 X198.119 Y92.986 E3.85331
G1 X198.425 Y93.889 E3.91825
G1 X198.549 Y94.835 E3.98318
G1 X198.486 Y95.786 E4.04811
G1 X198.238 Y96.707 E4.11305
G1 X197.816 Y97.562 E4.17799
G1 X197.234 Y98.318 E4.24293
G1 X196.516 Y98.946 E4.30789
G1 X195.690 Y99.423 E4.37285
G1 X194.694 Y99.759 E4.44440
G1 X194.694 Y99.909 E4.45457
G1 X192.888 Y99.790 E4.57785
G1 X191.966 Y99.542 E4.64281
G1 X191.111 Y99.120 E4.70777
G1 X190.354 Y98.540 E4.77273
G1 X189.725 Y97.823 E4.83768
G1 X189.248 Y96.997 E4.90262
G1 X188.942 Y96.094 E4.96756
G1 X188.818 Y95.148 E5.03248
G1 X188.881 Y94.197 E5.09742
G1 X189.128 Y93.276 E5.16236
G1 X189.551 Y92.421 E5.22729
G1 X190.132 Y91.665 E5.29225
G1 X190.850 Y91.037 E5.35720
G1 X191.605 Y90.602 E5.41647
G1 X191.907 Y91.071 F7200.000
G1 X192.707 Y90.800 E5.47397 F540.000
G1 X193.545 Y90.690 E5.53148
G1 X194.387 Y90.746 E5.58898
G1 X195.203 Y90.965 E5.64648
G1 X195.960 Y91.338 E5.70398
G1 X196.630 Y91.852 E5.76146
G1 X197.187 Y92.486 E5.81894
G1 X197.609 Y93.217 E5.87640
G1 X197.880 Y94.016 E5.93386
G1 X197.990 Y94.853 E5.99131
G1 X197.934 Y95.695 E6.04876
G1 X197.715 Y96.510 E6.10622
G1 X197.341 Y97.266 E6.16368
G1 X196.826 Y97.935 E6.22115
G1 X196.191 Y98.491 E6.27864
G1 X195.459 Y98.912 E6.33613
G1 X194.659 Y99.183 E6.39363
G1 X194.137 Y99.252 E6.42948
G1 X194.137 Y99.314 E6.43371
G1 X192.979 Y99.237 E6.51274
G1 X192.163 Y99.019 E6.57024
G1 X191.406 Y98.645 E6.62774
G1 X190.736 Y98.131 E6.68522
G1 X190.180 Y97.497 E6.74269
G1 X189.758 Y96.766 E6.80016
G1 X189.487 Y95.967 E6.85761
G1 X189.377 Y95.130 E6.91506
G1 X189.433 Y94.288 E6.97252
G1 X189.652 Y93.473 E7.02997
G1 X190.026 Y92.717 E7.08743
G1 X190.541 Y92.048 E7.14491
G1 X191.176 Y91.492 E7.20240
G1 X191.835 Y91.112 E7.25420
G1 X191.981 Y90.518 F7200.000
G1 F1800.000 E6.25420
G92 E0
G1 X137.122 Y149.629 F7200.000
G1 E1.00000 F1800.000
G1 X137.730 Y150.371 E1.06531 F540.000
G1 X138.008 Y151.289 E1.13062
G1 X137.913 Y152.243 E1.19593
G1 X137.461 Y153.089 E1.26124
G1 X136.719 Y153.697 E1.32655
G1 X135.801 Y153.975 E1.39186
G1 X134.846 Y153.881 E1.45717
G1 X134.001 Y153.428 E1.52248
G1 X133.393 Y152.686 E1.58780
G1 X133.115 Y151.768 E1.65311
G1 X133.209 Y150.814 E1.71842
G1 X133.662 Y149.968 E1.78373
G1 X134.403 Y149.360 E1.84904
G1 X135.322 Y149.082 E1.91435
G1 X136.276 Y149.177 E1.97966
G1 X137.048 Y149.590 E2.03928
G1 X136.761 Y150.068 F7200.000
G1 X137.229 Y150.638 E2.08950 F540.000
G1 X137.442 Y151.344 E2.13972
G1 X137.370 Y152.078 E2.18994
G1 X137.022 Y152.729 E2.24016
G1 X136.451 Y153.196 E2.29038
G1 X135.745 Y153.410 E2.34060
G1 X135.012 Y153.337 E2.39082
G1 X134.361 Y152.989 E2.44104
G1 X133.894 Y152.419 E2.49126
G1 X133.680 Y151.713 E2.54148
G1 X133.753 Y150.979 E2.59170
G1 X134.101 Y150.329 E2.64192
G1 X134.671 Y149.861 E2.69214
G1 X135.377 Y149.647 E2.74236
G1 X136.111 Y149.720 E2.79258
G1 X136.687 Y150.029 E2.83711
G1 X137.294 Y149.907 F7200.000
G1 F1800.000 E1.83711
G92 E0
G1 X136.513 Y161.244 F7200.000
G1 E1.00000 F1800.000
G1 X137.688 Y161.360 E1.08040 F540.000
G1 X138.729 Y161.917 E1.16080
G1 X139.478 Y162.831 E1.24120
G1 X139.820 Y163.961 E1.32160
G1 X139.704 Y165.136 E1.40201
G1 X139.147 Y166.177 E1.48241
G1 X138.233 Y166.925 E1.56281
G1 X137.103 Y167.268 E1.64321
G1 X135.928 Y167.151 E1.72361
G1 X134.887 Y166.594 E1.80401
G1 X134.139 Y165.681 E1.88441
G1 X133.796 Y164.551 E1.96482
G1 X133.913 Y163.376 E2.04522
G1 X134.470 Y162.335 E2.12562
G1 X135.383 Y161.586 E2.20602
G1 X136.433 Y161.268 E2.28073
G1 X136.569 Y161.809 F7200.000
G1 X137.523 Y161.904 E2.34604 F540.000
G1 X138.369 Y162.356 E2.41135
G1 X138.977 Y163.098 E2.47666
G1 X139.255 Y164.016 E2.54197
G1 X139.160 Y164.971 E2.60729
G1 X138.708 Y165.816 E2.67259
G1 X137.966 Y166.424 E2.73791
G1 X137.048 Y166.702 E2.80321
G1 X136.093 Y166.608 E2.86853
G1 X135.248 Y166.155 E2.93384
G1 X134.640 Y165.413 E2.99915
G1 X134.362 Y164.495 E3.06446
G1 X134.456 Y163.541 E3.12977
G1 X134.909 Y162.695 E3.19508
G1 X135.651 Y162.087 E3.26039
G1 X136.489 Y161.833 E3.32001
G1 X136.624 Y162.375 F7200.000
G1 X137.358 Y162.447 E3.37023 F540.000
G1 X138.008 Y162.795 E3.42045
G1 X138.476 Y163.366 E3.47067
G1 X138.689 Y164.071 E3.52089
G1 X138.617 Y164.805 E3.57111
G1 X138.269 Y165.456 E3.62133
G1 X137.698 Y165.923 E3.67155
G1 X136.993 Y166.137 E3.72177
G1 X136.259 Y166.064 E3.77199
G1 X135.608 Y165.716 E3.82221
G1 X135.141 Y165.146 E3.87243
G1 X134.927 Y164.440 E3.92265
G1 X135.000 Y163.706 E3.97288
G1 X135.348 Y163.056 E4.02310
G1 X135.918 Y162.588 E4.07332
G1 X136.544 Y162.399 E4.11784
G1 X136.887 Y161.883 F7200.000
G1 F1800.000 E3.11784
G92 E0
G1 X136.622 Y167.787 F7200.000
G1 E1.00000 F1800.000
G1 X130.072 Y167.999 E1.44626 F1080.000
G1 X129.156 Y150.839 E2.61640
G1 X129.802 Y149.547 E2.71471
G1 X134.263 Y148.440 E3.02763
G1 X134.375 Y148.663 E3.04462
G1 X133.223 Y149.608 E3.14603
G1 X132.666 Y150.649 E3.22643
G1 X132.549 Y151.824 E3.30683
G1 X132.892 Y152.954 E3.38723
G1 X133.640 Y153.867 E3.46764
G1 X134.681 Y154.424 E3.54804
G1 X135.856 Y154.540 E3.62844
G1 X136.986 Y154.198 E3.70885
G1 X137.900 Y153.450 E3.78925
G1 X138.457 Y152.409 E3.86964
G1 X138.573 Y151.234 E3.95005
G1 X138.231 Y150.104 E4.03045
G1 X137.482 Y149.190 E4.11085
G1 X136.441 Y148.633 E4.19125
G1 X135.234 Y148.514 E4.27387
G1 X135.211 Y148.205 E4.29495
G1 X144.511 Y145.897 E4.94742
G1 X152.517 Y156.251 E5.83859
G1 X181.590 Y152.466 E7.83500
G1 X183.405 Y95.384 E11.72380
G1 X183.382 Y92.960 E11.88886
G1 X180.358 Y76.649 E13.01844
G1 X178.856 Y61.317 E14.06742
G1 X183.273 Y59.251 E14.39951
G1 X186.937 Y58.892 E14.65016
G1 X191.334 Y60.078 E14.96031
G1 X193.094 Y75.602 E16.02415
G1 X201.962 Y87.336 E17.02569
G1 X203.693 Y92.654 E17.40649
G1 X203.948 Y94.600 E17.54008
G1 X195.740 Y148.298 E21.23897
G1 X183.618 Y158.202 E22.30483
G1 X146.736 Y167.461 E24.89415
G1 X136.706 Y167.785 E25.57749
G1 F1800.000 E24.57749
G92 E0
G1 X129.545 Y168.573 F7200.000
G1 E1.00000 F1800.000
G1 X128.592 Y150.721 E2.21731 F1080.000
G1 X129.419 Y149.069 E2.34314
G1 X144.730 Y145.269 E3.41732
G1 X152.762 Y155.657 E4.31146
G1 X181.049 Y151.974 E6.25383
G1 X182.848 Y95.378 E10.10959
G1 X182.826 Y93.014 E10.27056
G1 X179.806 Y76.727 E11.39846
G1 X178.263 Y60.980 E12.47588
G1 X183.124 Y58.706 E12.84130
G1 X186.984 Y58.327 E13.10539
G1 X191.845 Y59.639 E13.44826
G1 X193.631 Y75.388 E14.52752
G1 X202.463 Y87.075 E15.52504
G1 X204.238 Y92.531 E15.91572
G1 X204.510 Y94.606 E16.05820
G1 X196.258 Y148.594 E19.77705
G1 X183.875 Y158.712 E20.86595
G1 X146.814 Y168.015 E23.46781
G1 X129.628 Y168.570 E24.63863
G1 X128.997 Y168.763 F7200.000
G1 X128.028 Y150.604 E25.87689 F540.000
G1 X129.036 Y148.590 E26.03023
G1 X144.948 Y144.641 E27.14663
G1 X153.007 Y155.063 E28.04375
G1 X180.507 Y151.483 E29.93208
G1 X182.291 Y95.372 E33.75480
G1 X182.269 Y93.068 E33.91168
G1 X179.254 Y76.805 E35.03790
G1 X177.670 Y60.642 E36.14377
G1 X182.974 Y58.160 E36.54252
G1 X187.031 Y57.763 E36.82005
G1 X192.356 Y59.199 E37.19564
G1 X194.167 Y75.173 E38.29031
G1 X202.964 Y86.814 E39.28382
G1 X204.784 Y92.408 E39.68436
G1 X205.073 Y94.612 E39.83573
G1 X196.776 Y148.889 E43.57456
G1 X184.131 Y159.222 E44.68650
G1 X146.892 Y168.570 E47.30089
G1 X129.018 Y169.148 E48.51861
G1 X129.001 Y168.846 E48.53915
G1 X129.464 Y168.459 F7200.000
G1 F1800.000 E47.53915
G92 E0
G1 X104.325 Y48.918 F7200.000
G1 E1.00000 F1800.000
G1 X103.167 Y49.148 E1.08040 F540.000
G1 X102.009 Y48.918 E1.16080
G1 X101.028 Y48.262 E1.24120
G1 X100.372 Y47.280 E1.32160
G1 X100.141 Y46.122 E1.40200
G1 X100.372 Y44.964 E1.48240
G1 X101.028 Y43.982 E1.56281
G1 X102.009 Y43.326 E1.64321
G1 X103.167 Y43.096 E1.72361
G1 X104.325 Y43.326 E1.80400
G1 X105.307 Y43.982 E1.88441
G1 X105.963 Y44.964 E1.96481
G1 X106.194 Y46.122 E2.04521
G1 X105.963 Y47.280 E2.12561
G1 X105.307 Y48.262 E2.20602
G1 X104.395 Y48.871 E2.28073
G1 X104.108 Y48.393 F7200.000
G1 X103.167 Y48.580 E2.34604 F540.000
G1 X102.227 Y48.393 E2.41135
G1 X101.429 Y47.860 E2.47666
G1 X100.896 Y47.063 E2.54197
G1 X100.709 Y46.122 E2.60728
G1 X100.896 Y45.181 E2.67259
G1 X101.429 Y44.384 E2.73790
G1 X102.227 Y43.851 E2.80321
G1 X103.167 Y43.664 E2.86852
G1 X104.108 Y43.851 E2.93383
G1 X104.906 Y44.384 E2.99914
G1 X105.438 Y45.181 E3.06445
G1 X105.626 Y46.122 E3.12977
G1 X105.438 Y47.063 E3.19508
G1 X104.906 Y47.860 E3.26039
G1 X104.178 Y48.346 E3.32001
G1 X103.891 Y47.868 F7200.000
G1 X103.167 Y48.012 E3.37023 F540.000
G1 X102.444 Y47.868 E3.42045
G1 X101.831 Y47.458 E3.47067
G1 X101.421 Y46.845 E3.52089
G1 X101.277 Y46.122 E3.57111
G1 X101.421 Y45.398 E3.62133
G1 X101.831 Y44.785 E3.67155
G1 X102.444 Y44.375 E3.72177
G1 X103.167 Y44.232 E3.77199
G1 X103.891 Y44.375 E3.82220
G1 X104.504 Y44.785 E3.87243
G1 X104.914 Y45.398 E3.92265
G1 X105.058 Y46.122 E3.97287
G1 X104.914 Y46.845 E4.02309
G1 X104.504 Y47.458 E4.07331
G1 X103.960 Y47.822 E4.11784
G1 X103.782 Y48.415 F7200.000
G1 F1800.000 E3.11784
G92 E0
G1 X103.167 Y56.452 F7200.000
G1 E1.00000 F1800.000
G1 X104.108 Y56.639 E1.06531 F540.000
G1 X104.906 Y57.172 E1.13062
G1 X105.438 Y57.969 E1.19593
G1 X105.626 Y58.910 E1.26124
G1 X105.438 Y59.851 E1.32656
G1 X104.906 Y60.648 E1.39187
G1 X104.108 Y61.181 E1.45718
G1 X103.167 Y61.368 E1.52249
G1 X102.227 Y61.181 E1.58779
G1 X101.429 Y60.648 E1.65311
G1 X100.896 Y59.851 E1.71842
G1 X100.709 Y58.910 E1.78373
G1 X100.896 Y57.969 E1.84904
G1 X101.429 Y57.172 E1.91435
G1 X102.227 Y56.639 E1.97966
G1 X103.085 Y56.468 E2.03928
G1 X103.167 Y57.020 F7200.000
G1 X103.891 Y57.163 E2.08950 F540.000
