; generated by Slic3r 1.0.0RC3 on 2014-03-11 at 19:49:26

; layer_height = 0.3
; perimeters = 2
; top_solid_layers = 3
; bottom_solid_layers = 3
; fill_density = 0.1
; perimeter_speed = 60
; infill_speed = 60
; travel_speed = 120
; nozzle_diameter = 0.4
; filament_diameter = 1.75
; extrusion_multiplier = 0.98
; perimeters extrusion width = 0.40mm
; infill extrusion width = 0.42mm
; solid infill extrusion width = 0.42mm
; top infill extrusion width = 0.42mm
; first layer extrusion width = 0.60mm

G21 ; set units to millimeters
M107
M104 S220 ; set temperature
G28 ; home all axes
M106 S255;
G1 Z200 F1200 ; lift nozzle
M109 S220 ; wait for temperature to be reached
G90 ; use absolute coordinates
G92 E0
M82 ; use absolute distances for extrusion
G1 F1800.000 E-1.00000
G92 E0
G1 Z0.300 F7200.000
G1 X106.377 Y75.858 F7200.000
G1 E1.00000 F1800.000
G1 X106.757 Y75.338 E1.04385 F1080.000
G1 X112.467 Y68.378 E1.65686
G1 X112.897 Y67.908 E1.70024
G1 X113.357 Y67.478 E1.74311
G1 X120.307 Y61.738 E2.35689
G1 X120.837 Y61.348 E2.40170
G1 X121.397 Y61.018 E2.44596
G1 X129.187 Y56.858 E3.04729
G1 X129.767 Y56.578 E3.09115
G1 X130.367 Y56.368 E3.13443
G1 X139.127 Y53.708 E3.75782
G1 X139.757 Y53.548 E3.80208
G1 X140.387 Y53.448 E3.84551
G1 X149.187 Y52.578 E4.44765
G1 X149.587 Y52.558 E4.47492
G1 X150.637 Y52.568 E4.54642
G1 X159.587 Y53.448 E5.15878
G1 X160.217 Y53.548 E5.20222
G1 X160.837 Y53.698 E5.24565
G1 X169.477 Y56.298 E5.86003
G1 X170.087 Y56.518 E5.90419
G1 X170.667 Y56.788 E5.94775
G1 X178.587 Y61.008 E6.55882
G1 X179.147 Y61.348 E6.60343
G1 X179.667 Y61.728 E6.64728
G1 X186.497 Y67.338 E7.24913
G1 X186.977 Y67.768 E7.29301
G1 X187.397 Y68.248 E7.33644
G1 X193.227 Y75.338 E7.96147
G1 X193.617 Y75.848 E8.00519
G1 X193.947 Y76.408 E8.04945
G1 X198.187 Y84.338 E8.66176
G1 X198.467 Y84.918 E8.70561
G1 X198.687 Y85.528 E8.74977
G1 X201.297 Y94.138 E9.36239
G1 X201.447 Y94.758 E9.40582
G1 X201.547 Y95.398 E9.44993
G1 X202.427 Y104.358 E10.06297
G1 X202.457 Y104.998 E10.10660
G1 X202.427 Y105.638 E10.15023
G1 X201.547 Y114.588 E10.76259
G1 X201.447 Y115.228 E10.80670
G1 X201.297 Y115.848 E10.85014
G1 X198.687 Y124.458 E11.46276
G1 X198.467 Y125.068 E11.50691
G1 X198.187 Y125.648 E11.55077
G1 X193.947 Y133.588 E12.16368
G1 X193.507 Y134.298 E12.22056
G1 X184.437 Y147.028 E13.28489
G1 X183.577 Y148.018 E13.37418
G1 X182.527 Y148.818 E13.46406
G1 X181.347 Y149.388 E13.55330
G1 X169.967 Y153.548 E14.37834
G1 X161.017 Y156.258 E15.01509
G1 X160.367 Y156.418 E15.06067
G1 X159.587 Y156.548 E15.11452
G1 X150.637 Y157.428 E15.72688
G1 X149.997 Y157.458 E15.77051
G1 X149.357 Y157.428 E15.81414
G1 X140.397 Y156.548 E16.42718
G1 X139.757 Y156.448 E16.47129
G1 X139.137 Y156.298 E16.51472
G1 X130.177 Y153.578 E17.15232
G1 X118.607 Y149.398 E17.98999
G1 X117.417 Y148.818 E18.08013
G1 X116.357 Y148.018 E18.17056
G1 X115.487 Y147.018 E18.26082
G1 X106.477 Y134.288 E19.32278
G1 X106.047 Y133.588 E19.37872
G1 X101.807 Y125.648 E19.99163
G1 X101.527 Y125.068 E20.03549
G1 X101.307 Y124.458 E20.07964
G1 X98.697 Y115.848 E20.69226
G1 X98.547 Y115.228 E20.73570
G1 X98.447 Y114.588 E20.77981
G1 X97.567 Y105.638 E21.39217
G1 X97.537 Y104.998 E21.43580
G1 X97.567 Y104.358 E21.47942
G1 X98.447 Y95.398 E22.09247
G1 X98.547 Y94.758 E22.13658
G1 X98.697 Y94.138 E22.18001
G1 X101.307 Y85.528 E22.79263
G1 X101.527 Y84.918 E22.83679
G1 X101.807 Y84.338 E22.88064
G1 X106.047 Y76.408 E23.49295
G1 X106.334 Y75.929 E23.53094
G1 F1800.000 E22.53094
G92 E0
G1 X130.144 Y91.732 F7200.000
G1 E1.00000 F1800.000
G1 X133.120 Y88.108 E1.31934 F1080.000
G1 X136.732 Y85.144 E1.63750
G1 X140.862 Y82.936 E1.95632
G1 X145.343 Y81.577 E2.27522
G1 X145.523 Y81.560 E2.28751
G1 X154.473 Y81.560 E2.89697
G1 X154.659 Y81.577 E2.90965
G1 X159.140 Y82.936 E3.22848
G1 X163.268 Y85.143 E3.54726
G1 X166.887 Y88.113 E3.86604
G1 X169.857 Y91.732 E4.18481
G1 X172.064 Y95.861 E4.50359
G1 X173.423 Y100.341 E4.82237
G1 X173.882 Y105.000 E5.14115
G1 X173.423 Y109.659 E5.45993
G1 X172.064 Y114.139 E5.77870
G1 X169.857 Y118.268 E6.09748
G1 X166.887 Y121.887 E6.41626
G1 X163.268 Y124.857 E6.73504
G1 X159.140 Y127.063 E7.05382
G1 X154.660 Y128.422 E7.37255
G1 X154.474 Y128.440 E7.38532
G1 X145.527 Y128.440 E7.99448
G1 X145.342 Y128.422 E8.00719
G1 X140.861 Y127.063 E8.32599
G1 X136.733 Y124.857 E8.64477
G1 X133.114 Y121.887 E8.96354
G1 X130.144 Y118.268 E9.28232
G1 X127.937 Y114.139 E9.60110
G1 X126.578 Y109.659 E9.91988
G1 X126.119 Y105.000 E10.23866
G1 X126.578 Y100.341 E10.55743
G1 X127.937 Y95.861 E10.87621
G1 X130.105 Y91.806 E11.18930
G1 X130.609 Y92.043 F7200.000
G1 X133.513 Y88.506 E11.50092 F540.000
G1 X137.044 Y85.609 E11.81189
G1 X141.076 Y83.454 E12.12322
G1 X145.451 Y82.126 E12.43456
G1 X154.550 Y82.126 E13.05412
G1 X158.925 Y83.454 E13.36544
G1 X162.957 Y85.609 E13.67675
G1 X166.491 Y88.509 E13.98805
G1 X169.392 Y92.043 E14.29936
G1 X171.547 Y96.075 E14.61067
G1 X172.874 Y100.450 E14.92197
G1 X173.322 Y105.000 E15.23328
G1 X172.874 Y109.550 E15.54458
G1 X171.547 Y113.925 E15.85589
G1 X169.392 Y117.957 E16.16720
G1 X166.491 Y121.491 E16.47850
G1 X162.957 Y124.391 E16.78981
G1 X158.925 Y126.546 E17.10112
G1 X154.551 Y127.873 E17.41241
G1 X145.451 Y127.873 E18.03204
G1 X141.076 Y126.546 E18.34336
G1 X137.044 Y124.391 E18.65466
G1 X133.510 Y121.491 E18.96597
G1 X130.609 Y117.957 E19.27728
G1 X128.454 Y113.925 E19.58858
G1 X127.127 Y109.550 E19.89989
G1 X126.679 Y105.000 E20.21119
G1 X127.127 Y100.450 E20.52250
G1 X128.454 Y96.075 E20.83380
G1 X130.570 Y92.117 E21.13942
G1 X130.380 Y91.536 F7200.000
G1 F1800.000 E20.13942
G92 E0
G1 X112.513 Y80.045 F7200.000
G1 E1.00000 F1800.000
G1 X112.550 Y79.976 E1.00530 F1080.000
G1 X118.152 Y73.151 E1.60653
G1 X124.973 Y67.553 E2.20739
G1 X125.031 Y67.486 E2.21345
G1 X132.612 Y63.434 E2.79876
G1 X141.213 Y60.824 E3.41077
G1 X150.000 Y59.959 E4.01205
G1 X158.788 Y60.824 E4.61328
G1 X167.286 Y63.395 E5.21786
G1 X175.070 Y67.549 E5.81865
G1 X181.745 Y73.026 E6.40657
G1 X187.451 Y79.976 E7.01890
G1 X191.613 Y87.763 E7.62013
G1 X194.176 Y96.213 E8.22136
G1 X195.042 Y105.000 E8.82259
G1 X194.176 Y113.787 E9.42382
G1 X191.613 Y122.237 E10.02505
G1 X187.451 Y130.024 E10.62628
G1 X181.752 Y136.968 E11.23801
G1 X178.534 Y142.527 E11.67539
G1 X167.515 Y146.561 E12.47434
G1 X167.405 Y146.576 E12.48190
G1 X158.917 Y149.151 E13.08593
G1 X150.001 Y150.041 E13.69607
G1 X141.213 Y149.176 E14.29730
G1 X132.653 Y146.592 E14.90618
G1 X121.407 Y142.498 E15.72110
G1 X118.386 Y137.177 E16.13772
G1 X118.231 Y136.946 E16.15663
G1 X112.550 Y130.024 E16.76643
G1 X108.388 Y122.237 E17.36766
G1 X105.825 Y113.787 E17.96890
G1 X104.959 Y105.000 E18.57013
G1 X105.825 Y96.213 E19.17136
G1 X108.388 Y87.764 E19.77259
G1 X112.474 Y80.119 E20.36283
G1 X112.022 Y79.782 F7200.000
G1 X112.085 Y79.665 E20.37187 F540.000
G1 X117.756 Y72.755 E20.98057
G1 X124.583 Y67.152 E21.58196
G1 X124.678 Y67.043 E21.59182
G1 X132.397 Y62.917 E22.18777
G1 X141.104 Y60.275 E22.80737
G1 X150.000 Y59.399 E23.41609
G1 X158.897 Y60.275 E24.02480
G1 X167.482 Y62.868 E24.63549
G1 X175.360 Y67.066 E25.24327
G1 X182.136 Y72.626 E25.84014
G1 X187.916 Y79.665 E26.46036
G1 X192.130 Y87.549 E27.06906
G1 X194.725 Y96.104 E27.67777
G1 X195.613 Y105.119 E28.29461
G1 X195.590 Y105.119 E28.29621
G1 X194.725 Y113.896 E28.89677
G1 X192.130 Y122.451 E29.50547
G1 X187.916 Y130.335 E30.11417
G1 X182.211 Y137.287 E30.72655
G1 X178.915 Y142.981 E31.17458
G1 X167.651 Y147.104 E31.99131
G1 X167.526 Y147.122 E31.99995
G1 X159.058 Y149.690 E32.60245
G1 X158.908 Y149.724 E32.61292
G1 X150.001 Y150.601 E33.22240
G1 X141.104 Y149.725 E33.83110
G1 X132.665 Y147.165 E34.43158
G1 X132.498 Y147.128 E34.44328
G1 X121.024 Y142.951 E35.27471
G1 X117.912 Y137.470 E35.70388
G1 X117.784 Y137.279 E35.71955
G1 X112.085 Y130.335 E36.33125
G1 X107.871 Y122.451 E36.93996
G1 X105.276 Y113.896 E37.54866
G1 X104.399 Y105.000 E38.15736
G1 X105.276 Y96.104 E38.76607
G1 X107.871 Y87.549 E39.37477
G1 X111.983 Y79.856 E39.96875
G1 X112.155 Y79.778 F7200.000
G1 F1800.000 E38.96875
G92 E0
G1 X127.498 Y114.050 F7200.000
G1 E1.00000 F1800.000
G1 X107.034 Y93.585 E2.97396 F1080.000
G1 X107.217 Y92.979 E3.01712
G1 X127.155 Y112.917 E4.94022
G1 X126.811 Y111.784 E5.02095
G1 X107.401 Y92.374 E6.89320
G1 X107.585 Y91.768 E6.93635
G1 X126.468 Y110.651 E8.75774
G1 X126.173 Y109.568 E8.83431
G1 X107.768 Y91.163 E10.60960
G1 X107.952 Y90.557 E10.65276
G1 X126.087 Y108.693 E12.40202
G1 X126.001 Y107.817 E12.46201
G1 X108.136 Y89.952 E14.18524
G1 X108.319 Y89.346 E14.22840
G1 X125.915 Y106.942 E15.92560
G1 X125.828 Y106.067 E15.98559
G1 X108.503 Y88.741 E17.65676
G1 X108.687 Y88.136 E17.69991
G1 X125.742 Y105.191 E19.34505
G1 X125.779 Y104.439 E19.39645
G1 X108.928 Y87.588 E21.02179
G1 X109.203 Y87.074 E21.06156
G1 X125.849 Y103.720 E22.66721
G1 X125.920 Y103.002 E22.71645
G1 X109.478 Y86.560 E24.30241
G1 X109.753 Y86.045 E24.34218
G1 X125.991 Y102.283 E25.90846
G1 X126.062 Y101.565 E25.95769
G1 X110.028 Y85.531 E27.50428
G1 X110.303 Y85.017 E27.54405
G1 X126.132 Y100.847 E29.07095
G1 X126.224 Y100.150 E29.11891
G1 X110.577 Y84.503 E30.62817
G1 X110.852 Y83.988 E30.66794
G1 X126.408 Y99.544 E32.16840
G1 X126.592 Y98.939 E32.21155
G1 X111.127 Y83.474 E33.70322
G1 X111.402 Y82.960 E33.74299
G1 X126.775 Y98.333 E35.22585
G1 X126.959 Y97.728 E35.26901
G1 X111.677 Y82.446 E36.74308
G1 X111.952 Y81.931 E36.78285
G1 X127.143 Y97.122 E38.24812
G1 X127.327 Y96.517 E38.29127
G1 X112.227 Y81.417 E39.74775
G1 X112.502 Y80.903 E39.78752
G1 X127.510 Y95.911 E41.23520
G1 X127.755 Y95.367 E41.27592
G1 X112.776 Y80.388 E42.72066
G1 X113.102 Y79.925 E42.75930
G1 X128.030 Y94.852 E44.19916
G1 X128.304 Y94.338 E44.23893
G1 X113.458 Y79.491 E45.67099
G1 X113.813 Y79.058 E45.70923
G1 X128.579 Y93.824 E47.13350
G1 X128.854 Y93.310 E47.17327
G1 X114.169 Y78.625 E48.58974
G1 X114.525 Y78.191 E48.62799
G1 X129.129 Y92.795 E50.03666
G1 X129.404 Y92.281 E50.07643
G1 X114.880 Y77.758 E51.47731
G1 X115.236 Y77.324 E51.51556
G1 X129.679 Y91.767 E52.90864
G1 X129.995 Y91.294 E52.94745
G1 X115.592 Y76.891 E54.33668
G1 X115.948 Y76.457 E54.37492
G1 X130.350 Y90.860 E55.76417
G1 X130.706 Y90.427 E55.80241
G1 X116.303 Y76.024 E57.19167
G1 X116.659 Y75.591 E57.22991
G1 X131.062 Y89.994 E58.61918
G1 X131.418 Y89.560 E58.65742
G1 X117.015 Y75.157 E60.04671
G1 X117.370 Y74.724 E60.08495
G1 X131.774 Y89.127 E61.47425
G1 X132.130 Y88.694 E61.51249
G1 X117.726 Y74.290 E62.90181
G1 X118.082 Y73.857 E62.94005
G1 X132.485 Y88.261 E64.32938
G1 X132.841 Y87.827 E64.36762
G1 X118.445 Y73.431 E65.75622
G1 X118.872 Y73.069 E65.79441
G1 X133.275 Y87.472 E67.18364
G1 X133.708 Y87.116 E67.22188
G1 X119.306 Y72.713 E68.61110
G1 X119.739 Y72.358 E68.64935
G1 X134.142 Y86.760 E70.03857
G1 X134.575 Y86.405 E70.07681
G1 X120.173 Y72.002 E71.46603
G1 X120.606 Y71.646 E71.50427
G1 X135.009 Y86.049 E72.89349
G1 X135.442 Y85.693 E72.93174
G1 X121.039 Y71.291 E74.32095
G1 X121.473 Y70.935 E74.35920
G1 X135.875 Y85.337 E75.74841
G1 X136.309 Y84.982 E75.78665
G1 X121.906 Y70.579 E77.17587
G1 X122.340 Y70.223 E77.21411
G1 X136.785 Y84.669 E78.60746
G1 X137.299 Y84.394 E78.64723
G1 X122.773 Y69.868 E80.04837
G1 X123.207 Y69.512 E80.08662
G1 X137.814 Y84.119 E81.49556
G1 X138.328 Y83.844 E81.53533
G1 X123.640 Y69.156 E82.95207
G1 X124.073 Y68.801 E82.99031
G1 X138.842 Y83.569 E84.41485
G1 X139.356 Y83.294 E84.45462
G1 X124.507 Y68.445 E85.88695
G1 X124.940 Y68.089 E85.92519
G1 X139.871 Y83.020 E87.36532
G1 X140.385 Y82.745 E87.40509
G1 X125.384 Y67.744 E88.85203
G1 X125.898 Y67.469 E88.89180
G1 X140.933 Y82.503 E90.34196
G1 X141.538 Y82.320 E90.38512
G1 X126.412 Y67.194 E91.84408
G1 X126.927 Y66.919 E91.88385
G1 X142.144 Y82.136 E93.35161
G1 X142.749 Y81.952 E93.39477
G1 X127.441 Y66.644 E94.87133
G1 X127.955 Y66.369 E94.91110
G1 X143.354 Y81.769 E96.39645
G1 X143.960 Y81.585 E96.43961
G1 X128.469 Y66.095 E97.93376
G1 X128.984 Y65.820 E97.97353
G1 X144.565 Y81.401 E99.47649
G1 X145.171 Y81.218 E99.51964
G1 X129.498 Y65.545 E101.03139
G1 X130.012 Y65.270 E101.07116
G1 X145.909 Y81.166 E102.60446
G1 X146.698 Y81.166 E102.65829
G1 X130.526 Y64.995 E104.21810
G1 X131.041 Y64.720 E104.25787
G1 X147.487 Y81.166 E105.84421
G1 X148.276 Y81.166 E105.89803
G1 X131.555 Y64.445 E107.51087
G1 X132.069 Y64.170 E107.55064
G1 X149.065 Y81.166 E109.19000
G1 X149.854 Y81.166 E109.24382
G1 X132.584 Y63.896 E110.90970
G1 X133.157 Y63.680 E110.95149
G1 X150.643 Y81.166 E112.63815
G1 X151.433 Y81.166 E112.69197
G1 X133.763 Y63.496 E114.39636
G1 X134.368 Y63.313 E114.43951
G1 X152.222 Y81.166 E116.16161
G1 X153.011 Y81.166 E116.21544
G1 X134.973 Y63.129 E117.95526
G1 X135.579 Y62.945 E117.99841
G1 X153.800 Y81.166 E119.75595
G1 X154.599 Y81.176 E119.81045
G1 X136.184 Y62.761 E121.58667
G1 X136.790 Y62.578 E121.62982
G1 X155.691 Y81.479 E123.45293
G1 X156.823 Y81.822 E123.53366
G1 X137.395 Y62.394 E125.40763
G1 X138.001 Y62.210 E125.45079
G1 X157.956 Y82.166 E127.37562
G1 X159.089 Y82.510 E127.45635
G1 X138.606 Y62.027 E129.43205
G1 X139.211 Y61.843 E129.47520
G1 X160.684 Y83.315 E131.54633
G1 X162.379 Y84.221 F7200.000
G1 X139.817 Y61.659 E133.72259 F1080.000
G1 X140.422 Y61.476 E133.76574
G1 X165.010 Y86.063 E136.13733
G1 F1800.000 E135.13733
G92 E0
G1 X168.938 Y89.991 F7200.000
G1 E1.00000 F1800.000
G1 X193.525 Y114.578 E3.37157 F1080.000
G1 X193.341 Y115.184 E3.41472
G1 X170.779 Y92.622 E5.59097
G1 X171.685 Y94.317 F7200.000
G1 X193.157 Y115.789 E7.66210 F1080.000
G1 X192.974 Y116.395 E7.70526
G1 X172.491 Y95.912 E9.68096
G1 X172.835 Y97.044 E9.76169
G1 X192.790 Y117.000 E11.68653
G1 X192.606 Y117.605 E11.72969
G1 X173.178 Y98.177 E13.60367
G1 X173.522 Y99.310 E13.68441
G1 X192.423 Y118.211 E15.50752
G1 X192.239 Y118.816 E15.55068
G1 X173.825 Y100.402 E17.32686
G1 X173.911 Y101.277 E17.38685
G1 X192.055 Y119.422 E19.13700
G1 X191.872 Y120.027 E19.18016
G1 X173.997 Y102.153 E20.90428
G1 X174.083 Y103.028 E20.96427
G1 X191.688 Y120.633 E22.66236
G1 X191.504 Y121.238 E22.70551
G1 X174.170 Y103.903 E24.37757
G1 X174.256 Y104.779 E24.43756
G1 X191.321 Y121.844 E26.08359
G1 X191.082 Y122.394 E26.12452
G1 X174.225 Y105.537 E27.75054
G1 X174.154 Y106.255 E27.79977
G1 X190.807 Y122.909 E29.40610
G1 X190.533 Y123.423 E29.44587
G1 X174.083 Y106.974 E31.03251
G1 X174.012 Y107.692 E31.08175
G1 X190.258 Y123.937 E32.64870
G1 X189.983 Y124.451 E32.68847
G1 X173.942 Y108.410 E34.23573
G1 X173.871 Y109.129 E34.28496
G1 X189.708 Y124.966 E35.81254
G1 X189.433 Y125.480 E35.85231
G1 X173.783 Y109.830 E37.36188
G1 X173.599 Y110.435 E37.40503
G1 X189.158 Y125.994 E38.90580
G1 X188.883 Y126.508 E38.94557
G1 X173.415 Y111.041 E40.43754
G1 X173.232 Y111.646 E40.48069
G1 X188.608 Y127.023 E41.96386
G1 X188.334 Y127.537 E42.00364
G1 X173.048 Y112.251 E43.47801
G1 X172.864 Y112.857 E43.52116
G1 X188.059 Y128.051 E44.98674
G1 X187.784 Y128.565 E45.02651
G1 X172.681 Y113.462 E46.48329
G1 X172.497 Y114.068 E46.52644
G1 X187.509 Y129.080 E47.97442
G1 X187.234 Y129.594 E48.01419
G1 X172.256 Y114.616 E49.45893
G1 X171.981 Y115.130 E49.49871
G1 X186.911 Y130.060 E50.93884
G1 X186.556 Y130.494 E50.97708
G1 X171.706 Y115.644 E52.40941
G1 X171.431 Y116.158 E52.44918
G1 X186.200 Y130.927 E53.87372
G1 X185.844 Y131.361 E53.91196
G1 X171.156 Y116.673 E55.32871
G1 X170.881 Y117.187 E55.36848
G1 X185.488 Y131.794 E56.77742
G1 X185.133 Y132.227 E56.81567
G1 X170.607 Y117.701 E58.21682
G1 X170.332 Y118.215 E58.25659
G1 X184.777 Y132.661 E59.64994
G1 X184.421 Y133.094 E59.68818
G1 X170.019 Y118.692 E61.07741
G1 X169.663 Y119.125 E61.11565
G1 X184.066 Y133.528 E62.50488
G1 X183.710 Y133.961 E62.54312
G1 X169.307 Y119.558 E63.93235
G1 X168.952 Y119.992 E63.97059
G1 X183.354 Y134.395 E65.35982
G1 X182.999 Y134.828 E65.39806
G1 X168.596 Y120.425 E66.78729
G1 X168.240 Y120.859 E66.82553
G1 X182.643 Y135.261 E68.21476
G1 X182.287 Y135.695 E68.25300
G1 X167.885 Y121.292 E69.64223
G1 X167.529 Y121.726 E69.68047
G1 X181.931 Y136.128 E71.06970
G1 X181.576 Y136.562 E71.10794
G1 X167.173 Y122.159 E72.49717
G1 X166.741 Y122.516 E72.53540
G1 X181.259 Y137.034 E73.93571
