; generated by Slic3r 1.0.0RC3 on 2014-03-11 at 19:49:52

; layer_height = 0.3
; perimeters = 2
; top_solid_layers = 3
; bottom_solid_layers = 3
; fill_density = 0.1
; perimeter_speed = 60
; infill_speed = 60
; travel_speed = 120
; nozzle_diameter = 0.4
; filament_diameter = 1.75
; extrusion_multiplier = 0.98
; perimeters extrusion width = 0.40mm
; infill extrusion width = 0.42mm
; solid infill extrusion width = 0.42mm
; top infill extrusion width = 0.42mm
; first layer extrusion width = 0.60mm

G21 ; set units to millimeters
M107
M104 S220 ; set temperature
G28 ; home all axes
M106 S255;
G1 Z200 F1200 ; lift nozzle
M109 S220 ; wait for temperature to be reached
G90 ; use absolute coordinates
G92 E0
M82 ; use absolute distances for extrusion
G1 F1800.000 E-1.00000
G92 E0
G1 Z0.300 F7200.000
G1 X105.763 Y78.954 F7200.000
G1 E1.00000 F1800.000
G1 X110.733 Y72.894 E1.53367 F1080.000
G1 X111.163 Y72.414 E1.57755
G1 X111.643 Y71.984 E1.62143
G1 X117.703 Y67.014 E2.15509
G1 X132.153 Y55.304 E3.42155
G1 X133.273 Y54.564 E3.51296
G1 X134.523 Y54.074 E3.60438
G1 X135.793 Y53.854 E3.69214
G1 X143.443 Y53.104 E4.21555
G1 X144.083 Y53.074 E4.25918
G1 X144.723 Y53.104 E4.30280
G1 X152.523 Y53.864 E4.83644
G1 X153.483 Y54.034 E4.90282
G1 X154.403 Y54.344 E4.96893
G1 X199.603 Y73.164 E8.30284
G1 X200.723 Y73.754 E8.38904
G1 X201.703 Y74.554 E8.47518
G1 X202.513 Y75.534 E8.56175
G1 X203.113 Y76.644 E8.64767
G1 X203.493 Y77.844 E8.73338
G1 X207.393 Y96.164 E10.00879
G1 X207.523 Y97.024 E10.06801
G1 X208.293 Y106.904 E10.74280
G1 X208.293 Y107.894 E10.81022
G1 X207.573 Y117.674 E11.47796
G1 X207.403 Y118.764 E11.55308
G1 X203.653 Y133.994 E12.62110
G1 X203.183 Y135.294 E12.71523
G1 X202.453 Y136.464 E12.80913
G1 X201.493 Y137.454 E12.90303
G1 X200.343 Y138.224 E12.99727
G1 X166.333 Y156.164 E15.61553
G1 X164.843 Y156.734 E15.72416
G1 X163.263 Y156.924 E15.83252
G1 X139.753 Y156.874 E17.43338
G1 X137.963 Y156.624 E17.55644
G1 X136.313 Y155.894 E17.67930
G1 X117.833 Y144.474 E19.15853
G1 X116.983 Y143.844 E19.23058
G1 X110.983 Y138.624 E19.77211
G1 X110.543 Y138.204 E19.81353
G1 X110.143 Y137.744 E19.85503
G1 X93.863 Y117.204 E21.63969
G1 X92.923 Y115.584 E21.76723
G1 X92.473 Y113.774 E21.89423
G1 X91.713 Y105.974 E22.42786
G1 X91.683 Y105.334 E22.47149
G1 X91.713 Y104.694 E22.51512
G1 X92.473 Y96.894 E23.04875
G1 X92.723 Y95.634 E23.13622
G1 X93.223 Y94.444 E23.22411
G1 X93.933 Y93.374 E23.31155
G1 X105.710 Y79.019 E24.57590
G1 F1800.000 E23.57590
G92 E0
G1 X142.196 Y65.592 F7200.000
G1 E1.00000 F1800.000
G1 X142.032 Y64.765 E1.05742 F540.000
G1 X142.196 Y63.938 E1.11484
G1 X142.665 Y63.237 E1.17227
G1 X143.366 Y62.768 E1.22968
G1 X144.193 Y62.604 E1.28711
G1 X145.020 Y62.768 E1.34453
G1 X145.721 Y63.237 E1.40195
G1 X146.190 Y63.938 E1.45937
G1 X146.354 Y64.765 E1.51679
G1 X146.190 Y65.592 E1.57421
G1 X145.721 Y66.293 E1.63163
G1 X145.020 Y66.762 E1.68905
G1 X144.193 Y66.926 E1.74647
G1 X143.366 Y66.762 E1.80389
G1 X142.665 Y66.293 E1.86132
G1 X142.243 Y65.661 E1.91304
G1 X142.721 Y65.375 F7200.000
G1 X142.600 Y64.765 E1.95537 F540.000
G1 X142.721 Y64.155 E1.99771
G1 X143.066 Y63.638 E2.04004
G1 X143.583 Y63.293 E2.08237
G1 X144.193 Y63.172 E2.12470
G1 X144.803 Y63.293 E2.16703
G1 X145.320 Y63.638 E2.20936
G1 X145.665 Y64.155 E2.25169
G1 X145.786 Y64.765 E2.29402
G1 X145.665 Y65.375 E2.33635
G1 X145.320 Y65.891 E2.37868
G1 X144.803 Y66.237 E2.42101
G1 X144.193 Y66.358 E2.46334
G1 X143.583 Y66.237 E2.50567
G1 X143.066 Y65.891 E2.54800
G1 X142.767 Y65.444 E2.58464
G1 X142.175 Y65.266 F7200.000
G1 F1800.000 E1.58464
G92 E0
G1 X104.580 Y103.363 F7200.000
G1 E1.00000 F1800.000
G1 X105.048 Y104.064 E1.05742 F540.000
G1 X105.213 Y104.891 E1.11484
G1 X105.048 Y105.718 E1.17227
G1 X104.580 Y106.419 E1.22968
G1 X103.878 Y106.888 E1.28710
G1 X103.051 Y107.052 E1.34453
G1 X102.224 Y106.888 E1.40195
G1 X101.523 Y106.419 E1.45937
G1 X101.055 Y105.718 E1.51679
G1 X100.890 Y104.891 E1.57421
G1 X101.055 Y104.064 E1.63163
G1 X101.523 Y103.363 E1.68905
G1 X102.224 Y102.894 E1.74647
G1 X103.051 Y102.730 E1.80389
G1 X103.878 Y102.894 E1.86131
G1 X104.510 Y103.316 E1.91304
G1 X104.178 Y103.764 F7200.000
G1 X104.523 Y104.281 E1.95537 F540.000
G1 X104.645 Y104.891 E1.99770
G1 X104.523 Y105.501 E2.04003
G1 X104.178 Y106.018 E2.08236
G1 X103.661 Y106.363 E2.12469
G1 X103.051 Y106.484 E2.16702
G1 X102.442 Y106.363 E2.20935
G1 X101.925 Y106.018 E2.25168
G1 X101.579 Y105.501 E2.29401
G1 X101.458 Y104.891 E2.33634
G1 X101.579 Y104.281 E2.37867
G1 X101.925 Y103.764 E2.42100
G1 X102.442 Y103.419 E2.46333
G1 X103.051 Y103.298 E2.50566
G1 X103.661 Y103.419 E2.54799
G1 X104.108 Y103.718 E2.58463
G1 X104.724 Y103.656 F7200.000
G1 F1800.000 E1.58463
G92 E0
G1 X195.940 Y107.516 F7200.000
G1 E1.00000 F1800.000
G1 X196.104 Y106.689 E1.05742 F540.000
G1 X196.573 Y105.988 E1.11484
G1 X197.274 Y105.519 E1.17227
G1 X198.101 Y105.355 E1.22969
G1 X198.928 Y105.519 E1.28711
G1 X199.629 Y105.988 E1.34453
G1 X200.098 Y106.689 E1.40195
G1 X200.262 Y107.516 E1.45937
G1 X200.098 Y108.343 E1.51679
G1 X199.629 Y109.044 E1.57421
G1 X198.928 Y109.513 E1.63163
G1 X198.101 Y109.677 E1.68905
G1 X197.274 Y109.513 E1.74647
G1 X196.573 Y109.044 E1.80389
G1 X196.104 Y108.343 E1.86131
G1 X195.956 Y107.598 E1.91304
G1 X196.508 Y107.516 F7200.000
G1 X196.629 Y106.906 E1.95537 F540.000
G1 X196.974 Y106.389 E1.99770
G1 X197.491 Y106.044 E2.04003
G1 X198.101 Y105.923 E2.08236
G1 X198.711 Y106.044 E2.12469
G1 X199.227 Y106.389 E2.16702
G1 X199.573 Y106.906 E2.20936
G1 X199.694 Y107.516 E2.25168
G1 X199.573 Y108.126 E2.29401
G1 X199.227 Y108.643 E2.33634
G1 X198.711 Y108.988 E2.37867
G1 X198.101 Y109.109 E2.42100
G1 X197.491 Y108.988 E2.46333
G1 X196.974 Y108.643 E2.50566
G1 X196.629 Y108.126 E2.54799
G1 X196.524 Y107.598 E2.58463
G1 X196.044 Y107.206 F7200.000
G1 F1800.000 E1.58463
G92 E0
G1 X165.012 Y105.340 F7200.000
G1 E1.00000 F1800.000
G1 X164.609 Y109.425 E1.27947 F1080.000
G1 X163.419 Y113.349 E1.55871
G1 X161.485 Y116.967 E1.83802
G1 X158.883 Y120.138 E2.11734
G1 X155.712 Y122.740 E2.39665
G1 X152.094 Y124.674 E2.67597
G1 X148.169 Y125.864 E2.95528
G1 X144.087 Y126.266 E3.23460
G1 X140.004 Y125.864 E3.51391
G1 X136.079 Y124.674 E3.79322
G1 X132.461 Y122.740 E4.07254
G1 X129.290 Y120.138 E4.35185
G1 X126.688 Y116.967 E4.63117
G1 X124.754 Y113.349 E4.91048
G1 X123.564 Y109.425 E5.18972
G1 X123.161 Y105.342 E5.46911
G1 X123.564 Y101.258 E5.74850
G1 X124.754 Y97.334 E6.02774
G1 X126.688 Y93.716 E6.30706
G1 X129.290 Y90.545 E6.58637
G1 X132.461 Y87.943 E6.86569
G1 X135.589 Y86.271 E7.10718
G1 X135.589 Y86.158 E7.11489
G1 X140.004 Y84.819 E7.42906
G1 X144.087 Y84.417 E7.70837
G1 X148.169 Y84.819 E7.98769
G1 X152.094 Y86.009 E8.26700
G1 X155.712 Y87.943 E8.54632
G1 X158.883 Y90.545 E8.82563
G1 X161.485 Y93.716 E9.10495
G1 X163.419 Y97.334 E9.38426
G1 X164.609 Y101.259 E9.66358
G1 X165.004 Y105.257 E9.93713
G1 X164.452 Y105.341 F7200.000
G1 X164.060 Y109.315 E10.20903 F540.000
G1 X162.901 Y113.135 E10.48085
G1 X161.019 Y116.656 E10.75269
G1 X158.487 Y119.742 E11.02453
G1 X155.401 Y122.274 E11.29637
G1 X151.880 Y124.156 E11.56822
G1 X148.060 Y125.315 E11.84006
G1 X144.087 Y125.707 E12.11190
G1 X140.113 Y125.315 E12.38374
G1 X136.293 Y124.156 E12.65559
G1 X132.772 Y122.274 E12.92743
G1 X129.686 Y119.742 E13.19927
G1 X127.154 Y116.656 E13.47111
G1 X125.272 Y113.135 E13.74296
G1 X124.113 Y109.315 E14.01477
G1 X123.721 Y105.342 E14.28664
G1 X124.113 Y101.368 E14.55851
G1 X125.272 Y97.548 E14.83033
G1 X127.154 Y94.027 E15.10217
G1 X129.686 Y90.941 E15.37402
G1 X132.772 Y88.409 E15.64586
G1 X136.146 Y86.605 E15.90636
G1 X136.146 Y86.571 E15.90867
G1 X140.113 Y85.368 E16.19097
G1 X144.087 Y84.976 E16.46281
G1 X148.060 Y85.368 E16.73465
G1 X151.880 Y86.527 E17.00649
G1 X155.401 Y88.409 E17.27834
G1 X158.487 Y90.941 E17.55018
G1 X161.020 Y94.027 E17.82202
G1 X162.901 Y97.548 E18.09386
G1 X164.060 Y101.368 E18.36571
G1 X164.444 Y105.258 E18.63184
G1 X164.925 Y105.635 F7200.000
G1 F1800.000 E17.63184
G92 E0
G1 X157.790 Y143.064 F7200.000
G1 E1.00000 F1800.000
G1 X158.491 Y143.532 E1.05742 F540.000
G1 X158.960 Y144.234 E1.11484
G1 X159.124 Y145.061 E1.17227
G1 X158.960 Y145.888 E1.22968
G1 X158.491 Y146.589 E1.28710
G1 X157.790 Y147.057 E1.34453
G1 X156.963 Y147.222 E1.40195
G1 X156.136 Y147.057 E1.45937
G1 X155.435 Y146.589 E1.51679
G1 X154.966 Y145.888 E1.57421
G1 X154.802 Y145.061 E1.63163
G1 X154.966 Y144.234 E1.68905
G1 X155.435 Y143.532 E1.74647
G1 X156.136 Y143.064 E1.80389
G1 X156.963 Y142.899 E1.86131
G1 X157.708 Y143.048 E1.91304
G1 X157.573 Y143.589 F7200.000
G1 X158.090 Y143.934 E1.95537 F540.000
G1 X158.435 Y144.451 E1.99770
G1 X158.556 Y145.061 E2.04004
G1 X158.435 Y145.670 E2.08237
G1 X158.090 Y146.187 E2.12469
G1 X157.573 Y146.533 E2.16703
G1 X156.963 Y146.654 E2.20936
G1 X156.353 Y146.533 E2.25169
G1 X155.836 Y146.187 E2.29402
G1 X155.491 Y145.670 E2.33635
G1 X155.370 Y145.061 E2.37868
G1 X155.491 Y144.451 E2.42101
G1 X155.836 Y143.934 E2.46334
G1 X156.353 Y143.589 E2.50567
G1 X156.963 Y143.467 E2.54800
G1 X157.491 Y143.572 E2.58464
G1 X158.036 Y143.279 F7200.000
G1 F1800.000 E1.58464
G92 E0
G1 X162.433 Y138.447 F7200.000
G1 E1.00000 F1800.000
G1 X162.424 Y149.504 E1.75286 F1080.000
G1 X151.890 Y149.451 E2.47016
G1 X140.615 Y149.464 E3.23791
G1 X140.566 Y142.038 E3.74358
G1 X128.891 Y141.848 E4.53868
G1 X121.771 Y138.182 E5.08399
G1 X115.908 Y133.081 E5.61318
G1 X111.180 Y127.070 E6.13392
G1 X107.867 Y120.995 E6.60509
G1 X99.835 Y112.760 E7.38838
G1 X99.104 Y105.342 E7.89600
G1 X99.832 Y97.949 E8.40178
G1 X107.833 Y90.555 E9.14363
G1 X111.550 Y83.601 E9.68051
G1 X116.416 Y77.671 E10.20286
G1 X122.346 Y72.805 E10.72521
G1 X129.310 Y69.082 E11.26291
G1 X136.689 Y61.224 E11.99691
G1 X144.087 Y60.495 E12.50308
G1 X151.484 Y61.224 E13.00925
G1 X158.863 Y69.082 E13.74325
G1 X165.827 Y72.805 E14.28094
G1 X171.853 Y77.750 E14.81175
G1 X175.330 Y80.101 E15.09753
G1 X196.391 Y80.081 E16.53166
G1 X200.139 Y97.662 E17.75569
G1 X200.898 Y107.418 E18.42199
G1 X200.190 Y117.068 E19.08085
G1 X196.612 Y131.576 E20.09830
G1 X187.715 Y131.647 E20.70417
G1 X187.715 Y127.536 E20.98406
G1 X190.308 Y127.466 E21.16071
G1 X190.328 Y123.806 E21.40998
G1 X194.893 Y123.806 E21.72082
G1 X194.893 Y85.757 E24.31164
G1 X172.509 Y85.757 E25.83581
G1 X172.509 Y123.806 E28.42663
G1 X177.143 Y123.806 E28.74212
G1 X177.164 Y127.465 E28.99128
G1 X179.605 Y127.535 E29.15756
G1 X179.605 Y131.651 E29.43778
G1 X175.333 Y131.640 E29.72868
G1 X165.996 Y134.324 E30.39023
G1 X162.487 Y138.384 E30.75559
G1 X162.990 Y138.655 F7200.000
G1 X162.981 Y150.063 E31.53244 F540.000
G1 X151.889 Y150.008 E32.28772
G1 X140.062 Y150.021 E33.09308
G1 X140.013 Y142.586 E33.59940
G1 X128.752 Y142.403 E34.36629
G1 X121.456 Y138.646 E34.92505
G1 X115.503 Y133.467 E35.46241
G1 X110.713 Y127.378 E35.98991
G1 X107.414 Y121.329 E36.45903
G1 X99.299 Y113.010 E37.25040
G1 X98.544 Y105.342 E37.77506
G1 X99.298 Y97.684 E38.29902
G1 X107.381 Y90.218 E39.04825
G1 X111.084 Y83.290 E39.58315
G1 X116.020 Y77.275 E40.11297
G1 X122.035 Y72.339 E40.64280
G1 X128.967 Y68.634 E41.17799
G1 X136.426 Y60.690 E41.92000
G1 X144.087 Y59.935 E42.44416
G1 X151.747 Y60.690 E42.96832
G1 X159.206 Y68.634 E43.71032
G1 X166.138 Y72.339 E44.24552
G1 X172.186 Y77.303 E44.77830
G1 X175.500 Y79.544 E45.05069
G1 X196.842 Y79.524 E46.50390
G1 X200.691 Y97.582 E47.76117
G1 X201.456 Y107.417 E48.43286
G1 X200.742 Y117.156 E49.09779
G1 X197.049 Y132.129 E50.14791
G1 X187.158 Y132.208 E50.82149
G1 X187.158 Y126.994 E51.17653
G1 X189.754 Y126.924 E51.35337
G1 X189.774 Y123.249 E51.60364
G1 X194.336 Y123.249 E51.91427
G1 X194.336 Y86.314 E54.42922
G1 X173.066 Y86.314 E55.87752
G1 X173.066 Y123.249 E58.39248
G1 X177.696 Y123.249 E58.70774
G1 X177.718 Y126.923 E58.95798
G1 X180.162 Y126.994 E59.12448
G1 X180.162 Y132.209 E59.47958
G1 X175.411 Y132.197 E59.80312
G1 X166.309 Y134.814 E60.44799
G1 X163.044 Y138.591 E60.78797
G1 X162.455 Y138.812 F7200.000
G1 F1800.000 E59.78797
G92 E0
G1 X157.620 Y142.629 F7200.000
G1 E1.00000 F1800.000
G1 X141.388 Y126.396 E2.56699 F1080.000
G1 X142.264 Y126.483 E2.62708
G1 X162.033 Y146.251 E4.53546
G1 X162.034 Y145.462 E4.58934
G1 X143.140 Y126.569 E6.41320
G1 X144.016 Y126.655 E6.47330
G1 X162.034 Y144.673 E8.21265
G1 X162.035 Y143.884 E8.26652
G1 X144.748 Y126.597 E9.93531
G1 X145.467 Y126.526 E9.98463
G1 X162.035 Y143.095 E11.58407
G1 X162.036 Y142.305 E11.63794
G1 X146.186 Y126.455 E13.16803
G1 X146.905 Y126.385 E13.21734
G1 X162.036 Y141.516 E14.67808
G1 X162.037 Y140.727 E14.73196
G1 X147.624 Y126.314 E16.12335
G1 X148.328 Y126.228 E16.17174
G1 X162.038 Y139.938 E17.49525
G1 X162.038 Y139.149 E17.54912
G1 X148.934 Y126.044 E18.81419
G1 X149.539 Y125.860 E18.85742
G1 X162.039 Y138.359 E20.06405
G1 X162.378 Y137.908 E20.10255
G1 X150.145 Y125.676 E21.28339
G1 X150.751 Y125.492 E21.32661
G1 X162.744 Y137.485 E22.48430
G1 X163.110 Y137.061 E22.52252
G1 X151.357 Y125.309 E23.65706
G1 X151.963 Y125.125 E23.70029
G1 X163.476 Y136.638 E24.81167
G1 X163.842 Y136.214 E24.84990
G1 X152.521 Y124.892 E25.94284
G1 X153.035 Y124.617 E25.98268
G1 X164.208 Y135.790 E27.06128
G1 X164.575 Y135.367 E27.09951
G1 X153.550 Y124.342 E28.16377
G1 X154.065 Y124.067 E28.20361
G1 X164.941 Y134.943 E29.25354
G1 X165.307 Y134.519 E29.29176
G1 X154.579 Y123.792 E30.32736
G1 X155.094 Y123.517 E30.36719
G1 X165.673 Y134.096 E31.38845
G1 X166.218 Y133.851 E31.42922
G1 X155.609 Y123.242 E32.45338
G1 X156.093 Y122.936 E32.49247
G1 X166.831 Y133.674 E33.52907
G1 X167.445 Y133.498 E33.57264
G1 X156.527 Y122.580 E34.62658
G1 X156.961 Y122.224 E34.66489
G1 X168.058 Y133.322 E35.73617
G1 X168.671 Y133.145 E35.77974
G1 X157.395 Y121.868 E36.86835
G1 X157.828 Y121.512 E36.90666
G1 X169.285 Y132.969 E38.01262
G1 X169.898 Y132.793 E38.05619
G1 X158.262 Y121.156 E39.17949
G1 X158.696 Y120.800 E39.21779
G1 X170.512 Y132.616 E40.35843
G1 X171.125 Y132.440 E40.40200
G1 X159.130 Y120.444 E41.55998
G1 X159.492 Y120.017 E41.59824
G1 X171.738 Y132.263 E42.78050
G1 X172.352 Y132.087 E42.82407
G1 X159.848 Y119.583 E44.03118
G1 X160.204 Y119.149 E44.06948
G1 X172.965 Y131.911 E45.30144
G1 X173.579 Y131.734 E45.34501
G1 X160.560 Y118.715 E46.60182
G1 X160.916 Y118.281 E46.64012
G1 X174.192 Y131.558 E47.92178
G1 X174.805 Y131.382 E47.96535
G1 X161.272 Y117.848 E49.27186
G1 X161.628 Y117.414 E49.31016
G1 X175.460 Y131.246 E50.64547
G1 X176.252 Y131.248 E50.69952
G1 X161.945 Y116.942 E52.08062
G1 X162.220 Y116.427 E52.12046
G1 X177.043 Y131.250 E53.55144
G1 X177.835 Y131.252 E53.60549
G1 X162.495 Y115.912 E55.08635
G1 X162.770 Y115.398 E55.12619
G1 X171.837 Y124.464 E56.00144
G1 X172.625 Y124.462 F7200.000
G1 X179.211 Y131.049 E56.63730 F1080.000
G1 X178.627 Y131.254 E56.67958
G1 X172.625 Y125.252 E57.25902
G1 X173.152 Y124.199 E57.33937
G1 X179.211 Y130.259 E57.92434
G1 X179.211 Y129.469 E57.97825
G1 X177.614 Y127.872 E58.13247
G1 X178.427 Y127.895 E58.18802
G1 X179.211 Y128.680 E58.26372
G1 F1800.000 E57.26372
G92 E0
G1 X176.768 Y127.026 F7200.000
G1 E1.00000 F1800.000
G1 X173.942 Y124.199 E1.27283 F1080.000
G1 X174.731 Y124.199 E1.32674
G1 X176.763 Y126.231 E1.52288
G1 X176.758 Y125.437 E1.57711
G1 X175.521 Y124.199 E1.69655
G1 X176.311 Y124.199 E1.75046
G1 X176.754 Y124.642 E1.79321
G1 F1800.000 E0.79321
G92 E0
G1 X171.837 Y123.674 F7200.000
G1 E1.00000 F1800.000
G1 X163.045 Y114.883 E1.84870 F1080.000
G1 X163.321 Y114.368 E1.88854
G1 X171.837 Y122.885 E2.71068
G1 X171.837 Y122.095 E2.76459
G1 X163.596 Y113.853 E3.56018
G1 X163.842 Y113.310 E3.60090
G1 X171.837 Y121.305 E4.37270
G1 X171.837 Y120.515 E4.42661
G1 X164.026 Y112.704 E5.18067
G1 X164.210 Y112.098 E5.22389
G1 X171.837 Y119.726 E5.96020
G1 X171.837 Y118.936 E6.01411
G1 X164.393 Y111.492 E6.73268
G1 X164.577 Y110.886 E6.77590
G1 X171.837 Y118.146 E7.47672
G1 X171.837 Y117.356 E7.53063
G1 X164.761 Y110.280 E8.21371
G1 X164.945 Y109.674 E8.25693
G1 X171.837 Y116.566 E8.92226
G1 X171.837 Y115.777 E8.97617
G1 X165.048 Y108.988 E9.63156
G1 X165.119 Y108.269 E9.68087
G1 X171.837 Y114.987 E10.32941
G1 X171.837 Y114.197 E10.38332
