; generated by Slic3r 1.0.0RC2 on 2014-05-20 at 09:22:18

; layer_height = 0.3
; perimeters = 2
; top_solid_layers = 3
; bottom_solid_layers = 3
; fill_density = 0.1
; perimeter_speed = 60
; infill_speed = 60
; travel_speed = 120
; nozzle_diameter = 0.4
; filament_diameter = 1.75
; extrusion_multiplier = 0.98
; perimeters extrusion width = 0.40mm
; infill extrusion width = 0.42mm
; solid infill extrusion width = 0.42mm
; top infill extrusion width = 0.42mm
; first layer extrusion width = 0.80mm

G21 ; set units to millimeters
M107
M104 S220 ; set temperature
G28 ; home all axes
M106 S255;
G1 Z200 F1200 ; lift nozzle
M109 S220 ; wait for temperature to be reached
G90 ; use absolute coordinates
G92 E0
M82 ; use absolute distances for extrusion
G1 F1800.000 E-1.00000
G92 E0
G1 Z0.400 F7200.000
G1 X71.990 Y49.446 F7200.000
G1 E1.00000 F1800.000
G1 X72.810 Y48.436 E1.15142 F1080.000
G1 X73.810 Y47.606 E1.30268
G1 X74.950 Y46.986 E1.45371
G1 X76.180 Y46.596 E1.60390
G1 X94.500 Y42.696 E3.78394
G1 X95.640 Y42.556 E3.91762
G1 X105.260 Y41.806 E5.04069
G1 X105.970 Y41.786 E5.12336
G1 X196.340 Y44.306 E15.64560
G1 X196.800 Y44.336 E15.69925
G1 X204.590 Y45.096 E16.61024
G1 X205.890 Y45.356 E16.76454
G1 X207.120 Y45.856 E16.91907
G1 X208.220 Y46.596 E17.07338
G1 X228.670 Y63.496 E20.16114
G1 X229.140 Y63.936 E20.23607
G1 X229.570 Y64.406 E20.31022
G1 X246.410 Y84.856 E23.39353
G1 X247.150 Y85.956 E23.54784
G1 X247.660 Y87.176 E23.70174
G1 X247.910 Y88.476 E23.85582
G1 X248.670 Y96.266 E24.76680
G1 X248.700 Y96.916 E24.84253
G1 X248.670 Y97.566 E24.91827
G1 X247.910 Y105.356 E25.82925
G1 X247.740 Y106.336 E25.94501
G1 X247.430 Y107.286 E26.06132
G1 X228.560 Y152.606 E31.77508
G1 X227.940 Y153.756 E31.92714
G1 X227.120 Y154.766 E32.07856
G1 X226.110 Y155.596 E32.23072
G1 X224.970 Y156.216 E32.38175
G1 X223.720 Y156.596 E32.53382
G1 X205.300 Y160.416 E34.72333
G1 X156.510 Y168.136 E40.47264
G1 X155.460 Y168.216 E40.59521
G1 X139.420 Y168.216 E42.46210
G1 X138.640 Y168.176 E42.55300
G1 X137.880 Y168.036 E42.64295
G1 X94.360 Y157.766 E47.84736
G1 X92.920 Y157.256 E48.02516
G1 X91.640 Y156.426 E48.20272
G1 X71.160 Y139.626 E51.28578
G1 X70.670 Y139.186 E51.36243
G1 X70.230 Y138.696 E51.43908
G1 X65.230 Y132.606 E52.35619
G1 X53.540 Y118.186 E54.51675
G1 X52.820 Y117.096 E54.66880
G1 X52.330 Y115.886 E54.82074
G1 X52.080 Y114.606 E54.97253
G1 X51.320 Y106.806 E55.88467
G1 X51.290 Y106.156 E55.96041
G1 X51.320 Y105.506 E56.03614
G1 X52.080 Y97.706 E56.94828
G1 X52.250 Y96.726 E57.06405
G1 X52.560 Y95.776 E57.18036
G1 X71.380 Y50.586 E62.87791
G1 X71.939 Y49.540 E63.01593
G1 F1800.000 E62.01593
G92 E0
G1 X173.882 Y87.697 F7200.000
G1 E1.00000 F1800.000
G1 X176.110 Y83.529 E1.55003 F1080.000
G1 X179.108 Y79.876 E2.10007
G1 X182.761 Y76.878 E2.65010
G1 X186.268 Y75.004 E3.11288
G1 X186.268 Y74.851 E3.13067
G1 X191.451 Y73.278 E3.76112
G1 X196.154 Y72.815 E4.31118
G1 X200.857 Y73.278 E4.86122
G1 X205.380 Y74.650 E5.41125
G1 X209.547 Y76.878 E5.96129
G1 X213.201 Y79.876 E6.51132
G1 X216.199 Y83.529 E7.06136
G1 X218.426 Y87.697 E7.61139
G1 X219.798 Y92.219 E8.16143
G1 X220.261 Y96.922 E8.71146
G1 X219.798 Y101.625 E9.26149
G1 X218.426 Y106.147 E9.81153
G1 X216.199 Y110.315 E10.36156
G1 X213.201 Y113.968 E10.91159
G1 X209.547 Y116.966 E11.46163
G1 X205.380 Y119.194 E12.01166
G1 X200.857 Y120.566 E12.56170
G1 X196.154 Y121.029 E13.11173
G1 X191.451 Y120.566 E13.66177
G1 X186.929 Y119.194 E14.21180
G1 X182.761 Y116.966 E14.76184
G1 X179.108 Y113.968 E15.31187
G1 X176.110 Y110.315 E15.86190
G1 X173.882 Y106.147 E16.41194
G1 X172.510 Y101.625 E16.96197
G1 X172.047 Y96.922 E17.51200
G1 X172.510 Y92.219 E18.06204
G1 X173.851 Y87.799 E18.59960
G1 X174.545 Y87.971 F7200.000
G1 X176.707 Y83.928 E19.13326 F756.000
G1 X179.615 Y80.383 E19.66692
G1 X183.160 Y77.475 E20.20058
G1 X186.982 Y75.432 E20.70499
G1 X186.982 Y75.380 E20.71096
G1 X191.591 Y73.982 E21.27158
G1 X196.154 Y73.533 E21.80526
G1 X200.717 Y73.982 E22.33893
G1 X205.105 Y75.313 E22.87259
G1 X209.149 Y77.474 E23.40625
G1 X212.693 Y80.383 E23.93991
G1 X215.602 Y83.928 E24.47358
G1 X217.763 Y87.971 E25.00724
G1 X219.094 Y92.359 E25.54090
G1 X219.544 Y96.922 E26.07456
G1 X219.094 Y101.485 E26.60821
G1 X217.763 Y105.873 E27.14187
G1 X215.602 Y109.916 E27.67553
G1 X212.693 Y113.461 E28.20919
G1 X209.149 Y116.369 E28.74285
G1 X205.105 Y118.531 E29.27652
G1 X200.717 Y119.862 E29.81018
G1 X196.154 Y120.311 E30.34384
G1 X191.591 Y119.862 E30.87750
G1 X187.204 Y118.531 E31.41117
G1 X183.160 Y116.370 E31.94482
G1 X179.615 Y113.461 E32.47849
G1 X176.707 Y109.916 E33.01215
G1 X174.545 Y105.873 E33.54581
G1 X173.214 Y101.485 E34.07947
G1 X172.765 Y96.922 E34.61313
G1 X173.214 Y92.359 E35.14678
G1 X174.514 Y88.074 E35.66798
G1 X174.129 Y87.391 F7200.000
G1 X163.209 Y115.057 F7200.000
G1 X167.321 Y118.709 E36.30808 F1080.000
G1 X170.127 Y128.052 E37.44353
G1 X170.127 Y153.702 E40.42889
G1 X154.349 Y153.702 E42.26533
G1 X154.349 Y115.106 E46.75744
G1 X163.102 Y115.057 E47.77623
G1 X162.939 Y115.772 F7200.000
G1 X166.695 Y119.108 E48.36091 F756.000
G1 X169.413 Y128.157 E49.46057
G1 X169.413 Y152.988 E52.35059
G1 X155.063 Y152.988 E54.02079
G1 X155.063 Y115.817 E58.34712
G1 X162.832 Y115.773 E59.25140
G1 X163.542 Y115.390 F7200.000
G1 F1800.000 E58.25140
G92 E0
G1 X152.330 Y117.034 F7200.000
G1 E1.00000 F1800.000
G1 X152.330 Y83.724 E4.87687 F1080.000
G1 X140.538 Y83.724 E6.24926
G1 X140.538 Y75.780 E7.17388
G1 X158.858 Y75.780 E9.30615
G1 X164.056 Y74.115 E9.94142
G1 X168.712 Y68.851 E10.75929
G1 X174.618 Y64.219 E11.63289
G1 X180.846 Y60.745 E12.46298
G1 X188.865 Y52.843 E13.77326
G1 X196.154 Y52.125 E14.62580
G1 X203.409 Y52.840 E15.47425
G1 X210.742 Y60.918 E16.74405
G1 X217.719 Y64.648 E17.66492
G1 X223.601 Y69.475 E18.55056
G1 X228.429 Y75.357 E19.43620
G1 X232.157 Y82.332 E20.35677
G1 X240.166 Y89.665 E21.62053
G1 X240.880 Y96.922 E22.46930
G1 X240.166 Y104.179 E23.31806
G1 X232.157 Y111.511 E24.58182
G1 X228.429 Y118.487 E25.50240
G1 X223.476 Y124.522 E26.41108
G1 X221.252 Y128.321 E26.92341
G1 X221.252 Y149.128 E29.34514
G1 X203.786 Y152.748 E31.42120
G1 X193.979 Y153.558 E32.56651
G1 X183.955 Y152.672 E33.73779
G1 X155.315 Y160.395 E37.19020
G1 X140.538 Y160.395 E38.91006
G1 X140.538 Y151.839 E39.90581
G1 X152.229 Y151.835 E41.26645
G1 X152.329 Y117.141 E45.30451
G1 X151.616 Y117.033 F7200.000
G1 X151.616 Y84.438 E49.09812 F756.000
G1 X139.824 Y84.438 E50.47051
G1 X139.824 Y75.066 E51.56138
G1 X158.747 Y75.066 E53.76378
G1 X163.651 Y73.495 E54.36320
G1 X168.220 Y68.330 E55.16578
G1 X174.221 Y63.623 E56.05346
G1 X180.414 Y60.169 E56.87880
G1 X188.543 Y52.157 E58.20721
G1 X196.154 Y51.408 E59.09734
G1 X203.753 Y52.156 E59.98601
G1 X211.187 Y60.347 E61.27345
G1 X218.118 Y64.051 E62.18811
G1 X224.109 Y68.968 E63.09012
G1 X229.025 Y74.958 E63.99214
G1 X232.729 Y81.888 E64.90669
G1 X240.850 Y89.323 E66.18807
G1 X241.598 Y96.922 E67.07684
G1 X240.850 Y104.521 E67.96561
G1 X232.729 Y111.956 E69.24699
G1 X229.025 Y118.886 E70.16154
G1 X224.064 Y124.931 E71.07183
G1 X221.966 Y128.514 E71.55508
G1 X221.966 Y149.709 E74.02192
G1 X203.888 Y153.456 E76.17071
G1 X193.978 Y154.275 E77.32809
G1 X184.018 Y153.394 E78.49187
G1 X155.410 Y161.109 E81.94049
G1 X139.824 Y161.109 E83.75449
G1 X139.824 Y151.126 E84.91644
G1 X151.516 Y151.121 E86.27728
G1 X151.615 Y117.140 E90.23238
G1 X152.234 Y116.676 F7200.000
G1 X153.169 Y113.433 F7200.000
G1 X154.005 Y114.269 E90.37071 F1080.000
G1 X155.014 Y114.264 E90.48872
G1 X153.169 Y112.418 E90.79394
G1 X153.169 Y111.403 E90.91261
G1 X156.023 Y114.258 E91.38472
G1 X157.032 Y114.252 E91.50273
G1 X153.169 Y110.389 E92.14173
G1 X153.169 Y109.374 E92.26040
G1 X158.397 Y114.602 E93.12502
G1 X159.406 Y114.596 E93.24303
G1 X153.169 Y108.359 E94.27454
G1 X153.169 Y107.344 E94.39321
G1 X160.415 Y114.591 E95.59161
G1 X161.424 Y114.585 E95.70962
G1 X153.169 Y106.330 E97.07492
G1 X153.169 Y105.315 E97.19359
G1 X162.433 Y114.579 E98.72577
G1 X163.854 Y114.985 F7200.000
G1 X153.169 Y104.300 E100.49288 F1080.000
G1 X153.169 Y103.285 E100.61155
G1 X202.273 Y152.389 E108.73253
G1 X203.210 Y152.312 E108.84251
G1 X153.169 Y102.270 E117.11850
G1 X153.169 Y101.256 E117.23717
G1 X204.103 Y152.190 E125.66083
G1 X204.943 Y152.016 E125.76121
G1 X153.169 Y100.241 E134.32388
G1 X153.169 Y99.226 E134.44255
G1 X205.784 Y151.841 E143.14423
G1 X206.625 Y151.667 E143.24462
G1 X153.169 Y98.211 E152.08531
G1 X153.169 Y97.197 E152.20398
G1 X207.465 Y151.493 E161.18369
G1 X208.306 Y151.319 E161.28408
G1 X153.169 Y96.182 E170.40280
G1 X153.169 Y95.167 E170.52147
G1 X209.146 Y151.145 E179.77920
G1 X209.987 Y150.970 E179.87959
G1 X153.169 Y94.152 E189.27634
G1 X153.169 Y93.137 E189.39501
G1 X210.827 Y150.796 E198.93077
G1 X211.668 Y150.622 E199.03116
G1 X153.169 Y92.123 E208.70593
G1 X153.169 Y91.108 E208.82460
G1 X212.508 Y150.448 E218.63839
G1 X213.349 Y150.273 E218.73878
G1 X153.169 Y90.093 E228.69158
G1 X153.169 Y89.078 E228.81025
G1 X214.190 Y150.099 E238.90207
G1 X215.030 Y149.925 E239.00245
G1 X182.390 Y117.285 E244.40051
G1 X184.633 Y118.513 F7200.000
G1 X215.871 Y149.751 E249.56669 F1080.000
G1 X216.711 Y149.577 E249.66708
G1 X186.790 Y119.655 E254.61555
G1 X188.247 Y120.097 E254.79356
G1 X217.552 Y149.402 E259.64014
G1 X218.392 Y149.228 E259.74053
G1 X189.703 Y120.539 E264.48521
G1 X191.160 Y120.981 E264.66322
G1 X219.233 Y149.054 E269.30602
G1 X220.073 Y148.880 E269.40641
G1 X192.330 Y121.136 E273.99466
G1 X193.456 Y121.247 E274.12693
G1 X220.770 Y148.561 E278.64419
G1 X220.770 Y147.546 E278.76286
G1 X194.582 Y121.358 E283.09395
G1 X195.707 Y121.469 E283.22622
G1 X220.770 Y146.532 E287.37116
G1 X220.770 Y145.517 E287.48983
G1 X196.711 Y121.458 E291.46872
G1 X197.635 Y121.367 E291.57728
G1 X220.770 Y144.502 E295.40339
G1 X220.770 Y143.487 E295.52206
G1 X198.559 Y121.276 E299.19540
G1 X199.483 Y121.185 E299.30395
G1 X220.770 Y142.473 E302.82450
G1 X220.770 Y141.458 E302.94318
G1 X200.406 Y121.094 E306.31095
G1 X201.271 Y120.944 E306.41355
G1 X220.770 Y140.443 E309.63838
G1 X220.770 Y139.428 E309.75705
G1 X202.049 Y120.708 E312.85311
G1 X202.828 Y120.471 E312.94826
G1 X220.770 Y138.413 E315.91556
G1 X220.770 Y137.399 E316.03423
G1 X203.606 Y120.235 E318.87276
G1 X204.385 Y119.999 E318.96791
G1 X220.770 Y136.384 E321.67767
G1 X220.770 Y135.369 E321.79634
G1 X205.164 Y119.763 E324.37734
G1 X205.885 Y119.470 E324.46844
G1 X220.770 Y134.354 E326.93007
G1 X220.770 Y133.340 E327.04874
G1 X206.547 Y119.116 E329.40100
G1 X207.208 Y118.763 E329.48869
G1 X220.770 Y132.325 E331.73159
G1 X220.770 Y131.310 E331.85026
G1 X207.869 Y118.410 E333.98378
G1 X208.531 Y118.056 E334.07147
G1 X220.770 Y130.295 E336.09563
G1 X220.770 Y129.280 E336.21430
G1 X209.192 Y117.703 E338.12909
G1 X209.847 Y117.343 E338.21650
G1 X220.770 Y128.266 E340.02288
G1 X221.117 Y127.598 E340.11090
G1 X210.405 Y116.886 E341.88244
G1 X210.962 Y116.428 E341.96676
G1 X221.491 Y126.958 E343.70810
G1 X221.866 Y126.318 E343.79483
G1 X211.520 Y115.971 E345.50597
G1 X212.077 Y115.514 E345.59029
G1 X222.241 Y125.678 E347.27122
G1 X222.616 Y125.038 E347.35795
G1 X212.634 Y115.056 E349.00869
G1 X213.192 Y114.599 E349.09300
G1 X222.990 Y124.397 E350.71353
G1 X223.428 Y123.821 E350.79823
G1 X213.712 Y114.104 E352.40510
G1 X214.169 Y113.547 E352.48942
G1 X223.885 Y123.263 E354.09629
G1 X224.343 Y122.706 E354.18061
G1 X214.627 Y112.990 E355.78747
G1 X215.084 Y112.432 E355.87179
G1 X224.800 Y122.148 E357.47866
G1 X225.258 Y121.591 E357.56298
G1 X215.542 Y111.875 E359.16984
G1 X215.999 Y111.318 E359.25416
G1 X225.715 Y121.034 E360.86103
G1 X226.173 Y120.476 E360.94535
G1 X216.457 Y110.760 E362.55222
G1 X216.843 Y110.132 E362.63848
G1 X226.630 Y119.919 E364.25711
G1 X227.087 Y119.362 E364.34142
G1 X217.196 Y109.471 E365.97724
G1 X217.550 Y108.809 E366.06492
G1 X227.545 Y118.804 E367.71793
G1 X228.002 Y118.247 E367.80224
G1 X217.903 Y108.148 E369.47244
G1 X218.257 Y107.487 E369.56012
G1 X228.361 Y117.591 E371.23121
G1 X228.715 Y116.930 E371.31890
G1 X218.610 Y106.825 E372.98999
G1 X218.934 Y106.134 E373.07924
G1 X229.068 Y116.268 E374.75527
G1 X229.422 Y115.607 E374.84296
G1 X219.170 Y105.356 E376.53839
G1 X219.406 Y104.577 E376.63354
G1 X229.775 Y114.946 E378.34836
G1 X230.128 Y114.285 E378.43605
G1 X219.642 Y103.798 E380.17028
G1 X219.879 Y103.020 E380.26542
G1 X230.482 Y113.623 E382.01905
G1 X230.835 Y112.962 E382.10673
G1 X220.115 Y102.241 E383.87975
G1 X220.303 Y101.415 E383.97888
G1 X231.189 Y112.301 E385.77922
G1 X231.542 Y111.639 E385.86691
G1 X220.394 Y100.491 E387.71066
G1 X220.485 Y99.567 E387.81922
G1 X231.958 Y111.040 E389.71667
G1 X232.488 Y110.555 E389.80067
G1 X220.576 Y98.643 E391.77069
G1 X220.667 Y97.720 E391.87924
G1 X233.018 Y110.070 E393.92183
G1 X233.547 Y109.585 E394.00583
G1 X220.730 Y96.768 E396.12554
G1 X220.620 Y95.643 E396.25781
G1 X234.077 Y109.100 E398.48347
G1 X234.607 Y108.615 E398.56747
G1 X220.509 Y94.517 E400.89908
G1 X220.398 Y93.391 E401.03135
G1 X235.137 Y108.130 E403.46891
G1 X235.666 Y107.645 E403.55290
G1 X220.287 Y92.266 E406.09641
G1 X219.887 Y90.850 E406.26840
G1 X236.196 Y107.160 E408.96573
G1 X236.726 Y106.675 E409.04972
G1 X219.445 Y89.394 E411.90775
G1 X219.003 Y87.937 E412.08576
G1 X237.256 Y106.190 E415.10447
G1 X237.785 Y105.705 E415.18847
G1 X218.049 Y85.969 E418.45253
G1 X216.884 Y83.789 F7200.000
G1 X238.315 Y105.220 E421.99692 F1080.000
G1 X238.845 Y104.735 E422.08092
G1 X188.243 Y54.133 E430.44966
G1 X188.754 Y53.629 E430.53357
G1 X239.375 Y104.250 E438.90540
G1 X239.739 Y103.599 E438.99261
G1 X189.413 Y53.274 E447.31559
G1 X190.337 Y53.183 E447.42414
G1 X239.830 Y102.675 E455.60939
G1 X239.921 Y101.751 E455.71794
G1 X191.261 Y53.092 E463.76545
G1 X192.184 Y53.001 E463.87401
G1 X240.012 Y100.828 E471.78379
G1 X240.103 Y99.904 E471.89235
G1 X193.108 Y52.910 E479.66440
G1 X194.032 Y52.819 E479.77295
G1 X240.194 Y98.980 E487.40727
G1 X240.284 Y98.056 E487.51582
G1 X194.956 Y52.728 E495.01241
G1 X195.880 Y52.637 E495.12096
G1 X240.375 Y97.133 E502.47981
G1 X240.311 Y96.053 E502.60630
G1 X196.945 Y52.688 E509.77819
G1 X198.071 Y52.798 E509.91046
G1 X240.200 Y94.927 E516.87786
G1 X240.089 Y93.802 E517.01013
G1 X199.197 Y52.909 E523.77303
G1 X200.322 Y53.020 E523.90530
G1 X239.978 Y92.676 E530.46370
G1 X239.867 Y91.550 E530.59598
G1 X201.448 Y53.131 E536.94988
G1 X202.573 Y53.242 E537.08215
G1 X208.528 Y59.197 E538.06698
G1 X210.859 Y61.527 F7200.000
G1 X231.550 Y82.218 E541.48891 F1080.000
G1 X230.384 Y80.038 F7200.000
G1 X213.039 Y62.692 E544.35758 F1080.000
G1 X215.219 Y63.857 F7200.000
G1 X229.219 Y77.858 E546.67301 F1080.000
G1 X228.054 Y75.678 F7200.000
G1 X217.399 Y65.023 E548.43518 F1080.000
G1 X222.975 Y69.584 F7200.000
G1 X223.492 Y70.101 E548.52068 F1080.000
G1 X209.288 Y76.193 F7200.000
G1 X187.732 Y54.636 E552.08570 F1080.000
G1 X187.221 Y55.140 E552.16961
G1 X207.108 Y75.027 E555.45862
G1 X205.139 Y74.074 F7200.000
G1 X186.709 Y55.644 E558.50658 F1080.000
G1 X186.198 Y56.148 E558.59049
G1 X203.683 Y73.632 E561.48207
G1 X202.226 Y73.190 E561.66008
G1 X185.687 Y56.651 E564.39529
G1 X185.176 Y57.155 E564.47920
G1 X200.811 Y72.789 E567.06489
G1 X199.685 Y72.679 E567.19716
G1 X184.665 Y57.659 E569.68121
G1 X184.154 Y58.162 E569.76513
G1 X198.559 Y72.568 E572.14754
G1 X197.434 Y72.457 E572.27981
G1 X183.643 Y58.666 E574.56059
G1 X183.132 Y59.170 E574.64450
G1 X196.308 Y72.346 E576.82364
G1 X195.357 Y72.409 E576.93515
G1 X182.621 Y59.673 E579.04147
G1 X182.110 Y60.177 E579.12539
G1 X194.433 Y72.500 E581.16346
G1 X193.509 Y72.591 E581.27201
G1 X181.599 Y60.681 E583.24183
G1 X181.074 Y61.170 E583.32579
G1 X192.585 Y72.682 E585.22966
G1 X191.662 Y72.773 E585.33821
G1 X180.422 Y61.534 E587.19704
G1 X179.771 Y61.897 E587.28427
G1 X190.835 Y72.962 E589.11414
G1 X190.057 Y73.198 E589.20929
G1 X179.119 Y62.260 E591.01814
G1 X178.468 Y62.624 E591.10537
G1 X189.278 Y73.434 E592.89320
G1 X188.499 Y73.670 E592.98834
G1 X177.816 Y62.987 E594.75514
G1 X177.165 Y63.350 E594.84237
G1 X187.721 Y73.906 E596.58815
G1 X186.942 Y74.143 E596.68330
G1 X176.513 Y63.714 E598.40804
G1 X175.862 Y64.077 E598.49527
