; generated by Slic3r 1.0.0RC2 on 2014-05-20 at 08:24:48

; layer_height = 0.3
; perimeters = 2
; top_solid_layers = 3
; bottom_solid_layers = 3
; fill_density = 0.1
; perimeter_speed = 60
; infill_speed = 60
; travel_speed = 120
; nozzle_diameter = 0.4
; filament_diameter = 1.75
; extrusion_multiplier = 0.98
; perimeters extrusion width = 0.40mm
; infill extrusion width = 0.42mm
; solid infill extrusion width = 0.42mm
; top infill extrusion width = 0.42mm
; first layer extrusion width = 0.80mm

G21 ; set units to millimeters
M107
M104 S220 ; set temperature
G28 ; home all axes
M106 S255;
G1 Z200 F1200 ; lift nozzle
M109 S220 ; wait for temperature to be reached
G90 ; use absolute coordinates
G92 E0
M82 ; use absolute distances for extrusion
G1 F1800.000 E-1.00000
G92 E0
G1 Z0.400 F7200.000
G1 X104.918 Y56.500 F7200.000
G1 E1.00000 F1800.000
G1 X105.538 Y55.340 E1.15309 F1080.000
G1 X106.368 Y54.320 E1.30614
G1 X107.388 Y53.490 E1.45920
G1 X108.548 Y52.870 E1.61229
G1 X109.808 Y52.480 E1.76580
G1 X111.118 Y52.360 E1.91891
G1 X185.318 Y52.360 E10.55504
G1 X186.608 Y52.480 E10.70583
G1 X187.848 Y52.850 E10.85644
G1 X188.998 Y53.450 E11.00741
G1 X190.008 Y54.270 E11.15883
G1 X190.848 Y55.260 E11.30994
G1 X191.478 Y56.390 E11.46052
G1 X195.018 Y64.520 E12.49259
G1 X195.428 Y65.830 E12.65235
G1 X195.568 Y67.200 E12.81263
G1 X195.578 Y147.840 E22.19831
G1 X195.438 Y149.240 E22.36207
G1 X194.998 Y150.570 E22.52512
G1 X194.298 Y151.790 E22.68883
G1 X193.358 Y152.830 E22.85199
G1 X192.228 Y153.660 E23.01518
G1 X190.938 Y154.230 E23.17932
G1 X187.118 Y155.470 E23.64677
G1 X183.598 Y156.470 E24.07268
G1 X183.008 Y156.610 E24.14325
G1 X182.418 Y156.690 E24.21255
G1 X176.238 Y157.280 E24.93511
G1 X171.318 Y157.480 E25.50822
G1 X170.778 Y157.480 E25.57107
G1 X165.858 Y157.280 E26.14418
G1 X165.368 Y157.240 E26.20140
G1 X123.208 Y152.430 E31.14023
G1 X118.478 Y151.860 E31.69474
G1 X117.888 Y151.760 E31.76439
G1 X113.588 Y150.850 E32.27595
G1 X112.488 Y150.520 E32.40962
G1 X108.628 Y148.980 E32.89332
G1 X107.448 Y148.360 E33.04846
G1 X106.408 Y147.530 E33.20333
G1 X105.558 Y146.510 E33.35787
G1 X104.928 Y145.340 E33.51253
G1 X104.538 Y144.060 E33.66827
G1 X104.408 Y142.740 E33.82265
G1 X104.408 Y59.070 E43.56099
G1 X104.528 Y57.760 E43.71410
G1 X104.887 Y56.602 E43.85514
G1 F1800.000 E42.85514
G92 E0
G1 X116.170 Y62.760 F7200.000
G1 E1.00000 F1800.000
G1 X116.349 Y62.422 E1.04443 F540.000
G1 X116.667 Y62.030 E1.10319
G1 X117.056 Y61.708 E1.16199
G1 X117.501 Y61.468 E1.22081
G1 X117.984 Y61.319 E1.27966
G1 X118.487 Y61.269 E1.33853
G1 X118.991 Y61.319 E1.39740
G1 X119.474 Y61.468 E1.45625
G1 X119.919 Y61.708 E1.51507
G1 X120.307 Y62.030 E1.57387
G1 X120.626 Y62.422 E1.63262
G1 X120.861 Y62.869 E1.69136
G1 X121.006 Y63.352 E1.75006
G1 X121.055 Y63.853 E1.80873
G1 X121.006 Y64.355 E1.86743
G1 X120.861 Y64.838 E1.92612
G1 X120.626 Y65.284 E1.98484
G1 X120.307 Y65.676 E2.04361
G1 X119.919 Y65.999 E2.10240
G1 X119.474 Y66.239 E2.16122
G1 X118.990 Y66.387 E2.22009
G1 X118.487 Y66.437 E2.27894
G1 X117.984 Y66.387 E2.33781
G1 X117.501 Y66.239 E2.39666
G1 X117.056 Y65.999 E2.45549
G1 X116.667 Y65.676 E2.51428
G1 X116.349 Y65.284 E2.57304
G1 X116.113 Y64.838 E2.63176
G1 X115.968 Y64.355 E2.69046
G1 X115.919 Y63.853 E2.74916
G1 X115.968 Y63.351 E2.80784
G1 X116.120 Y62.855 E2.86833
G1 X116.777 Y63.141 F7200.000
G1 X116.947 Y62.818 E2.91078 F540.000
G1 X117.177 Y62.535 E2.95320
G1 X117.457 Y62.303 E2.99559
G1 X117.778 Y62.130 E3.03795
G1 X118.125 Y62.023 E3.08028
G1 X118.487 Y61.987 E3.12260
G1 X118.849 Y62.023 E3.16493
G1 X119.197 Y62.130 E3.20726
G1 X119.517 Y62.303 E3.24961
G1 X119.797 Y62.535 E3.29200
G1 X120.027 Y62.818 E3.33442
G1 X120.197 Y63.141 E3.37687
G1 X120.302 Y63.490 E3.41934
G1 X120.338 Y63.853 E3.46182
G1 X120.302 Y64.217 E3.50431
G1 X120.197 Y64.566 E3.54677
G1 X120.027 Y64.889 E3.58922
G1 X119.797 Y65.172 E3.63164
G1 X119.517 Y65.404 E3.67403
G1 X119.197 Y65.577 E3.71638
G1 X118.849 Y65.684 E3.75872
G1 X118.487 Y65.720 E3.80104
G1 X118.125 Y65.684 E3.84336
G1 X117.778 Y65.577 E3.88570
G1 X117.457 Y65.404 E3.92806
G1 X117.177 Y65.171 E3.97044
G1 X116.947 Y64.889 E4.01286
G1 X116.777 Y64.566 E4.05531
G1 X116.672 Y64.217 E4.09778
G1 X116.637 Y63.853 E4.14026
G1 X116.672 Y63.490 E4.18275
G1 X116.746 Y63.243 E4.21274
G1 X116.563 Y62.845 F7200.000
G1 F1800.000 E3.21274
G92 E0
G1 X136.693 Y63.850 F7200.000
G1 E1.00000 F1800.000
G1 X136.744 Y63.340 E1.05964 F540.000
G1 X136.894 Y62.850 E1.11930
G1 X137.138 Y62.399 E1.17892
G1 X137.464 Y62.005 E1.23851
G1 X137.862 Y61.682 E1.29807
G1 X138.314 Y61.443 E1.35761
G1 X138.803 Y61.296 E1.41710
G1 X139.312 Y61.247 E1.47661
G1 X139.821 Y61.296 E1.53610
G1 X140.311 Y61.443 E1.59561
G1 X140.763 Y61.682 E1.65513
G1 X141.160 Y62.005 E1.71469
G1 X141.487 Y62.399 E1.77428
G1 X141.730 Y62.850 E1.83391
G1 X141.880 Y63.340 E1.89356
G1 X141.931 Y63.850 E1.95321
G1 X141.880 Y64.360 E2.01287
G1 X141.730 Y64.850 E2.07250
G1 X141.487 Y65.301 E2.13212
G1 X141.160 Y65.695 E2.19172
G1 X140.763 Y66.017 E2.25128
G1 X140.311 Y66.257 E2.31082
G1 X139.821 Y66.404 E2.37031
G1 X139.312 Y66.453 E2.42982
G1 X138.803 Y66.404 E2.48932
G1 X138.324 Y66.260 E2.54753
G1 X137.862 Y66.024 E2.60799
G1 X137.458 Y65.687 E2.66910
G1 X137.138 Y65.301 E2.72758
G1 X136.894 Y64.850 E2.78720
G1 X136.744 Y64.360 E2.84685
G1 X136.704 Y63.956 E2.89404
G1 X137.416 Y63.904 F7200.000
G1 X137.448 Y63.481 E2.94334 F540.000
G1 X137.556 Y63.127 E2.98648
G1 X137.733 Y62.801 E3.02964
G1 X137.969 Y62.515 E3.07282
G1 X138.258 Y62.281 E3.11604
G1 X138.586 Y62.107 E3.15929
G1 X138.942 Y62.000 E3.20256
G1 X139.312 Y61.964 E3.24585
G1 X139.682 Y62.000 E3.28913
G1 X140.038 Y62.107 E3.33240
G1 X140.367 Y62.281 E3.37565
G1 X140.655 Y62.515 E3.41886
G1 X140.892 Y62.801 E3.46205
G1 X141.068 Y63.127 E3.50521
G1 X141.177 Y63.481 E3.54834
G1 X141.213 Y63.850 E3.59146
G1 X141.177 Y64.219 E3.63459
G1 X141.068 Y64.573 E3.67772
G1 X140.892 Y64.899 E3.72087
G1 X140.655 Y65.185 E3.76406
G1 X140.367 Y65.419 E3.80728
G1 X140.038 Y65.593 E3.85053
G1 X139.682 Y65.700 E3.89380
G1 X139.312 Y65.736 E3.93708
G1 X138.942 Y65.700 E3.98037
G1 X138.590 Y65.594 E4.02317
G1 X138.258 Y65.425 E4.06654
G1 X137.967 Y65.182 E4.11062
G1 X137.733 Y64.899 E4.15340
G1 X137.556 Y64.573 E4.19656
G1 X137.448 Y64.219 E4.23969
G1 X137.427 Y64.010 E4.26406
G1 X137.053 Y63.686 F7200.000
G1 X119.023 Y136.547 F7200.000
G1 X119.522 Y136.692 E4.32445 F540.000
G1 X119.984 Y136.928 E4.38489
G1 X120.393 Y137.249 E4.44545
G1 X120.733 Y137.645 E4.50614
G1 X120.988 Y138.101 E4.56698
G1 X121.146 Y138.600 E4.62791
G1 X121.200 Y139.121 E4.68889
G1 X121.146 Y139.643 E4.74989
G1 X120.988 Y140.142 E4.81082
G1 X120.733 Y140.598 E4.87165
G1 X120.393 Y140.993 E4.93234
G1 X119.984 Y141.315 E4.99289
G1 X119.522 Y141.551 E5.05336
G1 X119.024 Y141.695 E5.11371
G1 X118.507 Y141.744 E5.17406
G1 X117.991 Y141.695 E5.23438
G1 X117.493 Y141.551 E5.29476
G1 X117.031 Y141.315 E5.35522
G1 X116.621 Y140.993 E5.41577
G1 X116.282 Y140.598 E5.47647
G1 X116.027 Y140.142 E5.53729
G1 X115.868 Y139.643 E5.59822
G1 X115.815 Y139.121 E5.65921
G1 X115.868 Y138.600 E5.72021
G1 X116.027 Y138.101 E5.78114
G1 X116.282 Y137.645 E5.84197
G1 X116.621 Y137.249 E5.90265
G1 X117.031 Y136.928 E5.96321
G1 X117.493 Y136.692 E6.02368
G1 X117.991 Y136.547 E6.08405
G1 X118.507 Y136.499 E6.14437
G1 X118.917 Y136.537 E6.19223
G1 X118.889 Y137.252 F7200.000
G1 X119.257 Y137.359 E6.23683 F540.000
G1 X119.598 Y137.532 E6.28131
G1 X119.897 Y137.768 E6.32565
G1 X120.145 Y138.056 E6.36984
G1 X120.329 Y138.386 E6.41390
G1 X120.444 Y138.746 E6.45785
G1 X120.482 Y139.121 E6.50175
G1 X120.444 Y139.496 E6.54565
G1 X120.329 Y139.856 E6.58960
G1 X120.145 Y140.187 E6.63366
G1 X119.897 Y140.475 E6.67785
G1 X119.598 Y140.710 E6.72219
G1 X119.257 Y140.884 E6.76668
G1 X118.889 Y140.991 E6.81127
G1 X118.507 Y141.027 E6.85592
G1 X118.125 Y140.991 E6.90057
G1 X117.757 Y140.884 E6.94517
G1 X117.417 Y140.710 E6.98965
G1 X117.117 Y140.475 E7.03399
G1 X116.870 Y140.187 E7.07818
G1 X116.685 Y139.856 E7.12224
G1 X116.571 Y139.496 E7.16619
G1 X116.533 Y139.121 E7.21009
G1 X116.571 Y138.746 E7.25399
G1 X116.685 Y138.386 E7.29794
G1 X116.870 Y138.056 E7.34200
G1 X117.117 Y137.768 E7.38619
G1 X117.417 Y137.532 E7.43053
G1 X117.758 Y137.358 E7.47502
G1 X118.125 Y137.252 E7.51961
G1 X118.507 Y137.216 E7.56426
G1 X118.783 Y137.242 E7.59644
G1 X119.149 Y136.970 F7200.000
G1 X136.557 Y139.011 F7200.000
G1 X136.614 Y138.476 E7.65906 F540.000
G1 X136.780 Y137.966 E7.72157
G1 X137.047 Y137.501 E7.78392
G1 X137.401 Y137.101 E7.84605
G1 X137.824 Y136.778 E7.90801
G1 X138.299 Y136.542 E7.96979
G1 X138.810 Y136.398 E8.03150
G1 X139.337 Y136.350 E8.09313
G1 X139.864 Y136.398 E8.15477
G1 X140.375 Y136.542 E8.21647
G1 X140.850 Y136.778 E8.27826
G1 X141.273 Y137.101 E8.34021
G1 X141.627 Y137.501 E8.40237
G1 X141.894 Y137.966 E8.46469
G1 X142.060 Y138.476 E8.52720
G1 X142.117 Y139.011 E8.58983
G1 X142.060 Y139.546 E8.65245
G1 X141.894 Y140.057 E8.71497
G1 X141.627 Y140.521 E8.77731
G1 X141.273 Y140.922 E8.83946
G1 X140.850 Y141.244 E8.90140
G1 X140.375 Y141.480 E8.96319
G1 X138.498 Y142.010 E9.19017
G1 X138.498 Y141.579 E9.24031
G1 X137.824 Y141.244 E9.32786
G1 X137.401 Y140.922 E9.38981
G1 X137.047 Y140.521 E9.45196
G1 X136.780 Y140.057 E9.51429
G1 X136.614 Y139.546 E9.57682
G1 X136.568 Y139.118 E9.62698
G1 X137.281 Y139.067 F7200.000
G1 X137.316 Y138.626 E9.67847 F540.000
G1 X137.436 Y138.258 E9.72363
G1 X137.631 Y137.920 E9.76896
G1 X137.890 Y137.626 E9.81453
G1 X138.203 Y137.388 E9.86037
G1 X138.557 Y137.211 E9.90645
G1 X138.940 Y137.104 E9.95274
G1 X139.337 Y137.067 E9.99912
G1 X139.734 Y137.104 E10.04551
G1 X140.117 Y137.211 E10.09180
G1 X140.471 Y137.388 E10.13788
G1 X140.784 Y137.626 E10.18372
G1 X141.044 Y137.920 E10.22930
G1 X141.238 Y138.258 E10.27462
G1 X141.358 Y138.626 E10.31977
G1 X141.399 Y139.011 E10.36483
G1 X141.358 Y139.396 E10.40989
G1 X141.238 Y139.765 E10.45504
G1 X141.044 Y140.103 E10.50037
G1 X140.784 Y140.396 E10.54595
G1 X140.471 Y140.635 E10.59178
G1 X140.117 Y140.811 E10.63787
G1 X139.212 Y141.066 E10.74729
G1 X139.212 Y140.996 E10.75551
G1 X138.557 Y140.811 E10.83465
G1 X138.203 Y140.635 E10.88073
G1 X137.890 Y140.396 E10.92657
G1 X137.630 Y140.103 E10.97215
G1 X137.436 Y139.765 E11.01748
G1 X137.316 Y139.396 E11.06263
G1 X137.292 Y139.174 E11.08866
G1 X136.902 Y138.840 F7200.000
G1 X138.326 Y144.202 F7200.000
G1 X133.805 Y144.711 E11.61810 F1080.000
G1 X128.957 Y144.882 E12.18277
G1 X124.108 Y144.653 E12.74779
G1 X119.431 Y144.083 E13.29612
G1 X115.305 Y143.215 E13.78688
G1 X112.233 Y141.994 E14.17166
G1 X112.233 Y60.184 E23.69349
G1 X145.731 Y60.184 E27.59239
G1 X145.731 Y142.000 E37.11489
G1 X142.588 Y143.271 E37.50954
G1 X138.432 Y144.189 E38.00494
G1 X138.490 Y144.907 F7200.000
G1 X133.858 Y145.423 E38.54741 F756.000
G1 X128.953 Y145.596 E39.11870
G1 X124.047 Y145.366 E39.69028
G1 X119.348 Y144.796 E40.24120
G1 X115.096 Y143.901 E40.74692
G1 X111.519 Y142.478 E41.19506
G1 X111.519 Y59.470 E50.85629
G1 X146.446 Y59.470 E54.92144
G1 X146.445 Y142.480 E64.58290
G1 X142.815 Y143.953 E65.03893
G1 X138.595 Y144.884 E65.54192
G1 X138.047 Y144.347 F7200.000
G1 X139.812 Y143.391 F7200.000
G1 X138.836 Y142.415 E65.70289 F1080.000
G1 X139.626 Y142.192 E65.79864
G1 X140.641 Y143.207 E65.96615
G1 X141.471 Y143.024 E66.06526
G1 X140.416 Y141.970 E66.23931
G1 X141.111 Y141.652 E66.32846
G1 X142.300 Y142.841 E66.52474
G1 X143.040 Y142.569 E66.61674
G1 X141.671 Y141.200 E66.84267
G1 X142.118 Y140.634 E66.92678
G1 X143.761 Y142.277 E67.19790
G1 X144.482 Y141.985 E67.28864
G1 X142.438 Y139.942 E67.62585
G1 X142.594 Y139.085 E67.72747
G1 X145.187 Y141.678 E68.15530
G1 X145.249 Y140.728 E68.26637
G1 X142.359 Y137.838 E68.74334
G1 X140.674 Y136.153 F7200.000
G1 X112.715 Y108.193 E73.35714 F1080.000
G1 X112.715 Y109.206 E73.47529
G1 X139.379 Y135.870 E77.87533
G1 X138.485 Y135.989 E77.98050
G1 X112.715 Y110.218 E82.23311
G1 X112.715 Y111.231 E82.35125
G1 X137.757 Y136.273 E86.48371
G1 X137.154 Y136.683 E86.56876
G1 X112.715 Y112.243 E90.60172
G1 X112.715 Y113.256 E90.71987
G1 X136.665 Y137.206 E94.67209
G1 X136.307 Y137.861 E94.75917
G1 X112.715 Y114.268 E98.65239
G1 X112.715 Y115.281 E98.77054
G1 X136.108 Y138.674 E102.63086
G1 X136.174 Y139.753 E102.75696
G1 X112.715 Y116.294 E106.62819
G1 X112.715 Y117.306 E106.74634
G1 X138.982 Y143.574 E111.08094
G1 X138.137 Y143.741 E111.18144
G1 X112.715 Y118.319 E115.37662
G1 X112.715 Y119.331 E115.49476
G1 X137.227 Y143.843 E119.53966
G1 X136.316 Y143.945 E119.64658
G1 X112.715 Y120.344 E123.54119
G1 X112.715 Y121.356 E123.65934
G1 X135.405 Y144.047 E127.40366
G1 X134.494 Y144.149 E127.51059
G1 X112.715 Y122.369 E131.10464
G1 X112.715 Y123.381 E131.22278
G1 X133.570 Y144.237 E134.66427
G1 X132.592 Y144.271 E134.77846
G1 X112.715 Y124.394 E138.05856
G1 X112.715 Y125.406 E138.17671
G1 X131.614 Y144.306 E141.29542
G1 X130.636 Y144.340 E141.40961
G1 X112.715 Y126.419 E144.36692
G1 X112.715 Y127.431 E144.48507
G1 X129.658 Y144.375 E147.28100
G1 X128.656 Y144.385 E147.39794
G1 X112.715 Y128.444 E150.02849
G1 X112.715 Y129.456 E150.14664
G1 X119.418 Y136.160 E151.25278
G1 X121.556 Y138.298 F7200.000
G1 X127.593 Y144.335 E152.24895 F1080.000
G1 X126.531 Y144.285 E152.37307
G1 X121.655 Y139.409 E153.17763
G1 X121.465 Y140.232 E153.27614
G1 X125.468 Y144.235 E153.93671
G1 X124.406 Y144.185 E154.06082
G1 X121.114 Y140.894 E154.60395
G1 X120.629 Y141.421 E154.68757
G1 X123.274 Y144.066 E155.12408
G1 X122.121 Y143.926 E155.25963
G1 X120.029 Y141.833 E155.60495
G1 X119.300 Y142.117 E155.69619
G1 X120.968 Y143.785 E155.97146
G1 X119.815 Y143.645 E156.10701
G1 X118.387 Y142.217 E156.34262
G1 X116.996 Y141.838 E156.51086
G1 X118.567 Y143.409 E156.77005
G1 X117.284 Y143.139 E156.92297
G1 X112.715 Y138.569 E157.67705
G1 X112.715 Y139.582 E157.79519
G1 X116.002 Y142.869 E158.33764
G1 X114.494 Y142.374 E158.52276
G1 X112.715 Y140.594 E158.81647
G1 X112.715 Y141.607 E158.93462
G1 X112.814 Y141.707 E158.95107
G1 X112.715 Y137.557 F7200.000
G1 X115.696 Y140.539 E159.44313 F1080.000
G1 X115.335 Y139.164 E159.60898
G1 X112.715 Y136.544 E160.04132
G1 X112.715 Y135.532 E160.15946
G1 X115.464 Y138.281 E160.61315
G1 X115.769 Y137.574 E160.70303
G1 X112.715 Y134.519 E161.20710
G1 X112.715 Y133.507 E161.32524
G1 X116.204 Y136.996 E161.90101
G1 X116.753 Y136.533 E161.98486
G1 X112.715 Y132.494 E162.65133
G1 X112.715 Y131.482 E162.76948
G1 X117.439 Y136.206 E163.54903
G1 X118.281 Y136.036 E163.64933
G1 X112.715 Y130.469 E164.56794
G1 X141.849 Y143.547 F7200.000
G1 X145.249 Y139.716 F7200.000
G1 X112.715 Y107.181 E169.93674 F1080.000
G1 X112.715 Y106.168 E170.05488
G1 X145.249 Y138.703 E175.42368
G1 X145.249 Y137.690 E175.54183
G1 X112.715 Y105.156 E180.91063
G1 X112.715 Y104.143 E181.02878
G1 X145.249 Y136.678 E186.39758
G1 X145.249 Y135.665 E186.51572
G1 X112.715 Y103.131 E191.88452
G1 X112.715 Y102.118 E192.00267
G1 X145.249 Y134.653 E197.37147
G1 X145.249 Y133.640 E197.48962
G1 X112.715 Y101.106 E202.85842
G1 X112.715 Y100.093 E202.97656
G1 X145.249 Y132.628 E208.34536
G1 X145.249 Y131.615 E208.46351
G1 X112.715 Y99.080 E213.83231
G1 X112.715 Y98.068 E213.95046
G1 X145.249 Y130.603 E219.31926
G1 X145.249 Y129.590 E219.43740
G1 X112.715 Y97.055 E224.80620
G1 X112.715 Y96.043 E224.92435
G1 X145.249 Y128.578 E230.29315
G1 X145.249 Y127.565 E230.41130
G1 X112.715 Y95.030 E235.78010
G1 X112.715 Y94.018 E235.89825
G1 X145.249 Y126.553 E241.26705
G1 X145.249 Y125.540 E241.38519
G1 X112.715 Y93.005 E246.75399
G1 X112.715 Y91.993 E246.87214
G1 X145.249 Y124.528 E252.24094
G1 X145.249 Y123.515 E252.35909
G1 X112.715 Y90.980 E257.72789
G1 X112.715 Y89.968 E257.84603
G1 X145.249 Y122.502 E263.21483
G1 X145.249 Y121.490 E263.33298
G1 X112.715 Y88.955 E268.70178
G1 X112.715 Y87.943 E268.81993
G1 X145.249 Y120.477 E274.18873
G1 X145.249 Y119.465 E274.30688
G1 X112.715 Y86.930 E279.67568
G1 X112.715 Y85.918 E279.79382
G1 X145.249 Y118.452 E285.16262
G1 X145.249 Y117.440 E285.28077
G1 X112.715 Y84.905 E290.64957
G1 X112.715 Y83.892 E290.76772
