; generated by Slic3r 1.0.0RC3 on 2014-03-11 at 19:47:56

; layer_height = 0.3
; perimeters = 2
; top_solid_layers = 3
; bottom_solid_layers = 3
; fill_density = 0.1
; perimeter_speed = 60
; infill_speed = 60
; travel_speed = 120
; nozzle_diameter = 0.4
; filament_diameter = 1.75
; extrusion_multiplier = 0.98
; perimeters extrusion width = 0.40mm
; infill extrusion width = 0.42mm
; solid infill extrusion width = 0.42mm
; top infill extrusion width = 0.42mm
; first layer extrusion width = 0.60mm

G21 ; set units to millimeters
M107
M104 S220 ; set temperature
G28 ; home all axes
M106 S255;
G1 Z200 F1200 ; lift nozzle
M109 S220 ; wait for temperature to be reached
G90 ; use absolute coordinates
G92 E0
M82 ; use absolute distances for extrusion
G1 F1800.000 E-1.00000
G92 E0
G1 Z0.300 F7200.000
G1 X125.158 Y74.582 F7200.000
G1 E1.00000 F1800.000
G1 X125.968 Y73.472 E1.09357 F1080.000
G1 X126.978 Y72.562 E1.18614
G1 X128.168 Y71.882 E1.27946
G1 X129.468 Y71.462 E1.37249
G1 X130.828 Y71.312 E1.46566
G1 X169.228 Y71.312 E4.08040
G1 X170.588 Y71.462 E4.17357
G1 X171.898 Y71.882 E4.26725
G1 X173.078 Y72.562 E4.35998
G1 X174.098 Y73.482 E4.45351
G1 X174.908 Y74.592 E4.54708
G1 X175.458 Y75.842 E4.64007
G1 X183.128 Y99.382 E6.32590
G1 X183.378 Y100.382 E6.39609
G1 X183.458 Y101.412 E6.46644
G1 X183.458 Y110.842 E7.10855
G1 X183.358 Y111.972 E7.18580
G1 X183.068 Y113.062 E7.26260
G1 X175.398 Y134.342 E8.80285
G1 X174.818 Y135.552 E8.89422
G1 X174.008 Y136.612 E8.98506
G1 X172.998 Y137.492 E9.07628
G1 X171.828 Y138.142 E9.16741
G1 X170.558 Y138.542 E9.25808
G1 X169.228 Y138.682 E9.34914
G1 X130.828 Y138.682 E11.96389
G1 X129.498 Y138.542 E12.05495
G1 X128.228 Y138.142 E12.14562
G1 X127.068 Y137.492 E12.23616
G1 X126.058 Y136.622 E12.32693
G1 X125.248 Y135.562 E12.41777
G1 X124.668 Y134.362 E12.50852
G1 X116.938 Y113.082 E14.05017
G1 X116.638 Y111.982 E14.12781
G1 X116.538 Y110.842 E14.20573
G1 X116.538 Y101.412 E14.84784
G1 X116.628 Y100.372 E14.91892
G1 X116.868 Y99.362 E14.98961
G1 X124.598 Y75.822 E16.67671
G1 X125.124 Y74.658 E16.76367
G1 F1800.000 E15.76367
G92 E0
G1 X136.635 Y85.020 F7200.000
G1 E1.00000 F1800.000
G1 X163.433 Y85.020 E2.82476 F1080.000
G1 X163.433 Y93.876 E3.42781
G1 X150.035 Y102.651 E4.51832
G1 X136.637 Y93.877 E5.60883
G1 X136.635 Y85.104 E6.20619
G1 X137.192 Y85.577 F7200.000
G1 X162.876 Y85.577 E7.95507 F540.000
G1 X162.876 Y93.575 E8.49968
G1 X150.035 Y101.985 E9.54486
G1 X137.194 Y93.575 E10.59002
G1 X137.192 Y85.661 E11.12895
G1 X137.192 Y85.020 F7200.000
G1 F1800.000 E10.12895
G92 E0
G1 X150.035 Y109.167 F7200.000
G1 E1.00000 F1800.000
G1 X163.079 Y117.724 E2.06229 F1080.000
G1 X163.079 Y125.640 E2.60131
G1 X136.988 Y125.640 E4.37794
G1 X136.991 Y117.724 E4.91697
G1 X149.965 Y109.213 E5.97355
G1 X150.035 Y109.833 F7200.000
G1 X162.522 Y118.025 E6.99047 F540.000
G1 X162.522 Y125.083 E7.47107
G1 X137.545 Y125.083 E9.17182
G1 X137.548 Y118.025 E9.65243
G1 X149.965 Y109.879 E10.66366
G1 X150.401 Y109.413 F7200.000
G1 F1800.000 E9.66366
G92 E0
G1 X168.377 Y109.991 F7200.000
G1 E1.00000 F1800.000
G1 X168.377 Y131.270 E2.44897 F1080.000
G1 X131.690 Y131.270 E4.94711
G1 X131.694 Y109.991 E6.39609
G1 X123.955 Y109.991 E6.92300
G1 X123.955 Y102.276 E7.44834
G1 X131.694 Y102.276 E7.97526
G1 X131.690 Y78.729 E9.57861
G1 X168.377 Y78.729 E12.07675
G1 X168.377 Y102.276 E13.68009
G1 X176.045 Y102.276 E14.20218
G1 X176.045 Y109.991 E14.72752
G1 X168.461 Y109.991 E15.24392
G1 X168.934 Y110.548 F7200.000
G1 X168.934 Y131.827 E16.69289 F540.000
G1 X131.133 Y131.827 E19.26690
G1 X131.136 Y110.548 E20.71588
G1 X123.398 Y110.548 E21.24279
G1 X123.398 Y101.719 E21.84399
G1 X131.136 Y101.719 E22.37090
G1 X131.133 Y78.172 E23.97425
G1 X168.934 Y78.172 E26.54826
G1 X168.934 Y101.719 E28.15161
G1 X176.602 Y101.719 E28.67370
G1 X176.602 Y110.548 E29.27490
G1 X169.018 Y110.548 E29.79130
G1 X168.377 Y110.548 F7200.000
G1 F1800.000 E28.79130
G92 E0
G1 X174.758 Y109.597 F7200.000
G1 E1.00000 F1800.000
G1 X161.062 Y95.900 E2.32143 F1080.000
G1 X160.585 Y96.213 E2.36032
G1 X173.969 Y109.597 E3.65162
G1 X173.180 Y109.597 E3.70547
G1 X160.108 Y96.525 E4.96663
G1 X159.631 Y96.837 E5.00552
G1 X172.390 Y109.597 E6.23654
G1 X171.601 Y109.597 E6.29039
G1 X159.154 Y97.150 E7.49128
G1 X158.677 Y97.462 E7.53017
G1 X170.812 Y109.597 E8.70093
G1 X170.022 Y109.597 E8.75477
G1 X158.200 Y97.774 E9.89539
G1 X157.723 Y98.087 E9.93428
G1 X169.233 Y109.597 E11.04477
G1 X168.444 Y109.597 E11.09861
G1 X157.246 Y98.399 E12.17896
G1 X156.769 Y98.711 E12.21785
G1 X167.983 Y109.926 E13.29980
G1 X167.983 Y110.715 E13.35365
G1 X156.292 Y99.024 E14.48161
G1 X155.815 Y99.336 E14.52051
G1 X167.983 Y111.504 E15.69449
G1 X167.983 Y112.294 E15.74833
G1 X155.338 Y99.648 E16.96833
G1 X154.861 Y99.961 E17.00722
G1 X167.983 Y113.083 E18.27323
G1 X167.983 Y113.872 E18.32708
G1 X154.384 Y100.273 E19.63910
G1 X153.907 Y100.586 E19.67800
G1 X167.983 Y114.662 E21.03604
G1 X167.983 Y115.451 E21.08989
G1 X153.430 Y100.898 E22.49394
G1 X152.953 Y101.210 E22.53284
G1 X167.983 Y116.240 E23.98291
G1 X167.983 Y117.030 E24.03676
G1 X152.476 Y101.523 E25.53284
G1 X152.000 Y101.835 E25.57174
G1 X167.983 Y117.819 E27.11384
G1 X167.983 Y118.608 E27.16769
G1 X151.523 Y102.147 E28.75581
G1 X151.046 Y102.460 E28.79470
G1 X167.983 Y119.398 E30.42884
G1 X167.983 Y120.187 E30.48268
G1 X150.569 Y102.772 E32.16283
G1 X150.092 Y103.084 E32.20173
G1 X167.983 Y120.976 E33.92789
G1 X167.983 Y121.766 E33.98174
G1 X148.019 Y101.802 E35.90783
G1 F1800.000 E34.90783
G92 E0
G1 X145.732 Y100.304 F7200.000
G1 E1.00000 F1800.000
G1 X161.923 Y116.494 E2.56200 F1080.000
G1 F1800.000 E1.56200
G92 E0
G1 X163.473 Y118.045 F7200.000
G1 E1.00000 F1800.000
G1 X167.983 Y122.555 E1.43513 F1080.000
G1 X167.983 Y123.344 E1.48898
G1 X163.473 Y118.834 E1.92411
G1 X163.473 Y119.623 E1.97796
G1 X167.983 Y124.133 E2.41309
G1 X167.983 Y124.923 E2.46694
G1 X163.473 Y120.413 E2.90207
G1 X163.473 Y121.202 E2.95592
G1 X167.983 Y125.712 E3.39105
G1 X167.983 Y126.501 E3.44490
G1 X163.473 Y121.991 E3.88003
G1 X163.473 Y122.781 E3.93388
G1 X167.983 Y127.291 E4.36901
G1 X167.983 Y128.080 E4.42286
G1 X163.473 Y123.570 E4.85799
G1 X163.473 Y124.359 E4.91184
G1 X167.983 Y128.869 E5.34697
G1 X167.983 Y129.659 E5.40082
G1 X163.473 Y125.148 E5.83595
G1 X163.473 Y125.938 E5.88980
G1 X167.983 Y130.448 E6.32493
G1 X167.623 Y130.876 E6.36315
G1 X162.780 Y126.034 E6.83036
G1 X161.991 Y126.034 E6.88421
G1 X166.833 Y130.876 E7.35142
G1 X166.044 Y130.876 E7.40527
G1 X161.201 Y126.034 E7.87248
G1 X160.412 Y126.034 E7.92633
G1 X165.255 Y130.876 E8.39354
G1 X164.465 Y130.876 E8.44739
G1 X159.623 Y126.034 E8.91460
G1 X158.833 Y126.034 E8.96845
G1 X163.676 Y130.876 E9.43566
G1 X162.887 Y130.876 E9.48951
G1 X158.044 Y126.034 E9.95673
G1 X157.255 Y126.034 E10.01057
G1 X162.098 Y130.876 E10.47779
G1 X161.308 Y130.876 E10.53163
G1 X156.466 Y126.034 E10.99885
G1 X155.676 Y126.034 E11.05269
G1 X160.519 Y130.876 E11.51991
G1 X159.730 Y130.876 E11.57376
G1 X154.887 Y126.034 E12.04097
G1 X154.098 Y126.034 E12.09482
G1 X158.940 Y130.876 E12.56203
G1 X158.151 Y130.876 E12.61588
G1 X153.308 Y126.034 E13.08309
G1 X152.519 Y126.034 E13.13694
G1 X157.362 Y130.876 E13.60415
G1 X156.572 Y130.876 E13.65800
G1 X151.730 Y126.034 E14.12521
G1 X150.940 Y126.034 E14.17906
G1 X155.783 Y130.876 E14.64628
G1 X154.994 Y130.876 E14.70012
G1 X150.151 Y126.034 E15.16734
G1 X149.362 Y126.034 E15.22118
G1 X154.204 Y130.876 E15.68840
G1 X153.415 Y130.876 E15.74225
G1 X148.572 Y126.034 E16.20946
G1 X147.783 Y126.034 E16.26331
G1 X152.626 Y130.876 E16.73052
G1 X151.837 Y130.876 E16.78437
G1 X146.994 Y126.034 E17.25158
G1 X146.205 Y126.034 E17.30543
G1 X151.047 Y130.876 E17.77264
G1 X150.258 Y130.876 E17.82649
G1 X145.415 Y126.034 E18.29371
G1 X144.626 Y126.034 E18.34755
G1 X149.469 Y130.876 E18.81477
G1 X148.679 Y130.876 E18.86861
G1 X143.837 Y126.034 E19.33583
G1 X143.047 Y126.034 E19.38968
G1 X147.890 Y130.876 E19.85689
G1 X147.101 Y130.876 E19.91074
G1 X142.258 Y126.034 E20.37795
G1 X141.469 Y126.034 E20.43180
G1 X146.311 Y130.876 E20.89901
G1 X145.522 Y130.876 E20.95286
G1 X140.679 Y126.034 E21.42008
G1 X139.890 Y126.034 E21.47392
G1 X144.733 Y130.876 E21.94114
G1 X143.943 Y130.876 E21.99498
G1 X139.101 Y126.034 E22.46220
G1 X138.311 Y126.034 E22.51605
G1 X143.154 Y130.876 E22.98326
G1 X142.365 Y130.876 E23.03711
G1 X137.522 Y126.034 E23.50432
G1 F1800.000 E22.50432
G92 E0
G1 X132.104 Y130.876 F7200.000
G1 E1.00000 F1800.000
G1 X132.084 Y130.856 E1.00193 F1080.000
G1 X132.084 Y130.067 E1.05577
G1 X132.893 Y130.876 E1.13383
G1 X133.682 Y130.876 E1.18768
G1 X132.084 Y129.278 E1.34189
G1 X132.084 Y128.489 E1.39572
G1 X134.472 Y130.876 E1.62607
G1 X135.261 Y130.876 E1.67991
G1 X132.084 Y127.700 E1.98639
G1 X132.084 Y126.911 E2.04023
G1 X136.050 Y130.876 E2.42285
G1 X136.840 Y130.876 E2.47670
G1 X132.085 Y126.121 E2.93545
G1 X132.085 Y125.332 E2.98929
G1 X137.629 Y130.876 E3.52418
G1 X138.418 Y130.876 E3.57803
G1 X132.085 Y124.543 E4.18906
G1 X132.085 Y123.754 E4.24290
G1 X139.208 Y130.876 E4.93007
G1 X139.997 Y130.876 E4.98392
G1 X132.085 Y122.965 E5.74723
G1 X132.085 Y122.176 E5.80106
G1 X140.786 Y130.876 E6.64051
G1 X141.576 Y130.876 E6.69435
G1 X132.085 Y121.386 E7.60994
G1 X132.086 Y120.597 E7.66378
G1 X136.594 Y125.106 E8.09877
G1 X136.595 Y124.317 E8.15260
G1 X132.086 Y119.808 E8.58761
G1 X132.086 Y119.019 E8.64145
G1 X136.595 Y123.528 E9.07647
G1 X136.595 Y122.739 E9.13030
G1 X132.086 Y118.230 E9.56534
G1 X132.086 Y117.441 E9.61918
G1 X136.595 Y121.950 E10.05423
G1 X136.596 Y121.161 E10.10805
G1 X132.086 Y116.651 E10.54312
G1 X132.086 Y115.862 E10.59696
G1 X136.596 Y120.372 E11.03204
G1 X136.596 Y119.583 E11.08587
G1 X132.087 Y115.073 E11.52096
G1 X132.087 Y114.284 E11.57480
G1 X136.597 Y118.794 E12.00990
G1 X136.597 Y118.005 E12.06373
G1 X132.087 Y113.495 E12.49885
G1 X132.087 Y112.705 E12.55269
G1 X136.775 Y117.394 E13.00503
G1 X137.252 Y117.081 E13.04392
G1 X132.087 Y111.916 E13.54223
G1 X132.087 Y111.127 E13.59606
G1 X137.729 Y116.769 E14.14034
G1 X138.205 Y116.456 E14.17923
G1 X132.087 Y110.338 E14.76948
G1 X131.346 Y109.597 F7200.000
G1 X124.419 Y102.670 E15.43782 F1080.000
G1 X124.349 Y103.389 E15.48714
G1 X130.557 Y109.597 E16.08606
G1 X129.768 Y109.597 E16.13991
G1 X124.349 Y104.178 E16.66268
G1 X124.349 Y104.968 E16.71652
G1 X128.978 Y109.597 E17.16314
G1 X128.189 Y109.597 E17.21699
G1 X124.349 Y105.757 E17.58746
G1 X124.349 Y106.546 E17.64130
G1 X127.400 Y109.597 E17.93562
G1 X126.610 Y109.597 E17.98947
G1 X124.349 Y107.336 E18.20763
G1 X124.349 Y108.125 E18.26148
G1 X125.821 Y109.597 E18.40349
G1 X125.032 Y109.597 E18.45734
G1 X124.349 Y108.914 E18.52320
G1 F1800.000 E17.52320
G92 E0
G1 X125.208 Y102.670 F7200.000
G1 E1.00000 F1800.000
G1 X138.682 Y116.143 E2.29992 F1080.000
G1 X139.159 Y115.831 E2.33881
G1 X125.998 Y102.670 E3.60856
G1 X126.787 Y102.670 E3.66241
G1 X139.635 Y115.518 E4.90200
G1 X140.112 Y115.205 E4.94089
G1 X127.576 Y102.670 E6.15031
G1 X128.365 Y102.670 E6.20416
G1 X140.589 Y114.893 E7.38341
G1 X141.065 Y114.580 E7.42230
G1 X129.155 Y102.670 E8.57139
G1 X129.944 Y102.670 E8.62524
G1 X141.542 Y114.267 E9.74416
G1 X142.018 Y113.955 E9.78305
G1 X130.733 Y102.670 E10.87181
G1 X131.523 Y102.670 E10.92566
G1 X142.495 Y113.642 E11.98425
G1 X142.972 Y113.329 E12.02314
G1 X132.087 Y102.445 E13.07323
G1 X132.087 Y101.656 E13.12709
G1 X143.448 Y113.017 E14.22318
G1 X143.925 Y112.704 E14.26207
G1 X132.087 Y100.866 E15.40416
G1 X132.087 Y100.077 E15.45801
G1 X144.402 Y112.391 E16.64610
G1 X144.878 Y112.079 E16.68499
G1 X132.087 Y99.287 E17.91907
G1 X132.087 Y98.498 E17.97293
G1 X145.355 Y111.766 E19.25301
G1 X145.832 Y111.453 E19.29189
G1 X132.087 Y97.708 E20.61797
G1 X132.087 Y96.919 E20.67183
G1 X146.308 Y111.141 E22.04390
G1 X146.785 Y110.828 E22.08279
G1 X132.086 Y96.129 E23.50086
G1 X132.086 Y95.340 E23.55471
G1 X147.261 Y110.515 E25.01878
G1 X147.738 Y110.203 E25.05767
G1 X132.086 Y94.551 E26.56773
G1 X132.086 Y93.761 E26.62159
G1 X148.215 Y109.890 E28.17765
G1 X148.691 Y109.577 E28.21654
G1 X132.086 Y92.972 E29.81860
G1 X132.086 Y92.182 E29.87245
G1 X149.168 Y109.264 E31.52051
G1 X149.645 Y108.952 E31.55940
G1 X132.086 Y91.393 E33.25345
G1 X132.086 Y90.603 E33.30730
G1 X150.450 Y108.968 E35.07907
G1 F1800.000 E34.07907
G92 E0
G1 X152.745 Y110.473 F7200.000
G1 E1.00000 F1800.000
G1 X132.085 Y89.814 E2.99315 F1080.000
G1 X132.085 Y89.025 E3.04700
G1 X136.243 Y93.183 E3.44816
G1 X136.243 Y92.393 E3.50203
G1 X132.085 Y88.235 E3.90317
G1 X132.085 Y87.446 E3.95702
G1 X136.243 Y91.603 E4.35816
G1 X136.243 Y90.814 E4.41202
G1 X132.085 Y86.656 E4.81314
G1 X132.085 Y85.867 E4.86700
G1 X136.242 Y90.024 E5.26810
G1 X136.242 Y89.235 E5.32197
G1 X132.085 Y85.077 E5.72306
G1 X132.085 Y84.288 E5.77692
G1 X136.242 Y88.445 E6.17800
G1 X136.242 Y87.656 E6.23186
G1 X132.084 Y83.499 E6.63293
G1 X132.084 Y82.709 E6.68679
G1 X136.241 Y86.866 E7.08785
G1 X136.241 Y86.077 E7.14171
G1 X132.084 Y81.920 E7.54275
G1 X132.084 Y81.130 E7.59661
G1 X136.241 Y85.287 E7.99764
G1 X136.369 Y84.626 E8.04356
G1 X132.084 Y80.341 E8.45702
G1 X132.084 Y79.551 E8.51087
G1 X137.159 Y84.626 E9.00049
G1 X137.948 Y84.626 E9.05434
G1 X132.445 Y79.123 E9.58530
G1 X133.234 Y79.123 E9.63915
G1 X138.737 Y84.626 E10.17011
G1 X139.527 Y84.626 E10.22396
G1 X134.023 Y79.123 E10.75492
G1 X134.813 Y79.123 E10.80876
G1 X140.316 Y84.626 E11.33972
G1 X141.105 Y84.626 E11.39357
G1 X135.602 Y79.123 E11.92453
G1 X136.391 Y79.123 E11.97838
G1 X141.895 Y84.626 E12.50934
G1 X142.684 Y84.626 E12.56319
G1 X137.181 Y79.123 E13.09415
G1 X137.970 Y79.123 E13.14799
G1 X143.473 Y84.626 E13.67896
G1 X144.263 Y84.626 E13.73280
G1 X138.759 Y79.123 E14.26376
G1 X139.548 Y79.123 E14.31761
G1 X145.052 Y84.626 E14.84857
G1 X145.841 Y84.626 E14.90242
G1 X140.338 Y79.123 E15.43338
G1 X141.127 Y79.123 E15.48723
G1 X146.631 Y84.626 E16.01819
G1 X147.420 Y84.626 E16.07203
G1 X141.916 Y79.123 E16.60299
G1 X142.706 Y79.123 E16.65684
G1 X148.209 Y84.626 E17.18780
G1 X148.998 Y84.626 E17.24165
G1 X143.495 Y79.123 E17.77261
G1 X144.284 Y79.123 E17.82646
G1 X149.788 Y84.626 E18.35742
G1 X150.577 Y84.626 E18.41126
G1 X145.074 Y79.123 E18.94223
G1 X145.863 Y79.123 E18.99607
G1 X151.366 Y84.626 E19.52703
G1 X152.156 Y84.626 E19.58088
G1 X146.652 Y79.123 E20.11184
G1 X147.442 Y79.123 E20.16569
G1 X152.945 Y84.626 E20.69665
G1 X153.734 Y84.626 E20.75050
G1 X148.231 Y79.123 E21.28146
G1 X149.020 Y79.123 E21.33530
G1 X154.524 Y84.626 E21.86626
G1 X155.313 Y84.626 E21.92011
G1 X149.809 Y79.123 E22.45107
G1 X150.599 Y79.123 E22.50492
G1 X156.102 Y84.626 E23.03588
G1 X156.892 Y84.626 E23.08973
G1 X151.388 Y79.123 E23.62069
G1 X152.177 Y79.123 E23.67454
G1 X157.681 Y84.626 E24.20550
G1 X158.470 Y84.626 E24.25934
G1 X152.967 Y79.123 E24.79030
G1 X153.756 Y79.123 E24.84415
G1 X159.259 Y84.626 E25.37511
G1 X160.049 Y84.626 E25.42896
G1 X154.545 Y79.123 E25.95992
G1 X155.335 Y79.123 E26.01377
G1 X160.838 Y84.626 E26.54473
G1 X161.627 Y84.626 E26.59858
G1 X156.124 Y79.123 E27.12954
G1 X156.913 Y79.123 E27.18338
G1 X162.417 Y84.626 E27.71434
G1 X163.206 Y84.626 E27.76819
G1 X157.703 Y79.123 E28.29915
G1 X158.492 Y79.123 E28.35300
G1 X167.983 Y88.615 E29.26873
G1 X167.983 Y87.825 E29.32258
G1 X159.281 Y79.123 E30.16216
G1 X160.070 Y79.123 E30.21601
G1 X167.983 Y87.036 E30.97944
G1 X167.983 Y86.247 E31.03328
G1 X160.860 Y79.123 E31.72056
G1 X161.649 Y79.123 E31.77441
G1 X167.983 Y85.457 E32.38554
G1 X167.983 Y84.668 E32.43939
G1 X162.438 Y79.123 E32.97436
G1 X163.228 Y79.123 E33.02821
G1 X167.983 Y83.879 E33.48704
G1 X167.983 Y83.089 E33.54088
G1 X164.017 Y79.123 E33.92356
G1 X164.806 Y79.123 E33.97741
G1 X167.983 Y82.300 E34.28393
G1 X167.983 Y81.511 E34.33778
G1 X165.596 Y79.123 E34.56815
G1 X166.385 Y79.123 E34.62200
G1 X167.983 Y80.721 E34.77622
G1 X167.983 Y79.932 E34.83007
G1 X167.174 Y79.123 E34.90814
G1 X167.964 Y79.123 E34.96198
G1 X167.983 Y79.143 E34.96390
G1 F1800.000 E33.96390
G92 E0
G1 X163.827 Y85.247 F7200.000
G1 E1.00000 F1800.000
G1 X167.983 Y89.404 E1.40104 F1080.000
G1 X167.983 Y90.193 E1.45488
