; generated by Slic3r 1.0.0RC3 on 2014-03-12 at 08:52:03

; layer_height = 0.3
; perimeters = 2
; top_solid_layers = 3
; bottom_solid_layers = 3
; fill_density = 0.1
; perimeter_speed = 60
; infill_speed = 60
; travel_speed = 120
; nozzle_diameter = 0.4
; filament_diameter = 1.75
; extrusion_multiplier = 0.98
; perimeters extrusion width = 0.40mm
; infill extrusion width = 0.42mm
; solid infill extrusion width = 0.42mm
; top infill extrusion width = 0.42mm
; support material extrusion width = 0.40mm
; first layer extrusion width = 0.60mm

G21 ; set units to millimeters
M107
M104 S220 ; set temperature
G28 ; home all axes
M106 S255;
G1 Z200 F1200 ; lift nozzle
M109 S220 ; wait for temperature to be reached
G90 ; use absolute coordinates
G92 E0
M82 ; use absolute distances for extrusion
G1 F1800.000 E-1.00000
G92 E0
G1 Z0.300 F7200.000
G1 X108.091 Y72.944 F7200.000
G1 E1.00000 F1800.000
G1 X109.151 Y71.814 E1.10550 F1080.000
G1 X111.801 Y69.594 E1.34090
G1 X113.001 Y68.804 E1.43872
G1 X114.341 Y68.284 E1.53660
G1 X135.541 Y62.714 E3.02915
G1 X136.371 Y62.554 E3.08671
G1 X137.211 Y62.494 E3.14405
G1 X142.761 Y62.494 E3.52196
G1 X143.461 Y62.534 E3.56970
G1 X144.151 Y62.644 E3.61728
G1 X169.761 Y68.214 E5.40190
G1 X170.741 Y68.514 E5.47168
G1 X190.791 Y76.304 E6.93636
G1 X192.091 Y76.974 E7.03595
G1 X193.201 Y77.924 E7.13543
G1 X194.071 Y79.084 E7.23416
G1 X194.671 Y80.414 E7.33352
G1 X194.951 Y81.844 E7.43274
G1 X196.431 Y98.814 E8.59265
G1 X197.031 Y111.064 E9.42778
G1 X196.861 Y112.894 E9.55293
G1 X196.191 Y114.594 E9.67735
G1 X193.661 Y119.084 E10.02828
G1 X193.101 Y119.914 E10.09646
G1 X192.411 Y120.654 E10.16535
G1 X191.211 Y121.764 E10.27666
G1 X190.451 Y122.374 E10.34302
G1 X189.601 Y122.864 E10.40983
G1 X136.261 Y148.494 E14.43941
G1 X134.881 Y148.974 E14.53890
G1 X133.421 Y149.144 E14.63898
G1 X132.841 Y149.144 E14.67848
G1 X131.491 Y149.004 E14.77090
G1 X130.191 Y148.584 E14.86392
G1 X129.011 Y147.904 E14.95666
G1 X127.991 Y147.004 E15.04928
G1 X111.741 Y129.174 E16.69195
G1 X111.031 Y128.234 E16.77216
G1 X110.501 Y127.194 E16.85164
G1 X104.261 Y111.594 E17.99571
G1 X103.811 Y110.414 E18.08171
G1 X103.461 Y109.154 E18.17075
G1 X103.371 Y107.854 E18.25948
G1 X103.561 Y101.114 E18.71861
G1 X103.691 Y97.764 E18.94689
G1 X103.941 Y93.854 E19.21368
G1 X104.121 Y92.494 E19.30709
G1 X106.891 Y75.774 E20.46111
G1 X107.321 Y74.284 E20.56671
G1 X108.049 Y73.016 E20.66626
G1 F1800.000 E19.66626
G92 E0
G1 X140.265 Y124.900 F7200.000
G1 E1.00000 F1800.000
G1 X140.519 Y124.749 E1.02014 F540.000
G1 X140.817 Y124.646 E1.04160
G1 X141.118 Y124.607 E1.06225
G1 X141.418 Y124.624 E1.08270
G1 X141.713 Y124.701 E1.10350
G1 X141.991 Y124.836 E1.12452
G1 X142.220 Y125.011 E1.14416
G1 X142.429 Y125.245 E1.16550
G1 X142.585 Y125.508 E1.18633
G1 X142.682 Y125.797 E1.20711
G1 X142.724 Y126.097 E1.22773
G1 X142.707 Y126.401 E1.24843
G1 X142.628 Y126.695 E1.26916
G1 X142.496 Y126.968 E1.28980
G1 X142.310 Y127.213 E1.31079
G1 X142.083 Y127.413 E1.33139
G1 X141.820 Y127.564 E1.35203
G1 X141.533 Y127.663 E1.37266
G1 X141.233 Y127.705 E1.39329
G1 X140.928 Y127.688 E1.41412
G1 X140.634 Y127.611 E1.43480
G1 X140.360 Y127.477 E1.45560
G1 X140.115 Y127.292 E1.47647
G1 X139.916 Y127.063 E1.49716
G1 X139.765 Y126.801 E1.51773
G1 X139.666 Y126.517 E1.53825
G1 X139.624 Y126.210 E1.55933
G1 X139.638 Y125.922 E1.57895
G1 X139.721 Y125.615 E1.60058
G1 X139.852 Y125.341 E1.62130
G1 X140.037 Y125.098 E1.64211
G1 X140.202 Y124.954 E1.65698
G1 X140.244 Y124.605 F7200.000
G1 X140.011 Y124.402 F7200.000
G1 X139.938 Y124.446 E1.66280 F1080.000
G1 X139.629 Y124.715 E1.69069
G1 X139.374 Y125.049 E1.71929
G1 X139.196 Y125.421 E1.74737
G1 X139.083 Y125.845 E1.77724
G1 X139.064 Y126.228 E1.80340
G1 X139.122 Y126.647 E1.83221
G1 X139.256 Y127.034 E1.86006
G1 X139.460 Y127.388 E1.88788
G1 X139.732 Y127.702 E1.91618
G1 X140.067 Y127.954 E1.94473
G1 X140.440 Y128.136 E1.97295
G1 X141.395 Y128.387 E2.04022
G1 X141.406 Y128.524 E2.04958
G1 X135.279 Y131.184 E2.50442
G1 X133.067 Y132.200 E2.67014
G1 X132.153 Y131.381 E2.75371
G1 X130.780 Y130.202 E2.87697
G1 X127.130 Y127.165 E3.20027
G1 X124.440 Y124.992 E3.43573
G1 X123.152 Y124.003 E3.54633
G1 X122.109 Y123.243 E3.63417
G1 X123.077 Y121.446 E3.77318
G1 X123.952 Y119.938 E3.89192
G1 X124.292 Y119.289 E3.94179
G1 X124.761 Y118.197 E4.02275
G1 X125.204 Y116.981 E4.11087
G1 X127.761 Y117.086 E4.28515
G1 X129.191 Y116.696 E4.38604
G1 X132.346 Y116.718 E4.60087
G1 X138.481 Y116.687 E5.01865
G1 X149.397 Y116.554 E5.76197
G1 X153.698 Y116.481 E6.05492
G1 X156.966 Y116.398 E6.27750
G1 X156.872 Y116.855 E6.30925
G1 X156.594 Y117.964 E6.38711
G1 X156.265 Y119.062 E6.46520
G1 X156.033 Y119.633 E6.50715
G1 X155.730 Y120.195 E6.55064
G1 X155.305 Y120.792 E6.60051
G1 X154.668 Y121.467 E6.66373
G1 X153.854 Y122.171 E6.73703
G1 X152.787 Y122.939 E6.82651
G1 X151.416 Y123.782 E6.93613
G1 X149.865 Y124.622 E7.05621
G1 X147.929 Y125.581 E7.20333
G1 X145.812 Y126.573 E7.36251
G1 X142.706 Y127.955 E7.59399
G1 X142.574 Y127.787 E7.60855
G1 X142.973 Y127.261 E7.65353
G1 X143.155 Y126.887 E7.68185
G1 X143.259 Y126.491 E7.70968
G1 X143.284 Y126.074 E7.73816
G1 X143.227 Y125.670 E7.76592
G1 X143.094 Y125.274 E7.79434
G1 X142.882 Y124.917 E7.82266
G1 X142.587 Y124.590 E7.85263
G1 X142.288 Y124.361 E7.87825
G1 X141.907 Y124.176 E7.90709
G1 X141.505 Y124.071 E7.93540
G1 X141.098 Y124.048 E7.96318
G1 X140.692 Y124.101 E7.99105
G1 X140.275 Y124.246 E8.02111
G1 X140.083 Y124.360 E8.03630
G1 F1800.000 E7.03630
G92 E0
G1 X141.453 Y129.113 F7200.000
G1 E1.00000 F1800.000
G1 X135.506 Y131.693 E1.44146 F540.000
G1 X134.027 Y132.361 E1.55191
G1 X132.969 Y132.863 E1.63168
G1 X131.111 Y131.215 E1.80080
G1 X126.774 Y127.593 E2.18555
G1 X124.096 Y125.431 E2.41996
G1 X122.825 Y124.455 E2.52903
G1 X121.382 Y123.411 E2.65033
G1 X122.586 Y121.182 E2.82282
G1 X123.466 Y119.666 E2.94217
G1 X123.784 Y119.058 E2.98894
G1 X124.236 Y118.008 E3.06674
G1 X124.706 Y116.722 E3.15999
G1 X124.801 Y116.404 E3.18256
G1 X127.695 Y116.526 E3.37980
G1 X129.128 Y116.138 E3.48090
G1 X132.352 Y116.161 E3.70042
G1 X138.477 Y116.130 E4.11752
G1 X149.387 Y115.997 E4.86042
G1 X153.683 Y115.924 E5.15299
G1 X157.640 Y115.825 E5.42256
G1 X157.413 Y116.989 E5.50329
G1 X157.125 Y118.138 E5.58397
G1 X156.786 Y119.262 E5.66394
G1 X156.538 Y119.872 E5.70876
G1 X156.205 Y120.489 E5.75650
G1 X155.744 Y121.137 E5.81065
G1 X155.043 Y121.883 E5.88035
G1 X154.189 Y122.618 E5.95707
G1 X153.087 Y123.409 E6.04943
G1 X151.696 Y124.265 E6.16065
G1 X150.122 Y125.116 E6.28248
G1 X148.170 Y126.084 E6.43082
G1 X146.042 Y127.080 E6.59080
G1 X143.821 Y128.080 E6.75670
G1 X141.530 Y129.079 E6.92690
G1 X141.005 Y128.782 F7200.000
G1 F1800.000 E5.92690
G92 E0
G1 X187.981 Y97.927 F7200.000
G1 E1.00000 F1800.000
G1 X187.840 Y96.877 E1.07217 F540.000
G1 X187.776 Y91.323 E1.45036
G1 X187.591 Y88.517 E1.64187
G1 F1800.000 E0.64187
G92 E0
G1 X176.539 Y87.991 F7200.000
G1 E1.00000 F1800.000
G1 X175.895 Y90.148 E1.15330 F540.000
G1 X174.976 Y94.229 E1.43814
G1 X175.025 Y94.418 E1.45142
G1 F1800.000 E0.45142
G92 E0
G1 X169.798 Y89.490 F7200.000
G1 E1.00000 F1800.000
G1 X169.465 Y81.946 E1.51421 F540.000
G1 F1800.000 E0.51421
G92 E0
G1 X157.986 Y81.546 F7200.000
G1 E1.00000 F1800.000
G1 X156.869 Y85.663 E1.29043 F540.000
G1 F1800.000 E0.29043
G92 E0
G1 X147.741 Y89.913 F7200.000
G1 E1.00000 F1800.000
G1 X147.535 Y89.556 E1.02805 F540.000
G1 X147.478 Y89.567 F7200.000
G1 X147.549 Y89.368 E1.04241 F540.000
G1 X146.686 Y78.850 E1.76100
G1 F1800.000 E0.76100
G92 E0
G1 X133.439 Y78.990 F7200.000
G1 E1.00000 F1800.000
G1 X133.001 Y83.096 E1.28113 F540.000
G1 X132.499 Y89.791 E1.73833
G1 X132.585 Y89.877 E1.74658
G1 X132.500 Y89.808 F7200.000
G1 X132.333 Y90.223 E1.77711 F540.000
G1 F1800.000 E0.77711
G92 E0
G1 X126.881 Y92.453 F7200.000
G1 E1.00000 F1800.000
G1 X127.121 Y92.992 E1.04019 F540.000
G1 X126.747 Y92.460 F7200.000
G1 X126.881 Y92.453 E1.04934 F540.000
G1 X126.891 Y92.218 E1.06537
G1 X126.477 Y85.447 E1.52729
G1 F1800.000 E0.52729
G92 E0
G1 X113.165 Y85.757 F7200.000
G1 E1.00000 F1800.000
G1 X112.781 Y92.735 E1.47591 F540.000
G1 X112.760 Y92.725 F7200.000
G1 X112.522 Y93.254 E1.51538 F540.000
G1 F1800.000 E0.51538
G92 E0
G1 X123.186 Y122.073 F7200.000
G1 E1.00000 F1800.000
G1 X130.914 Y129.801 E1.75835 F1080.000
G1 F1800.000 E0.75835
G92 E0
G1 X133.489 Y131.573 F7200.000
G1 E1.00000 F1800.000
G1 X123.470 Y121.554 E1.98327 F1080.000
G1 X123.764 Y121.046 E2.02403
G1 X134.039 Y131.320 E3.03236
G1 X134.589 Y131.068 E3.07438
G1 X124.059 Y120.538 E4.10778
G1 X124.350 Y120.026 E4.14863
G1 X135.140 Y130.815 E5.20749
G1 X135.700 Y130.572 E5.24984
G1 X124.626 Y119.499 E6.33655
G1 X124.870 Y118.940 E6.37887
G1 X136.259 Y130.329 E7.49658
G1 X136.819 Y130.086 E7.53893
G1 X125.112 Y118.379 E8.68789
G1 X125.328 Y117.792 E8.73128
G1 X137.379 Y129.843 E9.91397
G1 X137.939 Y129.600 E9.95632
G1 X125.736 Y117.397 E11.15392
G1 X126.573 Y117.431 E11.21207
G1 X138.499 Y129.357 E12.38244
G1 X139.058 Y129.114 E12.42479
G1 X127.410 Y117.465 E13.56793
G1 X128.139 Y117.391 E13.61875
G1 X139.618 Y128.870 E14.74533
G1 X140.178 Y128.627 E14.78769
G1 X128.770 Y117.219 E15.90730
G1 X129.445 Y117.092 E15.95500
G1 X138.680 Y126.326 E16.86127
G1 X138.744 Y125.588 E16.91271
G1 X130.254 Y117.097 E17.74596
G1 X131.062 Y117.103 E17.80208
G1 X138.960 Y125.001 E18.57717
G1 X139.282 Y124.520 E18.61734
G1 X131.871 Y117.109 E19.34465
G1 X132.675 Y117.110 E19.40048
G1 X139.698 Y124.133 E20.08964
G1 X140.217 Y123.849 E20.13072
G1 X133.474 Y117.106 E20.79249
G1 X134.273 Y117.102 E20.84792
G1 X140.853 Y123.682 E21.49370
G1 X141.685 Y123.711 E21.55144
G1 X135.072 Y117.098 E22.20042
G1 X135.871 Y117.094 E22.25585
G1 X145.194 Y126.417 E23.17077
G1 X145.748 Y126.168 E23.21292
G1 X136.670 Y117.090 E24.10382
G1 X137.469 Y117.086 E24.15926
G1 X146.294 Y125.912 E25.02542
G1 X146.841 Y125.656 E25.06733
G1 X138.267 Y117.082 E25.90876
G1 X139.062 Y117.074 E25.96392
G1 X147.388 Y125.400 E26.78103
G1 X147.932 Y125.141 E26.82283
G1 X139.856 Y117.064 E27.61544
G1 X140.649 Y117.055 E27.67049
G1 X148.469 Y124.875 E28.43796
G1 X149.006 Y124.609 E28.47954
G1 X141.442 Y117.045 E29.22184
G1 X142.235 Y117.035 E29.27690
G1 X149.543 Y124.343 E29.99405
G1 X150.065 Y124.062 E30.03519
G1 X143.028 Y117.026 E30.72576
G1 X143.822 Y117.016 E30.78081
G1 X150.587 Y123.781 E31.44476
G1 X151.109 Y123.500 E31.48589
G1 X144.615 Y117.006 E32.12322
G1 X145.408 Y116.997 E32.17827
G1 X151.611 Y123.200 E32.78704
G1 X152.108 Y122.894 E32.82754
G1 X146.201 Y116.987 E33.40724
G1 X146.995 Y116.977 E33.46229
G1 X152.603 Y122.586 E34.01270
G1 X153.070 Y122.250 E34.05262
G1 X147.788 Y116.968 E34.57101
G1 X148.581 Y116.958 E34.62606
G1 X153.537 Y121.914 E35.11243
G1 X153.973 Y121.547 E35.15198
G1 X149.374 Y116.948 E35.60332
G1 X150.164 Y116.935 E35.65812
G1 X154.396 Y121.167 E36.07350
G1 X154.793 Y120.761 E36.11290
G1 X150.953 Y116.922 E36.48972
G1 X151.743 Y116.908 E36.54451
G1 X155.157 Y120.322 E36.87954
G1 X155.476 Y119.838 E36.91976
G1 X152.532 Y116.895 E37.20861
G1 X153.322 Y116.881 E37.26340
G1 X155.743 Y119.302 E37.50099
G1 X155.958 Y118.714 E37.54442
G1 X154.108 Y116.864 E37.72601
G1 X154.890 Y116.844 E37.78032
G1 X156.143 Y118.097 E37.90332
G1 X156.313 Y117.464 E37.94879
G1 X155.672 Y116.823 E38.01169
G1 X156.456 Y116.804 E38.06608
G1 X156.474 Y116.822 E38.06784
G1 F1800.000 E37.06784
G92 E0
G1 X144.638 Y126.664 F7200.000
G1 E1.00000 F1800.000
G1 X143.622 Y125.648 E1.09971 F1080.000
G1 X143.654 Y126.484 E1.15772
G1 X144.082 Y126.911 E1.19971
G1 X143.527 Y127.159 E1.24192
G1 X143.498 Y127.130 E1.24475
G1 F1800.000 E0.24475
G92 E0
G1 X126.291 Y125.982 F7200.000
G1 E1.00000 F1800.000
G1 X122.905 Y122.595 E1.33232 F1080.000
G1 X122.624 Y123.117 E1.37345
G1 X122.677 Y123.170 E1.37864
G1 F1800.000 E0.37864
G92 E0
G1 X141.955 Y128.246 F7200.000
G1 E1.00000 F1800.000
G1 X141.973 Y128.264 E1.00178 F360.000
G1 F1800.000 E0.00178
G92 E0
G1 X143.850 Y129.218 F7200.000
G1 E1.00000 F1800.000
G1 X152.603 Y129.218 E1.59602 F1080.000
G1 X150.567 Y130.333 E1.75406
G1 X141.194 Y130.333 E2.39228
G1 F1800.000 E1.39228
G92 E0
G1 X138.539 Y131.447 F7200.000
G1 E1.00000 F1800.000
G1 X148.369 Y131.447 E1.66941 F1080.000
G1 F1800.000 E0.66941
G92 E0
G1 X146.130 Y132.561 F7200.000
G1 E1.00000 F1800.000
G1 X135.925 Y132.561 E1.69489 F1080.000
G1 F1800.000 E0.69489
G92 E0
G1 X136.934 Y137.017 F7200.000
G1 E1.00000 F1800.000
G1 X128.270 Y137.017 E1.58995 F1080.000
G1 X129.159 Y138.132 E1.68703
G1 X134.881 Y138.132 E2.07664
G1 X133.581 Y139.246 F7200.000
G1 X130.111 Y139.246 E2.31287 F1080.000
G1 F1800.000 E1.31287
G92 E0
G1 X133.425 Y142.588 F7200.000
G1 E1.00000 F1800.000
G1 X132.851 Y142.588 E1.03911 F1080.000
G1 X133.615 Y141.474 E1.13109
G1 X131.970 Y141.474 E1.24310
G1 X131.088 Y140.360 E1.33983
G1 X136.571 Y140.360 E1.71316
G1 F1800.000 E0.71316
G92 E0
G1 X139.187 Y135.903 F7200.000
G1 E1.00000 F1800.000
G1 X127.590 Y135.903 E1.78967 F1080.000
G1 X126.803 Y134.789 E1.88255
G1 X141.494 Y134.789 E2.88287
G1 F1800.000 E1.88287
G92 E0
G1 X143.812 Y133.675 F7200.000
G1 E1.00000 F1800.000
G1 X125.954 Y133.675 E2.21604 F1080.000
G1 X125.150 Y132.561 E2.30957
G1 X130.881 Y132.561 E2.69981
G1 X129.523 Y131.447 E2.81942
G1 X124.166 Y131.447 E3.18419
G1 X123.252 Y130.333 E3.28230
G1 X128.271 Y130.333 E3.62399
G1 X127.134 Y129.218 E3.73236
G1 X122.051 Y129.218 E4.07850
G1 X120.737 Y128.104 E4.19581
G1 X125.923 Y128.104 E4.54896
G1 X124.736 Y126.990 E4.65981
G1 X119.000 Y126.990 E5.05043
G1 X117.911 Y125.876 E5.15652
G1 X123.416 Y125.876 E5.53140
G1 X122.072 Y124.762 E5.65027
G1 X116.593 Y124.762 E6.02333
G1 X117.028 Y123.648 E6.10476
G1 X120.653 Y123.648 E6.35163
G1 X120.879 Y122.533 E6.42903
G1 X120.148 Y122.533 E6.47882
G1 X120.653 Y121.419 E6.56213
G1 X121.446 Y121.419 E6.61610
G1 X121.154 Y120.305 E6.69452
G1 X122.027 Y120.305 E6.75398
G1 X121.766 Y119.191 E6.83190
G1 X122.630 Y119.191 E6.89070
G1 X122.805 Y118.077 E6.96751
G1 X123.113 Y118.077 E6.98845
G1 F1800.000 E5.98845
G92 E0
G1 X118.653 Y122.533 F7200.000
G1 E1.00000 F1800.000
G1 X116.528 Y122.533 E1.14467 F1080.000
G1 F1800.000 E0.14467
G92 E0
G1 X116.982 Y111.392 F7200.000
G1 E1.00000 F1800.000
G1 X111.734 Y111.392 E1.35733 F1080.000
G1 X111.031 Y110.278 E1.44705
G1 X128.509 Y110.278 E2.63718
G1 X129.164 Y109.164 E2.72519
G1 X110.348 Y109.164 E4.00647
G1 X109.913 Y108.049 E4.08790
G1 X149.799 Y108.049 E6.80382
G1 X148.821 Y109.164 F7200.000
G1 X131.000 Y109.164 E8.01723 F1080.000
G1 F1800.000 E7.01723
G92 E0
G1 X132.872 Y110.278 F7200.000
G1 E1.00000 F1800.000
G1 X136.352 Y110.278 E1.23696 F1080.000
G1 F1800.000 E0.23696
G92 E0
G1 X130.063 Y96.908 F7200.000
G1 E1.00000 F1800.000
G1 X150.066 Y96.908 E2.36206 F1080.000
G1 X150.208 Y98.022 E2.43854
G1 X110.238 Y98.022 E5.16023
G1 X110.231 Y99.136 E5.23609
G1 X150.171 Y99.136 E7.95570
G1 X150.280 Y100.250 E8.03193
G1 X110.244 Y100.250 E10.75804
G1 X110.109 Y101.364 E10.83446
G1 X150.245 Y101.364 E13.56739
G1 X150.355 Y102.479 E13.64362
G1 X110.152 Y102.479 E16.38113
G1 F1800.000 E15.38113
G92 E0
G1 X111.946 Y93.565 F7200.000
G1 E1.00000 F1800.000
G1 X110.588 Y93.565 E1.09245 F1080.000
G1 X110.449 Y94.679 E1.16891
G1 X129.137 Y94.679 E2.44139
G1 X130.057 Y94.679 F7200.000
G1 X150.073 Y94.679 E3.80431 F1080.000
G1 X150.085 Y95.794 E3.88018
G1 X130.049 Y95.794 E5.24444
G1 X129.331 Y95.794 F7200.000
G1 X110.414 Y95.794 E6.53255 F1080.000
G1 X110.392 Y96.908 E6.60843
G1 X129.352 Y96.908 E7.89946
G1 F1800.000 E6.89946
G92 E0
G1 X129.161 Y93.565 F7200.000
G1 E1.00000 F1800.000
G1 X127.662 Y93.565 E1.10206 F1080.000
G1 X126.621 Y93.565 F7200.000
G1 X113.103 Y93.565 E2.02255 F1080.000
G1 F1800.000 E1.02255
G92 E0
G1 X115.257 Y81.310 F7200.000
G1 E1.00000 F1800.000
G1 X124.436 Y81.310 E1.62506 F1080.000
G1 X124.495 Y82.424 E1.70103
G1 X115.205 Y82.424 E2.33358
G1 X115.145 Y83.538 E2.40955
G1 X124.557 Y83.538 E3.05044
G1 X124.620 Y84.652 E3.12642
G1 X115.085 Y84.652 E3.77564
G1 X115.025 Y85.766 E3.85162
G1 X124.682 Y85.766 E4.50917
G1 X124.744 Y86.880 E4.58515
G1 X114.965 Y86.880 E5.25104
G1 X114.905 Y87.994 E5.32702
