; generated by Slic3r 1.0.0RC3 on 2014-03-12 at 08:49:51

; layer_height = 0.3
; perimeters = 2
; top_solid_layers = 3
; bottom_solid_layers = 3
; fill_density = 0.1
; perimeter_speed = 60
; infill_speed = 60
; travel_speed = 120
; nozzle_diameter = 0.4
; filament_diameter = 1.75
; extrusion_multiplier = 0.98
; perimeters extrusion width = 0.40mm
; infill extrusion width = 0.42mm
; solid infill extrusion width = 0.42mm
; top infill extrusion width = 0.42mm
; first layer extrusion width = 0.60mm

G21 ; set units to millimeters
M107
M104 S220 ; set temperature
G28 ; home all axes
M106 S255;
G1 Z200 F1200 ; lift nozzle
M109 S220 ; wait for temperature to be reached
G90 ; use absolute coordinates
G92 E0
M82 ; use absolute distances for extrusion
G1 F1800.000 E-1.00000
G92 E0
G1 Z0.300 F7200.000
G1 X97.907 Y51.825 F7200.000
G1 E1.00000 F1800.000
G1 X98.647 Y50.595 E1.09774 F1080.000
G1 X99.647 Y49.555 E1.19598
G1 X100.837 Y48.745 E1.29400
G1 X102.177 Y48.225 E1.39188
G1 X103.357 Y48.005 E1.47361
G1 X125.377 Y45.785 E2.98061
G1 X149.357 Y45.205 E4.61394
G1 X150.437 Y45.275 E4.68763
G1 X151.637 Y45.455 E4.77026
G1 X157.277 Y46.565 E5.16167
G1 X158.027 Y46.755 E5.21435
G1 X158.757 Y47.045 E5.26784
G1 X159.367 Y47.335 E5.31383
G1 X182.997 Y60.015 E7.13987
G1 X200.067 Y69.225 E8.46060
G1 X200.627 Y69.565 E8.50521
G1 X201.217 Y70.005 E8.55532
G1 X202.317 Y71.195 E8.66567
G1 X203.127 Y72.655 E8.77936
G1 X203.557 Y74.425 E8.90339
G1 X203.497 Y76.245 E9.02738
G1 X199.097 Y100.945 E10.73574
G1 X196.127 Y117.385 E11.87330
G1 X194.857 Y124.115 E12.33965
G1 X194.657 Y124.925 E12.39646
G1 X194.347 Y125.695 E12.45299
G1 X178.957 Y158.245 E14.90465
G1 X178.247 Y159.405 E14.99726
G1 X177.327 Y160.395 E15.08928
G1 X176.217 Y161.175 E15.18166
G1 X174.967 Y161.705 E15.27411
G1 X173.637 Y161.975 E15.36652
G1 X172.147 Y162.115 E15.46842
G1 X171.597 Y162.145 E15.50593
G1 X123.997 Y162.585 E18.74727
G1 X122.867 Y162.495 E18.82446
G1 X120.807 Y162.155 E18.96662
G1 X117.227 Y161.325 E19.21686
G1 X115.947 Y160.885 E19.30902
G1 X114.777 Y160.185 E19.40186
G1 X113.787 Y159.255 E19.49435
G1 X113.007 Y158.145 E19.58673
G1 X112.467 Y156.895 E19.67945
G1 X107.057 Y139.525 E20.91825
G1 X105.467 Y134.125 E21.30156
G1 X105.347 Y133.595 E21.33856
G1 X105.007 Y131.805 E21.46263
G1 X101.497 Y112.305 E22.81177
G1 X99.597 Y99.775 E23.67472
G1 X98.427 Y90.745 E24.29473
G1 X98.127 Y88.215 E24.46821
G1 X96.597 Y73.405 E25.48203
G1 X96.557 Y72.675 E25.53181
G1 X96.727 Y55.735 E26.68535
G1 X96.827 Y54.755 E26.75243
G1 X97.067 Y53.805 E26.81915
G1 X97.387 Y52.955 E26.88100
G1 X97.872 Y51.901 E26.96001
G1 F1800.000 E25.96001
G92 E0
G1 X124.099 Y65.926 F7200.000
G1 E1.00000 F1800.000
G1 X124.445 Y65.500 E1.03732 F540.000
G1 X124.850 Y65.176 E1.07266
G1 X125.304 Y64.925 E1.10802
G1 X125.828 Y64.770 E1.14519
G1 X126.334 Y64.728 E1.17980
G1 X126.836 Y64.770 E1.21407
G1 X127.353 Y64.923 E1.25079
G1 X127.819 Y65.176 E1.28689
G1 X128.222 Y65.506 E1.32239
G1 X128.557 Y65.918 E1.35850
G1 X128.794 Y66.366 E1.39305
G1 X128.956 Y66.870 E1.42911
G1 X128.994 Y67.468 E1.46990
G1 X128.953 Y67.921 E1.50088
G1 X128.796 Y68.421 E1.53654
G1 X128.553 Y68.881 E1.57195
G1 X128.222 Y69.280 E1.60724
G1 X127.815 Y69.622 E1.64347
G1 X127.338 Y69.867 E1.67999
G1 X126.858 Y70.009 E1.71406
G1 X126.335 Y70.071 E1.74996
G1 X125.806 Y70.010 E1.78623
G1 X125.107 Y69.803 E1.83584
G1 X125.006 Y69.701 E1.84561
G1 X124.860 Y69.627 E1.85675
G1 X124.445 Y69.286 E1.89334
G1 X124.103 Y68.873 E1.92984
G1 X123.867 Y68.411 E1.96513
G1 X123.718 Y67.934 E1.99915
G1 X123.654 Y67.419 E2.03454
G1 X123.718 Y66.849 E2.07359
G1 X123.870 Y66.376 E2.10739
G1 X124.061 Y66.000 E2.13613
G1 X124.569 Y66.231 F7200.000
G1 X124.840 Y65.898 E2.16539 F540.000
G1 X125.161 Y65.640 E2.19340
G1 X125.521 Y65.442 E2.22139
G1 X125.931 Y65.320 E2.25052
G1 X126.334 Y65.287 E2.27806
G1 X126.732 Y65.320 E2.30529
G1 X127.139 Y65.441 E2.33415
G1 X127.507 Y65.640 E2.36268
G1 X127.826 Y65.901 E2.39071
G1 X128.090 Y66.226 E2.41924
G1 X128.278 Y66.583 E2.44673
G1 X128.406 Y66.979 E2.47506
G1 X128.436 Y67.445 E2.50685
G1 X128.404 Y67.810 E2.53180
G1 X128.280 Y68.206 E2.56005
G1 X128.088 Y68.570 E2.58806
G1 X127.826 Y68.886 E2.61600
G1 X127.505 Y69.155 E2.64454
G1 X127.130 Y69.348 E2.67326
G1 X126.746 Y69.462 E2.70050
G1 X126.334 Y69.510 E2.72875
G1 X125.917 Y69.462 E2.75732
G1 X125.401 Y69.309 E2.79399
G1 X125.337 Y69.245 E2.80013
G1 X125.167 Y69.158 E2.81315
G1 X124.840 Y68.889 E2.84199
G1 X124.571 Y68.565 E2.87067
G1 X124.385 Y68.200 E2.89856
G1 X124.265 Y67.818 E2.92581
G1 X124.215 Y67.410 E2.95379
G1 X124.265 Y66.966 E2.98421
G1 X124.386 Y66.589 E3.01118
G1 X124.531 Y66.306 E3.03285
G1 X125.038 Y66.537 F7200.000
G1 X125.235 Y66.295 E3.05404 F540.000
G1 X125.472 Y66.105 E3.07474
G1 X125.737 Y65.959 E3.09536
G1 X126.034 Y65.871 E3.11645
G1 X126.334 Y65.846 E3.13692
G1 X126.629 Y65.871 E3.15711
G1 X126.925 Y65.958 E3.17811
G1 X127.195 Y66.105 E3.19906
G1 X127.429 Y66.296 E3.21963
G1 X127.623 Y66.535 E3.24057
G1 X127.763 Y66.800 E3.26100
G1 X127.856 Y67.088 E3.28161
G1 X127.879 Y67.422 E3.30440
G1 X127.855 Y67.699 E3.32332
G1 X127.763 Y67.991 E3.34415
G1 X127.622 Y68.259 E3.36476
G1 X127.429 Y68.491 E3.38536
G1 X127.195 Y68.688 E3.40622
G1 X126.922 Y68.829 E3.42711
G1 X126.634 Y68.914 E3.44755
G1 X126.334 Y68.949 E3.46812
G1 X126.029 Y68.914 E3.48899
G1 X125.695 Y68.815 E3.51273
G1 X125.474 Y68.689 E3.53003
G1 X125.235 Y68.493 E3.55113
G1 X125.039 Y68.257 E3.57198
G1 X124.903 Y67.989 E3.59247
G1 X124.813 Y67.702 E3.61296
G1 X124.777 Y67.402 E3.63354
G1 X124.813 Y67.084 E3.65532
G1 X124.903 Y66.802 E3.67545
G1 X125.001 Y66.611 E3.69007
G1 X124.907 Y66.254 F7200.000
G1 F1800.000 E2.69007
G92 E0
G1 X169.114 Y130.642 F7200.000
G1 E1.00000 F1800.000
G1 X169.564 Y130.398 E1.03488 F540.000
G1 X170.071 Y130.240 E1.07101
G1 X170.599 Y130.193 E1.10714
G1 X171.118 Y130.240 E1.14258
G1 X171.617 Y130.397 E1.17821
G1 X172.079 Y130.642 E1.21382
G1 X172.478 Y130.969 E1.24894
G1 X172.826 Y131.384 E1.28581
G1 X173.059 Y131.851 E1.32136
G1 X173.209 Y132.319 E1.35485
G1 X173.271 Y132.865 E1.39225
G1 X173.209 Y133.396 E1.42864
G1 X173.059 Y133.881 E1.46324
G1 X172.826 Y134.331 E1.49776
G1 X172.486 Y134.753 E1.53464
G1 X172.075 Y135.086 E1.57066
G1 X171.602 Y135.337 E1.60712
G1 X171.118 Y135.476 E1.64145
G1 X170.600 Y135.536 E1.67692
G1 X170.072 Y135.477 E1.71312
G1 X169.580 Y135.336 E1.74799
G1 X169.118 Y135.086 E1.78372
G1 X168.698 Y134.753 E1.82022
G1 X168.367 Y134.332 E1.85670
G1 X168.125 Y133.882 E1.89148
G1 X167.977 Y133.374 E1.92751
G1 X167.926 Y132.865 E1.96234
G1 X167.977 Y132.342 E1.99814
G1 X168.125 Y131.851 E2.03304
G1 X168.367 Y131.384 E2.06885
G1 X168.707 Y130.969 E2.10535
G1 X169.049 Y130.694 E2.13522
G1 X169.423 Y131.108 F7200.000
G1 X169.782 Y130.914 E2.16301 F540.000
G1 X170.180 Y130.789 E2.19138
G1 X170.599 Y130.752 E2.22000
G1 X171.008 Y130.790 E2.24800
G1 X171.401 Y130.913 E2.27606
G1 X171.769 Y131.108 E2.30439
G1 X172.085 Y131.367 E2.33219
G1 X172.357 Y131.692 E2.36105
G1 X172.542 Y132.061 E2.38919
G1 X172.661 Y132.437 E2.41602
G1 X172.710 Y132.864 E2.44533
G1 X172.662 Y133.280 E2.47386
G1 X172.542 Y133.669 E2.50157
G1 X172.357 Y134.026 E2.52890
G1 X172.090 Y134.358 E2.55793
G1 X171.766 Y134.619 E2.58625
G1 X171.392 Y134.818 E2.61509
G1 X171.008 Y134.928 E2.64231
G1 X170.599 Y134.976 E2.67034
G1 X170.180 Y134.929 E2.69903
G1 X169.791 Y134.817 E2.72658
G1 X169.426 Y134.619 E2.75488
G1 X169.095 Y134.358 E2.78357
G1 X168.835 Y134.026 E2.81230
G1 X168.644 Y133.670 E2.83983
G1 X168.526 Y133.267 E2.86838
G1 X168.486 Y132.864 E2.89595
G1 X168.527 Y132.450 E2.92428
G1 X168.644 Y132.061 E2.95193
G1 X168.835 Y131.692 E2.98028
G1 X169.101 Y131.367 E3.00885
G1 X169.358 Y131.160 E3.03131
G1 X169.733 Y131.574 F7200.000
G1 X170.000 Y131.429 E3.05201 F540.000
G1 X170.289 Y131.339 E3.07261
G1 X170.598 Y131.312 E3.09373
G1 X170.898 Y131.339 E3.11429
G1 X171.186 Y131.429 E3.13478
G1 X171.458 Y131.574 E3.15582
G1 X171.691 Y131.765 E3.17631
G1 X171.888 Y131.999 E3.19715
G1 X172.024 Y132.272 E3.21789
G1 X172.114 Y132.554 E3.23806
G1 X172.149 Y132.863 E3.25927
G1 X172.114 Y133.165 E3.27996
G1 X172.024 Y133.457 E3.30077
G1 X171.888 Y133.720 E3.32091
G1 X171.693 Y133.962 E3.34208
G1 X171.458 Y134.152 E3.36270
G1 X171.182 Y134.299 E3.38392
G1 X170.898 Y134.380 E3.40404
G1 X170.598 Y134.415 E3.42463
G1 X170.289 Y134.380 E3.44581
G1 X170.003 Y134.298 E3.46604
G1 X169.734 Y134.152 E3.48692
G1 X169.493 Y133.962 E3.50780
G1 X169.303 Y133.720 E3.52876
G1 X169.162 Y133.457 E3.54905
G1 X169.076 Y133.160 E3.57011
G1 X169.046 Y132.863 E3.59044
G1 X169.076 Y132.559 E3.61129
G1 X169.162 Y132.272 E3.63169
G1 X169.303 Y131.999 E3.65258
G1 X169.495 Y131.765 E3.67321
G1 X169.668 Y131.626 E3.68827
G1 X169.723 Y131.270 F7200.000
G1 F1800.000 E2.68827
G92 E0
G1 X132.037 Y135.352 F7200.000
G1 E1.00000 F1800.000
G1 X132.070 Y135.866 E1.03505 F540.000
G1 X132.037 Y136.387 E1.07057
G1 X131.871 Y136.894 E1.10690
G1 X131.643 Y137.340 E1.14105
G1 X131.295 Y137.763 E1.17833
G1 X130.883 Y138.096 E1.21443
G1 X130.448 Y138.328 E1.24799
G1 X129.947 Y138.493 E1.28390
G1 X129.407 Y138.541 E1.32083
G1 X128.885 Y138.493 E1.35654
G1 X128.382 Y138.331 E1.39248
G1 X127.937 Y138.096 E1.42677
G1 X127.528 Y137.763 E1.46264
G1 X127.179 Y137.344 E1.49977
G1 X126.950 Y136.894 E1.53423
G1 X126.791 Y136.408 E1.56900
G1 X126.739 Y135.866 E1.60612
G1 X126.791 Y135.330 E1.64275
G1 X126.947 Y134.854 E1.67684
G1 X127.181 Y134.382 E1.71272
G1 X127.543 Y133.966 E1.75028
G1 X127.933 Y133.653 E1.78434
G1 X128.376 Y133.410 E1.81878
G1 X128.886 Y133.246 E1.85526
G1 X129.407 Y133.202 E1.89083
G1 X129.942 Y133.245 E1.92736
G1 X130.458 Y133.416 E1.96438
G1 X130.891 Y133.656 E1.99814
G1 X131.281 Y133.966 E2.03203
G1 X131.642 Y134.386 E2.06976
G1 X131.874 Y134.854 E2.10531
G1 X132.011 Y135.273 E2.13532
G1 X131.486 Y135.459 F7200.000
G1 X131.512 Y135.866 E2.16312 F540.000
G1 X131.486 Y136.280 E2.19137
G1 X131.355 Y136.679 E2.21993
G1 X131.175 Y137.033 E2.24701
G1 X130.901 Y137.365 E2.27628
G1 X130.574 Y137.629 E2.30491
G1 X130.228 Y137.814 E2.33163
G1 X129.834 Y137.944 E2.35990
G1 X129.408 Y137.982 E2.38901
G1 X128.997 Y137.944 E2.41711
G1 X128.599 Y137.816 E2.44555
G1 X128.246 Y137.629 E2.47276
G1 X127.922 Y137.365 E2.50121
G1 X127.647 Y137.036 E2.53042
G1 X127.466 Y136.679 E2.55769
G1 X127.339 Y136.293 E2.58531
G1 X127.298 Y135.866 E2.61454
G1 X127.340 Y135.446 E2.64332
G1 X127.464 Y135.066 E2.67053
G1 X127.648 Y134.694 E2.69880
G1 X127.931 Y134.369 E2.72811
G1 X128.243 Y134.118 E2.75543
G1 X128.596 Y133.925 E2.78278
G1 X128.998 Y133.795 E2.81154
G1 X129.408 Y133.761 E2.83956
G1 X129.830 Y133.795 E2.86842
G1 X130.234 Y133.928 E2.89736
G1 X130.579 Y134.120 E2.92426
G1 X130.893 Y134.369 E2.95152
G1 X131.174 Y134.696 E2.98089
G1 X131.357 Y135.066 E3.00896
G1 X131.460 Y135.380 E3.03145
G1 X130.934 Y135.566 F7200.000
G1 X130.954 Y135.867 E3.05201 F540.000
G1 X130.934 Y136.174 E3.07298
G1 X130.839 Y136.465 E3.09378
G1 X130.706 Y136.726 E3.11379
G1 X130.508 Y136.967 E3.13504
G1 X130.266 Y137.162 E3.15621
G1 X130.008 Y137.300 E3.17609
G1 X129.720 Y137.395 E3.19671
G1 X129.409 Y137.422 E3.21801
G1 X129.109 Y137.395 E3.23851
G1 X128.816 Y137.301 E3.25944
G1 X128.555 Y137.162 E3.27957
G1 X128.315 Y136.967 E3.30060
G1 X128.115 Y136.727 E3.32189
G1 X127.982 Y136.465 E3.34196
G1 X127.888 Y136.179 E3.36244
G1 X127.858 Y135.867 E3.38378
G1 X127.888 Y135.561 E3.40471
G1 X127.981 Y135.277 E3.42504
G1 X128.116 Y135.005 E3.44570
G1 X128.319 Y134.772 E3.46675
G1 X128.554 Y134.583 E3.48733
G1 X128.815 Y134.440 E3.50760
G1 X129.109 Y134.345 E3.52864
G1 X129.409 Y134.320 E3.54911
G1 X129.719 Y134.345 E3.57031
G1 X130.010 Y134.441 E3.59116
G1 X130.267 Y134.583 E3.61119
G1 X130.504 Y134.772 E3.63182
G1 X130.705 Y135.006 E3.65283
G1 X130.840 Y135.277 E3.67343
G1 X130.908 Y135.486 E3.68841
G1 X131.215 Y135.676 F7200.000
G1 F1800.000 E2.68841
G92 E0
G1 X132.499 Y149.204 F7200.000
G1 E1.00000 F1800.000
G1 X128.496 Y149.099 E1.27272 F1080.000
G1 X127.659 Y149.548 E1.33736
G1 X123.396 Y154.503 E1.78243
G1 X122.190 Y154.310 E1.86556
G1 X119.843 Y153.733 E2.03019
G1 X114.699 Y137.251 E3.20588
G1 X113.246 Y132.323 E3.55570
G1 X113.141 Y131.860 E3.58808
G1 X112.845 Y130.332 E3.69402
G1 X111.536 Y122.459 E4.23750
G1 X110.010 Y114.566 E4.78488
G1 X109.443 Y111.475 E4.99885
G1 X107.485 Y98.600 E5.88567
G1 X106.203 Y88.687 E6.56628
G1 X104.536 Y72.653 E7.66393
G1 X104.702 Y55.993 E8.79841
G1 X112.479 Y56.595 E9.32951
G1 X113.020 Y56.600 E9.36634
G1 X119.133 Y55.565 E9.78850
G1 X120.728 Y55.219 E9.89965
G1 X123.363 Y54.469 E10.08620
G1 X124.725 Y54.855 E10.18256
G1 X124.737 Y54.963 E10.19002
G1 X124.916 Y54.909 E10.20280
G1 X124.955 Y54.920 E10.20552
G1 X124.962 Y54.895 E10.20730
G1 X127.037 Y54.262 E10.35500
G1 X134.820 Y55.854 E10.89595
G1 X135.783 Y56.012 E10.96234
G1 X136.170 Y55.999 E10.98871
G1 X147.020 Y53.961 E11.74043
G1 X149.566 Y53.981 E11.91383
G1 X149.575 Y53.947 E11.91621
G1 X150.846 Y54.114 E12.00351
G1 X151.398 Y54.212 E12.04174
G1 X151.413 Y54.500 E12.06137
G1 X151.396 Y54.827 E12.08366
G1 X151.396 Y56.836 E12.22048
G1 X151.361 Y57.541 E12.26850
G1 X150.742 Y66.482 E12.87878
G1 X142.789 Y71.569 E13.52162
G1 X142.415 Y71.798 E13.55149
G1 X141.435 Y72.220 E13.62412
G1 X141.585 Y73.510 E13.71262
G1 X141.914 Y74.307 E13.77126
G1 X142.191 Y74.405 E13.79131
G1 X154.581 Y89.795 E15.13666
G1 X154.854 Y90.183 E15.16893
G1 X155.152 Y90.559 E15.20158
G1 X162.771 Y99.940 E16.02454
G1 X163.067 Y100.340 E16.05840
G1 X163.469 Y100.823 E16.10123
G1 X173.010 Y113.039 E17.15667
G1 X184.036 Y125.380 E18.28350
G1 X184.197 Y125.295 E18.29589
G1 X184.457 Y125.569 E18.32163
G1 X184.300 Y126.128 E18.36119
G1 X184.114 Y126.586 E18.39480
G1 X183.567 Y127.692 E18.47884
G1 X183.316 Y128.150 E18.51441
G1 X179.585 Y136.312 E19.12548
G1 X179.011 Y137.389 E19.20858
G1 X177.811 Y139.833 E19.39398
G1 X177.525 Y140.466 E19.44131
G1 X176.447 Y143.031 E19.63076
G1 X172.001 Y154.126 E20.44460
G1 X171.735 Y154.151 E20.46278
G1 X160.255 Y150.021 E21.29354
G1 X148.310 Y149.650 E22.10729
G1 X132.583 Y149.206 E23.17862
G1 X132.578 Y149.763 F7200.000
G1 X128.621 Y149.660 E23.44812 F1080.000
G1 X128.017 Y149.986 E23.49484
G1 X123.615 Y155.102 E23.95441
G1 X122.067 Y154.855 E24.06116
G1 X119.395 Y154.196 E24.24855
G1 X119.037 Y152.989 E24.33432
G1 X114.167 Y137.416 E25.44534
G1 X112.707 Y132.464 E25.79689
G1 X112.596 Y131.976 E25.83100
G1 X112.296 Y130.428 E25.93832
G1 X110.988 Y122.560 E26.48145
G1 X109.462 Y114.670 E27.02865
G1 X108.894 Y111.570 E27.24324
G1 X106.934 Y98.678 E28.13120
G1 X105.650 Y88.754 E28.81256
G1 X103.980 Y72.687 E29.91248
G1 X104.145 Y56.036 E31.04637
G1 X104.432 Y55.413 E31.09305
G1 X112.509 Y56.038 E31.64466
G1 X113.094 Y56.032 E31.68448
G1 X119.018 Y55.019 E32.09373
G1 X120.595 Y54.677 E32.20361
G1 X123.363 Y53.890 E32.39951
G1 X124.583 Y54.236 E32.48591
G1 X124.855 Y53.360 E32.54836
G1 X125.121 Y53.385 E32.56660
G1 X125.216 Y54.235 E32.62483
G1 X127.010 Y53.688 E32.75256
G1 X134.925 Y55.307 E33.30262
G1 X135.808 Y55.454 E33.36363
G1 X136.115 Y55.443 E33.38451
G1 X146.965 Y53.405 E34.13626
G1 X149.130 Y53.419 E34.28366
G1 X149.291 Y52.760 E34.32990
G1 X149.525 Y52.631 E34.34809
G1 X149.872 Y52.681 E34.37190
G1 X150.133 Y52.866 E34.39374
G1 X150.296 Y53.480 E34.43698
G1 X150.927 Y53.563 E34.48031
G1 X151.932 Y53.746 E34.54986
G1 X151.971 Y54.500 E34.60131
G1 X151.953 Y54.842 E34.62459
G1 X151.953 Y56.854 E34.76162
G1 X151.275 Y66.802 E35.44056
G1 X143.225 Y71.955 E36.09138
G1 X142.678 Y72.292 E36.13515
G1 X142.036 Y72.567 E36.18269
G1 X142.130 Y73.369 E36.23767
G1 X142.334 Y73.865 E36.27414
G1 X142.520 Y73.931 E36.28761
G1 X142.645 Y74.081 E36.30093
G1 X155.020 Y89.451 E37.64455
G1 X155.303 Y89.852 E37.67794
G1 X155.589 Y90.214 E37.70940
G1 X163.212 Y99.599 E38.53268
G1 X163.506 Y99.997 E38.56633
G1 X163.901 Y100.471 E38.60840
G1 X173.441 Y112.686 E39.66373
G1 X184.160 Y124.684 E40.75927
G1 X184.310 Y124.605 E40.77077
G1 X185.029 Y125.363 E40.84193
G1 X184.977 Y125.773 E40.87009
G1 X184.834 Y126.289 E40.90654
G1 X184.736 Y126.566 E40.92654
