; generated by Slic3r 1.0.0RC3 on 2014-03-12 at 08:56:40

; layer_height = 0.3
; perimeters = 2
; top_solid_layers = 3
; bottom_solid_layers = 3
; fill_density = 0.1
; perimeter_speed = 60
; infill_speed = 60
; travel_speed = 120
; nozzle_diameter = 0.4
; filament_diameter = 1.75
; extrusion_multiplier = 0.98
; perimeters extrusion width = 0.40mm
; infill extrusion width = 0.42mm
; solid infill extrusion width = 0.42mm
; top infill extrusion width = 0.42mm
; first layer extrusion width = 0.60mm

G21 ; set units to millimeters
M107
M104 S220 ; set temperature
G28 ; home all axes
M106 S255;
G1 Z200 F1200 ; lift nozzle
M109 S220 ; wait for temperature to be reached
G90 ; use absolute coordinates
G92 E0
M82 ; use absolute distances for extrusion
G1 F1800.000 E-1.00000
G92 E0
G1 Z0.300 F7200.000
G1 X119.485 Y66.416 F7200.000
G1 E1.00000 F1800.000
G1 X119.835 Y65.886 E1.04325 F1080.000
G1 X120.955 Y64.366 E1.17181
G1 X121.365 Y63.866 E1.21584
G1 X121.825 Y63.396 E1.26062
G1 X123.225 Y62.126 E1.38933
G1 X123.735 Y61.716 E1.43389
G1 X124.285 Y61.356 E1.47865
G1 X125.915 Y60.386 E1.60780
G1 X126.485 Y60.076 E1.65199
G1 X127.075 Y59.836 E1.69536
G1 X128.855 Y59.206 E1.82393
G1 X129.445 Y59.026 E1.86593
G1 X130.035 Y58.906 E1.90693
G1 X131.975 Y58.616 E2.04050
G1 X132.545 Y58.556 E2.07952
G1 X133.115 Y58.556 E2.11834
G1 X164.255 Y59.506 E4.23972
G1 X164.715 Y59.536 E4.27111
G1 X166.605 Y59.726 E4.40045
G1 X167.195 Y59.806 E4.44099
G1 X167.775 Y59.946 E4.48162
G1 X168.775 Y60.236 E4.55252
G1 X169.575 Y60.526 E4.61046
G1 X171.405 Y61.326 E4.74646
G1 X172.135 Y61.706 E4.80250
G1 X172.705 Y62.046 E4.84769
G1 X173.285 Y62.436 E4.89528
G1 X174.175 Y63.106 E4.97114
G1 X175.045 Y63.816 E5.04760
G1 X175.525 Y64.246 E5.09148
G1 X175.965 Y64.726 E5.13582
G1 X177.165 Y66.186 E5.26451
G1 X177.535 Y66.696 E5.30741
G1 X177.865 Y67.236 E5.35050
G1 X178.765 Y68.906 E5.47968
G1 X179.045 Y69.496 E5.52415
G1 X179.275 Y70.116 E5.56918
G1 X179.825 Y71.936 E5.69864
G1 X180.045 Y72.966 E5.77036
G1 X183.175 Y96.486 E7.38601
G1 X183.425 Y98.796 E7.54422
G1 X186.545 Y132.186 E9.82773
G1 X186.575 Y132.786 E9.86864
G1 X186.585 Y141.446 E10.45832
G1 X186.455 Y142.716 E10.54525
G1 X186.095 Y143.946 E10.63251
G1 X185.495 Y145.076 E10.71963
G1 X184.685 Y146.066 E10.80673
G1 X183.705 Y146.886 E10.89374
G1 X182.585 Y147.496 E10.98058
G1 X181.365 Y147.876 E11.06759
G1 X180.095 Y148.016 E11.15459
G1 X125.835 Y148.606 E14.84950
G1 X124.155 Y148.406 E14.96471
G1 X122.585 Y147.776 E15.07990
G1 X121.595 Y147.126 E15.16054
G1 X120.715 Y146.286 E15.24338
G1 X119.805 Y145.006 E15.35032
G1 X119.235 Y143.546 E15.45704
G1 X117.785 Y137.956 E15.85027
G1 X115.095 Y127.366 E16.59427
G1 X113.775 Y121.586 E16.99798
G1 X113.625 Y120.606 E17.06549
G1 X113.625 Y119.616 E17.13290
G1 X117.295 Y72.816 E20.32941
G1 X117.485 Y71.706 E20.40609
G1 X117.955 Y69.866 E20.53540
G1 X118.135 Y69.256 E20.57871
G1 X118.375 Y68.676 E20.62145
G1 X119.185 Y66.966 E20.75029
G1 X119.445 Y66.489 E20.78726
G1 F1800.000 E19.78726
G92 E0
G1 X130.048 Y125.682 F7200.000
G1 E1.00000 F1800.000
G1 X130.456 Y125.613 E1.02818 F1080.000
G1 X130.639 Y125.639 E1.04073
G1 X133.134 Y125.095 E1.21459
G1 X135.910 Y124.386 E1.40971
G1 X136.458 Y125.002 E1.46583
G1 X137.240 Y128.174 E1.68832
G1 X138.476 Y132.931 E2.02299
G1 X138.448 Y133.066 E2.03241
G1 X138.846 Y134.595 E2.13997
G1 X136.076 Y135.303 E2.33469
G1 X136.023 Y135.393 E2.34180
G1 X133.311 Y136.085 E2.53238
G1 X133.030 Y136.104 E2.55157
G1 X128.110 Y137.352 E2.89717
G1 X127.433 Y137.111 E2.94613
G1 X127.232 Y136.669 E2.97916
G1 X124.996 Y127.838 E3.59949
G1 X125.063 Y127.069 E3.65206
G1 X127.573 Y126.300 E3.83086
G1 X129.967 Y125.703 E3.99887
G1 X130.164 Y126.228 F7200.000
G1 X130.464 Y126.177 E4.01963 F540.000
G1 X130.660 Y126.204 E4.03310
G1 X133.262 Y125.637 E4.21442
G1 X135.719 Y125.010 E4.38712
G1 X135.950 Y125.269 E4.41075
G1 X136.700 Y128.312 E4.62415
G1 X137.904 Y132.943 E4.94997
G1 X137.875 Y133.079 E4.95948
G1 X138.166 Y134.194 E5.03791
G1 X135.712 Y134.821 E5.21038
G1 X135.659 Y134.911 E5.21748
G1 X133.222 Y135.533 E5.38875
G1 X132.896 Y135.563 E5.41102
G1 X128.137 Y136.770 E5.74537
G1 X127.842 Y136.666 E5.76666
G1 X127.759 Y136.483 E5.78033
G1 X127.519 Y135.560 E5.84523
G1 X125.559 Y127.792 E6.39076
G1 X125.585 Y127.492 E6.41131
G1 X127.703 Y126.843 E6.56211
G1 X130.083 Y126.248 E6.72916
G1 X130.262 Y125.939 F7200.000
G1 F1800.000 E5.72916
G92 E0
G1 X128.755 Y118.757 F7200.000
G1 E1.00000 F1800.000
G1 X132.750 Y117.737 E1.28074 F1080.000
G1 X132.912 Y117.836 E1.29368
G1 X136.491 Y116.928 E1.54506
G1 X137.645 Y121.460 E1.86352
G1 X137.749 Y121.772 E1.88594
G1 X139.065 Y126.947 E2.24951
G1 X139.076 Y127.051 E2.25665
G1 X140.408 Y132.244 E2.62169
G1 X140.362 Y132.343 E2.62912
G1 X141.575 Y137.113 E2.96431
G1 X138.026 Y138.016 E3.21369
G1 X137.933 Y138.147 E3.22464
G1 X133.969 Y139.168 E3.50335
G1 X130.031 Y140.174 E3.78011
G1 X129.931 Y140.109 E3.78823
G1 X126.252 Y141.044 E4.04671
G1 X125.073 Y136.421 E4.37161
G1 X124.965 Y136.091 E4.39522
G1 X122.314 Y125.631 E5.13003
G1 X122.402 Y125.424 E5.14532
G1 X121.189 Y120.666 E5.47972
G1 X128.677 Y118.732 E6.00631
G1 X128.694 Y118.168 F7200.000
G1 X128.792 Y118.173 E6.01299 F540.000
G1 X132.838 Y117.140 E6.29734
G1 X133.001 Y117.238 E6.31032
G1 X136.893 Y116.251 E6.58372
G1 X138.177 Y121.291 E6.93786
G1 X138.287 Y121.629 E6.96208
G1 X139.615 Y126.849 E7.32889
G1 X139.626 Y126.953 E7.33599
G1 X140.967 Y132.180 E7.70341
G1 X140.987 Y132.320 E7.71305
G1 X140.951 Y132.398 E7.71888
G1 X142.253 Y137.516 E8.07851
G1 X138.361 Y138.506 E8.35191
G1 X138.268 Y138.637 E8.36283
G1 X134.088 Y139.714 E8.65679
G1 X130.051 Y140.743 E8.94047
G1 X129.900 Y140.752 E8.95079
G1 X129.832 Y140.709 E8.95626
G1 X125.850 Y141.722 E9.23608
G1 X124.541 Y136.590 E9.59667
G1 X124.427 Y136.235 E9.62207
G1 X121.758 Y125.708 E10.36154
G1 X121.736 Y125.563 E10.37151
G1 X121.816 Y125.379 E10.38519
G1 X120.512 Y120.263 E10.74466
G1 X128.613 Y118.174 E11.31433
G1 X128.747 Y118.250 F7200.000
G1 F1800.000 E10.31433
G92 E0
G1 X133.873 Y108.822 F7200.000
G1 E1.00000 F1800.000
G1 X131.272 Y106.876 E1.22121 F1080.000
G1 X128.590 Y106.469 E1.40590
G1 X128.590 Y92.439 E2.36122
G1 X130.155 Y92.218 E2.46888
G1 X131.527 Y92.000 E2.56343
G1 X133.871 Y91.892 E2.72323
G1 X136.220 Y92.000 E2.88335
G1 X139.160 Y92.445 E3.08582
G1 X139.160 Y106.469 E4.04071
G1 X136.473 Y106.877 E4.22575
G1 X133.940 Y108.772 E4.44119
G1 X133.873 Y108.123 F7200.000
G1 X131.493 Y106.347 E4.64337 F540.000
G1 X129.147 Y105.990 E4.80499
G1 X129.147 Y92.923 E5.69473
G1 X131.583 Y92.555 E5.86247
G1 X133.872 Y92.450 E6.01854
G1 X136.163 Y92.555 E6.17471
G1 X138.603 Y92.925 E6.34273
G1 X138.603 Y105.990 E7.23232
G1 X136.252 Y106.347 E7.39423
G1 X133.940 Y108.073 E7.59070
G1 X133.498 Y108.536 F7200.000
G1 X133.588 Y110.020 F7200.000
G1 X131.853 Y109.850 E7.70938 F1080.000
G1 X129.891 Y109.255 E7.84897
G1 X128.097 Y108.296 E7.98752
G1 X126.513 Y107.008 E8.12651
G1 X125.236 Y105.442 E8.26414
G1 X124.262 Y103.635 E8.40390
G1 X123.680 Y101.701 E8.54138
G1 X123.470 Y99.671 E8.68036
G1 X123.681 Y97.648 E8.81888
G1 X124.263 Y95.704 E8.95705
G1 X125.233 Y93.911 E9.09586
G1 X126.520 Y92.329 E9.23475
G1 X128.089 Y91.052 E9.37252
G1 X129.896 Y90.098 E9.51166
G1 X131.854 Y89.510 E9.65081
G1 X133.873 Y89.312 E9.78897
G1 X135.902 Y89.512 E9.92782
G1 X137.871 Y90.104 E10.06781
G1 X138.130 Y90.225 E10.08725
G1 X139.630 Y91.033 E10.20326
G1 X141.245 Y92.342 E10.34480
G1 X142.520 Y93.906 E10.48224
G1 X143.479 Y95.704 E10.62098
G1 X144.074 Y97.651 E10.75960
G1 X144.274 Y99.671 E10.89780
G1 X144.073 Y101.701 E11.03670
G1 X143.479 Y103.638 E11.17471
G1 X142.520 Y105.441 E11.31375
G1 X141.236 Y107.011 E11.45184
G1 X139.648 Y108.298 E11.59100
G1 X137.852 Y109.255 E11.72957
G1 X135.895 Y109.851 E11.86886
G1 X133.875 Y110.049 E12.00712
G1 X133.671 Y110.029 E12.02106
G1 X133.596 Y110.581 F7200.000
G1 X131.741 Y110.399 E12.14797 F540.000
G1 X129.679 Y109.773 E12.29471
G1 X127.786 Y108.762 E12.44083
G1 X126.119 Y107.406 E12.58714
G1 X124.769 Y105.751 E12.73260
G1 X123.746 Y103.852 E12.87949
G1 X123.132 Y101.810 E13.02465
G1 X122.910 Y99.672 E13.17101
G1 X123.132 Y97.538 E13.31709
G1 X123.746 Y95.490 E13.46272
G1 X124.769 Y93.598 E13.60915
G1 X126.118 Y91.937 E13.75484
G1 X127.784 Y90.582 E13.90106
G1 X129.682 Y89.581 E14.04720
G1 X131.742 Y88.962 E14.19366
G1 X133.873 Y88.753 E14.33947
G1 X136.007 Y88.963 E14.48552
G1 X138.072 Y89.583 E14.63229
G1 X138.369 Y89.721 E14.65459
G1 X139.941 Y90.568 E14.77619
G1 X141.635 Y91.939 E14.92457
G1 X142.987 Y93.597 E15.07025
G1 X143.996 Y95.490 E15.21629
G1 X144.622 Y97.539 E15.36221
G1 X144.834 Y99.672 E15.50817
G1 X144.622 Y101.810 E15.65444
G1 X143.996 Y103.853 E15.79994
G1 X142.989 Y105.747 E15.94604
G1 X141.632 Y107.407 E16.09200
G1 X139.959 Y108.762 E16.23862
G1 X138.066 Y109.773 E16.38474
G1 X136.007 Y110.399 E16.53130
G1 X133.874 Y110.609 E16.67725
G1 X133.679 Y110.589 E16.69055
G1 X133.367 Y110.073 F7200.000
G1 F1800.000 E15.69055
G92 E0
G1 X133.754 Y82.524 F7200.000
G1 E1.00000 F1800.000
G1 X132.227 Y82.444 E1.10415 F1080.000
G1 X130.751 Y82.071 E1.20782
G1 X129.370 Y81.418 E1.31183
G1 X128.148 Y80.509 E1.41553
G1 X127.118 Y79.374 E1.51992
G1 X126.334 Y78.068 E1.62366
G1 X125.824 Y76.629 E1.72760
G1 X125.598 Y75.117 E1.83168
G1 X125.676 Y73.590 E1.93578
G1 X126.045 Y72.108 E2.03980
G1 X126.696 Y70.730 E2.14356
G1 X127.610 Y69.502 E2.24783
G1 X128.749 Y68.475 E2.35220
G1 X130.061 Y67.686 E2.45648
G1 X131.490 Y67.176 E2.55982
G1 X133.004 Y66.954 E2.66396
G1 X134.523 Y67.026 E2.76753
G1 X136.010 Y67.403 E2.87201
G1 X137.392 Y68.057 E2.97607
G1 X138.620 Y68.971 E3.08036
G1 X139.646 Y70.104 E3.18442
G1 X140.425 Y71.406 E3.28776
G1 X140.945 Y72.859 E3.39285
G1 X141.163 Y74.353 E3.49564
G1 X141.088 Y75.887 E3.60023
G1 X140.718 Y77.377 E3.70474
G1 X140.061 Y78.748 E3.80826
G1 X139.159 Y79.975 E3.91197
G1 X138.025 Y80.998 E4.01594
G1 X136.714 Y81.780 E4.11989
G1 X135.272 Y82.301 E4.22427
G1 X133.837 Y82.511 E4.32306
G1 X133.729 Y81.964 F7200.000
G1 X132.314 Y81.891 E4.41956 F540.000
G1 X130.940 Y81.544 E4.51607
G1 X129.658 Y80.939 E4.61256
G1 X128.522 Y80.093 E4.70900
G1 X127.568 Y79.042 E4.80566
G1 X126.839 Y77.827 E4.90215
G1 X126.367 Y76.492 E4.99859
G1 X126.157 Y75.090 E5.09513
G1 X126.230 Y73.672 E5.19180
G1 X126.572 Y72.295 E5.28837
G1 X127.177 Y71.017 E5.38471
G1 X128.026 Y69.877 E5.48146
G1 X129.081 Y68.925 E5.57819
G1 X130.298 Y68.193 E5.67491
G1 X131.629 Y67.718 E5.77112
G1 X133.030 Y67.514 E5.86755
G1 X134.444 Y67.580 E5.96394
G1 X135.821 Y67.930 E6.06066
G1 X137.103 Y68.537 E6.15729
G1 X138.242 Y69.384 E6.25393
G1 X139.196 Y70.436 E6.35061
G1 X139.920 Y71.647 E6.44670
G1 X140.400 Y72.988 E6.54372
G1 X140.605 Y74.384 E6.63978
G1 X140.534 Y75.805 E6.73662
G1 X140.193 Y77.183 E6.83335
G1 X139.582 Y78.459 E6.92963
G1 X138.744 Y79.599 E7.02600
G1 X137.692 Y80.548 E7.12247
G1 X136.475 Y81.274 E7.21893
G1 X135.135 Y81.758 E7.31595
G1 X133.812 Y81.952 E7.40700
G1 X133.458 Y82.451 F7200.000
G1 X133.810 Y83.518 F7200.000
G1 X132.093 Y83.434 E7.52410 F1080.000
G1 X130.417 Y83.008 E7.64182
G1 X128.863 Y82.275 E7.75883
G1 X127.483 Y81.252 E7.87582
G1 X126.326 Y79.971 E7.99333
G1 X125.442 Y78.494 E8.11056
G1 X124.861 Y76.874 E8.22777
G1 X124.611 Y75.170 E8.34502
G1 X124.696 Y73.454 E8.46199
G1 X125.117 Y71.784 E8.57930
G1 X125.854 Y70.228 E8.69654
G1 X126.881 Y68.842 E8.81394
G1 X128.153 Y67.686 E8.93102
G1 X129.634 Y66.801 E9.04852
G1 X131.253 Y66.224 E9.16554
G1 X132.957 Y65.974 E9.28278
G1 X134.675 Y66.060 E9.39990
G1 X136.350 Y66.480 E9.51748
G1 X137.903 Y67.214 E9.63450
G1 X139.292 Y68.244 E9.75225
G1 X140.439 Y69.516 E9.86888
G1 X141.323 Y70.995 E9.98620
G1 X141.902 Y72.618 E10.10353
G1 X142.154 Y74.322 E10.22080
G1 X142.069 Y76.040 E10.33793
G1 X141.649 Y77.709 E10.45517
G1 X140.917 Y79.263 E10.57211
G1 X139.886 Y80.650 E10.68978
G1 X138.610 Y81.802 E10.80686
G1 X137.136 Y82.688 E10.92395
G1 X135.512 Y83.267 E11.04132
G1 X133.893 Y83.506 E11.15279
G1 X133.837 Y84.077 F7200.000
G1 X132.009 Y83.988 E11.27745 F540.000
G1 X130.229 Y83.535 E11.40247
G1 X128.576 Y82.756 E11.52693
G1 X127.105 Y81.665 E11.65160
G1 X125.876 Y80.305 E11.77646
G1 X124.936 Y78.734 E11.90113
G1 X124.318 Y77.008 E12.02593
G1 X124.052 Y75.198 E12.15051
G1 X124.143 Y73.371 E12.27506
G1 X124.590 Y71.596 E12.39972
G1 X125.375 Y69.938 E12.52460
G1 X126.465 Y68.467 E12.64928
G1 X127.820 Y67.236 E12.77395
G1 X129.395 Y66.295 E12.89886
G1 X131.118 Y65.681 E13.02343
G1 X132.930 Y65.415 E13.14813
G1 X134.758 Y65.506 E13.27278
G1 X136.538 Y65.952 E13.39770
G1 X138.192 Y66.734 E13.52227
G1 X139.668 Y67.829 E13.64740
G1 X140.889 Y69.183 E13.77159
G1 X141.830 Y70.757 E13.89641
G1 X142.445 Y72.483 E14.02119
G1 X142.714 Y74.295 E14.14592
G1 X142.623 Y76.122 E14.27047
G1 X142.176 Y77.898 E14.39517
G1 X141.396 Y79.552 E14.51971
G1 X140.302 Y81.025 E14.64467
G1 X138.942 Y82.252 E14.76938
G1 X137.376 Y83.193 E14.89380
G1 X135.648 Y83.810 E15.01874
G1 X133.920 Y84.065 E15.13767
G1 X133.551 Y83.599 F7200.000
G1 F1800.000 E14.13767
G92 E0
G1 X161.623 Y71.773 F7200.000
G1 E1.00000 F1800.000
G1 X161.530 Y71.422 E1.02471 F540.000
G1 X161.467 Y70.942 E1.05764
G1 X161.527 Y70.463 E1.09051
G1 X161.676 Y69.978 E1.12506
G1 X161.876 Y69.608 E1.15369
G1 X162.394 Y68.946 E1.21094
G1 X162.583 Y68.908 E1.22406
G1 X162.963 Y68.707 E1.25334
G1 X163.484 Y68.543 E1.29052
G1 X163.902 Y68.515 E1.31909
G1 X164.311 Y68.544 E1.34702
G1 X164.830 Y68.715 E1.38418
G1 X165.239 Y68.917 E1.41527
G1 X165.617 Y69.237 E1.44902
G1 X165.909 Y69.599 E1.48063
G1 X166.130 Y70.008 E1.51230
G1 X166.274 Y70.478 E1.54578
G1 X166.312 Y70.936 E1.57709
G1 X166.274 Y71.409 E1.60940
G1 X166.130 Y71.864 E1.64190
G1 X165.909 Y72.288 E1.67442
G1 X165.618 Y72.634 E1.70527
G1 X165.251 Y72.960 E1.73865
G1 X164.820 Y73.177 E1.77153
G1 X164.297 Y73.334 E1.80868
G1 X163.904 Y73.359 E1.83551
G1 X163.430 Y73.315 E1.86793
G1 X163.292 Y73.274 E1.87774
G1 X163.156 Y73.274 E1.88699
G1 X162.534 Y72.949 E1.93480
G1 X162.195 Y72.653 E1.96542
G1 X161.886 Y72.297 E1.99750
G1 X161.658 Y71.849 E2.03178
G1 X162.150 Y71.586 F7200.000
G1 X162.077 Y71.309 E2.05127 F540.000
G1 X162.029 Y70.941 E2.07658
G1 X162.075 Y70.575 E2.10169
G1 X162.186 Y70.206 E2.12793
G1 X162.343 Y69.915 E2.15047
G1 X162.705 Y69.452 E2.19048
G1 X162.814 Y69.430 E2.19798
G1 X163.178 Y69.224 E2.22651
G1 X163.570 Y69.100 E2.25447
G1 X163.899 Y69.076 E2.27693
G1 X164.224 Y69.101 E2.29915
G1 X164.611 Y69.228 E2.32691
G1 X164.931 Y69.386 E2.35120
G1 X165.217 Y69.628 E2.37671
G1 X165.443 Y69.909 E2.40125
G1 X165.614 Y70.224 E2.42563
G1 X165.724 Y70.584 E2.45125
G1 X165.753 Y70.937 E2.47540
G1 X165.723 Y71.302 E2.50030
G1 X165.614 Y71.650 E2.52518
G1 X165.443 Y71.976 E2.55022
G1 X165.217 Y72.245 E2.57417
G1 X164.938 Y72.493 E2.59956
G1 X164.605 Y72.660 E2.62494
G1 X164.215 Y72.777 E2.65266
G1 X163.900 Y72.799 E2.67415
G1 X163.536 Y72.766 E2.69908
G1 X163.373 Y72.717 E2.71066
G1 X163.293 Y72.717 E2.71611
G1 X162.851 Y72.486 E2.75007
G1 X162.588 Y72.257 E2.77383
G1 X162.350 Y71.982 E2.79860
G1 X162.185 Y71.662 E2.82308
G1 X162.701 Y71.452 F7200.000
G1 X162.624 Y71.197 E2.84122 F540.000
G1 X162.591 Y70.939 E2.85892
G1 X162.622 Y70.686 E2.87627
G1 X162.696 Y70.433 E2.89420
G1 X162.811 Y70.221 E2.91064
G1 X163.017 Y69.958 E2.93341
G1 X163.061 Y69.949 E2.93649
G1 X163.171 Y69.858 E2.94620
G1 X163.393 Y69.740 E2.96331
G1 X163.655 Y69.657 E2.98203
G1 X163.895 Y69.636 E2.99841
G1 X164.136 Y69.658 E3.01490
G1 X164.393 Y69.742 E3.03327
G1 X164.623 Y69.855 E3.05076
G1 X164.817 Y70.019 E3.06804
G1 X164.978 Y70.219 E3.08551
G1 X165.097 Y70.440 E3.10259
G1 X165.173 Y70.689 E3.12036
G1 X165.194 Y70.938 E3.13733
G1 X165.173 Y71.194 E3.15484
G1 X165.097 Y71.435 E3.17209
G1 X164.978 Y71.664 E3.18964
G1 X164.817 Y71.856 E3.20670
G1 X164.625 Y72.026 E3.22411
G1 X164.391 Y72.143 E3.24198
G1 X164.133 Y72.220 E3.26028
G1 X163.897 Y72.239 E3.27642
G1 X163.642 Y72.216 E3.29386
G1 X163.430 Y72.160 E3.30880
G1 X163.168 Y72.023 E3.32890
G1 X162.981 Y71.860 E3.34581
G1 X162.813 Y71.666 E3.36327
G1 X162.740 Y71.526 E3.37405
