; generated by Slic3r 1.0.0RC3 on 2014-03-12 at 08:55:41

; layer_height = 0.3
; perimeters = 2
; top_solid_layers = 3
; bottom_solid_layers = 3
; fill_density = 0.1
; perimeter_speed = 60
; infill_speed = 60
; travel_speed = 120
; nozzle_diameter = 0.4
; filament_diameter = 1.75
; extrusion_multiplier = 0.98
; perimeters extrusion width = 0.40mm
; infill extrusion width = 0.42mm
; solid infill extrusion width = 0.42mm
; top infill extrusion width = 0.42mm
; first layer extrusion width = 0.60mm

G21 ; set units to millimeters
M107
M104 S220 ; set temperature
G28 ; home all axes
M106 S255;
G1 Z200 F1200 ; lift nozzle
M109 S220 ; wait for temperature to be reached
G90 ; use absolute coordinates
G92 E0
M82 ; use absolute distances for extrusion
G1 F1800.000 E-1.00000
G92 E0
G1 Z0.300 F7200.000
G1 X120.101 Y106.097 F7200.000
G1 E1.00000 F1800.000
G1 X132.331 Y90.997 E2.32314 F1080.000
G1 X136.141 Y86.407 E2.72933
G1 X156.671 Y62.867 E4.85618
G1 X157.581 Y61.997 E4.94190
G1 X158.651 Y61.327 E5.02787
G1 X159.821 Y60.867 E5.11347
G1 X161.061 Y60.647 E5.19922
G1 X162.321 Y60.657 E5.28502
G1 X163.561 Y60.917 E5.37129
G1 X164.721 Y61.407 E5.45704
G1 X165.771 Y62.107 E5.54297
G1 X177.971 Y72.157 E6.61926
G1 X179.051 Y73.287 E6.72570
G1 X179.831 Y74.637 E6.83187
G1 X180.271 Y76.127 E6.93765
G1 X187.461 Y118.707 E9.87807
G1 X187.541 Y119.437 E9.92808
G1 X187.541 Y120.177 E9.97847
G1 X186.911 Y131.077 E10.72191
G1 X186.701 Y132.357 E10.81024
G1 X186.251 Y133.577 E10.89878
G1 X185.571 Y134.677 E10.98684
G1 X184.681 Y135.627 E11.07548
G1 X183.621 Y136.387 E11.16429
G1 X159.281 Y150.347 E13.07491
G1 X158.011 Y150.907 E13.16942
G1 X156.641 Y151.187 E13.26463
G1 X148.981 Y151.917 E13.78858
G1 X147.441 Y151.877 E13.89348
G1 X145.941 Y151.477 E13.99919
G1 X144.581 Y150.747 E14.10429
G1 X143.431 Y149.707 E14.20987
G1 X116.631 Y119.127 E16.97863
G1 X115.871 Y118.067 E17.06744
G1 X115.341 Y116.887 E17.15552
G1 X115.051 Y115.617 E17.24422
G1 X115.021 Y114.317 E17.33277
G1 X115.251 Y113.037 E17.42132
G1 X115.721 Y111.817 E17.51035
G1 X116.431 Y110.727 E17.59892
G1 X120.055 Y106.167 E17.99557
G1 F1800.000 E16.99557
G92 E0
G1 X143.858 Y115.040 F7200.000
G1 E1.00000 F1800.000
G1 X144.249 Y114.302 E1.05686 F540.000
G1 X144.898 Y113.786 E1.11328
G1 X145.686 Y113.542 E1.16948
G1 X146.513 Y113.630 E1.22609
G1 X147.245 Y114.011 E1.28226
G1 X147.772 Y114.661 E1.33929
G1 X148.015 Y115.461 E1.39620
G1 X147.930 Y116.286 E1.45270
G1 X147.539 Y117.018 E1.50921
G1 X146.894 Y117.551 E1.56615
G1 X146.101 Y117.781 E1.62238
G1 X145.275 Y117.707 E1.67886
G1 X144.535 Y117.308 E1.73609
G1 X144.014 Y116.664 E1.79250
G1 X143.770 Y115.863 E1.84952
G1 X143.849 Y115.123 E1.90023
G1 X144.401 Y115.206 F7200.000
G1 X144.687 Y114.665 E1.94187 F540.000
G1 X145.162 Y114.287 E1.98323
G1 X145.741 Y114.108 E2.02449
G1 X146.349 Y114.173 E2.06611
G1 X146.885 Y114.452 E2.10723
G1 X147.271 Y114.928 E2.14896
G1 X147.450 Y115.516 E2.19081
G1 X147.387 Y116.120 E2.23221
G1 X147.100 Y116.659 E2.27377
G1 X146.628 Y117.048 E2.31539
G1 X146.046 Y117.217 E2.35665
G1 X145.439 Y117.162 E2.39819
G1 X144.898 Y116.871 E2.44004
G1 X144.515 Y116.398 E2.48143
G1 X144.336 Y115.810 E2.52332
G1 X144.392 Y115.289 E2.55900
G1 X144.048 Y114.775 F7200.000
G1 F1800.000 E1.55900
G92 E0
G1 X141.735 Y118.331 F7200.000
G1 E1.00000 F1800.000
G1 X127.537 Y118.522 E1.96681 F1080.000
G1 X122.767 Y114.682 E2.38380
G1 X125.342 Y111.444 E2.66550
G1 X129.667 Y114.931 E3.04380
G1 X130.290 Y114.141 E3.11235
G1 X142.309 Y99.323 E4.41149
G1 X142.969 Y98.483 E4.48423
G1 X138.651 Y95.018 E4.86123
G1 X141.317 Y91.795 E5.14607
G1 X146.207 Y95.735 E5.57369
G1 X157.196 Y114.107 E7.03141
G1 X158.799 Y130.682 E8.16530
G1 X153.858 Y131.160 E8.50337
G1 X155.085 Y143.887 E9.37397
G1 X149.138 Y144.457 E9.78074
G1 X147.910 Y131.731 E10.65129
G1 X142.891 Y132.216 E10.99460
G1 X141.742 Y118.414 E11.93767
G1 X141.223 Y118.895 F7200.000
G1 X127.345 Y119.082 E12.88274 F540.000
G1 X121.987 Y114.768 E13.35111
G1 X125.255 Y110.659 E13.70853
G1 X129.581 Y114.140 E14.08664
G1 X136.090 Y106.111 E14.79045
G1 X142.189 Y98.571 E15.45082
G1 X137.868 Y95.090 E15.82862
G1 X141.240 Y91.013 E16.18893
G1 X146.634 Y95.364 E16.66081
G1 X157.739 Y113.929 E18.13385
G1 X159.408 Y131.183 E19.31421
G1 X154.466 Y131.661 E19.65229
G1 X155.693 Y144.387 E20.52286
G1 X148.638 Y145.065 E21.00547
G1 X147.409 Y132.340 E21.87604
G1 X142.383 Y132.825 E22.21987
G1 X141.230 Y118.978 E23.16599
G1 X141.202 Y118.338 F7200.000
G1 F1800.000 E22.16599
G92 E0
G1 X164.414 Y100.799 F7200.000
G1 E1.00000 F1800.000
G1 X164.211 Y100.428 E1.02881 F540.000
G1 X164.098 Y100.032 E1.05682
G1 X164.055 Y99.620 E1.08501
G1 X164.099 Y99.212 E1.11296
G1 X164.211 Y98.819 E1.14079
G1 X164.414 Y98.449 E1.16953
G1 X164.670 Y98.137 E1.19703
G1 X164.993 Y97.860 E1.22602
G1 X165.369 Y97.675 E1.25453
G1 X165.739 Y97.554 E1.28102
G1 X166.168 Y97.509 E1.31043
G1 X166.583 Y97.554 E1.33883
G1 X166.968 Y97.675 E1.36629
G1 X167.340 Y97.866 E1.39476
G1 X167.658 Y98.129 E1.42289
G1 X167.919 Y98.454 E1.45125
G1 X168.117 Y98.816 E1.47938
G1 X168.232 Y99.205 E1.50701
G1 X168.280 Y99.620 E1.53544
G1 X168.232 Y100.039 E1.56413
G1 X168.117 Y100.431 E1.59193
G1 X167.919 Y100.794 E1.62014
G1 X167.662 Y101.115 E1.64812
G1 X167.333 Y101.384 E1.67706
G1 X166.971 Y101.572 E1.70485
G1 X166.581 Y101.695 E1.73268
G1 X166.196 Y101.739 E1.75906
G1 X165.741 Y101.695 E1.79020
G1 X165.366 Y101.572 E1.81704
G1 X164.993 Y101.385 E1.84543
G1 X164.672 Y101.113 E1.87411
G1 X164.467 Y100.864 E1.89611
G1 X164.905 Y100.519 F7200.000
G1 X164.730 Y100.215 E1.92001 F540.000
G1 X164.647 Y99.926 E1.94049
G1 X164.615 Y99.621 E1.96140
G1 X164.647 Y99.319 E1.98204
G1 X164.730 Y99.032 E2.00237
G1 X164.877 Y98.762 E2.02332
G1 X165.070 Y98.528 E2.04395
G1 X165.303 Y98.329 E2.06484
G1 X165.580 Y98.192 E2.08586
G1 X165.856 Y98.102 E2.10566
G1 X166.168 Y98.069 E2.12699
G1 X166.469 Y98.102 E2.14761
G1 X166.757 Y98.192 E2.16817
G1 X167.027 Y98.331 E2.18886
G1 X167.262 Y98.525 E2.20965
G1 X167.454 Y98.764 E2.23047
G1 X167.600 Y99.031 E2.25121
G1 X167.684 Y99.317 E2.27149
G1 X167.719 Y99.621 E2.29231
G1 X167.684 Y99.928 E2.31340
G1 X167.600 Y100.216 E2.33383
G1 X167.454 Y100.484 E2.35460
G1 X167.263 Y100.721 E2.37529
G1 X167.025 Y100.917 E2.39630
G1 X166.758 Y101.055 E2.41679
G1 X166.468 Y101.146 E2.43748
G1 X166.177 Y101.177 E2.45739
G1 X165.857 Y101.146 E2.47931
G1 X165.579 Y101.055 E2.49924
G1 X165.303 Y100.917 E2.52025
G1 X165.070 Y100.720 E2.54097
G1 X164.958 Y100.584 E2.55301
G1 X164.555 Y100.539 F7200.000
G1 F1800.000 E1.55301
G92 E0
G1 X163.775 Y109.581 F7200.000
G1 E1.00000 F1800.000
G1 X147.731 Y94.366 E2.50563 F1080.000
G1 X143.316 Y90.746 E2.89442
G1 X145.804 Y87.724 E3.16097
G1 X149.490 Y90.745 E3.48551
G1 X162.207 Y75.350 E4.84521
G1 X162.938 Y74.444 E4.92448
G1 X161.974 Y73.627 E5.01049
G1 X159.253 Y71.407 E5.24964
G1 X161.735 Y68.391 E5.51564
G1 X164.784 Y70.884 E5.78386
G1 X173.008 Y77.670 E6.50987
G1 X176.496 Y100.105 E8.05582
G1 X180.012 Y119.176 E9.37632
G1 X176.712 Y120.033 E9.60842
G1 X179.321 Y130.089 E10.31583
G1 X173.975 Y131.475 E10.69183
G1 X171.365 Y121.422 E11.39902
G1 X167.738 Y122.362 E11.65421
G1 X163.800 Y109.661 E12.55967
G1 X163.286 Y109.885 F7200.000
G1 X147.357 Y94.780 E14.05447 F540.000
G1 X142.531 Y90.822 E14.47945
G1 X145.728 Y86.939 E14.82188
G1 X149.417 Y89.963 E15.14665
G1 X161.770 Y75.005 E16.46761
G1 X162.161 Y74.516 E16.51023
G1 X158.470 Y71.482 E16.83555
G1 X161.658 Y67.608 E17.17727
G1 X165.136 Y70.452 E17.48316
G1 X173.526 Y77.376 E18.22388
G1 X177.045 Y100.011 E19.78372
G1 X180.653 Y119.585 E21.13898
G1 X177.391 Y120.432 E21.36847
G1 X179.999 Y130.488 E22.07587
G1 X173.576 Y132.154 E22.52772
G1 X170.966 Y122.101 E23.23489
G1 X167.363 Y123.035 E23.48834
G1 X163.311 Y109.965 E24.42007
G1 X163.506 Y109.373 F7200.000
G1 F1800.000 E23.42007
G92 E0
G1 X155.370 Y111.821 F7200.000
G1 E1.00000 F1800.000
G1 X142.837 Y99.288 E2.21478 F1080.000
G1 X142.486 Y99.730 E2.25346
G1 X156.550 Y113.794 E3.61671
G1 X156.879 Y114.916 E3.69685
G1 X142.131 Y100.168 E5.12640
G1 X141.775 Y100.605 E5.16504
G1 X156.964 Y115.794 E6.63725
G1 X157.049 Y116.672 E6.69770
G1 X141.420 Y101.043 E8.21256
G1 X141.065 Y101.481 E8.25120
G1 X157.134 Y117.550 E9.80872
G1 X157.219 Y118.428 E9.86917
G1 X140.710 Y101.919 E11.46933
G1 X140.355 Y102.357 E11.50798
G1 X157.303 Y119.305 E13.15080
G1 X157.388 Y120.183 E13.21125
G1 X140.000 Y102.795 E14.89672
G1 X139.645 Y103.233 E14.93536
G1 X157.473 Y121.061 E16.66349
G1 X157.558 Y121.939 E16.72394
G1 X139.289 Y103.670 E18.49472
G1 X138.934 Y104.108 E18.53336
G1 X157.643 Y122.817 E20.34679
G1 X157.728 Y123.695 E20.40724
G1 X138.579 Y104.546 E22.26332
G1 X138.224 Y104.984 E22.30196
G1 X146.469 Y113.229 E23.10115
G1 X145.603 Y113.156 F7200.000
G1 X137.869 Y105.422 E23.85079 F1080.000
G1 X137.514 Y105.860 E23.88943
G1 X144.997 Y113.343 E24.61476
G1 X144.478 Y113.617 E24.65499
G1 X137.159 Y106.298 E25.36443
G1 X136.803 Y106.736 E25.40307
G1 X144.036 Y113.968 E26.10412
G1 X143.725 Y114.450 E26.14343
G1 X136.448 Y107.173 E26.84876
G1 X136.093 Y107.611 E26.88740
G1 X143.468 Y114.986 E27.60223
G1 X143.391 Y115.702 E27.65161
G1 X135.738 Y108.049 E28.39344
G1 X135.383 Y108.487 E28.43208
G1 X143.620 Y116.724 E29.23051
G1 F1800.000 E28.23051
G92 E0
G1 X148.307 Y115.067 F7200.000
G1 E1.00000 F1800.000
G1 X157.813 Y124.573 E1.92137 F1080.000
G1 X157.898 Y125.451 E1.98182
G1 X148.364 Y115.917 E2.90590
G1 X148.225 Y116.571 E2.95171
G1 X157.983 Y126.329 E3.89753
G1 X158.068 Y127.207 E3.95798
G1 X147.949 Y117.088 E4.93881
G1 X147.571 Y117.503 E4.97728
G1 X158.152 Y128.084 E6.00296
G1 X158.237 Y128.962 E6.06341
G1 X147.136 Y117.861 E7.13943
G1 X146.544 Y118.062 E7.18228
G1 X158.322 Y129.840 E8.32390
G1 X158.048 Y130.359 E8.36413
G1 X145.842 Y118.153 E9.54726
G1 X144.787 Y117.891 E9.62175
G1 X157.325 Y130.429 E10.83705
G1 X156.602 Y130.499 E10.88684
G1 X135.028 Y108.925 E12.97804
G1 X134.673 Y109.363 E13.01668
G1 X155.879 Y130.569 E15.07221
G1 X155.156 Y130.639 E15.12200
G1 X134.318 Y109.801 E17.14187
G1 F1800.000 E16.14187
G92 E0
G1 X129.555 Y115.347 F7200.000
G1 E1.00000 F1800.000
G1 X132.272 Y118.064 E1.26342 F1080.000
G1 X133.055 Y118.054 E1.31706
G1 X130.064 Y115.064 E1.60691
G1 X130.414 Y114.620 E1.64561
G1 X133.837 Y118.043 E1.97743
G1 X134.620 Y118.033 E2.03106
G1 X130.766 Y114.179 E2.40459
G1 X131.121 Y113.741 E2.44323
G1 X135.402 Y118.022 E2.85818
G1 X136.185 Y118.012 E2.91181
G1 X131.476 Y113.303 E3.36818
G1 X131.832 Y112.866 E3.40682
G1 X136.967 Y118.001 E3.90461
G1 X137.750 Y117.991 E3.95825
G1 X132.187 Y112.428 E4.49746
G1 X132.542 Y111.990 E4.53611
G1 X138.532 Y117.980 E5.11674
G1 X139.315 Y117.970 E5.17038
G1 X132.897 Y111.552 E5.79244
G1 X133.252 Y111.114 E5.83108
G1 X140.097 Y117.959 E6.49456
G1 X140.880 Y117.949 E6.54819
G1 X133.607 Y110.676 E7.25310
G1 X133.962 Y110.238 E7.29174
G1 X154.433 Y130.709 E9.27595
G1 X153.710 Y130.779 E9.32574
G1 X142.209 Y119.278 E10.44053
G1 X142.281 Y120.143 E10.50003
G1 X153.479 Y131.341 E11.58549
G1 X153.564 Y132.219 E11.64592
G1 X142.353 Y121.008 E12.73261
G1 X142.425 Y121.873 E12.79210
G1 X153.649 Y133.097 E13.88001
G1 X153.733 Y133.974 E13.94044
G1 X142.497 Y122.738 E15.02957
G1 X142.569 Y123.603 E15.08907
G1 X153.818 Y134.852 E16.17941
G1 X153.903 Y135.730 E16.23985
G1 X142.641 Y124.468 E17.33141
G1 F1800.000 E16.33141
G92 E0
G1 X143.583 Y131.754 F7200.000
G1 E1.00000 F1800.000
G1 X143.217 Y131.388 E1.03542 F1080.000
G1 X143.145 Y130.523 E1.09491
G1 X144.306 Y131.684 E1.20741
G1 X145.029 Y131.614 E1.25720
G1 X143.073 Y129.658 E1.44677
G1 X143.001 Y128.793 E1.50626
G1 X145.752 Y131.544 E1.77291
G1 X146.475 Y131.474 E1.82270
G1 X142.929 Y127.928 E2.16642
G1 X142.857 Y127.063 E2.22592
G1 X147.198 Y131.404 E2.64671
G1 X147.922 Y131.335 E2.69651
G1 X142.785 Y126.198 E3.19438
G1 X142.713 Y125.333 E3.25387
G1 X153.987 Y136.607 E4.34666
G1 X154.072 Y137.485 E4.40709
G1 X148.304 Y131.717 E4.96617
G1 X148.389 Y132.595 E5.02661
G1 X154.156 Y138.362 E5.58567
G1 X154.241 Y139.240 E5.64610
G1 X148.473 Y133.472 E6.20516
G1 X148.558 Y134.350 E6.26559
G1 X154.326 Y140.118 E6.82464
G1 X154.410 Y140.995 E6.88507
G1 X148.643 Y135.228 E7.44410
G1 X148.728 Y136.106 E7.50454
G1 X154.495 Y141.873 E8.06356
G1 X154.580 Y142.751 E8.12399
G1 X148.812 Y136.983 E8.68300
G1 X148.897 Y137.861 E8.74344
G1 X154.576 Y143.540 E9.29389
G1 X153.852 Y143.609 E9.34371
G1 X148.982 Y138.739 E9.81580
G1 X149.067 Y139.617 E9.87624
G1 X153.129 Y143.679 E10.26998
G1 X152.405 Y143.748 E10.31980
G1 X149.151 Y140.494 E10.63518
G1 X149.236 Y141.372 E10.69562
G1 X151.681 Y143.818 E10.93265
G1 X150.958 Y143.887 E10.98248
G1 X149.321 Y142.250 E11.14115
G1 X149.405 Y143.128 E11.20159
G1 X150.234 Y143.956 E11.28191
G1 X149.490 Y144.005 E11.33301
G1 X149.511 Y144.026 E11.33498
G1 F1800.000 E10.33498
G92 E0
G1 X131.490 Y118.075 F7200.000
G1 E1.00000 F1800.000
G1 X125.458 Y112.043 E1.58470 F1080.000
G1 X125.057 Y112.435 E1.62314
G1 X130.707 Y118.085 E2.17080
G1 X129.925 Y118.096 F7200.000
G1 X124.706 Y112.877 E2.67667 F1080.000
G1 X124.355 Y113.319 E2.71536
G1 X129.142 Y118.106 E3.17943
G1 X128.360 Y118.117 E3.23307
G1 X124.003 Y113.760 E3.65535
G1 X123.652 Y114.202 E3.69403
G1 X127.172 Y117.722 E4.03519
G1 F1800.000 E3.03519
G92 E0
G1 X143.186 Y98.844 F7200.000
G1 E1.00000 F1800.000
G1 X154.189 Y109.847 E2.06653 F1080.000
G1 F1800.000 E1.06653
G92 E0
G1 X153.009 Y107.874 F7200.000
G1 E1.00000 F1800.000
G1 X139.611 Y94.476 E2.29868 F1080.000
G1 X139.970 Y94.042 E2.33728
G1 X151.828 Y105.900 E3.48673
G1 F1800.000 E2.48673
G92 E0
G1 X150.648 Y103.927 F7200.000
G1 E1.00000 F1800.000
G1 X140.329 Y93.608 E2.00023 F1080.000
G1 X140.688 Y93.174 E2.03883
G1 X149.468 Y101.954 E2.88984
G1 F1800.000 E1.88984
G92 E0
G1 X148.287 Y99.980 F7200.000
G1 E1.00000 F1800.000
G1 X141.047 Y92.740 E1.70178 F1080.000
G1 X141.746 Y92.646 E1.75010
G1 X147.107 Y98.007 E2.26974
G1 F1800.000 E1.26974
G92 E0
G1 X145.926 Y96.033 F7200.000
G1 E1.00000 F1800.000
G1 X145.832 Y95.939 E1.00919 F1080.000
G1 F1800.000 E0.00919
G92 E0
G1 X139.683 Y95.341 F7200.000
G1 E1.00000 F1800.000
G1 X139.252 Y94.910 E1.04186 F1080.000
G1 F1800.000 E0.04186
G92 E0
G1 X144.050 Y90.474 F7200.000
G1 E1.00000 F1800.000
G1 X146.072 Y92.496 E1.19572 F1080.000
G1 F1800.000 E0.19572
G92 E0
G1 X145.122 Y89.171 F7200.000
G1 E1.00000 F1800.000
G1 X176.418 Y120.467 E4.02887 F1080.000
G1 X176.439 Y119.697 E4.08161
G1 X145.480 Y88.737 E7.07794
G1 X145.837 Y88.303 E7.11644
G1 X177.068 Y119.533 E10.13900
G1 F1800.000 E9.13900
G92 E0
G1 X168.268 Y121.818 F7200.000
G1 E1.00000 F1800.000
G1 X167.853 Y121.403 E1.04017 F1080.000
G1 X167.497 Y120.256 E1.12239
G1 X168.896 Y121.655 E1.25784
G1 X169.525 Y121.492 E1.30230
G1 X167.141 Y119.108 E1.53305
G1 X166.785 Y117.960 E1.61527
G1 X170.154 Y121.329 E1.94132
G1 X170.783 Y121.166 E1.98578
G1 X166.430 Y116.813 E2.40711
G1 X166.074 Y115.665 E2.48933
G1 X178.359 Y127.951 E3.67833
G1 X178.637 Y129.020 E3.75391
G1 X172.029 Y122.413 E4.39335
G1 X172.307 Y123.482 E4.46897
G1 X178.675 Y129.850 E5.08521
G1 X178.046 Y130.013 E5.12966
G1 X172.585 Y124.552 E5.65818
G1 X172.863 Y125.621 E5.73379
G1 X177.417 Y130.176 E6.17458
G1 X176.788 Y130.339 E6.21903
G1 X173.140 Y126.691 E6.57209
G1 X173.418 Y127.760 E6.64770
G1 X176.159 Y130.502 E6.91303
G1 X175.531 Y130.665 E6.95748
G1 X173.696 Y128.830 E7.13508
G1 X173.973 Y129.899 E7.21070
G1 X174.902 Y130.828 E7.30057
G1 X174.251 Y130.969 E7.34615
G1 X174.273 Y130.991 E7.34829
G1 F1800.000 E6.34829
G92 E0
G1 X165.718 Y114.518 F7200.000
G1 E1.00000 F1800.000
G1 X178.082 Y126.882 E2.19659 F1080.000
G1 X177.805 Y125.813 E2.27217
G1 X165.362 Y113.370 E3.47636
G1 X165.007 Y112.223 E3.55857
G1 X177.527 Y124.744 E4.77035
G1 X177.250 Y123.674 E4.84593
G1 X164.651 Y111.075 E6.06530
G1 X164.295 Y109.928 E6.14752
G1 X176.973 Y122.605 E7.37447
G1 X176.695 Y121.536 E7.45006
G1 X144.765 Y89.605 E10.54036
G1 X144.407 Y90.040 E10.57886
G1 X156.625 Y102.257 E11.76129
G1 F1800.000 E10.76129
G92 E0
G1 X163.679 Y99.810 F7200.000
G1 E1.00000 F1800.000
G1 X152.088 Y88.219 E2.12184 F1080.000
