; generated by Slic3r 1.0.0RC3 on 2014-03-11 at 09:55:34

; layer_height = 0.3
; perimeters = 2
; top_solid_layers = 3
; bottom_solid_layers = 3
; fill_density = 0.1
; perimeter_speed = 60
; infill_speed = 60
; travel_speed = 120
; nozzle_diameter = 0.4
; filament_diameter = 1.75
; extrusion_multiplier = 0.98
; perimeters extrusion width = 0.40mm
; infill extrusion width = 0.42mm
; solid infill extrusion width = 0.42mm
; top infill extrusion width = 0.42mm
; first layer extrusion width = 0.60mm

G21 ; set units to millimeters
M107
M104 S220 ; set temperature
G28 ; home all axes
M106 S255;
G1 Z200 F1200 ; lift nozzle
M109 S220 ; wait for temperature to be reached
G90 ; use absolute coordinates
G92 E0
M82 ; use absolute distances for extrusion
G1 F1800.000 E-1.00000
G92 E0
G1 Z0.300 F7200.000
G1 X126.947 Y72.618 F7200.000
G1 E1.00000 F1800.000
G1 X127.267 Y72.088 E1.04216 F1080.000
G1 X127.637 Y71.588 E1.08451
G1 X128.477 Y70.558 E1.17501
G1 X128.907 Y70.068 E1.21940
G1 X129.387 Y69.638 E1.26328
G1 X130.407 Y68.798 E1.35326
G1 X130.927 Y68.408 E1.39752
G1 X131.487 Y68.078 E1.44178
G1 X132.667 Y67.448 E1.53286
G1 X133.257 Y67.168 E1.57733
G1 X133.877 Y66.948 E1.62213
G1 X135.147 Y66.568 E1.71239
G1 X135.747 Y66.418 E1.75451
G1 X136.347 Y66.328 E1.79582
G1 X137.737 Y66.188 E1.89095
G1 X138.387 Y66.158 E1.93525
G1 X161.217 Y66.338 E3.48985
G1 X161.857 Y66.378 E3.53352
G1 X163.177 Y66.518 E3.62390
G1 X163.777 Y66.608 E3.66521
G1 X164.367 Y66.758 E3.70667
G1 X165.637 Y67.138 E3.79693
G1 X166.267 Y67.358 E3.84237
G1 X166.867 Y67.648 E3.88775
G1 X168.037 Y68.278 E3.97823
G1 X168.567 Y68.598 E4.02039
G1 X169.067 Y68.958 E4.06234
G1 X170.087 Y69.788 E4.15189
G1 X170.577 Y70.238 E4.19719
G1 X171.027 Y70.738 E4.24299
G1 X171.867 Y71.768 E4.33349
G1 X172.247 Y72.288 E4.37735
G1 X172.577 Y72.838 E4.42102
G1 X173.197 Y74.008 E4.51118
G1 X173.467 Y74.558 E4.55290
G1 X173.667 Y75.138 E4.59468
G1 X174.057 Y76.398 E4.68449
G1 X174.227 Y77.038 E4.72958
G1 X174.327 Y77.698 E4.77504
G1 X174.457 Y79.018 E4.86535
G1 X175.327 Y103.888 E6.55985
G1 X175.327 Y104.368 E6.59253
G1 X174.307 Y131.498 E8.44118
G1 X174.277 Y131.948 E8.47189
G1 X174.127 Y133.338 E8.56709
G1 X174.037 Y133.928 E8.60773
G1 X173.887 Y134.518 E8.64918
G1 X173.487 Y135.858 E8.74440
G1 X173.267 Y136.478 E8.78920
G1 X172.987 Y137.078 E8.83429
G1 X172.327 Y138.308 E8.92934
G1 X172.007 Y138.848 E8.97208
G1 X171.627 Y139.348 E9.01484
G1 X170.747 Y140.428 E9.10970
G1 X170.317 Y140.908 E9.15358
G1 X169.837 Y141.348 E9.19792
G1 X168.757 Y142.238 E9.29321
G1 X168.227 Y142.628 E9.33802
G1 X167.667 Y142.968 E9.38263
G1 X166.427 Y143.628 E9.47828
G1 X165.857 Y143.898 E9.52123
G1 X165.267 Y144.108 E9.56387
G1 X163.927 Y144.518 E9.65929
G1 X163.277 Y144.678 E9.70487
G1 X162.617 Y144.778 E9.75032
G1 X161.227 Y144.908 E9.84539
G1 X160.587 Y144.938 E9.88901
G1 X138.507 Y144.848 E11.39251
G1 X137.877 Y144.808 E11.43549
G1 X136.487 Y144.668 E11.53062
G1 X135.877 Y144.578 E11.57260
G1 X135.267 Y144.428 E11.61538
G1 X133.927 Y144.028 E11.71060
G1 X133.367 Y143.838 E11.75087
G1 X132.817 Y143.588 E11.79200
G1 X131.527 Y142.928 E11.89067
G1 X130.857 Y142.528 E11.94381
G1 X130.227 Y142.048 E11.99774
G1 X129.197 Y141.158 E12.09043
G1 X128.427 Y140.368 E12.16555
G1 X127.537 Y139.288 E12.26084
G1 X127.147 Y138.758 E12.30565
G1 X126.807 Y138.198 E12.35026
G1 X126.147 Y136.958 E12.44591
G1 X125.877 Y136.388 E12.48885
G1 X125.667 Y135.798 E12.53150
G1 X125.257 Y134.458 E12.62691
G1 X125.097 Y133.808 E12.67250
G1 X124.997 Y133.148 E12.71795
G1 X124.867 Y131.758 E12.81301
G1 X124.837 Y131.128 E12.85596
G1 X125.017 Y79.468 E16.37363
G1 X125.047 Y78.848 E16.41590
G1 X125.177 Y77.528 E16.50622
G1 X125.277 Y76.898 E16.54965
G1 X125.427 Y76.288 E16.59243
G1 X125.807 Y75.018 E16.68269
G1 X126.027 Y74.388 E16.72813
G1 X126.317 Y73.788 E16.77351
G1 X126.907 Y72.692 E16.85830
G1 F1800.000 E15.85830
G92 E0
G1 X157.521 Y126.880 F7200.000
G1 E1.00000 F1800.000
G1 X159.165 Y126.630 E1.11327 F540.000
G1 X160.626 Y126.560 E1.21283
G1 X162.087 Y126.630 E1.31241
G1 X163.729 Y126.878 E1.42547
G1 X163.729 Y135.357 E2.00284
G1 X162.175 Y135.594 E2.10982
G1 X160.626 Y136.754 E2.24165
G1 X159.076 Y135.594 E2.37349
G1 X157.521 Y135.358 E2.48060
G1 X157.521 Y126.963 E3.05222
G1 X157.465 Y126.326 F7200.000
G1 X156.964 Y126.190 F7200.000
G1 X156.964 Y135.838 E3.70920 F540.000
G1 X158.854 Y136.123 E3.83938
G1 X160.455 Y137.319 E3.97547
G1 X160.385 Y137.501 E3.98874
G1 X159.405 Y137.406 E4.05578
G1 X158.227 Y137.046 E4.13970
G1 X157.137 Y136.464 E4.22380
G1 X156.191 Y135.691 E4.30696
G1 X155.413 Y134.738 E4.39076
G1 X154.833 Y133.650 E4.47473
G1 X154.474 Y132.479 E4.55814
G1 X154.354 Y131.250 E4.64220
G1 X154.473 Y130.034 E4.72536
G1 X154.833 Y128.857 E4.80922
G1 X155.414 Y127.767 E4.89329
G1 X156.181 Y126.828 E4.97581
G1 X156.899 Y126.243 E5.03893
G1 X157.074 Y126.077 F7200.000
G1 X158.212 Y125.473 E5.12663 F540.000
G1 X159.405 Y125.113 E5.21147
G1 X160.626 Y124.994 E5.29502
G1 X161.842 Y125.113 E5.37824
G1 X163.026 Y125.470 E5.46240
G1 X164.155 Y126.071 E5.54957
G1 X164.060 Y126.363 E5.57046
G1 X162.143 Y126.075 E5.70243
G1 X160.626 Y126.002 E5.80587
G1 X159.110 Y126.075 E5.90925
G1 X157.171 Y126.369 E6.04274
G1 X157.100 Y126.156 E6.05804
G1 F1800.000 E5.05804
G92 E0
G1 X164.286 Y126.188 F7200.000
G1 E1.00000 F1800.000
G1 X165.055 Y126.816 E1.06765 F540.000
G1 X165.836 Y127.775 E1.15180
G1 X166.419 Y128.857 E1.23552
G1 X166.771 Y130.033 E1.31907
G1 X166.897 Y131.253 E1.40262
G1 X166.769 Y132.481 E1.48669
G1 X166.727 Y132.640 E1.49788
G1 X166.420 Y133.647 E1.56958
G1 X165.831 Y134.741 E1.65418
G1 X165.060 Y135.688 E1.73730
G1 X164.110 Y136.466 E1.82097
G1 X163.024 Y137.046 E1.90478
G1 X161.840 Y137.405 E1.98900
G1 X160.868 Y137.500 E2.05550
G1 X160.798 Y137.318 E2.06880
G1 X162.397 Y136.124 E2.20468
G1 X164.286 Y135.836 E2.33478
G1 X164.286 Y126.272 E2.98602
G1 X164.576 Y125.706 F7200.000
G1 X165.455 Y126.424 E3.06327 F540.000
G1 X166.297 Y127.459 E3.15416
G1 X166.936 Y128.642 E3.24567
G1 X167.317 Y129.916 E3.33619
G1 X167.456 Y131.253 E3.42778
G1 X167.319 Y132.582 E3.51871
G1 X166.936 Y133.864 E3.60981
G1 X166.299 Y135.046 E3.70123
G1 X165.455 Y136.084 E3.79237
G1 X164.420 Y136.932 E3.88346
G1 X163.239 Y137.563 E3.97468
G1 X161.952 Y137.954 E4.06625
G1 X160.625 Y138.084 E4.15703
G1 X159.295 Y137.954 E4.24807
G1 X158.012 Y137.563 E4.33935
G1 X156.831 Y136.932 E4.43058
G1 X155.792 Y136.084 E4.52190
G1 X154.946 Y135.047 E4.61299
G1 X154.316 Y133.865 E4.70424
G1 X153.924 Y132.586 E4.79530
G1 X153.795 Y131.255 E4.88632
G1 X153.925 Y129.920 E4.97768
G1 X154.316 Y128.642 E5.06870
G1 X154.946 Y127.461 E5.15982
G1 X155.788 Y126.429 E5.25052
G1 X156.844 Y125.568 E5.34332
G1 X158.009 Y124.953 E5.43302
G1 X159.296 Y124.564 E5.52453
G1 X160.626 Y124.435 E5.61554
G1 X161.953 Y124.564 E5.70632
G1 X163.238 Y124.951 E5.79769
G1 X164.423 Y125.578 E5.88901
G1 X164.512 Y125.653 E5.89694
G1 X164.485 Y126.256 F7200.000
G1 F1800.000 E4.89694
G92 E0
G1 X141.124 Y127.459 F7200.000
G1 E1.00000 F1800.000
G1 X141.124 Y135.532 E1.54967 F540.000
G1 X139.736 Y135.764 E1.64548
G1 X138.532 Y135.832 E1.72760
G1 X137.347 Y135.764 E1.80845
G1 X136.645 Y135.653 E1.85686
G1 X136.518 Y135.542 E1.86833
G1 X135.968 Y135.241 E1.91106
G1 X135.968 Y127.391 E2.44554
G1 X136.949 Y126.165 E2.55252
G1 X138.498 Y125.505 E2.66715
G1 X140.279 Y126.181 E2.79683
G1 X141.078 Y127.390 E2.89549
G1 X140.567 Y127.627 F7200.000
G1 X140.567 Y135.060 E3.40163 F540.000
G1 X139.676 Y135.209 E3.46317
G1 X138.534 Y135.274 E3.54104
G1 X137.404 Y135.209 E3.61808
G1 X136.891 Y135.128 E3.65345
G1 X136.840 Y135.082 E3.65814
G1 X136.525 Y134.910 E3.68259
G1 X136.525 Y127.587 E4.18126
G1 X137.297 Y126.622 E4.26538
G1 X138.510 Y126.106 E4.35519
G1 X139.913 Y126.638 E4.45737
G1 X140.521 Y127.557 E4.53239
G1 X141.094 Y127.807 F7200.000
G1 F1800.000 E3.53239
G92 E0
G1 X142.137 Y126.058 F7200.000
G1 E1.00000 F1800.000
G1 X142.986 Y126.703 E1.07265 F540.000
G1 X143.774 Y127.663 E1.15722
G1 X144.354 Y128.748 E1.24096
G1 X144.710 Y129.933 E1.32521
G1 X144.829 Y131.149 E1.40843
G1 X144.711 Y132.371 E1.49197
G1 X144.351 Y133.561 E1.57664
G1 X143.764 Y134.655 E1.66119
G1 X143.001 Y135.582 E1.74295
G1 X142.138 Y136.279 E1.81850
G1 X141.693 Y136.554 E1.85414
G1 X140.941 Y136.956 E1.91216
G1 X139.773 Y137.310 E1.99530
G1 X138.546 Y137.432 E2.07926
G1 X137.322 Y137.311 E2.16297
G1 X136.125 Y136.948 E2.24813
G1 X134.997 Y136.377 E2.33428
G1 X134.101 Y135.598 E2.41511
G1 X133.309 Y134.634 E2.50002
G1 X132.738 Y133.557 E2.58304
G1 X132.380 Y132.379 E2.66689
G1 X132.258 Y131.162 E2.75018
G1 X132.379 Y129.932 E2.83433
G1 X132.735 Y128.751 E2.91831
G1 X133.320 Y127.653 E3.00303
G1 X134.099 Y126.706 E3.08651
G1 X135.039 Y125.929 E3.16954
G1 X136.138 Y125.344 E3.25432
G1 X137.319 Y124.986 E3.33834
G1 X138.552 Y124.866 E3.42270
G1 X139.768 Y124.987 E3.50594
G1 X140.947 Y125.343 E3.58975
G1 X141.960 Y125.925 E3.66933
G1 X142.070 Y126.008 E3.67869
G1 X142.472 Y125.613 F7200.000
G1 X143.385 Y126.311 E3.75694 F540.000
G1 X144.238 Y127.349 E3.84848
G1 X144.870 Y128.532 E3.93982
G1 X145.259 Y129.820 E4.03137
G1 X145.388 Y131.152 E4.12251
G1 X145.259 Y132.484 E4.21364
G1 X144.869 Y133.773 E4.30536
G1 X144.235 Y134.960 E4.39698
G1 X143.390 Y135.987 E4.48753
G1 X142.453 Y136.740 E4.56942
G1 X141.964 Y137.041 E4.60851
G1 X141.158 Y137.471 E4.67070
G1 X139.880 Y137.860 E4.76164
G1 X138.546 Y137.992 E4.85295
G1 X137.213 Y137.860 E4.94418
G1 X135.921 Y137.469 E5.03605
G1 X134.686 Y136.844 E5.13028
G1 X133.704 Y135.992 E5.21883
G1 X132.848 Y134.952 E5.31055
G1 X132.221 Y133.772 E5.40156
G1 X131.831 Y132.487 E5.49300
G1 X131.699 Y131.156 E5.58405
G1 X131.831 Y129.819 E5.67553
G1 X132.220 Y128.533 E5.76700
G1 X132.852 Y127.346 E5.85860
G1 X133.703 Y126.312 E5.94982
G1 X134.652 Y125.526 E6.03373
G1 X134.705 Y125.458 E6.03959
G1 X134.834 Y125.407 E6.04899
G1 X135.925 Y124.827 E6.13313
G1 X137.207 Y124.438 E6.22436
G1 X138.548 Y124.307 E6.31612
G1 X139.879 Y124.438 E6.40718
G1 X141.164 Y124.826 E6.49856
G1 X142.267 Y125.459 E6.58519
G1 X142.405 Y125.563 E6.59692
G1 X142.402 Y126.165 F7200.000
G1 F1800.000 E5.59692
G92 E0
G1 X141.243 Y110.526 F7200.000
G1 E1.00000 F1800.000
G1 X139.687 Y110.633 E1.10619 F540.000
G1 X138.142 Y110.526 E1.21163
G1 X136.650 Y110.196 E1.31568
G1 X135.795 Y109.877 E1.37779
G1 X135.368 Y109.549 E1.41450
G1 X135.368 Y101.099 E1.98990
G1 X135.774 Y100.787 E2.02474
G1 X136.650 Y100.447 E2.08875
G1 X138.141 Y100.127 E2.19259
G1 X139.687 Y100.015 E2.29812
G1 X141.243 Y100.127 E2.40432
G1 X142.729 Y100.447 E2.50783
G1 X143.328 Y100.677 E2.55153
G1 X144.018 Y101.073 E2.60571
G1 X144.018 Y109.578 E3.18485
G1 X143.316 Y109.980 E3.23999
G1 X142.741 Y110.193 E3.28169
G1 X141.324 Y110.508 E3.38054
G1 X141.023 Y111.038 F7200.000
G1 X141.322 Y111.079 F7200.000
G1 X143.386 Y110.618 E3.52455 F540.000
G1 X143.503 Y110.891 E3.54476
G1 X142.451 Y111.590 E3.63079
G1 X141.118 Y111.995 E3.72569
G1 X139.689 Y112.132 E3.82343
G1 X138.262 Y111.995 E3.92105
G1 X136.931 Y111.590 E4.01575
G1 X135.886 Y110.891 E4.10138
G1 X136.002 Y110.621 E4.12142
G1 X138.064 Y111.079 E4.26528
G1 X139.685 Y111.192 E4.37593
G1 X141.239 Y111.084 E4.48194
G1 F1800.000 E3.48194
G92 E0
G1 X144.575 Y110.340 F7200.000
G1 E1.00000 F1800.000
G1 X144.575 Y100.750 E1.65305 F1080.000
G1 X143.586 Y100.183 E1.73067
G1 X142.887 Y99.912 E1.78176
G1 X141.322 Y99.575 E1.89075
G1 X139.686 Y99.457 E2.00244
G1 X138.062 Y99.574 E2.11331
G1 X136.491 Y99.912 E2.22272
G1 X135.481 Y100.310 E2.29665
G1 X134.810 Y100.824 E2.35416
G1 X134.810 Y110.338 E3.00203
G1 X133.610 Y108.881 E3.13058
G1 X132.935 Y107.618 E3.22809
G1 X132.519 Y106.250 E3.32547
G1 X132.381 Y104.824 E3.42300
G1 X132.518 Y103.398 E3.52058
G1 X132.936 Y102.025 E3.61831
G1 X133.611 Y100.760 E3.71592
G1 X134.510 Y99.662 E3.81253
G1 X135.432 Y99.047 E3.88804
G1 X138.263 Y98.182 E4.08955
G1 X139.687 Y98.039 E4.18707
G1 X141.117 Y98.182 E4.28489
G1 X143.934 Y99.042 E4.48544
G1 X144.890 Y99.682 E4.56378
G1 X145.769 Y100.754 E4.65816
G1 X146.445 Y102.025 E4.75618
G1 X146.865 Y103.397 E4.85387
G1 X147.002 Y104.824 E4.95153
G1 X146.865 Y106.250 E5.04904
G1 X146.445 Y107.620 E5.14659
G1 X145.769 Y108.882 E5.24412
G1 X144.628 Y110.276 E5.36675
G1 X145.268 Y110.374 F7200.000
G1 X142.691 Y112.099 E5.57790 F540.000
G1 X141.227 Y112.544 E5.68213
G1 X139.688 Y112.692 E5.78738
G1 X138.153 Y112.544 E5.89239
G1 X136.690 Y112.099 E5.99651
G1 X134.118 Y110.374 E6.20736
G1 X133.145 Y109.193 E6.31162
G1 X132.419 Y107.833 E6.41656
G1 X131.969 Y106.359 E6.52149
G1 X131.822 Y104.824 E6.62647
G1 X131.969 Y103.288 E6.73158
G1 X132.419 Y101.811 E6.83672
G1 X133.145 Y100.449 E6.94178
G1 X134.132 Y99.245 E7.04779
G1 X136.261 Y97.823 E7.22211
G1 X136.261 Y98.211 E7.24853
G1 X138.153 Y97.633 E7.38327
G1 X139.687 Y97.479 E7.48827
G1 X141.226 Y97.633 E7.59359
G1 X143.121 Y98.212 E7.72845
G1 X143.121 Y97.831 E7.75439
G1 X145.268 Y99.265 E7.93024
G1 X146.235 Y100.443 E8.03399
G1 X146.962 Y101.811 E8.13949
G1 X147.414 Y103.287 E8.24463
G1 X147.562 Y104.824 E8.34977
G1 X147.414 Y106.359 E8.45475
G1 X146.962 Y107.834 E8.55977
G1 X146.235 Y109.193 E8.66475
G1 X145.321 Y110.309 E8.76299
G1 X144.746 Y110.178 F7200.000
G1 F1800.000 E7.76299
G92 E0
G1 X156.155 Y107.897 F7200.000
G1 E1.00000 F1800.000
G1 X156.155 Y99.361 E1.58124 F540.000
G1 X156.728 Y99.063 E1.62523
G1 X157.561 Y98.746 E1.68588
G1 X159.064 Y98.419 E1.79062
G1 X160.611 Y98.307 E1.89627
G1 X162.157 Y98.419 E2.00182
G1 X163.608 Y98.733 E2.10285
G1 X164.216 Y98.953 E2.14690
G1 X164.986 Y99.363 E2.20627
G1 X164.986 Y107.893 E2.78708
G1 X164.214 Y108.303 E2.84654
G1 X163.647 Y108.517 E2.88786
G1 X162.158 Y108.838 E2.99154
G1 X160.610 Y108.951 E3.09725
G1 X159.063 Y108.838 E3.20286
G1 X157.574 Y108.517 E3.30657
G1 X156.747 Y108.197 E3.36700
G1 X156.229 Y107.934 E3.40649
G1 X155.605 Y107.810 F7200.000
G1 X155.598 Y108.238 F7200.000
G1 X156.519 Y108.707 E3.47687 F1080.000
G1 X157.414 Y109.053 E3.54221
G1 X158.983 Y109.391 E3.65148
G1 X160.606 Y109.509 E3.76232
G1 X162.238 Y109.391 E3.87372
G1 X163.805 Y109.053 E3.98289
G1 X164.440 Y108.813 E4.02913
G1 X165.543 Y108.227 E4.11410
G1 X165.543 Y98.668 E4.76503
G1 X166.683 Y100.058 E4.88746
G1 X167.359 Y101.318 E4.98484
G1 X167.772 Y102.691 E5.08248
G1 X167.917 Y104.118 E5.18015
G1 X167.772 Y105.543 E5.27765
G1 X167.359 Y106.912 E5.37505
G1 X166.682 Y108.175 E5.47259
G1 X165.796 Y109.258 E5.56788
G1 X164.928 Y109.872 E5.64029
G1 X162.035 Y110.751 E5.84620
G1 X160.613 Y110.888 E5.94347
G1 X159.186 Y110.745 E6.04111
G1 X156.630 Y109.978 E6.22282
G1 X156.630 Y110.171 E6.23594
G1 X155.438 Y109.269 E6.33775
G1 X154.538 Y108.174 E6.43421
G1 X153.866 Y106.906 E6.53195
G1 X153.448 Y105.541 E6.62914
G1 X153.311 Y104.119 E6.72646
G1 X153.449 Y102.691 E6.82409
G1 X153.865 Y101.319 E6.92178
G1 X154.539 Y100.056 E7.01922
G1 X155.598 Y98.771 E7.13261
G1 X155.598 Y108.155 E7.77158
G1 F1800.000 E6.77158
G92 E0
G1 X156.939 Y98.311 F7200.000
G1 E1.00000 F1800.000
G1 X156.826 Y98.043 E1.01977 F540.000
G1 X157.856 Y97.357 E1.10406
G1 X159.187 Y96.956 E1.19871
G1 X160.613 Y96.815 E1.29631
G1 X162.035 Y96.956 E1.39355
G1 X163.385 Y97.362 E1.48959
G1 X164.489 Y98.040 E1.57774
G1 X164.369 Y98.334 E1.59936
G1 X162.235 Y97.866 E1.74812
G1 X160.610 Y97.749 E1.85904
G1 X158.985 Y97.867 E1.96998
G1 X157.021 Y98.293 E2.10687
G1 X156.624 Y97.510 F7200.000
G1 X157.616 Y96.848 E2.18806 F540.000
G1 X159.078 Y96.407 E2.29200
G1 X160.613 Y96.255 E2.39705
G1 X162.143 Y96.407 E2.50178
G1 X163.615 Y96.850 E2.60641
G1 X164.519 Y97.405 E2.67866
G1 X166.180 Y98.567 E2.81667
G1 X167.148 Y99.747 E2.92060
G1 X167.877 Y101.104 E3.02549
G1 X168.321 Y102.583 E3.13064
G1 X168.477 Y104.118 E3.23574
G1 X168.321 Y105.652 E3.34067
G1 X167.877 Y107.126 E3.44556
G1 X167.148 Y108.486 E3.55059
G1 X166.179 Y109.669 E3.65470
G1 X164.520 Y110.845 E3.79317
G1 X164.036 Y111.132 E3.83151
G1 X164.036 Y110.725 E3.85917
G1 X162.143 Y111.301 E3.99384
G1 X160.612 Y111.448 E4.09858
G1 X159.077 Y111.294 E4.20364
G1 X157.187 Y110.727 E4.33801
G1 X157.187 Y111.160 E4.36749
G1 X156.617 Y110.860 E4.41132
