; generated by Slic3r 1.0.0RC3 on 2014-03-11 at 09:56:32

; layer_height = 0.3
; perimeters = 2
; top_solid_layers = 3
; bottom_solid_layers = 3
; fill_density = 0.1
; perimeter_speed = 60
; infill_speed = 60
; travel_speed = 120
; nozzle_diameter = 0.4
; filament_diameter = 1.75
; extrusion_multiplier = 0.98
; perimeters extrusion width = 0.40mm
; infill extrusion width = 0.42mm
; solid infill extrusion width = 0.42mm
; top infill extrusion width = 0.42mm
; first layer extrusion width = 0.60mm

G21 ; set units to millimeters
M107
M104 S220 ; set temperature
G28 ; home all axes
M106 S255;
G1 Z200 F1200 ; lift nozzle
M109 S220 ; wait for temperature to be reached
G90 ; use absolute coordinates
G92 E0
M82 ; use absolute distances for extrusion
G1 F1800.000 E-1.00000
G92 E0
G1 Z0.300 F7200.000
G1 X113.981 Y78.123 F7200.000
G1 E1.00000 F1800.000
G1 X114.321 Y77.653 E1.03950 F1080.000
G1 X114.701 Y77.213 E1.07909
G1 X120.471 Y71.113 E1.65083
G1 X121.201 Y70.483 E1.71649
G1 X127.791 Y65.593 E2.27526
G1 X128.701 Y65.033 E2.34802
G1 X129.681 Y64.623 E2.42036
G1 X136.971 Y62.263 E2.94211
G1 X137.721 Y62.073 E2.99480
G1 X138.491 Y61.963 E3.04776
G1 X161.721 Y60.193 E4.63413
G1 X162.651 Y60.193 E4.69746
G1 X169.841 Y60.663 E5.18809
G1 X171.371 Y60.943 E5.29400
G1 X172.781 Y61.583 E5.39944
G1 X179.231 Y65.453 E5.91162
G1 X179.761 Y65.803 E5.95487
G1 X180.261 Y66.213 E5.99890
G1 X185.721 Y71.153 E6.50027
G1 X186.231 Y71.663 E6.54938
G1 X186.671 Y72.223 E6.59787
G1 X190.921 Y78.233 E7.09909
G1 X191.301 Y78.833 E7.14745
G1 X191.611 Y79.473 E7.19588
G1 X194.501 Y86.313 E7.70150
G1 X194.741 Y86.963 E7.74868
G1 X194.901 Y87.643 E7.79624
G1 X196.311 Y95.063 E8.31053
G1 X196.401 Y95.723 E8.35589
G1 X196.431 Y96.393 E8.40156
G1 X196.301 Y104.103 E8.92662
G1 X196.251 Y104.743 E8.97033
G1 X196.151 Y105.363 E9.01310
G1 X194.501 Y113.063 E9.54931
G1 X194.341 Y113.663 E9.59159
G1 X194.131 Y114.243 E9.63360
G1 X191.011 Y121.643 E10.18044
G1 X190.761 Y122.173 E10.22034
G1 X190.461 Y122.683 E10.26063
G1 X186.001 Y129.493 E10.81493
G1 X185.661 Y129.963 E10.85443
G1 X185.281 Y130.403 E10.89402
G1 X179.651 Y136.363 E11.45229
G1 X179.231 Y136.773 E11.49226
G1 X178.781 Y137.133 E11.53150
G1 X172.191 Y142.013 E12.08986
G1 X171.711 Y142.343 E12.12953
G1 X171.201 Y142.623 E12.16914
G1 X163.901 Y146.233 E12.72368
G1 X163.361 Y146.463 E12.76364
G1 X162.801 Y146.653 E12.80391
G1 X155.091 Y148.873 E13.35023
G1 X154.491 Y149.013 E13.39219
G1 X153.881 Y149.103 E13.43417
G1 X146.041 Y149.823 E13.97026
G1 X145.401 Y149.853 E14.01389
G1 X144.761 Y149.813 E14.05755
G1 X137.091 Y149.013 E14.58266
G1 X136.431 Y148.913 E14.62811
G1 X135.791 Y148.743 E14.67320
G1 X128.591 Y146.463 E15.18746
G1 X127.941 Y146.223 E15.23464
G1 X127.321 Y145.913 E15.28184
G1 X120.871 Y142.233 E15.78749
G1 X120.271 Y141.843 E15.83622
G1 X119.721 Y141.393 E15.88461
G1 X114.261 Y136.453 E16.38598
G1 X113.751 Y135.943 E16.43509
G1 X113.311 Y135.383 E16.48358
G1 X109.061 Y129.373 E16.98481
G1 X108.681 Y128.763 E17.03374
G1 X108.371 Y128.123 E17.08216
G1 X105.491 Y121.283 E17.58752
G1 X105.251 Y120.633 E17.63470
G1 X105.091 Y119.963 E17.68160
G1 X103.681 Y112.543 E18.19589
G1 X103.591 Y111.883 E18.24125
G1 X103.561 Y111.223 E18.28623
G1 X103.681 Y103.513 E18.81129
G1 X103.731 Y102.863 E18.85568
G1 X103.831 Y102.233 E18.89912
G1 X105.491 Y94.533 E19.43547
G1 X105.651 Y93.943 E19.47710
G1 X105.861 Y93.373 E19.51846
G1 X108.971 Y85.983 E20.06441
G1 X109.221 Y85.443 E20.10493
G1 X109.521 Y84.933 E20.14522
G1 X113.935 Y78.193 E20.69383
G1 F1800.000 E19.69383
G92 E0
G1 X138.411 Y79.412 F7200.000
G1 E1.00000 F1800.000
G1 X160.066 Y79.457 E2.47458 F1080.000
G1 X160.018 Y90.966 E3.25829
G1 X138.432 Y90.921 E4.72814
G1 X138.411 Y79.495 E5.50616
G1 X138.969 Y79.970 F7200.000
G1 X159.507 Y80.013 E6.90465 F540.000
G1 X159.463 Y90.408 E7.61249
G1 X138.988 Y90.365 E9.00671
G1 X138.969 Y80.054 E9.70886
G1 X138.969 Y79.413 F7200.000
G1 F1800.000 E8.70886
G92 E0
G1 X152.625 Y114.551 F7200.000
G1 E1.00000 F1800.000
G1 X162.293 Y125.451 E1.99204 F1080.000
G1 X151.394 Y135.118 E2.98409
G1 X141.726 Y124.219 E3.97613
G1 X152.563 Y114.607 E4.96249
G1 X152.578 Y115.338 F7200.000
G1 X161.507 Y125.404 E5.87867 F540.000
G1 X151.441 Y134.332 E6.79485
G1 X142.512 Y124.266 E7.71103
G1 X152.516 Y115.393 E8.62152
G1 X152.995 Y114.968 F7200.000
G1 F1800.000 E7.62152
G92 E0
G1 X160.800 Y139.505 F7200.000
G1 E1.00000 F1800.000
G1 X160.689 Y139.560 E1.00846 F1080.000
G1 X153.125 Y141.728 E1.54422
G1 X145.447 Y142.435 E2.06927
G1 X137.950 Y141.657 E2.58245
G1 X130.923 Y139.429 E3.08442
G1 X124.633 Y135.839 E3.57762
G1 X119.315 Y131.026 E4.06601
G1 X115.171 Y125.172 E4.55440
G1 X112.357 Y118.498 E5.04760
G1 X110.983 Y111.255 E5.54956
G1 X111.105 Y103.719 E6.06275
G1 X112.723 Y96.180 E6.58779
G1 X115.779 Y88.929 E7.12355
G1 X120.155 Y82.249 E7.66736
G1 X125.685 Y76.399 E8.21550
G1 X132.101 Y71.645 E8.75925
G1 X139.021 Y69.406 E9.25452
G1 X146.330 Y71.333 E9.76918
G1 X146.632 Y71.392 E9.79014
G1 X154.759 Y71.352 E10.34357
G1 X162.370 Y67.607 E10.92116
G1 X169.152 Y68.051 E11.38396
G1 X175.357 Y71.774 E11.87663
G1 X180.681 Y76.594 E12.36566
G1 X184.825 Y82.448 E12.85405
G1 X187.639 Y89.122 E13.34725
G1 X189.013 Y96.365 E13.84922
G1 X188.891 Y103.900 E14.36240
G1 X187.273 Y111.439 E14.88745
G1 X184.217 Y118.690 E15.42321
G1 X179.841 Y125.370 E15.96702
G1 X174.312 Y131.220 E16.51514
G1 X167.844 Y136.012 E17.06325
G1 X160.875 Y139.468 E17.59291
G1 X161.047 Y140.004 F7200.000
G1 X160.891 Y140.082 E17.60482 F540.000
G1 X153.228 Y142.278 E18.14759
G1 X145.444 Y142.995 E18.67991
G1 X137.836 Y142.206 E19.20069
G1 X130.699 Y139.942 E19.71056
G1 X124.304 Y136.293 E20.21192
G1 X118.896 Y131.398 E20.70861
G1 X114.681 Y125.444 E21.20531
G1 X111.821 Y118.659 E21.70667
G1 X110.425 Y111.303 E22.21654
G1 X110.549 Y103.656 E22.73731
G1 X112.190 Y96.012 E23.26963
G1 X115.285 Y88.666 E23.81240
G1 X119.716 Y81.902 E24.36303
G1 X125.313 Y75.980 E24.91789
G1 X131.843 Y71.143 E25.47119
G1 X139.005 Y68.825 E25.98381
G1 X146.454 Y70.790 E26.50834
G1 X146.684 Y70.834 E26.52432
G1 X154.626 Y70.797 E27.06511
G1 X162.273 Y67.042 E27.64515
G1 X169.325 Y67.505 E28.12642
G1 X175.690 Y71.324 E28.63183
G1 X181.100 Y76.222 E29.12875
G1 X185.315 Y82.175 E29.62545
G1 X188.176 Y88.960 E30.12681
G1 X189.571 Y96.317 E30.63668
G1 X189.447 Y103.964 E31.15745
G1 X187.806 Y111.607 E31.68978
G1 X184.711 Y118.953 E32.23254
G1 X180.280 Y125.717 E32.78317
G1 X174.683 Y131.639 E33.33801
G1 X168.135 Y136.489 E33.89284
G1 X161.122 Y139.967 E34.42587
G1 X160.902 Y139.907 F7200.000
G1 F1800.000 E33.42587
G92 E0
G1 X150.884 Y135.137 F7200.000
G1 E1.00000 F1800.000
G1 X112.914 Y97.168 E4.66966 F1080.000
G1 F1800.000 E3.66966
G92 E0
G1 X120.119 Y83.023 F7200.000
G1 E1.00000 F1800.000
G1 X151.828 Y114.732 E4.06462 F1080.000
G1 X151.409 Y115.104 E4.10290
G1 X119.806 Y83.501 E7.15727
G1 X119.493 Y83.979 E7.19630
G1 X150.990 Y115.476 E10.24043
G1 X150.571 Y115.847 E10.27870
G1 X119.180 Y84.456 E13.31257
G1 X118.867 Y84.934 E13.35160
G1 X150.152 Y116.219 E16.37523
G1 X149.733 Y116.591 E16.41350
G1 X118.554 Y85.412 E19.42687
G1 X118.241 Y85.889 E19.46590
G1 X149.314 Y116.962 E22.46903
G1 X148.895 Y117.334 E22.50730
G1 X117.928 Y86.367 E25.50017
G1 X117.615 Y86.845 E25.53920
G1 X148.476 Y117.706 E28.52182
G1 X148.057 Y118.077 E28.56010
G1 X117.302 Y87.323 E31.53247
G1 X116.989 Y87.800 E31.57150
G1 X147.638 Y118.449 E34.53362
G1 X147.219 Y118.821 E34.57190
G1 X116.676 Y88.278 E37.52377
G1 X116.363 Y88.756 E37.56280
G1 X146.800 Y119.192 E40.50441
G1 X146.381 Y119.564 E40.54269
G1 X116.070 Y89.253 E43.47218
G1 X115.835 Y89.809 E43.51343
G1 X145.962 Y119.936 E46.42508
G1 X145.542 Y120.307 E46.46335
G1 X115.601 Y90.366 E49.35715
G1 X115.366 Y90.922 E49.39841
G1 X145.123 Y120.679 E52.27436
G1 X144.704 Y121.051 E52.31264
G1 X115.132 Y91.478 E55.17075
G1 X114.898 Y92.035 E55.21201
G1 X144.285 Y121.422 E58.05228
G1 X143.866 Y121.794 E58.09055
G1 X114.663 Y92.591 E60.91298
G1 X114.429 Y93.147 E60.95423
G1 X143.447 Y122.166 E63.75881
G1 X143.028 Y122.537 E63.79709
G1 X114.194 Y93.703 E66.58382
G1 X113.960 Y94.260 E66.62508
G1 X142.609 Y122.909 E69.39397
G1 X142.190 Y123.281 E69.43225
G1 X113.726 Y94.816 E72.18330
G1 X113.491 Y95.372 E72.22455
G1 X141.771 Y123.652 E74.95775
G1 X141.352 Y124.024 E74.99603
G1 X113.257 Y95.929 E77.71139
G1 X113.054 Y96.517 E77.75390
G1 X144.677 Y128.139 E80.81017
G1 F1800.000 E79.81017
G92 E0
G1 X152.247 Y114.361 F7200.000
G1 E1.00000 F1800.000
G1 X120.432 Y82.545 E4.07487 F1080.000
G1 X120.808 Y82.131 E4.11313
G1 X171.494 Y132.817 E9.01182
G1 X171.948 Y132.481 E9.05045
G1 X121.192 Y81.725 E13.95592
G1 X121.577 Y81.318 E13.99414
G1 X172.403 Y132.144 E18.90637
G1 X172.857 Y131.808 E18.94500
G1 X121.961 Y80.912 E23.86399
G1 X122.345 Y80.505 E23.90221
G1 X173.311 Y131.471 E28.82797
G1 X173.765 Y131.135 E28.86660
G1 X122.729 Y80.099 E33.79912
G1 X123.113 Y79.692 E33.83734
G1 X174.190 Y130.769 E38.77381
G1 X174.577 Y130.366 E38.81203
G1 X123.498 Y79.286 E43.74878
G1 X123.882 Y78.879 E43.78700
G1 X174.962 Y129.959 E48.72375
G1 X175.346 Y129.553 E48.76198
G1 X124.266 Y78.473 E53.69872
G1 X124.650 Y78.066 E53.73695
G1 X175.730 Y129.146 E58.67370
G1 X176.114 Y128.740 E58.71192
G1 X138.690 Y91.316 E62.32886
G1 X139.483 Y91.317 E62.38301
G1 X176.499 Y128.333 E65.96050
G1 X176.883 Y127.927 E65.99873
G1 X140.275 Y91.319 E69.53677
G1 X141.067 Y91.321 E69.59092
G1 X177.267 Y127.520 E73.08953
G1 X177.651 Y127.114 E73.12775
G1 X141.860 Y91.322 E76.58691
G1 X142.652 Y91.324 E76.64106
G1 X178.035 Y126.707 E80.06077
G1 X178.420 Y126.301 E80.09900
G1 X143.444 Y91.326 E83.47927
G1 X144.237 Y91.327 E83.53342
G1 X178.804 Y125.894 E86.87424
G1 X179.188 Y125.488 E86.91247
G1 X145.029 Y91.329 E90.21385
G1 X145.821 Y91.331 E90.26800
G1 X179.565 Y125.074 E93.52919
G1 X179.877 Y124.596 E93.56822
G1 X146.614 Y91.332 E96.78308
G1 X147.406 Y91.334 E96.83723
G1 X180.190 Y124.118 E100.00576
G1 X180.503 Y123.640 E100.04479
G1 X148.198 Y91.336 E103.16699
G1 X148.991 Y91.337 E103.22114
G1 X180.816 Y123.163 E106.29701
G1 X181.129 Y122.685 E106.33604
G1 X149.783 Y91.339 E109.36558
G1 X150.575 Y91.340 E109.41973
G1 X181.442 Y122.207 E112.40294
G1 X181.755 Y121.730 E112.44197
G1 X151.368 Y91.342 E115.37885
G1 X152.160 Y91.344 E115.43300
G1 X182.068 Y121.252 E118.32355
G1 X182.381 Y120.774 E118.36258
G1 X152.952 Y91.345 E121.20680
G1 X153.745 Y91.347 E121.26095
G1 X182.694 Y120.296 E124.05884
G1 X183.007 Y119.819 E124.09787
G1 X154.537 Y91.349 E126.84943
G1 X155.329 Y91.350 E126.90358
G1 X183.320 Y119.341 E129.60881
G1 X183.633 Y118.863 E129.64784
G1 X156.122 Y91.352 E132.30674
G1 X156.914 Y91.354 E132.36089
G1 X183.927 Y118.366 E134.97157
G1 X184.161 Y117.810 E135.01283
G1 X157.706 Y91.355 E137.56959
G1 X158.499 Y91.357 E137.62374
G1 X184.395 Y117.253 E140.12657
G1 X184.630 Y116.697 E140.16783
G1 X159.291 Y91.358 E142.61674
G1 X160.084 Y91.360 E142.67089
G1 X184.864 Y116.141 E145.06588
G1 X185.099 Y115.584 E145.10713
G1 X160.412 Y90.898 E147.49305
G1 X160.415 Y90.110 E147.54686
G1 X185.333 Y115.028 E149.95510
G1 X185.567 Y114.472 E149.99636
G1 X160.418 Y89.323 E152.42694
G1 X160.422 Y88.536 E152.48075
G1 X185.802 Y113.916 E154.93366
G1 X186.036 Y113.359 E154.97492
G1 X160.425 Y87.748 E157.45017
G1 X160.428 Y86.961 E157.50398
G1 X186.271 Y112.803 E160.00156
G1 X186.505 Y112.247 E160.04281
G1 X160.432 Y86.173 E162.56273
G1 X160.435 Y85.386 E162.61654
G1 X186.739 Y111.690 E165.15879
G1 X186.942 Y111.102 E165.20129
G1 X160.438 Y84.599 E167.76282
G1 X160.442 Y83.811 E167.81663
G1 X187.082 Y110.451 E170.39133
G1 X187.221 Y109.800 E170.43683
G1 X160.445 Y83.024 E173.02472
G1 X160.448 Y82.237 E173.07853
G1 X187.361 Y109.149 E175.67960
G1 X187.501 Y108.498 E175.72510
G1 X160.452 Y81.449 E178.33936
G1 X160.455 Y80.662 E178.39317
G1 X187.641 Y107.848 E181.02061
G1 X187.780 Y107.197 E181.06611
G1 X160.458 Y79.874 E183.70673
G1 X160.462 Y79.087 E183.76054
G1 X187.920 Y106.546 E186.41434
G1 X188.060 Y105.895 E186.45985
G1 X153.915 Y71.750 E189.75983
G1 X153.128 Y71.754 E189.81360
G1 X160.438 Y79.064 E190.52006
G1 X159.646 Y79.062 E190.57421
G1 X152.342 Y71.758 E191.28014
G1 X151.555 Y71.762 E191.33392
G1 X158.853 Y79.060 E192.03932
G1 X158.061 Y79.059 E192.09347
G1 X150.768 Y71.765 E192.79834
G1 X149.981 Y71.769 E192.85212
G1 X157.269 Y79.057 E193.55647
G1 X156.476 Y79.055 E193.61061
G1 X149.194 Y71.773 E194.31444
G1 X148.407 Y71.777 E194.36821
G1 X155.684 Y79.054 E195.07150
G1 X154.892 Y79.052 E195.12565
G1 X147.620 Y71.781 E195.82842
G1 X146.833 Y71.785 E195.88219
G1 X154.099 Y79.050 E196.58443
G1 X153.307 Y79.049 E196.63858
G1 X145.880 Y71.622 E197.35640
G1 X144.806 Y71.338 E197.43230
G1 X152.515 Y79.047 E198.17732
G1 X151.722 Y79.046 E198.23147
G1 X143.732 Y71.055 E199.00371
G1 X142.658 Y70.772 E199.07961
G1 X150.930 Y79.044 E199.87906
G1 X150.138 Y79.042 E199.93321
G1 X141.584 Y70.489 E200.75986
G1 X140.511 Y70.206 E200.83576
G1 X149.345 Y79.041 E201.68963
G1 X148.553 Y79.039 E201.74378
G1 X139.437 Y69.923 E202.62486
G1 X138.660 Y69.937 E202.67794
G1 X147.761 Y79.037 E203.55751
G1 X146.968 Y79.036 E203.61166
G1 X138.063 Y70.130 E204.47238
G1 X137.465 Y70.323 E204.51529
G1 X146.176 Y79.034 E205.35718
G1 X145.384 Y79.032 E205.41132
G1 X136.868 Y70.517 E206.23437
G1 X136.270 Y70.710 E206.27727
G1 X144.591 Y79.031 E207.08147
G1 X143.799 Y79.029 E207.13562
G1 X135.673 Y70.903 E207.92098
G1 X135.076 Y71.096 E207.96389
G1 X143.007 Y79.028 E208.73040
G1 X142.214 Y79.026 E208.78455
G1 X134.478 Y71.290 E209.53223
G1 X133.881 Y71.483 E209.57514
G1 X141.422 Y79.024 E210.30397
G1 X140.630 Y79.023 E210.35812
G1 X133.284 Y71.676 E211.06811
G1 X132.686 Y71.870 E211.11102
G1 X139.837 Y79.021 E211.80216
G1 X139.045 Y79.019 E211.85631
G1 X132.135 Y72.110 E212.52411
G1 X131.681 Y72.446 E212.56274
G1 X138.253 Y79.018 E213.19785
G1 X138.017 Y79.573 E213.23906
G1 X131.227 Y72.783 E213.89529
G1 X130.773 Y73.119 E213.93392
G1 X138.018 Y80.365 E214.63419
G1 X138.020 Y81.157 E214.68833
G1 X130.319 Y73.456 E215.43264
G1 X129.864 Y73.792 E215.47127
G1 X138.021 Y81.949 E216.25962
G1 X138.023 Y82.741 E216.31375
G1 X129.410 Y74.129 E217.14614
G1 X128.956 Y74.465 E217.18477
G1 X138.024 Y83.533 E218.06119
G1 X138.026 Y84.326 E218.11533
G1 X128.502 Y74.802 E219.03579
G1 X128.048 Y75.138 E219.07442
G1 X138.027 Y85.118 E220.03891
G1 X138.029 Y85.910 E220.09305
G1 X127.593 Y75.475 E221.10159
G1 X127.139 Y75.811 E221.14022
G1 X138.030 Y86.702 E222.19279
G1 X138.032 Y87.494 E222.24692
G1 X126.685 Y76.148 E223.34353
G1 X126.231 Y76.484 E223.38217
G1 X138.033 Y88.286 E224.52281
G1 X138.034 Y89.078 E224.57695
G1 X125.806 Y76.850 E225.75882
G1 X125.419 Y77.253 E225.79703
G1 X138.036 Y89.871 E227.01646
G1 X138.037 Y90.663 E227.07059
G1 X125.034 Y77.660 E228.32729
G1 F1800.000 E227.32729
G92 E0
G1 X154.702 Y71.746 F7200.000
G1 E1.00000 F1800.000
G1 X188.200 Y105.244 E4.23744 F1080.000
G1 X188.339 Y104.593 E4.28294
G1 X155.281 Y71.534 E7.47794
G1 X155.811 Y71.274 E7.51830
G1 X188.479 Y103.942 E10.67559
G1 X188.508 Y103.180 E10.72765
G1 X156.341 Y71.013 E13.83657
G1 X156.871 Y70.752 E13.87693
G1 X188.521 Y102.402 E16.93586
G1 X188.534 Y101.624 E16.98904
G1 X157.401 Y70.491 E19.99797
G1 X157.931 Y70.231 E20.03833
G1 X188.546 Y100.846 E22.99727
G1 X188.559 Y100.068 E23.05045
G1 X158.461 Y69.970 E25.95939
G1 X158.991 Y69.709 E25.99975
G1 X188.572 Y99.290 E28.85869
G1 X188.584 Y98.512 E28.91187
G1 X159.521 Y69.448 E31.72081
G1 X160.050 Y69.188 E31.76118
G1 X188.597 Y97.734 E34.52013
G1 X188.610 Y96.956 E34.57331
G1 X160.580 Y68.927 E37.28226
G1 X161.110 Y68.666 E37.32262
G1 X188.566 Y96.122 E39.97616
G1 X188.381 Y95.146 E40.04404
G1 X161.640 Y68.405 E42.62847
G1 X162.170 Y68.145 E42.66884
G1 X188.196 Y94.170 E45.18416
G1 X188.011 Y93.194 E45.25204
G1 X162.850 Y68.033 E47.68381
G1 X163.696 Y68.089 E47.74176
G1 X187.826 Y92.219 E50.07387
G1 X187.641 Y91.243 E50.14175
G1 X164.542 Y68.144 E52.37419
G1 X165.388 Y68.200 E52.43214
G1 X187.456 Y90.267 E54.56492
G1 X187.270 Y89.291 E54.63280
G1 X166.234 Y68.255 E56.66591
G1 X167.080 Y68.310 E56.72386
