; generated by Slic3r 1.0.0RC3 on 2014-03-11 at 19:44:47

; layer_height = 0.3
; perimeters = 2
; top_solid_layers = 3
; bottom_solid_layers = 3
; fill_density = 0.1
; perimeter_speed = 60
; infill_speed = 60
; travel_speed = 120
; nozzle_diameter = 0.4
; filament_diameter = 1.75
; extrusion_multiplier = 0.98
; perimeters extrusion width = 0.40mm
; infill extrusion width = 0.42mm
; solid infill extrusion width = 0.42mm
; top infill extrusion width = 0.42mm
; first layer extrusion width = 0.60mm

G21 ; set units to millimeters
M107
M104 S220 ; set temperature
G28 ; home all axes
M106 S255;
G1 Z200 F1200 ; lift nozzle
M109 S220 ; wait for temperature to be reached
G90 ; use absolute coordinates
G92 E0
M82 ; use absolute distances for extrusion
G1 F1800.000 E-1.00000
G92 E0
G1 Z0.300 F7200.000
G1 X132.603 Y93.546 F7200.000
G1 E1.00000 F1800.000
G1 X133.413 Y92.546 E1.08763 F1080.000
G1 X134.413 Y91.736 E1.17526
G1 X135.543 Y91.126 E1.26270
G1 X136.773 Y90.756 E1.35016
G1 X138.053 Y90.626 E1.43776
G1 X161.933 Y90.626 E3.06381
G1 X163.213 Y90.756 E3.15142
G1 X164.443 Y91.126 E3.23888
G1 X165.573 Y91.736 E3.32632
G1 X166.573 Y92.546 E3.41394
G1 X167.383 Y93.546 E3.50157
G1 X167.993 Y94.676 E3.58901
G1 X168.363 Y95.906 E3.67647
G1 X168.493 Y97.186 E3.76408
G1 X168.493 Y113.086 E4.84675
G1 X168.363 Y114.366 E4.93436
G1 X167.993 Y115.596 E5.02182
G1 X167.383 Y116.726 E5.10926
G1 X166.573 Y117.726 E5.19688
G1 X165.573 Y118.536 E5.28451
G1 X164.443 Y119.146 E5.37195
G1 X163.213 Y119.516 E5.45941
G1 X161.933 Y119.646 E5.54702
G1 X138.053 Y119.646 E7.17307
G1 X136.773 Y119.516 E7.26067
G1 X135.543 Y119.146 E7.34813
G1 X134.413 Y118.536 E7.43557
G1 X133.413 Y117.726 E7.52320
G1 X132.603 Y116.726 E7.61083
G1 X131.993 Y115.596 E7.69827
G1 X131.623 Y114.366 E7.78573
G1 X131.493 Y113.086 E7.87334
G1 X131.493 Y97.186 E8.95601
G1 X131.623 Y95.906 E9.04361
G1 X131.993 Y94.676 E9.13107
G1 X132.564 Y93.620 E9.21282
G1 F1800.000 E8.21282
G92 E0
G1 X138.919 Y98.052 F7200.000
G1 E1.00000 F1800.000
G1 X161.084 Y98.052 E2.50922 F1080.000
G1 X161.084 Y112.233 E3.47482
G1 X138.919 Y112.233 E4.98404
G1 X138.919 Y98.136 E5.94395
G1 X138.362 Y97.495 F7200.000
G1 X161.641 Y97.495 E7.52904 F540.000
G1 X161.641 Y112.790 E8.57050
G1 X138.362 Y112.790 E10.15559
G1 X138.362 Y97.579 E11.19136
G1 X138.845 Y97.774 F7200.000
G1 F1800.000 E10.19136
G92 E0
G1 X139.333 Y111.839 F7200.000
G1 E1.00000 F1800.000
G1 X139.313 Y111.819 E1.00193 F1080.000
G1 X139.313 Y111.030 E1.05578
G1 X140.123 Y111.839 E1.13386
G1 X140.912 Y111.839 E1.18770
G1 X139.313 Y110.240 E1.34194
G1 X139.313 Y109.451 E1.39578
G1 X141.701 Y111.839 E1.62617
G1 X142.491 Y111.839 E1.68001
G1 X139.313 Y108.662 E1.98655
G1 X139.313 Y107.872 E2.04039
G1 X143.280 Y111.839 E2.42308
G1 X144.069 Y111.839 E2.47692
G1 X139.313 Y107.083 E2.93576
G1 X139.313 Y106.294 E2.98961
G1 X144.858 Y111.839 E3.52459
G1 X145.648 Y111.839 E3.57844
G1 X139.313 Y105.504 E4.18958
G1 X139.313 Y104.715 E4.24342
G1 X146.437 Y111.839 E4.93071
G1 X147.226 Y111.839 E4.98456
G1 X139.313 Y103.926 E5.74800
G1 X139.313 Y103.137 E5.80185
G1 X148.016 Y111.839 E6.64144
G1 X148.805 Y111.839 E6.69528
G1 X139.313 Y102.347 E7.61103
G1 X139.313 Y101.558 E7.66487
G1 X149.594 Y111.839 E8.65677
G1 X150.384 Y111.839 E8.71061
G1 X139.313 Y100.769 E9.77866
G1 X139.313 Y99.979 E9.83250
G1 X151.173 Y111.839 E10.97670
G1 X151.962 Y111.839 E11.03054
G1 X139.313 Y99.190 E12.25089
G1 X139.359 Y98.446 E12.30174
G1 X152.752 Y111.839 E13.59387
G1 X153.541 Y111.839 E13.64771
G1 X140.148 Y98.446 E14.93984
G1 X140.937 Y98.446 E14.99369
G1 X154.330 Y111.839 E16.28581
G1 X155.119 Y111.839 E16.33966
G1 X141.727 Y98.446 E17.63179
G1 X142.516 Y98.446 E17.68564
G1 X155.909 Y111.839 E18.97776
G1 X156.698 Y111.839 E19.03161
G1 X143.305 Y98.446 E20.32374
G1 X144.094 Y98.446 E20.37758
G1 X157.487 Y111.839 E21.66971
G1 X158.277 Y111.839 E21.72356
G1 X144.884 Y98.446 E23.01568
G1 X145.673 Y98.446 E23.06953
G1 X159.066 Y111.839 E24.36166
G1 X159.855 Y111.839 E24.41550
G1 X146.462 Y98.446 E25.70763
G1 X147.252 Y98.446 E25.76148
G1 X160.645 Y111.839 E27.05360
G1 X160.690 Y111.095 E27.10446
G1 X148.041 Y98.446 E28.32480
G1 X148.830 Y98.446 E28.37865
G1 X160.690 Y110.306 E29.52284
G1 X160.690 Y109.516 E29.57668
G1 X149.620 Y98.446 E30.64472
G1 X150.409 Y98.446 E30.69857
G1 X160.690 Y108.727 E31.69046
G1 X160.690 Y107.938 E31.74431
G1 X151.198 Y98.446 E32.66004
G1 X151.988 Y98.446 E32.71389
G1 X160.690 Y107.148 E33.55348
G1 X160.690 Y106.359 E33.60732
G1 X152.777 Y98.446 E34.37076
G1 X153.566 Y98.446 E34.42461
G1 X160.690 Y105.570 E35.11189
G1 X160.690 Y104.780 E35.16574
G1 X154.355 Y98.446 E35.77687
G1 X155.145 Y98.446 E35.83072
G1 X160.690 Y103.991 E36.36570
G1 X160.690 Y103.202 E36.41955
G1 X155.934 Y98.446 E36.87838
G1 X156.723 Y98.446 E36.93223
G1 X160.690 Y102.413 E37.31491
G1 X160.690 Y101.623 E37.36876
G1 X157.513 Y98.446 E37.67529
G1 X158.302 Y98.446 E37.72913
G1 X160.690 Y100.834 E37.95951
G1 X160.690 Y100.045 E38.01336
G1 X159.091 Y98.446 E38.16759
G1 X159.881 Y98.446 E38.22143
G1 X160.690 Y99.255 E38.29951
G1 X160.690 Y98.466 E38.35336
G1 X160.670 Y98.446 E38.35528
M106 S255
G1 F1800.000 E37.35528
G92 E0
G1 Z0.600 F7200.000
G1 X161.341 Y97.787 F7200.000
G1 E1.00000 F1800.000
G1 X161.341 Y112.482 E1.71847 F2021.619
G1 X138.662 Y112.482 E2.82727
G1 X138.662 Y97.787 E3.54574
G1 X161.281 Y97.787 E4.65161
G1 X161.741 Y97.387 F7200.000
G1 X161.741 Y112.882 E5.40919 F1010.810
G1 X138.262 Y112.882 E6.55711
G1 X138.262 Y97.387 E7.31469
G1 X161.681 Y97.387 E8.45967
G1 X161.541 Y97.733 F7200.000
G1 F1800.000 E7.45967
G92 E0
G1 X161.057 Y112.178 F7200.000
G1 E1.00000 F1800.000
G1 X161.037 Y112.198 E1.00145 F2021.619
G1 X160.443 Y112.198 E1.03188
G1 X161.057 Y111.584 E1.07637
G1 X161.057 Y110.991 E1.10680
G1 X159.850 Y112.198 E1.19433
G1 X159.256 Y112.198 E1.22476
G1 X161.057 Y110.397 E1.35533
G1 X161.057 Y109.804 E1.38576
G1 X158.663 Y112.198 E1.55936
G1 X158.070 Y112.198 E1.58980
G1 X161.057 Y109.211 E1.80644
G1 X161.057 Y108.617 E1.83687
G1 X157.476 Y112.198 E2.09655
G1 X156.883 Y112.198 E2.12698
G1 X161.057 Y108.024 E2.42970
G1 X161.057 Y107.430 E2.46013
G1 X156.290 Y112.198 E2.80589
G1 X155.696 Y112.198 E2.83632
G1 X161.057 Y106.837 E3.22511
G1 X161.057 Y106.244 E3.25555
G1 X155.103 Y112.198 E3.68738
G1 X154.509 Y112.198 E3.71781
G1 X161.057 Y105.650 E4.19268
G1 X161.057 Y105.057 E4.22311
G1 X153.916 Y112.198 E4.74102
G1 X153.323 Y112.198 E4.77145
G1 X161.057 Y104.464 E5.33240
G1 X161.057 Y103.870 E5.36283
G1 X152.729 Y112.198 E5.96681
G1 X152.136 Y112.198 E5.99725
G1 X161.057 Y103.277 E6.64427
G1 X161.057 Y102.683 E6.67470
G1 X151.542 Y112.198 E7.36476
G1 X150.949 Y112.198 E7.39519
G1 X161.057 Y102.090 E8.12829
G1 X161.057 Y101.497 E8.15872
G1 X150.356 Y112.198 E8.93486
G1 X149.762 Y112.198 E8.96529
G1 X161.057 Y100.903 E9.78447
G1 X161.057 Y100.310 E9.81490
G1 X149.169 Y112.198 E10.67711
G1 X148.576 Y112.198 E10.70754
G1 X161.057 Y99.716 E11.61279
G1 X161.057 Y99.123 E11.64323
G1 X147.982 Y112.198 E12.59152
G1 X147.389 Y112.198 E12.62195
G1 X161.057 Y98.530 E13.61327
G1 X160.922 Y98.071 E13.63779
G1 X146.795 Y112.198 E14.66237
G1 X146.202 Y112.198 E14.69281
G1 X160.328 Y98.071 E15.71739
G1 X159.735 Y98.071 E15.74782
G1 X145.609 Y112.198 E16.77241
G1 X145.015 Y112.198 E16.80284
G1 X159.142 Y98.071 E17.82743
G1 X158.548 Y98.071 E17.85786
G1 X144.422 Y112.198 E18.88245
G1 X143.828 Y112.198 E18.91288
G1 X157.955 Y98.071 E19.93747
G1 X157.361 Y98.071 E19.96790
G1 X143.235 Y112.198 E20.99248
G1 X142.642 Y112.198 E21.02292
G1 X156.768 Y98.071 E22.04750
G1 X156.175 Y98.071 E22.07794
G1 X142.048 Y112.198 E23.10252
G1 X141.455 Y112.198 E23.13295
G1 X155.581 Y98.071 E24.15754
G1 X154.988 Y98.071 E24.18797
G1 X140.862 Y112.198 E25.21256
G1 X140.268 Y112.198 E25.24299
G1 X154.395 Y98.071 E26.26758
G1 X153.801 Y98.071 E26.29801
G1 X139.675 Y112.198 E27.32260
G1 X139.081 Y112.198 E27.35303
G1 X153.208 Y98.071 E28.37761
G1 X152.614 Y98.071 E28.40805
G1 X138.947 Y111.739 E29.39937
G1 X138.947 Y111.146 E29.42981
G1 X152.021 Y98.071 E30.37809
G1 X151.428 Y98.071 E30.40853
G1 X138.947 Y110.552 E31.31378
G1 X138.947 Y109.959 E31.34421
G1 X150.834 Y98.071 E32.20642
G1 X150.241 Y98.071 E32.23685
G1 X138.947 Y109.365 E33.05603
G1 X138.947 Y108.772 E33.08646
G1 X149.647 Y98.071 E33.86260
G1 X149.054 Y98.071 E33.89303
G1 X138.947 Y108.179 E34.62613
G1 X138.947 Y107.585 E34.65656
G1 X148.461 Y98.071 E35.34662
G1 X147.867 Y98.071 E35.37705
G1 X138.947 Y106.992 E36.02407
G1 X138.947 Y106.399 E36.05450
G1 X147.274 Y98.071 E36.65849
G1 X146.681 Y98.071 E36.68892
G1 X138.947 Y105.805 E37.24987
G1 X138.947 Y105.212 E37.28030
G1 X146.087 Y98.071 E37.79821
G1 X145.494 Y98.071 E37.82864
G1 X138.947 Y104.618 E38.30351
G1 X138.947 Y104.025 E38.33394
G1 X144.900 Y98.071 E38.76577
G1 X144.307 Y98.071 E38.79620
G1 X138.947 Y103.432 E39.18500
G1 X138.947 Y102.838 E39.21543
G1 X143.714 Y98.071 E39.56119
G1 X143.120 Y98.071 E39.59162
G1 X138.947 Y102.245 E39.89434
G1 X138.947 Y101.651 E39.92477
G1 X142.527 Y98.071 E40.18445
G1 X141.934 Y98.071 E40.21488
G1 X138.947 Y101.058 E40.43152
G1 X138.947 Y100.465 E40.46195
G1 X141.340 Y98.071 E40.63556
G1 X140.747 Y98.071 E40.66599
G1 X138.947 Y99.871 E40.79655
G1 X138.947 Y99.278 E40.82698
G1 X140.153 Y98.071 E40.91451
G1 X139.560 Y98.071 E40.94494
G1 X138.947 Y98.685 E40.98943
G1 X138.947 Y98.091 E41.01987
G1 X138.967 Y98.071 E41.02132
G1 F1800.000 E40.02132
G92 E0
G1 Z0.900 F7200.000
G1 X138.870 Y97.779 F7200.000
G1 E1.00000 F1800.000
G1 X161.341 Y97.779 E2.09865 F2021.067
G1 X161.341 Y112.474 E2.81712
G1 X138.662 Y112.474 E3.92593
G1 X138.662 Y97.779 E4.64439
G1 X138.810 Y97.779 E4.65161
G1 X138.870 Y97.379 F7200.000
G1 X161.741 Y97.379 E5.76982 F1010.534
G1 X161.741 Y112.874 E6.52740
G1 X138.262 Y112.874 E7.67532
G1 X138.262 Y97.379 E8.43290
G1 X138.810 Y97.379 E8.45967
G1 X139.070 Y97.725 F7200.000
G1 F1800.000 E7.45967
G92 E0
G1 X138.967 Y112.189 F7200.000
G1 E1.00000 F1800.000
G1 X138.947 Y112.169 E1.00145 F2021.067
G1 X138.947 Y111.576 E1.03187
G1 X139.560 Y112.189 E1.07634
G1 X140.153 Y112.189 E1.10676
G1 X138.947 Y110.983 E1.19425
G1 X138.947 Y110.390 E1.22466
G1 X140.746 Y112.189 E1.35517
G1 X141.340 Y112.189 E1.38559
G1 X138.947 Y109.796 E1.55912
G1 X138.947 Y109.203 E1.58953
G1 X141.933 Y112.189 E1.80608
G1 X142.526 Y112.189 E1.83650
G1 X138.947 Y108.610 E2.09606
G1 X138.947 Y108.017 E2.12648
G1 X143.119 Y112.189 E2.42906
G1 X143.713 Y112.189 E2.45948
G1 X138.947 Y107.423 E2.80508
G1 X138.947 Y106.830 E2.83550
G1 X144.306 Y112.189 E3.22412
G1 X144.899 Y112.189 E3.25454
G1 X138.947 Y106.237 E3.68618
G1 X138.947 Y105.644 E3.71659
G1 X145.492 Y112.189 E4.19125
G1 X146.086 Y112.189 E4.22167
G1 X138.947 Y105.050 E4.73935
G1 X138.947 Y104.457 E4.76976
G1 X146.679 Y112.189 E5.33046
G1 X147.272 Y112.189 E5.36088
G1 X138.947 Y103.864 E5.96459
G1 X138.947 Y103.271 E5.99501
G1 X147.865 Y112.189 E6.64174
G1 X148.459 Y112.189 E6.67216
G1 X138.947 Y102.677 E7.36191
G1 X138.947 Y102.084 E7.39233
G1 X149.052 Y112.189 E8.12510
G1 X149.645 Y112.189 E8.15552
G1 X138.947 Y101.491 E8.93131
G1 X138.947 Y100.898 E8.96173
G1 X150.238 Y112.189 E9.78053
G1 X150.832 Y112.189 E9.81095
G1 X138.947 Y100.304 E10.67278
G1 X138.947 Y99.711 E10.70320
G1 X151.425 Y112.189 E11.60804
G1 X152.018 Y112.189 E11.63846
G1 X138.947 Y99.118 E12.58633
G1 X138.947 Y98.525 E12.61674
G1 X152.611 Y112.189 E13.60763
G1 X153.205 Y112.189 E13.63805
G1 X139.086 Y98.071 E14.66181
G1 X139.680 Y98.071 E14.69223
G1 X153.798 Y112.189 E15.71600
G1 X154.391 Y112.189 E15.74642
G1 X140.273 Y98.071 E16.77019
G1 X140.866 Y98.071 E16.80061
G1 X154.984 Y112.189 E17.82437
G1 X155.578 Y112.189 E17.85479
G1 X141.459 Y98.071 E18.87856
G1 X142.053 Y98.071 E18.90898
G1 X156.171 Y112.189 E19.93275
G1 X156.764 Y112.189 E19.96316
G1 X142.646 Y98.071 E20.98693
G1 X143.239 Y98.071 E21.01735
G1 X157.357 Y112.189 E22.04112
G1 X157.951 Y112.189 E22.07154
G1 X143.832 Y98.071 E23.09531
G1 X144.426 Y98.071 E23.12572
G1 X158.544 Y112.189 E24.14949
G1 X159.137 Y112.189 E24.17991
G1 X145.019 Y98.071 E25.20368
G1 X145.612 Y98.071 E25.23410
G1 X159.730 Y112.189 E26.25786
G1 X160.324 Y112.189 E26.28828
G1 X146.205 Y98.071 E27.31205
G1 X146.799 Y98.071 E27.34247
G1 X160.917 Y112.189 E28.36624
G1 X161.057 Y111.736 E28.39057
G1 X147.392 Y98.071 E29.38145
G1 X147.985 Y98.071 E29.41187
G1 X161.057 Y111.143 E30.35974
G1 X161.057 Y110.549 E30.39015
G1 X148.578 Y98.071 E31.29500
G1 X149.172 Y98.071 E31.32542
G1 X161.057 Y109.956 E32.18724
G1 X161.057 Y109.363 E32.21766
G1 X149.765 Y98.071 E33.03647
G1 X150.358 Y98.071 E33.06689
G1 X161.057 Y108.770 E33.84268
G1 X161.057 Y108.176 E33.87310
G1 X150.951 Y98.071 E34.60586
G1 X151.545 Y98.071 E34.63628
G1 X161.057 Y107.583 E35.32603
G1 X161.057 Y106.990 E35.35645
G1 X152.138 Y98.071 E36.00319
G1 X152.731 Y98.071 E36.03360
G1 X161.057 Y106.397 E36.63732
G1 X161.057 Y105.803 E36.66774
G1 X153.324 Y98.071 E37.22843
G1 X153.918 Y98.071 E37.25885
G1 X161.057 Y105.210 E37.77652
G1 X161.057 Y104.617 E37.80694
G1 X154.511 Y98.071 E38.28160
G1 X155.104 Y98.071 E38.31202
G1 X161.057 Y104.024 E38.74366
G1 X161.057 Y103.430 E38.77408
G1 X155.697 Y98.071 E39.16270
G1 X156.291 Y98.071 E39.19311
G1 X161.057 Y102.837 E39.53871
G1 X161.057 Y102.244 E39.56913
G1 X156.884 Y98.071 E39.87172
G1 X157.477 Y98.071 E39.90213
G1 X161.057 Y101.651 E40.16170
G1 X161.057 Y101.057 E40.19212
G1 X158.070 Y98.071 E40.40866
G1 X158.664 Y98.071 E40.43908
G1 X161.057 Y100.464 E40.61260
G1 X161.057 Y99.871 E40.64302
G1 X159.257 Y98.071 E40.77353
G1 X159.850 Y98.071 E40.80395
G1 X161.057 Y99.278 E40.89144
G1 X161.057 Y98.684 E40.92186
G1 X160.443 Y98.071 E40.96632
G1 X161.037 Y98.071 E40.99674
G1 X161.057 Y98.091 E40.99819
G1 F1800.000 E39.99819
G92 E0
G1 Z1.200 F7200.000
G1 X161.341 Y97.771 F7200.000
G1 E1.00000 F1800.000
G1 X161.341 Y112.466 E1.71847 F670.844
G1 X138.662 Y112.466 E2.82727
G1 X138.662 Y97.771 E3.54574
G1 X161.281 Y97.771 E4.65161
G1 X161.741 Y97.371 F7200.000
G1 X161.741 Y112.866 E5.40919 F600.000
G1 X138.262 Y112.866 E6.55711
G1 X138.262 Y97.371 E7.31469
G1 X161.681 Y97.371 E8.45967
G1 X161.541 Y97.717 F7200.000
G1 F1800.000 E7.45967
G92 E0
G1 X161.057 Y109.962 F7200.000
G1 E1.00000 F1800.000
G1 X158.837 Y112.181 E1.16069 F670.844
G1 X152.914 Y112.181 E1.46399
G1 X161.057 Y104.038 E2.05361
G1 X161.057 Y98.114 E2.35692
G1 X146.990 Y112.181 E3.37547
G1 X141.066 Y112.181 E3.67877
G1 X155.192 Y98.055 E4.70163
G1 X149.268 Y98.055 E5.00493
G1 X138.947 Y108.377 E5.75231
G1 X138.947 Y102.453 E6.05561
G1 X143.345 Y98.055 E6.37405
G1 F1800.000 E5.37405
G92 E0
G1 Z1.500 F7200.000
G1 X143.226 Y97.763 F7200.000
G1 E1.00000 F1800.000
G1 X161.341 Y97.763 E1.88569 F667.525
G1 X161.341 Y112.457 E2.60416
G1 X138.662 Y112.457 E3.71296
G1 X138.662 Y97.763 E4.43143
G1 X143.166 Y97.763 E4.65161
G1 X143.226 Y97.363 F7200.000
G1 X161.741 Y97.363 E5.55686 F600.000
G1 X161.741 Y112.857 E6.31444
G1 X138.262 Y112.857 E7.46236
G1 X138.262 Y97.363 E8.21994
G1 X143.166 Y97.363 E8.45967
G1 X143.426 Y97.709 F7200.000
G1 F1800.000 E7.45967
G92 E0
G1 X141.155 Y112.173 F7200.000
G1 E1.00000 F1800.000
G1 X138.947 Y109.965 E1.15987 F667.525
G1 X138.947 Y104.041 E1.46317
G1 X147.078 Y112.173 E2.05198
G1 X153.002 Y112.173 E2.35528
G1 X138.947 Y98.118 E3.37301
G1 X144.800 Y98.047 E3.67271
G1 X158.926 Y112.173 E4.69557
G1 X161.057 Y108.380 E4.91833
G1 X150.724 Y98.047 E5.66652
G1 X156.647 Y98.047 E5.96982
G1 X161.057 Y102.456 E6.28908
G1 F1800.000 E5.28908
G92 E0
G1 Z1.800 F7200.000
G1 X161.341 Y97.754 F7200.000
G1 E1.00000 F1800.000
G1 X161.341 Y112.449 E1.71847 F670.798
G1 X138.662 Y112.449 E2.82727
G1 X138.662 Y97.754 E3.54574
G1 X161.281 Y97.754 E4.65161
G1 X161.741 Y97.354 F7200.000
G1 X161.741 Y112.849 E5.40919 F600.000
G1 X138.262 Y112.849 E6.55711
G1 X138.262 Y97.354 E7.31469
G1 X161.681 Y97.354 E8.45967
G1 X161.541 Y97.701 F7200.000
G1 F1800.000 E7.45967
G92 E0
G1 X161.057 Y109.962 F7200.000
G1 E1.00000 F1800.000
G1 X158.854 Y112.165 E1.15952 F670.798
G1 X152.930 Y112.165 E1.46282
G1 X161.057 Y104.038 E2.05126
