; generated by Slic3r 1.0.0RC3 on 2014-03-11 at 19:50:33

; layer_height = 0.3
; perimeters = 2
; top_solid_layers = 3
; bottom_solid_layers = 3
; fill_density = 0.1
; perimeter_speed = 60
; infill_speed = 60
; travel_speed = 120
; nozzle_diameter = 0.4
; filament_diameter = 1.75
; extrusion_multiplier = 0.98
; perimeters extrusion width = 0.40mm
; infill extrusion width = 0.42mm
; solid infill extrusion width = 0.42mm
; top infill extrusion width = 0.42mm
; first layer extrusion width = 0.60mm

G21 ; set units to millimeters
M107
M104 S220 ; set temperature
G28 ; home all axes
M106 S255;
G1 Z200 F1200 ; lift nozzle
M109 S220 ; wait for temperature to be reached
G90 ; use absolute coordinates
G92 E0
M82 ; use absolute distances for extrusion
G1 F1800.000 E-1.00000
G92 E0
G1 Z0.300 F7200.000
G1 X100.779 Y69.672 F7200.000
G1 E1.00000 F1800.000
G1 X101.589 Y68.692 E1.08657 F1080.000
G1 X102.579 Y67.892 E1.17324
G1 X103.699 Y67.292 E1.25976
G1 X149.019 Y48.422 E4.60252
G1 X149.939 Y48.112 E4.66863
G1 X150.899 Y47.942 E4.73501
G1 X158.659 Y47.182 E5.26594
G1 X159.299 Y47.152 E5.30957
G1 X159.969 Y47.182 E5.35523
G1 X167.759 Y47.942 E5.88819
G1 X169.019 Y48.202 E5.97580
G1 X170.219 Y48.692 E6.06406
G1 X171.289 Y49.412 E6.15187
G1 X191.739 Y66.252 E7.95573
G1 X192.199 Y66.672 E7.99814
G1 X192.619 Y67.132 E8.04056
G1 X209.529 Y87.582 E9.84745
G1 X210.249 Y88.652 E9.93527
G1 X210.749 Y89.852 E10.02379
G1 X211.009 Y91.122 E10.11206
G1 X211.779 Y98.912 E10.64508
G1 X211.809 Y99.552 E10.68871
G1 X211.779 Y100.192 E10.73233
G1 X211.009 Y107.982 E11.26536
G1 X210.799 Y109.082 E11.34161
G1 X210.419 Y110.122 E11.41701
G1 X187.519 Y159.062 E15.09623
G1 X186.739 Y160.322 E15.19713
G1 X185.699 Y161.382 E15.29825
G1 X184.449 Y162.172 E15.39894
G1 X183.049 Y162.672 E15.50016
G1 X181.579 Y162.842 E15.60093
G1 X94.749 Y162.842 E21.51339
G1 X93.469 Y162.712 E21.60100
G1 X92.239 Y162.342 E21.68846
G1 X91.109 Y161.732 E21.77590
G1 X90.109 Y160.922 E21.86353
G1 X89.299 Y159.922 E21.95115
G1 X88.689 Y158.792 E22.03859
G1 X88.319 Y157.562 E22.12605
G1 X88.189 Y156.282 E22.21366
G1 X88.189 Y140.242 E23.30586
G1 X88.269 Y139.222 E23.37553
G1 X95.919 Y90.742 E26.71750
G1 X99.799 Y72.012 E28.01994
G1 X100.179 Y70.792 E28.10695
G1 X100.739 Y69.746 E28.18778
G1 F1800.000 E27.18778
G92 E0
G1 X137.302 Y90.431 F7200.000
G1 E1.00000 F1800.000
G1 X139.506 Y86.308 E1.31834 F1080.000
G1 X142.472 Y82.694 E1.63668
G1 X146.086 Y79.728 E1.95502
G1 X150.209 Y77.525 E2.27336
G1 X154.683 Y76.168 E2.59170
G1 X159.335 Y75.709 E2.91004
G1 X163.988 Y76.168 E3.22837
G1 X168.462 Y77.525 E3.54671
G1 X172.585 Y79.728 E3.86505
G1 X176.199 Y82.694 E4.18339
G1 X179.165 Y86.308 E4.50173
G1 X181.368 Y90.431 E4.82007
G1 X182.726 Y94.905 E5.13841
G1 X183.184 Y99.558 E5.45676
G1 X182.726 Y104.211 E5.77511
G1 X181.368 Y108.684 E6.09345
G1 X179.165 Y112.807 E6.41179
G1 X176.199 Y116.421 E6.73013
G1 X172.585 Y119.387 E7.04847
G1 X167.243 Y122.242 E7.46087
G1 X167.243 Y121.961 E7.48005
G1 X163.988 Y122.948 E7.71170
G1 X159.335 Y123.406 E8.03004
G1 X154.683 Y122.948 E8.34837
G1 X150.209 Y121.591 E8.66671
G1 X146.086 Y119.387 E8.98505
G1 X142.472 Y116.421 E9.30339
G1 X139.506 Y112.807 E9.62173
G1 X137.302 Y108.684 E9.94007
G1 X135.945 Y104.210 E10.25841
G1 X135.487 Y99.558 E10.57675
G1 X135.945 Y94.905 E10.89509
G1 X137.278 Y90.511 E11.20774
G1 X137.819 Y90.646 F7200.000
G1 X139.972 Y86.619 E11.51861 F540.000
G1 X142.868 Y83.090 E11.82948
G1 X146.397 Y80.194 E12.14035
G1 X150.423 Y78.042 E12.45121
G1 X154.792 Y76.717 E12.76208
G1 X159.335 Y76.269 E13.07295
G1 X163.879 Y76.717 E13.38381
G1 X168.248 Y78.042 E13.69468
G1 X172.274 Y80.194 E14.00555
G1 X175.803 Y83.090 E14.31642
G1 X178.699 Y86.619 E14.62728
G1 X180.851 Y90.646 E14.93815
G1 X182.177 Y95.014 E15.24902
G1 X182.624 Y99.558 E15.55989
G1 X182.176 Y104.101 E15.87077
G1 X180.851 Y108.470 E16.18164
G1 X178.699 Y112.496 E16.49251
G1 X175.803 Y116.026 E16.80338
G1 X172.274 Y118.922 E17.11424
G1 X167.800 Y121.313 E17.45962
G1 X167.800 Y121.209 E17.46666
G1 X163.879 Y122.399 E17.74572
G1 X159.335 Y122.847 E18.05659
G1 X154.792 Y122.399 E18.36745
G1 X150.423 Y121.074 E18.67832
G1 X146.397 Y118.922 E18.98919
G1 X142.868 Y116.025 E19.30005
G1 X139.972 Y112.496 E19.61092
G1 X137.819 Y108.470 E19.92179
G1 X136.494 Y104.101 E20.23266
G1 X136.047 Y99.558 E20.54352
G1 X136.494 Y95.014 E20.85439
G1 X137.795 Y90.726 E21.15957
G1 X137.495 Y90.193 F7200.000
G1 F1800.000 E20.15957
G92 E0
G1 X128.167 Y125.842 F7200.000
G1 E1.00000 F1800.000
G1 X137.405 Y128.617 E1.65674 F1080.000
G1 X140.943 Y132.600 E2.01956
G1 X140.895 Y141.106 E2.59877
G1 X102.813 Y141.106 E5.19190
G1 X102.813 Y125.842 E6.23128
G1 X128.084 Y125.842 E7.95206
G1 X128.086 Y126.399 F7200.000
G1 X137.093 Y129.105 E8.59247 F540.000
G1 X140.385 Y132.811 E8.92998
G1 X140.341 Y140.549 E9.45694
G1 X103.370 Y140.549 E11.97442
G1 X103.370 Y126.399 E12.93794
G1 X128.002 Y126.399 E14.61520
G1 X128.452 Y125.980 F7200.000
G1 F1800.000 E13.61520
G92 E0
G1 X138.836 Y143.641 F7200.000
G1 E1.00000 F1800.000
G1 X104.679 Y143.740 E3.32578 F1080.000
G1 X104.675 Y155.431 E4.12185
G1 X95.606 Y155.431 E4.73940
G1 X95.606 Y140.363 E5.76541
G1 X103.326 Y111.735 E7.78440
G1 X102.441 Y101.734 E8.46807
G1 X103.255 Y91.890 E9.14066
G1 X106.921 Y74.203 E10.37055
G1 X127.867 Y74.203 E11.79685
G1 X131.588 Y72.025 E12.09046
G1 X137.627 Y67.069 E12.62241
G1 X144.586 Y63.349 E13.15971
G1 X151.955 Y55.300 E13.90277
G1 X159.335 Y54.573 E14.40775
G1 X166.716 Y55.300 E14.91274
G1 X174.085 Y63.349 E15.65579
G1 X181.044 Y67.069 E16.19310
G1 X186.965 Y71.928 E16.71468
G1 X191.824 Y77.849 E17.23626
G1 X195.545 Y84.810 E17.77369
G1 X203.664 Y92.179 E18.52029
G1 X204.390 Y99.558 E19.02513
G1 X203.661 Y106.963 E19.53182
G1 X195.719 Y115.021 E20.30219
G1 X192.253 Y121.237 E20.78683
G1 X187.594 Y127.178 E21.30088
G1 X182.365 Y131.802 E21.77615
G1 X180.734 Y136.894 E22.14025
G1 X180.734 Y155.431 E23.40248
G1 X172.276 Y155.431 E23.97843
G1 X172.276 Y143.639 E24.78133
G1 X138.919 Y143.640 E27.05267
G1 X138.837 Y144.198 F7200.000
G1 X105.236 Y144.296 E29.34066 F540.000
G1 X105.232 Y155.988 E30.13681
G1 X95.049 Y155.988 E30.83021
G1 X95.049 Y140.289 E31.89918
G1 X102.762 Y111.685 E33.91645
G1 X101.882 Y101.734 E34.59668
G1 X102.702 Y91.810 E35.27478
G1 X106.467 Y73.646 E36.53786
G1 X127.716 Y73.646 E37.98475
G1 X131.269 Y71.566 E38.26509
G1 X137.316 Y66.603 E38.79777
G1 X144.239 Y62.903 E39.33233
G1 X151.688 Y54.767 E40.08343
G1 X159.335 Y54.014 E40.60667
G1 X166.983 Y54.767 E41.12991
G1 X174.431 Y62.903 E41.88101
G1 X181.355 Y66.603 E42.41556
G1 X187.361 Y71.532 E42.94461
G1 X192.290 Y77.538 E43.47367
G1 X195.991 Y84.462 E44.00827
G1 X204.197 Y91.911 E44.76292
G1 X204.950 Y99.558 E45.28611
G1 X204.196 Y107.214 E45.80995
G1 X196.169 Y115.359 E46.58860
G1 X192.718 Y121.547 E47.07107
G1 X188.001 Y127.561 E47.59155
G1 X182.849 Y132.117 E48.05984
G1 X181.291 Y136.981 E48.40758
G1 X181.291 Y155.988 E49.70182
G1 X171.719 Y155.988 E50.35363
G1 X171.719 Y144.197 E51.15653
G1 X138.921 Y144.198 E53.38983
G1 X138.558 Y143.716 F7200.000
G1 F1800.000 E52.38983
G92 E0
G1 X141.337 Y132.539 F7200.000
G1 E1.00000 F1800.000
G1 X152.043 Y143.246 E2.03191 F1080.000
G1 X151.255 Y143.246 E2.08566
G1 X141.333 Y133.324 E3.04199
G1 X141.328 Y134.108 E3.09543
G1 X150.466 Y143.246 E3.97619
G1 X149.678 Y143.246 E4.02993
G1 X141.324 Y134.892 E4.83510
G1 X141.320 Y135.676 E4.88855
G1 X148.889 Y143.246 E5.61814
G1 X148.101 Y143.246 E5.67188
G1 X141.315 Y136.460 E6.32589
G1 X141.311 Y137.244 E6.37933
G1 X147.312 Y143.246 E6.95776
G1 X146.523 Y143.246 E7.01151
G1 X141.306 Y138.029 E7.51436
G1 X141.302 Y138.813 E7.56780
G1 X145.735 Y143.246 E7.99507
G1 X144.946 Y143.246 E8.04881
G1 X141.298 Y139.597 E8.40050
G1 X141.293 Y140.381 E8.45394
G1 X144.158 Y143.246 E8.73005
G1 X143.369 Y143.246 E8.78379
G1 X141.289 Y141.165 E8.98432
G1 X140.835 Y141.500 E9.02275
G1 X142.581 Y143.246 E9.19096
G1 X141.792 Y143.246 E9.24471
G1 X140.047 Y141.500 E9.41292
G1 X139.258 Y141.500 E9.46666
G1 X141.004 Y143.246 E9.63488
G1 X140.215 Y143.246 E9.68862
G1 X138.470 Y141.500 E9.85684
G1 X137.681 Y141.500 E9.91058
G1 X139.427 Y143.246 E10.07880
G1 X138.640 Y143.247 E10.13243
G1 X136.893 Y141.500 E10.30081
G1 X136.104 Y141.500 E10.35455
G1 X137.853 Y143.250 E10.52315
G1 X137.067 Y143.252 E10.57674
G1 X135.316 Y141.500 E10.74556
G1 X134.527 Y141.500 E10.79930
G1 X136.281 Y143.254 E10.96834
G1 X135.495 Y143.256 E11.02193
G1 X133.739 Y141.500 E11.19119
G1 X132.950 Y141.500 E11.24493
G1 X134.708 Y143.259 E11.41441
G1 X133.922 Y143.261 E11.46800
G1 X132.161 Y141.500 E11.63770
G1 X131.373 Y141.500 E11.69144
G1 X133.136 Y143.263 E11.86136
G1 X132.350 Y143.266 E11.91495
G1 X130.584 Y141.500 E12.08509
G1 X129.796 Y141.500 E12.13884
G1 X131.563 Y143.268 E12.30920
G1 X130.777 Y143.270 E12.36278
G1 X129.007 Y141.500 E12.53337
G1 X128.219 Y141.500 E12.58711
G1 X129.991 Y143.272 E12.75791
G1 X129.205 Y143.275 E12.81150
G1 X127.430 Y141.500 E12.98252
G1 X126.642 Y141.500 E13.03626
G1 X128.418 Y143.277 E13.20751
G1 X127.632 Y143.279 E13.26109
G1 X125.853 Y141.500 E13.43256
G1 X125.065 Y141.500 E13.48630
G1 X126.846 Y143.282 E13.65798
G1 X126.059 Y143.284 E13.71157
G1 X124.276 Y141.500 E13.88347
G1 X123.487 Y141.500 E13.93722
G1 X125.273 Y143.286 E14.10934
G1 X124.487 Y143.288 E14.16293
G1 X122.699 Y141.500 E14.33527
G1 X121.910 Y141.500 E14.38901
G1 X123.701 Y143.291 E14.56158
G1 X122.914 Y143.293 E14.61516
G1 X121.122 Y141.500 E14.78795
G1 X120.333 Y141.500 E14.84169
G1 X122.128 Y143.295 E15.01470
G1 X121.342 Y143.298 E15.06828
G1 X119.545 Y141.500 E15.24151
G1 X118.756 Y141.500 E15.29525
G1 X120.556 Y143.300 E15.46870
G1 X119.769 Y143.302 E15.52228
G1 X117.968 Y141.500 E15.69595
G1 X117.179 Y141.500 E15.74969
G1 X118.983 Y143.304 E15.92358
G1 X118.197 Y143.307 E15.97716
G1 X116.390 Y141.500 E16.15127
G1 X115.602 Y141.500 E16.20501
G1 X117.411 Y143.309 E16.37934
G1 X116.624 Y143.311 E16.43293
G1 X114.813 Y141.500 E16.60747
G1 X114.025 Y141.500 E16.66121
G1 X115.838 Y143.314 E16.83598
G1 X115.052 Y143.316 E16.88957
G1 X113.236 Y141.500 E17.06455
G1 X112.448 Y141.500 E17.11830
G1 X114.265 Y143.318 E17.29350
G1 X113.479 Y143.320 E17.34709
G1 X111.659 Y141.500 E17.52252
G1 X110.871 Y141.500 E17.57626
G1 X112.693 Y143.323 E17.75191
G1 X111.907 Y143.325 E17.80550
G1 X110.082 Y141.500 E17.98136
G1 X109.294 Y141.500 E18.03511
G1 X111.120 Y143.327 E18.21119
G1 X110.334 Y143.330 E18.26478
G1 X108.505 Y141.500 E18.44109
G1 X107.716 Y141.500 E18.49483
G1 X109.548 Y143.332 E18.67136
G1 X108.762 Y143.334 E18.72495
G1 X106.928 Y141.500 E18.90170
G1 X106.139 Y141.500 E18.95544
G1 X107.975 Y143.336 E19.13241
G1 X107.189 Y143.339 E19.18600
G1 X105.351 Y141.500 E19.36318
G1 X104.562 Y141.500 E19.41693
G1 X106.403 Y143.341 E19.59434
G1 X105.617 Y143.343 E19.64792
G1 X103.774 Y141.500 E19.82555
G1 X102.985 Y141.500 E19.87930
G1 X104.830 Y143.346 E20.05714
G1 X104.286 Y143.589 E20.09782
G1 X97.085 Y136.389 E20.79183
G1 X96.918 Y137.010 E20.83567
G1 X104.285 Y144.378 E21.54580
G1 X104.285 Y145.166 E21.59952
G1 X96.750 Y137.631 E22.32576
G1 X96.583 Y138.252 E22.36960
G1 X104.285 Y145.954 E23.11195
G1 X104.284 Y146.742 E23.16567
G1 X96.415 Y138.873 E23.92414
G1 X96.248 Y139.494 E23.96798
G1 X104.284 Y147.531 E24.74256
G1 X104.284 Y148.319 E24.79628
G1 X96.080 Y140.115 E25.58697
G1 X95.999 Y140.823 E25.63552
G1 X104.283 Y149.107 E26.43397
G1 X104.283 Y149.895 E26.48770
G1 X95.999 Y141.612 E27.28612
G1 X95.999 Y142.400 E27.33986
G1 X104.283 Y150.684 E28.13826
G1 X104.283 Y151.472 E28.19198
G1 X95.999 Y143.189 E28.99035
G1 X95.999 Y143.977 E29.04409
G1 X104.282 Y152.260 E29.84243
G1 X104.282 Y153.048 E29.89615
G1 X95.999 Y144.766 E30.69446
G1 X95.999 Y145.554 E30.74820
G1 X104.282 Y153.837 E31.54648
G1 X104.281 Y154.625 E31.60020
G1 X95.999 Y146.343 E32.39845
G1 X95.999 Y147.131 E32.45220
G1 X103.905 Y155.037 E33.21417
G1 X103.116 Y155.037 E33.26791
G1 X95.999 Y147.920 E33.95388
G1 X95.999 Y148.709 E34.00762
G1 X102.328 Y155.037 E34.61758
G1 X101.539 Y155.037 E34.67132
G1 X95.999 Y149.497 E35.20528
G1 X95.999 Y150.286 E35.25902
G1 X100.751 Y155.037 E35.71698
G1 X99.962 Y155.037 E35.77072
G1 X95.999 Y151.074 E36.15267
G1 X95.999 Y151.863 E36.20641
G1 X99.174 Y155.037 E36.51236
G1 X98.385 Y155.037 E36.56610
G1 X95.999 Y152.651 E36.79604
G1 X95.999 Y153.440 E36.84978
G1 X97.597 Y155.037 E37.00372
G1 X96.808 Y155.037 E37.05746
G1 X95.999 Y154.228 E37.13540
G1 X95.999 Y155.017 E37.18914
G1 X96.019 Y155.037 E37.19107
G1 F1800.000 E36.19107
G92 E0
G1 X97.253 Y135.768 F7200.000
G1 E1.00000 F1800.000
G1 X102.419 Y140.934 E1.49794 F1080.000
G1 X102.419 Y140.145 E1.55168
G1 X97.420 Y135.147 E2.03348
G1 X97.588 Y134.526 E2.07732
G1 X102.419 Y139.357 E2.54298
G1 X102.419 Y138.568 E2.59672
G1 X97.755 Y133.905 E3.04624
G1 X97.923 Y133.284 E3.09008
G1 X102.419 Y137.780 E3.52345
G1 X102.419 Y136.991 E3.57719
G1 X98.090 Y132.663 E3.99442
G1 X98.258 Y132.041 E4.03826
G1 X102.419 Y136.203 E4.43934
G1 X102.419 Y135.414 E4.49309
G1 X98.425 Y131.420 E4.87803
G1 X98.593 Y130.799 E4.92187
G1 X102.419 Y134.626 E5.29067
G1 X102.419 Y133.837 E5.34441
G1 X98.760 Y130.178 E5.69707
G1 X98.927 Y129.557 E5.74091
G1 X102.419 Y133.049 E6.07743
G1 X102.419 Y132.260 E6.13117
G1 X99.095 Y128.936 E6.45155
G1 X99.262 Y128.315 E6.49539
G1 X102.419 Y131.471 E6.79962
G1 X102.419 Y130.683 E6.85336
G1 X99.430 Y127.694 E7.14145
G1 X99.597 Y127.073 E7.18529
G1 X102.419 Y129.894 E7.45723
G1 X102.419 Y129.106 E7.51098
G1 X99.765 Y126.452 E7.76678
G1 X99.932 Y125.831 E7.81062
G1 X102.419 Y128.317 E8.05028
G1 X102.419 Y127.529 E8.10402
G1 X100.100 Y125.210 E8.32754
G1 X100.267 Y124.589 E8.37138
G1 X102.419 Y126.740 E8.57876
G1 X102.419 Y125.952 E8.63250
G1 X100.435 Y123.968 E8.82373
G1 X100.602 Y123.346 E8.86757
G1 X102.704 Y125.448 E9.07016
G1 X103.493 Y125.448 E9.12391
G1 X100.770 Y122.725 E9.38636
G1 X100.937 Y122.104 E9.43020
G1 X104.281 Y125.448 E9.75251
G1 X105.070 Y125.448 E9.80625
G1 X101.105 Y121.483 E10.18843
G1 X101.272 Y120.862 E10.23227
G1 X105.858 Y125.448 E10.67430
G1 X106.647 Y125.448 E10.72805
G1 X101.440 Y120.241 E11.22995
G1 X101.607 Y119.620 E11.27379
G1 X107.435 Y125.448 E11.83555
G1 X108.224 Y125.448 E11.88929
G1 X101.775 Y118.999 E12.51091
G1 X101.942 Y118.378 E12.55475
G1 X109.013 Y125.448 E13.23624
G1 X109.801 Y125.448 E13.28998
G1 X102.110 Y117.757 E14.03132
G1 X102.277 Y117.136 E14.07516
G1 X110.590 Y125.448 E14.87637
G1 X111.378 Y125.448 E14.93011
G1 X102.445 Y116.515 E15.79118
G1 X102.612 Y115.894 E15.83502
G1 X112.167 Y125.448 E16.75595
G1 X112.955 Y125.448 E16.80970
G1 X102.780 Y115.273 E17.79049
G1 X102.947 Y114.652 E17.83433
G1 X113.744 Y125.448 E18.87498
G1 X114.532 Y125.448 E18.92873
G1 X103.114 Y114.030 E20.02924
G1 X103.282 Y113.409 E20.07308
G1 X115.321 Y125.448 E21.23346
G1 X116.109 Y125.448 E21.28720
G1 X103.449 Y112.788 E22.50744
G1 X103.617 Y112.167 E22.55128
G1 X116.898 Y125.448 E23.83139
G1 X117.687 Y125.448 E23.88513
G1 X103.697 Y111.458 E25.23356
G1 X103.620 Y110.593 E25.29274
G1 X118.475 Y125.448 E26.72455
G1 X119.264 Y125.448 E26.77830
G1 X103.544 Y109.728 E28.29348
G1 X103.467 Y108.863 E28.35267
G1 X120.052 Y125.448 E29.95124
G1 X120.841 Y125.448 E30.00498
G1 X103.390 Y107.998 E31.68693
G1 X103.314 Y107.133 E31.74612
G1 X121.629 Y125.448 E33.51144
G1 X122.418 Y125.448 E33.56519
G1 X103.237 Y106.268 E35.41389
G1 X103.161 Y105.403 E35.47308
G1 X123.206 Y125.448 E37.40517
G1 X123.995 Y125.448 E37.45891
G1 X103.084 Y104.538 E39.47438
G1 X103.008 Y103.673 E39.53357
G1 X124.784 Y125.448 E41.63242
G1 X125.572 Y125.448 E41.68616
G1 X102.931 Y102.808 E43.86839
G1 X102.855 Y101.943 E43.92758
G1 X126.361 Y125.448 E46.19318
G1 X127.149 Y125.448 E46.24693
G1 X102.882 Y101.181 E48.58594
G1 X102.942 Y100.453 E48.63575
G1 X127.938 Y125.448 E51.04496
G1 X128.941 Y125.663 E51.11491
G1 X103.002 Y99.724 E53.61505
G1 X103.062 Y98.996 E53.66486
G1 X130.068 Y126.002 E56.26782
G1 X131.195 Y126.340 E56.34803
G1 X103.123 Y98.268 E59.05382
G1 X103.183 Y97.539 E59.10363
G1 X132.322 Y126.679 E61.91225
G1 X133.449 Y127.017 E61.99245
