; generated by Slic3r 1.0.0RC2 on 2014-04-09 at 19:04:41

; layer_height = 0.3
; perimeters = 4
; top_solid_layers = 4
; bottom_solid_layers = 4
; fill_density = 0.20
; perimeter_speed = 60
; infill_speed = 60
; travel_speed = 120
; nozzle_diameter = 0.4
; filament_diameter = 1.75
; extrusion_multiplier = 0.98
; perimeters extrusion width = 0.40mm
; infill extrusion width = 0.42mm
; solid infill extrusion width = 0.42mm
; top infill extrusion width = 0.42mm
; first layer extrusion width = 0.80mm

G21 ; set units to millimeters
M107
M104 S220 ; set temperature
G28 ; home all axes
M106 S255;
G1 Z200 F1200 ; lift nozzle
M109 S220 ; wait for temperature to be reached
G90 ; use absolute coordinates
G92 E0
M82 ; use absolute distances for extrusion
G1 F1800.000 E-1.00000
G92 E0
G1 Z0.400 F7200.000
G1 X77.230 Y54.950 F7200.000
G1 E1.00000 F1800.000
G1 X78.100 Y53.760 E1.17157 F1080.000
G1 X79.200 Y52.800 E1.34150
G1 X80.490 Y52.090 E1.51288
G1 X84.340 Y50.500 E1.99769
G1 X84.910 Y50.300 E2.06800
G1 X85.490 Y50.150 E2.13773
G1 X193.530 Y26.940 E14.99939
G1 X194.540 Y26.800 E15.11806
G1 X195.550 Y26.810 E15.23562
G1 X200.230 Y27.240 E15.78262
G1 X201.070 Y27.380 E15.88174
G1 X201.890 Y27.610 E15.98086
G1 X206.450 Y29.250 E16.54488
G1 X207.390 Y29.670 E16.66471
G1 X217.500 Y35.170 E18.00427
G1 X218.180 Y35.590 E18.09729
G1 X218.800 Y36.090 E18.18999
G1 X229.340 Y45.640 E19.84541
G1 X230.350 Y46.790 E20.02355
G1 X231.070 Y48.140 E20.20163
G1 X231.470 Y49.610 E20.37894
G1 X231.520 Y51.130 E20.55595
G1 X224.950 Y136.940 E30.57259
G1 X223.630 Y152.270 E32.36345
G1 X223.350 Y153.700 E32.53305
G1 X222.760 Y155.040 E32.70346
G1 X221.890 Y156.230 E32.87503
G1 X220.790 Y157.190 E33.04496
G1 X219.500 Y157.900 E33.21634
G1 X215.650 Y159.490 E33.70116
G1 X215.080 Y159.690 E33.77146
G1 X214.500 Y159.840 E33.84119
G1 X106.460 Y183.050 E46.70285
G1 X105.450 Y183.190 E46.82153
G1 X104.440 Y183.180 E46.93908
G1 X99.760 Y182.750 E47.48608
G1 X98.920 Y182.610 E47.58520
G1 X98.100 Y182.380 E47.68432
G1 X93.540 Y180.740 E48.24834
G1 X92.600 Y180.320 E48.36817
G1 X82.490 Y174.820 E49.70773
G1 X81.810 Y174.390 E49.80137
G1 X81.190 Y173.890 E49.89407
G1 X70.660 Y164.340 E51.54863
G1 X69.650 Y163.200 E51.72589
G1 X68.930 Y161.850 E51.90397
G1 X68.530 Y160.380 E52.08128
G1 X68.480 Y158.860 E52.25829
G1 X75.040 Y73.050 E62.27485
G1 X76.360 Y57.720 E64.06571
G1 X76.640 Y56.290 E64.23531
G1 X77.187 Y55.048 E64.39325
G1 F1800.000 E63.39325
G92 E0
G1 X79.240 Y56.876 F7200.000
G1 E1.00000 F1800.000
G1 X80.541 Y55.100 E1.25619 F1080.000
G1 X87.263 Y52.321 E2.10274
G1 X91.137 Y54.717 E2.63281
G1 X91.642 Y54.649 E2.69221
G1 X93.890 Y52.245 E3.07530
G1 X102.461 Y52.265 E4.07286
G1 X104.341 Y53.416 E4.32938
G1 X113.885 Y72.005 E6.76146
G1 X114.032 Y72.157 E6.78604
G1 X114.897 Y72.639 E6.90139
G1 X120.518 Y75.436 E7.63210
G1 X142.922 Y80.867 E10.31519
G1 X143.084 Y80.869 E10.33407
G1 X162.420 Y76.657 E12.63725
G1 X162.611 Y76.547 E12.66299
G1 X164.463 Y74.528 E12.98187
G1 X164.554 Y74.336 E13.00658
G1 X164.670 Y73.579 E13.09571
G1 X164.894 Y71.689 E13.31732
G1 X166.364 Y53.639 E15.42502
G1 X168.864 Y51.531 E15.80564
G1 X178.031 Y52.343 E16.87684
G1 X180.057 Y54.394 E17.21232
G1 X180.339 Y58.110 E17.64609
G1 X180.773 Y58.494 E17.71350
G1 X182.037 Y58.435 E17.86082
G1 X182.438 Y57.984 E17.93105
G1 X182.161 Y54.248 E18.36709
G1 X184.580 Y51.722 E18.77423
G1 X186.042 Y51.767 E18.94447
G1 X186.475 Y51.055 E19.04139
G1 X184.747 Y47.964 E19.45354
G1 X184.494 Y47.034 E19.56575
G1 X184.330 Y39.309 E20.46505
G1 X184.582 Y38.295 E20.58658
G1 X187.774 Y32.554 E21.35118
G1 X188.817 Y31.648 E21.51198
G1 X193.958 Y29.671 E22.15310
G1 X194.856 Y29.547 E22.25859
G1 X200.237 Y30.046 E22.88759
G1 X200.723 Y30.154 E22.94550
G1 X205.653 Y31.928 E23.55536
G1 X205.927 Y32.051 E23.59027
G1 X216.373 Y37.732 E24.97428
G1 X216.756 Y38.003 E25.02883
G1 X228.146 Y48.330 E26.81826
G1 X228.819 Y50.026 E27.03066
G1 X222.344 Y132.162 E36.62017
G1 X222.180 Y136.650 E37.14290
G1 X220.760 Y153.124 E39.06740
G1 X219.459 Y154.900 E39.32359
G1 X212.737 Y157.679 E40.17014
G1 X208.863 Y155.283 E40.70021
G1 X208.358 Y155.351 E40.75961
G1 X206.110 Y157.755 E41.14270
G1 X197.539 Y157.735 E42.14026
G1 X195.659 Y156.584 E42.39678
G1 X186.115 Y137.995 E44.82886
G1 X185.968 Y137.843 E44.85344
G1 X185.103 Y137.361 E44.96879
G1 X179.482 Y134.564 E45.69950
G1 X157.078 Y129.133 E48.38259
G1 X156.916 Y129.131 E48.40147
G1 X137.580 Y133.343 E50.70465
G1 X137.389 Y133.453 E50.73039
G1 X135.536 Y135.474 E51.04952
G1 X135.444 Y135.665 E51.07419
G1 X135.344 Y136.314 E51.15062
G1 X135.106 Y138.313 E51.38499
G1 X133.636 Y156.361 E53.49246
G1 X131.136 Y158.469 E53.87309
G1 X121.969 Y157.657 E54.94428
G1 X119.943 Y155.606 E55.27976
G1 X119.661 Y151.890 E55.71354
G1 X119.227 Y151.506 E55.78094
G1 X117.963 Y151.565 E55.92826
G1 X117.562 Y152.016 E55.99849
G1 X117.839 Y155.752 E56.43454
G1 X115.420 Y158.278 E56.84167
G1 X113.958 Y158.233 E57.01191
G1 X113.525 Y158.945 E57.10883
G1 X115.253 Y162.036 E57.52098
G1 X115.506 Y162.966 E57.63319
G1 X115.670 Y170.691 E58.53249
G1 X115.418 Y171.705 E58.65403
G1 X112.226 Y177.446 E59.41862
G1 X111.183 Y178.352 E59.57943
G1 X106.042 Y180.329 E60.22055
G1 X105.144 Y180.453 E60.32603
G1 X99.763 Y179.954 E60.95503
G1 X99.277 Y179.846 E61.01294
G1 X94.347 Y178.072 E61.62280
G1 X94.073 Y177.949 E61.65771
G1 X83.627 Y172.268 E63.04172
G1 X83.244 Y171.997 E63.09628
G1 X71.854 Y161.670 E64.88571
G1 X71.181 Y159.974 E65.09810
G1 X77.656 Y77.838 E74.68761
G1 X77.820 Y73.350 E75.21034
G1 X79.231 Y56.982 E77.12237
G1 X79.935 Y57.136 F7200.000
G1 X80.999 Y55.684 E77.33199 F1080.000
G1 X87.198 Y53.121 E78.11272
G1 X89.995 Y54.850 E78.49548
G1 X90.317 Y59.363 E79.02203
G1 X90.761 Y59.750 E79.09063
G1 X92.191 Y59.656 E79.25741
G1 X92.581 Y59.209 E79.32645
G1 X92.288 Y55.004 E79.81707
G1 X94.200 Y52.960 E80.14280
G1 X102.259 Y52.979 E81.08085
G1 X103.797 Y53.920 E81.29073
G1 X113.349 Y72.523 E83.72462
G1 X113.495 Y72.675 E83.74920
G1 X114.564 Y73.271 E83.89160
G1 X120.272 Y76.111 E84.63363
G1 X142.914 Y81.600 E87.34525
G1 X143.076 Y81.602 E87.36412
G1 X162.793 Y77.307 E89.71280
G1 X162.985 Y77.197 E89.73853
G1 X165.136 Y74.850 E90.10905
G1 X165.228 Y74.659 E90.13376
G1 X165.378 Y73.675 E90.24957
G1 X165.605 Y71.760 E90.47411
G1 X167.052 Y53.994 E92.54873
G1 X169.097 Y52.269 E92.86015
G1 X177.707 Y53.031 E93.86624
G1 X179.365 Y54.709 E94.14073
G1 X179.680 Y58.855 E94.62467
G1 X180.113 Y59.239 E94.69208
G1 X182.804 Y59.115 E95.00556
G1 X183.204 Y58.664 E95.07579
G1 X182.896 Y54.512 E95.56031
G1 X184.876 Y52.445 E95.89342
G1 X187.281 Y52.520 E96.17347
G1 X187.714 Y51.808 E96.27039
G1 X185.413 Y47.692 E96.81917
G1 X185.206 Y46.931 E96.91098
G1 X185.046 Y39.389 E97.78903
G1 X185.252 Y38.559 E97.88847
G1 X188.337 Y33.011 E98.62739
G1 X189.190 Y32.269 E98.75896
G1 X194.138 Y30.367 E99.37587
G1 X194.872 Y30.266 E99.46218
G1 X200.126 Y30.753 E100.07633
G1 X200.524 Y30.841 E100.12371
G1 X205.386 Y32.591 E100.72513
G1 X205.610 Y32.691 E100.75369
G1 X215.995 Y38.339 E102.12957
G1 X216.308 Y38.561 E102.17420
G1 X227.543 Y48.747 E103.93936
G1 X228.094 Y50.135 E104.11314
G1 X221.631 Y132.121 E113.68512
G1 X221.467 Y136.598 E114.20650
G1 X220.065 Y152.864 E116.10668
G1 X219.001 Y154.316 E116.31629
G1 X212.802 Y156.879 E117.09702
G1 X210.005 Y155.150 E117.47978
G1 X209.683 Y150.637 E118.00633
G1 X209.239 Y150.250 E118.07494
G1 X207.809 Y150.344 E118.24172
G1 X207.419 Y150.791 E118.31075
G1 X207.712 Y154.996 E118.80137
G1 X205.800 Y157.040 E119.12710
G1 X197.741 Y157.021 E120.06515
G1 X196.203 Y156.080 E120.27503
G1 X186.651 Y137.477 E122.70892
G1 X186.505 Y137.325 E122.73350
G1 X185.436 Y136.729 E122.87591
G1 X179.728 Y133.889 E123.61793
G1 X157.086 Y128.400 E126.32955
G1 X156.924 Y128.398 E126.34843
G1 X137.207 Y132.693 E128.69710
G1 X137.015 Y132.803 E128.72283
G1 X134.863 Y135.151 E129.09356
G1 X134.771 Y135.342 E129.11823
G1 X134.637 Y136.217 E129.22130
G1 X134.395 Y138.242 E129.45864
G1 X132.948 Y156.006 E131.53307
G1 X130.903 Y157.731 E131.84449
G1 X122.293 Y156.969 E132.85058
G1 X120.635 Y155.291 E133.12507
G1 X120.320 Y151.145 E133.60901
G1 X119.887 Y150.761 E133.67642
G1 X117.196 Y150.885 E133.98990
G1 X116.796 Y151.336 E134.06013
G1 X117.104 Y155.488 E134.54465
G1 X115.124 Y157.555 E134.87776
G1 X112.719 Y157.480 E135.15781
G1 X112.286 Y158.192 E135.25473
G1 X114.587 Y162.308 E135.80351
G1 X114.794 Y163.069 E135.89532
G1 X114.954 Y170.611 E136.77337
G1 X114.748 Y171.441 E136.87281
G1 X111.663 Y176.989 E137.61174
G1 X110.810 Y177.731 E137.74330
G1 X105.862 Y179.633 E138.36021
G1 X105.128 Y179.734 E138.44652
G1 X99.874 Y179.247 E139.06067
G1 X99.476 Y179.159 E139.10805
G1 X94.614 Y177.409 E139.70947
G1 X94.390 Y177.309 E139.73803
G1 X84.005 Y171.661 E141.11391
G1 X83.692 Y171.439 E141.15854
G1 X72.457 Y161.253 E142.92370
G1 X71.906 Y159.865 E143.09748
G1 X78.369 Y77.879 E152.66946
G1 X78.533 Y73.402 E153.19084
G1 X79.926 Y57.243 E155.07855
G1 X80.629 Y57.397 F7200.000
G1 X81.457 Y56.267 E155.24158 F1080.000
G1 X87.133 Y53.920 E155.95649
G1 X89.309 Y55.266 E156.25419
G1 X89.655 Y60.122 E156.82090
G1 X90.099 Y60.510 E156.88951
G1 X92.953 Y60.321 E157.22240
G1 X93.343 Y59.875 E157.29144
G1 X93.022 Y55.265 E157.82928
G1 X94.509 Y53.675 E158.08263
G1 X102.057 Y53.692 E158.96116
G1 X103.253 Y54.425 E159.12440
G1 X112.812 Y73.041 E161.56010
G1 X112.959 Y73.193 E161.58468
G1 X114.230 Y73.903 E161.75414
G1 X120.025 Y76.786 E162.50748
G1 X142.905 Y82.332 E165.24763
G1 X143.067 Y82.334 E165.26650
G1 X163.166 Y77.957 E167.66067
G1 X163.358 Y77.846 E167.68640
G1 X165.809 Y75.173 E168.10855
G1 X165.901 Y74.982 E168.13326
G1 X166.086 Y73.771 E168.27575
G1 X166.316 Y71.831 E168.50322
G1 X167.739 Y54.348 E170.54477
G1 X169.330 Y53.006 E170.78698
G1 X177.383 Y53.719 E171.72798
G1 X178.672 Y55.024 E171.94146
G1 X179.020 Y59.600 E172.47558
G1 X179.454 Y59.984 E172.54299
G1 X183.570 Y59.795 E173.02262
G1 X183.971 Y59.343 E173.09285
G1 X183.632 Y54.777 E173.62585
G1 X185.172 Y53.169 E173.88493
G1 X188.520 Y53.272 E174.27481
G1 X188.952 Y52.561 E174.37173
G1 X186.079 Y47.420 E175.05713
G1 X185.918 Y46.828 E175.12854
G1 X185.762 Y39.468 E175.98534
G1 X185.922 Y38.823 E176.06268
G1 X188.900 Y33.467 E176.77594
G1 X189.564 Y32.891 E176.87827
G1 X194.317 Y31.063 E177.47097
G1 X194.888 Y30.984 E177.53810
G1 X200.015 Y31.460 E178.13739
G1 X200.325 Y31.528 E178.17424
G1 X205.118 Y33.253 E178.76723
G1 X205.293 Y33.332 E178.78944
G1 X215.616 Y38.946 E180.15718
G1 X215.859 Y39.118 E180.19190
G1 X226.940 Y49.165 E181.93279
G1 X227.369 Y50.244 E182.06795
G1 X220.918 Y132.080 E191.62239
G1 X220.755 Y136.546 E192.14244
G1 X219.371 Y152.603 E194.01828
G1 X218.543 Y153.733 E194.18131
G1 X212.867 Y156.080 E194.89622
G1 X210.691 Y154.734 E195.19392
G1 X210.345 Y149.878 E195.76063
G1 X209.901 Y149.490 E195.82924
G1 X207.047 Y149.679 E196.16213
G1 X206.657 Y150.125 E196.23117
G1 X206.978 Y154.735 E196.76901
G1 X205.491 Y156.325 E197.02236
G1 X197.943 Y156.308 E197.90089
G1 X196.747 Y155.575 E198.06414
G1 X187.188 Y136.959 E200.49983
G1 X187.041 Y136.807 E200.52441
G1 X185.770 Y136.097 E200.69387
G1 X179.975 Y133.214 E201.44722
G1 X157.095 Y127.668 E204.18736
G1 X156.933 Y127.666 E204.20624
G1 X136.834 Y132.043 E206.60040
G1 X136.642 Y132.154 E206.62613
G1 X134.190 Y134.828 E207.04845
G1 X134.098 Y135.019 E207.07312
G1 X133.929 Y136.121 E207.20283
G1 X133.684 Y138.171 E207.44314
G1 X132.261 Y155.652 E209.48453
G1 X130.670 Y156.994 E209.72674
G1 X122.617 Y156.281 E210.66774
G1 X121.328 Y154.976 E210.88122
G1 X120.980 Y150.400 E211.41534
G1 X120.546 Y150.016 E211.48275
G1 X116.430 Y150.205 E211.96239
G1 X116.029 Y150.657 E212.03262
G1 X116.368 Y155.223 E212.56561
G1 X114.828 Y156.831 E212.82470
G1 X111.480 Y156.728 E213.21457
G1 X111.048 Y157.439 E213.31149
G1 X113.921 Y162.580 E213.99690
G1 X114.082 Y163.172 E214.06830
G1 X114.238 Y170.532 E214.92510
G1 X114.078 Y171.177 E215.00244
G1 X111.100 Y176.533 E215.71570
G1 X110.436 Y177.109 E215.81803
G1 X105.683 Y178.937 E216.41074
G1 X105.112 Y179.015 E216.47786
G1 X99.985 Y178.540 E217.07716
G1 X99.675 Y178.472 E217.11401
G1 X94.882 Y176.746 E217.70699
G1 X94.707 Y176.668 E217.72921
G1 X84.384 Y171.054 E219.09694
G1 X84.141 Y170.882 E219.13166
G1 X73.060 Y160.835 E220.87255
G1 X72.631 Y159.756 E221.00771
G1 X79.082 Y77.920 E230.56216
G1 X79.245 Y73.454 E231.08220
G1 X80.620 Y57.504 E232.94557
G1 X81.323 Y57.658 F7200.000
G1 X81.915 Y56.851 E233.06203 F1080.000
G1 X87.069 Y54.720 E233.71112
G1 X88.623 Y55.681 E233.92376
G1 X88.993 Y60.882 E234.53063
G1 X89.437 Y61.269 E234.59924
G1 X93.715 Y60.987 E235.09824
G1 X94.106 Y60.540 E235.16727
G1 X93.756 Y55.525 E235.75235
G1 X94.818 Y54.389 E235.93331
G1 X101.855 Y54.406 E236.75233
G1 X102.709 Y54.929 E236.86893
G1 X112.275 Y73.559 E239.30644
G1 X112.422 Y73.711 E239.33102
G1 X113.896 Y74.534 E239.52753
G1 X119.778 Y77.461 E240.29219
G1 X142.896 Y83.065 E243.06086
G1 X143.059 Y83.067 E243.07974
G1 X163.539 Y78.606 E245.51939
G1 X163.731 Y78.496 E245.54512
G1 X166.482 Y75.496 E246.01891
G1 X166.574 Y75.304 E246.04362
G1 X166.794 Y73.867 E246.21279
G1 X167.026 Y71.902 E246.44319
G1 X168.427 Y54.702 E248.45165
G1 X169.563 Y53.744 E248.62466
G1 X177.059 Y54.407 E249.50056
G1 X177.980 Y55.340 E249.65305
G1 X178.360 Y60.345 E250.23734
G1 X178.794 Y60.729 E250.30475
G1 X184.337 Y60.475 E250.95054
G1 X184.737 Y60.023 E251.02077
G1 X184.368 Y55.041 E251.60225
G1 X185.468 Y53.893 E251.78730
G1 X189.959 Y54.031 E252.31026
G1 X190.351 Y53.162 E252.42129
G1 X189.746 Y52.518 E252.52413
G1 X186.746 Y47.148 E253.24004
G1 X186.631 Y46.725 E253.29104
G1 X186.478 Y39.548 E254.12659
G1 X186.593 Y39.088 E254.18184
G1 X189.463 Y33.924 E254.86943
G1 X189.937 Y33.512 E254.94252
G1 X194.496 Y31.760 E255.51102
G1 X194.905 Y31.703 E255.55896
G1 X199.905 Y32.167 E256.14340
G1 X200.125 Y32.216 E256.16973
G1 X204.975 Y33.972 E256.77009
G1 X215.238 Y39.553 E258.12970
G1 X215.411 Y39.676 E258.15450
G1 X226.338 Y49.583 E259.87112
G1 X226.644 Y50.354 E259.96766
G1 X220.205 Y132.039 E269.50457
G1 X220.043 Y136.493 E270.02327
G1 X218.677 Y152.342 E271.87479
G1 X218.085 Y153.149 E271.99124
G1 X212.931 Y155.280 E272.64033
G1 X211.377 Y154.319 E272.85297
G1 X211.007 Y149.118 E273.45984
G1 X210.563 Y148.731 E273.52845
G1 X206.285 Y149.013 E274.02745
G1 X205.894 Y149.460 E274.09648
G1 X206.244 Y154.475 E274.68156
G1 X205.182 Y155.611 E274.86252
G1 X198.145 Y155.594 E275.68154
G1 X197.291 Y155.071 E275.79814
G1 X187.725 Y136.441 E278.23565
G1 X187.578 Y136.289 E278.26023
G1 X186.104 Y135.466 E278.45674
G1 X180.222 Y132.539 E279.22140
G1 X157.104 Y126.935 E281.99007
G1 X156.941 Y126.933 E282.00895
G1 X136.461 Y131.394 E284.44860
G1 X136.269 Y131.504 E284.47434
G1 X133.517 Y134.505 E284.94825
G1 X133.425 Y134.696 E284.97292
G1 X133.221 Y136.024 E285.12926
G1 X132.973 Y138.099 E285.37254
G1 X131.573 Y155.298 E287.38089
G1 X130.437 Y156.256 E287.55390
G1 X122.941 Y155.593 E288.42979
G1 X122.020 Y154.660 E288.58229
G1 X121.640 Y149.655 E289.16657
G1 X121.206 Y149.271 E289.23398
G1 X115.663 Y149.525 E289.87978
G1 X115.263 Y149.977 E289.95001
G1 X115.632 Y154.959 E290.53148
G1 X114.532 Y156.107 E290.71654
G1 X110.041 Y155.969 E291.23950
G1 X109.649 Y156.838 E291.35053
G1 X110.254 Y157.482 E291.45336
G1 X113.254 Y162.852 E292.16927
G1 X113.369 Y163.275 E292.22028
G1 X113.522 Y170.452 E293.05583
G1 X113.407 Y170.912 E293.11107
G1 X110.537 Y176.076 E293.79866
G1 X110.063 Y176.488 E293.87176
G1 X105.504 Y178.240 E294.44025
G1 X105.095 Y178.297 E294.48820
G1 X100.095 Y177.833 E295.07264
G1 X99.875 Y177.784 E295.09896
G1 X95.025 Y176.028 E295.69933
G1 X84.762 Y170.447 E297.05893
G1 X84.589 Y170.324 E297.08373
G1 X73.662 Y160.417 E298.80036
G1 X73.356 Y159.646 E298.89690
G1 X79.795 Y77.961 E308.43380
G1 X79.957 Y73.507 E308.95251
G1 X81.314 Y57.765 E310.79155
G1 X82.018 Y57.919 F7200.000
G1 X82.373 Y57.434 E310.86142 F1080.000
G1 X87.004 Y55.520 E311.44469
G1 X87.936 Y56.096 E311.57228
G1 X88.272 Y60.810 E312.12227
G1 X88.130 Y61.509 E312.20531
G1 X88.595 Y62.040 E312.28750
