; generated by Slic3r 1.0.0RC2 on 2014-05-19 at 18:19:52

; layer_height = 0.3
; perimeters = 4
; top_solid_layers = 3
; bottom_solid_layers = 3
; fill_density = 0.1
; perimeter_speed = 60
; infill_speed = 60
; travel_speed = 120
; nozzle_diameter = 0.4
; filament_diameter = 1.75
; extrusion_multiplier = 0.98
; perimeters extrusion width = 0.40mm
; infill extrusion width = 0.42mm
; solid infill extrusion width = 0.42mm
; top infill extrusion width = 0.42mm
; first layer extrusion width = 0.80mm

G21 ; set units to millimeters
M107
M104 S220 ; set temperature
G28 ; home all axes
M106 S255;
G1 Z200 F1200 ; lift nozzle
M109 S220 ; wait for temperature to be reached
G90 ; use absolute coordinates
G92 E0
M82 ; use absolute distances for extrusion
G1 F1800.000 E-1.00000
G92 E0
G1 Z0.400 F7200.000
G1 X109.289 Y118.478 F7200.000
G1 E1.00000 F1800.000
G1 X182.089 Y45.908 E12.96398 F1080.000
G1 X183.209 Y45.008 E13.13120
G1 X184.489 Y44.368 E13.29777
G1 X185.879 Y44.008 E13.46489
G1 X187.309 Y43.958 E13.63143
G1 X188.719 Y44.218 E13.79830
G1 X196.829 Y46.598 E14.78203
G1 X198.359 Y47.258 E14.97597
G1 X199.669 Y48.278 E15.16921
G1 X201.539 Y50.138 E15.47619
G1 X202.439 Y51.238 E15.64161
G1 X203.079 Y52.488 E15.80506
G1 X203.439 Y53.858 E15.96993
G1 X203.509 Y55.268 E16.13424
G1 X203.289 Y56.658 E16.29803
G1 X202.779 Y57.978 E16.46274
G1 X194.019 Y74.948 E18.68550
G1 X193.669 Y75.538 E18.76535
G1 X184.549 Y89.518 E20.70810
G1 X184.249 Y89.948 E20.76912
G1 X151.389 Y132.638 E27.03930
G1 X150.819 Y133.288 E27.13993
G1 X120.019 Y164.088 E32.20961
G1 X118.999 Y164.918 E32.36267
G1 X117.839 Y165.538 E32.51575
G1 X116.579 Y165.928 E32.66927
G1 X115.269 Y166.048 E32.82238
G1 X113.959 Y165.928 E32.97549
G1 X112.699 Y165.538 E33.12900
G1 X111.539 Y164.918 E33.28209
G1 X110.519 Y164.088 E33.43514
G1 X98.439 Y152.008 E35.42351
G1 X97.629 Y151.018 E35.57239
G1 X97.019 Y149.898 E35.72083
G1 X96.629 Y148.678 E35.86990
G1 X96.479 Y147.408 E36.01875
G1 X96.569 Y146.138 E36.16693
G1 X96.899 Y144.908 E36.31515
G1 X104.789 Y123.838 E38.93379
G1 X105.429 Y122.558 E39.10035
G1 X106.329 Y121.438 E39.26758
G1 X109.213 Y118.554 E39.74233
G1 F1800.000 E38.74233
G92 E0
G1 X141.424 Y111.980 F7200.000
G1 E1.00000 F1800.000
G1 X169.169 Y84.234 E5.56693 F1080.000
G1 X172.839 Y87.904 E6.17105
G1 X148.349 Y118.905 E10.76930
G1 X141.499 Y112.055 E11.89680
G1 X142.434 Y111.980 F7200.000
G1 X169.169 Y85.244 E16.29749 F1080.000
G1 X171.885 Y87.960 E16.74455
G1 X148.287 Y117.833 E21.17542
G1 X142.509 Y112.055 E22.12636
G1 X143.444 Y111.980 F7200.000
G1 X169.169 Y86.254 E26.36080 F756.000
G1 X170.931 Y88.016 E26.65080
G1 X148.224 Y116.760 E30.91430
G1 X143.519 Y112.055 E31.68867
G1 X142.939 Y111.475 F7200.000
G1 X136.692 Y117.721 F7200.000
G1 X143.444 Y124.474 E32.80011 F1080.000
G1 X116.709 Y151.210 E37.20080
G1 X109.956 Y144.457 E38.31225
G1 X136.616 Y117.797 E42.70047
G1 X136.692 Y118.731 F7200.000
G1 X142.434 Y124.474 E43.64567 F756.000
G1 X116.709 Y150.200 E47.88012
G1 X110.966 Y144.457 E48.82533
G1 X136.616 Y118.807 E53.04730
G1 X137.197 Y118.226 F7200.000
G1 X144.576 Y125.362 F7200.000
G1 X145.014 Y125.746 E53.11514 F1080.000
G1 X144.159 Y126.858 E53.27835
G1 X115.270 Y155.746 E58.03343
G1 X106.785 Y147.261 E59.43011
G1 X108.762 Y145.283 E59.75564
G1 X116.709 Y153.229 E61.06356
G1 X144.500 Y125.438 E65.63810
G1 X145.763 Y124.773 F7200.000
G1 X136.291 Y115.301 E67.19728 F1080.000
G1 X140.013 Y111.579 E67.80990
G1 X148.412 Y119.978 E69.19243
G1 X154.573 Y112.179 E70.34921
G1 X155.125 Y112.610 E70.43077
G1 X145.829 Y124.688 E72.20475
G1 X174.015 Y88.070 F7200.000
G1 X168.768 Y82.823 E73.06835 F1080.000
G1 X190.061 Y61.530 E76.57319
G1 X190.403 Y61.780 E76.62246
G1 X185.857 Y70.589 E77.77619
G1 X176.855 Y84.380 E79.69301
G1 X174.080 Y87.985 E80.22254
G1 X177.438 Y84.793 F7200.000
G1 X144.696 Y127.330 E86.47019 F1080.000
G1 X115.270 Y156.756 E91.31377
G1 X105.775 Y147.261 E92.87669
G1 X108.762 Y144.273 E93.36846
G1 X116.709 Y152.219 E94.67639
G1 X144.454 Y124.474 E99.24332
G1 X136.692 Y116.711 E100.52101
G1 X111.532 Y141.871 E104.66234
G1 X110.072 Y140.411 E104.90270
G1 X119.356 Y131.127 E106.43091
G1 X119.405 Y131.176 E106.43903
G1 X192.813 Y57.754 E118.52314
G1 X193.155 Y58.004 E118.57242
G1 X186.475 Y70.948 E120.26780
G1 X177.497 Y84.704 E122.17962
G1 X178.021 Y85.207 F7200.000
G1 X145.234 Y127.802 E128.43589 F1080.000
G1 X115.270 Y157.766 E133.36797
G1 X104.765 Y147.261 E135.09714
G1 X110.338 Y141.688 E136.01450
G1 X109.062 Y140.411 E136.22463
G1 X117.974 Y131.499 E137.69158
G1 X112.664 Y126.189 E138.56555
G1 X114.046 Y124.807 E138.79304
G1 X119.405 Y130.166 E139.67512
G1 X190.780 Y58.791 E151.42346
G1 X185.528 Y53.539 E152.28799
G1 X186.833 Y52.234 E152.50282
G1 X192.079 Y57.479 E153.36623
G1 X194.943 Y54.615 E153.83769
G1 X195.447 Y55.120 E153.92075
G1 X187.093 Y71.308 E156.04107
G1 X178.080 Y85.117 E157.96037
G1 X178.604 Y85.620 F7200.000
G1 X145.772 Y128.275 E164.22525 F756.000
G1 X115.270 Y158.776 E169.24584
G1 X103.755 Y147.261 E171.14124
G1 X109.328 Y141.688 E172.05861
G1 X108.052 Y140.411 E172.26873
G1 X116.964 Y131.499 E173.73569
G1 X111.654 Y126.189 E174.60965
G1 X114.046 Y123.797 E175.00339
G1 X119.405 Y129.156 E175.88547
G1 X189.770 Y58.791 E187.46757
G1 X184.518 Y53.539 E188.33210
G1 X186.833 Y51.224 E188.71317
G1 X192.079 Y56.469 E189.57657
G1 X194.943 Y53.605 E190.04804
G1 X196.321 Y54.983 E190.27494
G1 X187.711 Y71.668 E192.46022
G1 X178.662 Y85.531 E194.38698
G1 X177.894 Y85.545 F7200.000
G1 X116.011 Y153.769 F7200.000
G1 X108.510 Y146.268 E196.19741 F1080.000
G1 X107.769 Y147.009 E196.37614
G1 X115.270 Y154.509 E198.18657
G1 X145.713 Y123.990 F7200.000
G1 X137.023 Y115.301 E199.88012 F1080.000
G1 X137.621 Y114.703 E199.99665
G1 X146.263 Y123.345 E201.68092
G1 X146.783 Y122.669 E201.79843
G1 X138.219 Y114.105 E203.46754
G1 X138.817 Y113.507 E203.58407
G1 X147.303 Y121.993 E205.23801
G1 X147.823 Y121.317 E205.35552
G1 X139.415 Y112.909 E206.99430
G1 X140.013 Y112.311 E207.11083
G1 X148.343 Y120.642 E208.73445
G1 X173.929 Y86.747 F7200.000
G1 X169.753 Y82.571 E209.42911 F1080.000
G1 X170.263 Y82.060 E209.51400
G1 X174.399 Y86.196 E210.20190
G1 X174.843 Y85.619 E210.28749
G1 X170.773 Y81.550 E210.96435
G1 X171.284 Y81.040 E211.04923
G1 X175.287 Y85.043 E211.71504
G1 X175.731 Y84.466 E211.80064
G1 X171.794 Y80.529 E212.45541
G1 X172.304 Y80.019 E212.54029
G1 X176.174 Y83.889 E213.18396
G1 X176.577 Y83.271 E213.27069
G1 X172.815 Y79.509 E213.89652
G1 X173.325 Y78.998 E213.98141
G1 X176.980 Y82.654 E214.58940
G1 X177.383 Y82.036 E214.67614
G1 X173.835 Y78.488 E215.26629
G1 X174.346 Y77.978 E215.35118
G1 X177.786 Y81.419 E215.92350
G1 X178.190 Y80.801 E216.01024
G1 X174.856 Y77.468 E216.56473
G1 X175.366 Y76.957 E216.64961
G1 X178.593 Y80.184 E217.18626
G1 X178.996 Y79.566 E217.27300
G1 X175.877 Y76.447 E217.79182
G1 X176.387 Y75.937 E217.87670
G1 X179.399 Y78.948 E218.37768
G1 X179.802 Y78.331 E218.46442
G1 X176.897 Y75.426 E218.94756
G1 X177.408 Y74.916 E219.03245
G1 X180.205 Y77.713 E219.49776
G1 X180.608 Y77.096 E219.58449
G1 X177.918 Y74.406 E220.03197
G1 X178.428 Y73.895 E220.11685
G1 X181.011 Y76.478 E220.54649
G1 X181.414 Y75.861 E220.63323
G1 X178.938 Y73.385 E221.04503
G1 X179.449 Y72.875 E221.12992
G1 X181.817 Y75.243 E221.52389
G1 X182.220 Y74.626 E221.61062
G1 X179.959 Y72.364 E221.98676
G1 X180.469 Y71.854 E222.07164
G1 X182.623 Y74.008 E222.42994
G1 X183.027 Y73.391 E222.51667
G1 X180.980 Y71.344 E222.85714
G1 X181.490 Y70.833 E222.94202
G1 X183.430 Y72.773 E223.26465
G1 X183.833 Y72.156 E223.35138
G1 X182.000 Y70.323 E223.65618
G1 X182.511 Y69.813 E223.74106
G1 X184.236 Y71.538 E224.02802
G1 X184.639 Y70.920 E224.11475
G1 X183.021 Y69.303 E224.38387
G1 X183.531 Y68.792 E224.46876
G1 X185.042 Y70.303 E224.72004
G1 X185.402 Y69.642 E224.80854
G1 X184.042 Y68.282 E225.03479
G1 X184.552 Y67.772 E225.11967
G1 X185.749 Y68.969 E225.31882
G1 X186.097 Y68.296 E225.40792
G1 X185.062 Y67.261 E225.57998
G1 X185.573 Y66.751 E225.66486
G1 X186.444 Y67.622 E225.80982
G1 X186.791 Y66.949 E225.89892
G1 X186.083 Y66.241 E226.01679
G1 X186.593 Y65.730 E226.10167
G1 X187.139 Y66.276 E226.19244
G1 X187.486 Y65.603 E226.28154
G1 X187.294 Y65.410 E226.31357
G1 X187.900 Y64.762 F7200.000
G1 X187.971 Y64.832 E226.32515 F360.000
G1 X188.891 Y63.572 F7200.000
G1 X188.821 Y63.502 E226.33061 F360.000
G1 X190.708 Y61.084 F7200.000
G1 X190.638 Y61.014 E226.34219 F360.000
G1 X191.629 Y59.824 F7200.000
G1 X191.558 Y59.754 E226.34765 F360.000
G1 X191.278 Y58.219 F7200.000
G1 X186.599 Y53.539 E227.11795 F360.000
G1 X193.390 Y57.238 F7200.000
G1 X193.461 Y57.309 E227.12953 F360.000
G1 X194.381 Y56.049 F7200.000
G1 X194.311 Y55.978 E227.13498 F360.000
G1 X168.263 Y83.389 F7200.000
G1 X168.603 Y83.729 E227.19185 F360.000
G1 X168.091 Y84.242 E227.27752 F360.000
G1 X167.750 Y83.902 E227.33439 F360.000
G1 X167.238 Y84.414 E227.42006 F360.000
G1 X167.578 Y84.754 E227.47693 F360.000
G1 X167.065 Y85.267 E227.56260 F360.000
G1 X166.725 Y84.927 E227.61947 F360.000
G1 X166.212 Y85.440 E227.70514 F360.000
G1 X166.553 Y85.780 E227.76201 F360.000
G1 X166.040 Y86.293 E227.84768 F360.000
G1 X165.700 Y85.952 E227.90455 F360.000
G1 X165.187 Y86.465 E227.99022 F360.000
G1 X165.527 Y86.805 E228.04708 F360.000
G1 X165.015 Y87.318 E228.13276 F360.000
G1 X164.674 Y86.978 E228.18962 F360.000
G1 X164.162 Y87.490 E228.27530 F360.000
G1 X164.502 Y87.831 E228.33216 F360.000
G1 X163.989 Y88.343 E228.41784 F360.000
G1 X163.649 Y88.003 E228.47470 F360.000
G1 X163.136 Y88.516 E228.56038 F360.000
G1 X163.477 Y88.856 E228.61724 F360.000
G1 X162.964 Y89.369 E228.70291 F360.000
G1 X162.624 Y89.028 E228.75978 F360.000
G1 X162.111 Y89.541 E228.84545 F360.000
G1 X162.451 Y89.881 E228.90232 F360.000
G1 X161.939 Y90.394 E228.98799 F360.000
G1 X161.598 Y90.054 E229.04486 F360.000
G1 X161.086 Y90.566 E229.13053 F360.000
G1 X161.426 Y90.907 E229.18740 F360.000
G1 X160.913 Y91.419 E229.27307 F360.000
G1 X160.573 Y91.079 E229.32994 F360.000
G1 X160.060 Y91.592 E229.41561 F360.000
G1 X160.401 Y91.932 E229.47248 F360.000
G1 X159.888 Y92.445 E229.55815 F360.000
G1 X159.548 Y92.104 E229.61502 F360.000
G1 X159.035 Y92.617 E229.70069 F360.000
G1 X159.375 Y92.957 E229.75755 F360.000
G1 X158.862 Y93.470 E229.84323 F360.000
G1 X158.522 Y93.130 E229.90009 F360.000
G1 X158.010 Y93.642 E229.98577 F360.000
G1 X158.350 Y93.983 E230.04263 F360.000
G1 X157.837 Y94.495 E230.12831 F360.000
G1 X157.497 Y94.155 E230.18517 F360.000
G1 X156.984 Y94.668 E230.27085 F360.000
G1 X157.324 Y95.008 E230.32771 F360.000
G1 X156.812 Y95.521 E230.41339 F360.000
G1 X156.471 Y95.181 E230.47025 F360.000
G1 X155.959 Y95.693 E230.55592 F360.000
G1 X156.299 Y96.034 E230.61279 F360.000
G1 X155.786 Y96.546 E230.69846 F360.000
G1 X155.446 Y96.206 E230.75533 F360.000
G1 X154.933 Y96.719 E230.84100 F360.000
G1 X155.274 Y97.059 E230.89787 F360.000
G1 X154.761 Y97.572 E230.98354 F360.000
G1 X154.421 Y97.231 E231.04041 F360.000
G1 X153.908 Y97.744 E231.12608 F360.000
G1 X154.248 Y98.084 E231.18295 F360.000
G1 X153.736 Y98.597 E231.26862 F360.000
G1 X153.395 Y98.257 E231.32549 F360.000
G1 X152.883 Y98.769 E231.41116 F360.000
G1 X153.223 Y99.110 E231.46802 F360.000
G1 X152.710 Y99.622 E231.55370 F360.000
G1 X152.370 Y99.282 E231.61056 F360.000
G1 X151.857 Y99.795 E231.69624 F360.000
G1 X152.198 Y100.135 E231.75310 F360.000
G1 X151.685 Y100.648 E231.83878 F360.000
G1 X151.345 Y100.307 E231.89564 F360.000
G1 X150.832 Y100.820 E231.98132 F360.000
G1 X151.172 Y101.160 E232.03818 F360.000
G1 X150.660 Y101.673 E232.12386 F360.000
G1 X150.319 Y101.333 E232.18072 F360.000
G1 X149.807 Y101.845 E232.26639 F360.000
G1 X150.147 Y102.186 E232.32326 F360.000
G1 X149.634 Y102.698 E232.40893 F360.000
G1 X149.294 Y102.358 E232.46580 F360.000
G1 X148.781 Y102.871 E232.55147 F360.000
G1 X149.122 Y103.211 E232.60834 F360.000
G1 X148.609 Y103.724 E232.69401 F360.000
G1 X148.269 Y103.383 E232.75088 F360.000
G1 X147.756 Y103.896 E232.83655 F360.000
G1 X148.096 Y104.236 E232.89342 F360.000
G1 X147.583 Y104.749 E232.97909 F360.000
G1 X147.243 Y104.409 E233.03596 F360.000
G1 X146.730 Y104.922 E233.12163 F360.000
G1 X147.071 Y105.262 E233.17849 F360.000
G1 X146.558 Y105.774 E233.26417 F360.000
G1 X146.218 Y105.434 E233.32103 F360.000
G1 X145.705 Y105.947 E233.40671 F360.000
G1 X146.045 Y106.287 E233.46357 F360.000
G1 X145.533 Y106.800 E233.54925 F360.000
G1 X145.192 Y106.460 E233.60611 F360.000
G1 X144.680 Y106.972 E233.69179 F360.000
G1 X145.020 Y107.313 E233.74865 F360.000
G1 X144.507 Y107.825 E233.83433 F360.000
G1 X144.167 Y107.485 E233.89119 F360.000
G1 X143.654 Y107.998 E233.97686 F360.000
G1 X143.995 Y108.338 E234.03373 F360.000
G1 X143.482 Y108.851 E234.11940 F360.000
G1 X143.142 Y108.510 E234.17627 F360.000
G1 X142.629 Y109.023 E234.26194 F360.000
G1 X142.969 Y109.363 E234.31881 F360.000
G1 X142.457 Y109.876 E234.40448 F360.000
G1 X142.116 Y109.536 E234.46135 F360.000
G1 X141.604 Y110.048 E234.54702 F360.000
G1 X141.944 Y110.389 E234.60389 F360.000
G1 X141.431 Y110.901 E234.68956 F360.000
G1 X141.091 Y110.561 E234.74643 F360.000
G1 X140.578 Y111.074 E234.83210 F360.000
G1 X140.919 Y111.414 E234.88896 F360.000
G1 X136.126 Y116.206 F7200.000
G1 X135.760 Y115.841 E234.95007 F360.000
G1 X136.126 Y116.206 F7200.000
G1 X135.614 Y116.719 E235.03565 F360.000
G1 X135.248 Y116.353 E235.09676 F360.000
G1 X134.735 Y116.865 E235.18233 F360.000
G1 X135.101 Y117.231 E235.24344 F360.000
G1 X134.589 Y117.744 E235.32901 F360.000
G1 X134.223 Y117.378 E235.39012 F360.000
G1 X133.711 Y117.890 E235.47569 F360.000
G1 X134.077 Y118.256 E235.53680 F360.000
G1 X133.564 Y118.768 E235.62238 F360.000
G1 X133.198 Y118.402 E235.68349 F360.000
G1 X132.686 Y118.915 E235.76906 F360.000
G1 X133.052 Y119.281 E235.83017 F360.000
G1 X132.539 Y119.793 E235.91574 F360.000
G1 X132.173 Y119.427 E235.97685 F360.000
G1 X131.661 Y119.940 E236.06243 F360.000
G1 X132.027 Y120.306 E236.12353 F360.000
G1 X131.515 Y120.818 E236.20911 F360.000
G1 X131.149 Y120.452 E236.27022 F360.000
G1 X130.636 Y120.964 E236.35579 F360.000
G1 X131.002 Y121.330 E236.41690 F360.000
G1 X130.490 Y121.843 E236.50247 F360.000
G1 X130.124 Y121.477 E236.56358 F360.000
G1 X129.612 Y121.989 E236.64916 F360.000
G1 X129.977 Y122.355 E236.71027 F360.000
G1 X129.465 Y122.867 E236.79584 F360.000
G1 X129.099 Y122.502 E236.85695 F360.000
G1 X128.587 Y123.014 E236.94252 F360.000
G1 X128.953 Y123.380 E237.00363 F360.000
G1 X128.440 Y123.892 E237.08920 F360.000
G1 X128.074 Y123.526 E237.15031 F360.000
G1 X127.562 Y124.039 E237.23589 F360.000
G1 X127.928 Y124.405 E237.29700 F360.000
G1 X127.416 Y124.917 E237.38257 F360.000
G1 X127.050 Y124.551 E237.44368 F360.000
G1 X126.537 Y125.063 E237.52925 F360.000
G1 X126.903 Y125.429 E237.59036 F360.000
G1 X126.391 Y125.942 E237.67594 F360.000
G1 X126.025 Y125.576 E237.73704 F360.000
G1 X125.513 Y126.088 E237.82262 F360.000
G1 X125.878 Y126.454 E237.88373 F360.000
G1 X125.366 Y126.966 E237.96930 F360.000
G1 X125.000 Y126.601 E238.03041 F360.000
G1 X124.488 Y127.113 E238.11598 F360.000
G1 X124.854 Y127.479 E238.17709 F360.000
G1 X124.341 Y127.991 E238.26267 F360.000
G1 X123.975 Y127.625 E238.32378 F360.000
G1 X123.463 Y128.138 E238.40935 F360.000
G1 X123.829 Y128.504 E238.47046 F360.000
G1 X123.317 Y129.016 E238.55603 F360.000
G1 X122.951 Y128.650 E238.61714 F360.000
G1 X122.438 Y129.162 E238.70271 F360.000
G1 X122.804 Y129.528 E238.76382 F360.000
G1 X122.292 Y130.041 E238.84940 F360.000
G1 X121.926 Y129.675 E238.91051 F360.000
G1 X121.413 Y130.187 E238.99608 F360.000
G1 X121.779 Y130.553 E239.05719 F360.000
G1 X121.267 Y131.066 E239.14276 F360.000
G1 X120.901 Y130.700 E239.20387 F360.000
G1 X120.389 Y131.212 E239.28944 F360.000
G1 X120.755 Y131.578 E239.35055 F360.000
G1 X120.242 Y132.090 E239.43613 F360.000
G1 X119.876 Y131.724 E239.49724 F360.000
G1 X119.340 Y132.213 E239.58290 F360.000
G1 X119.730 Y132.603 E239.64797 F360.000
G1 X119.217 Y133.115 E239.73354 F360.000
G1 X118.828 Y132.725 E239.79861 F360.000
G1 X118.316 Y133.238 E239.88418 F360.000
G1 X118.705 Y133.627 E239.94925 F360.000
