; generated by Slic3r 1.0.0RC3 on 2014-03-12 at 09:54:35

; layer_height = 0.2
; perimeters = 3
; top_solid_layers = 3
; bottom_solid_layers = 3
; fill_density = 1
; perimeter_speed = 60
; infill_speed = 60
; travel_speed = 120
; nozzle_diameter = 0.4
; filament_diameter = 1.75
; extrusion_multiplier = 0.98
; perimeters extrusion width = 0.40mm
; infill extrusion width = 0.67mm
; solid infill extrusion width = 0.67mm
; top infill extrusion width = 0.67mm
; first layer extrusion width = 0.60mm

G21 ; set units to millimeters
M107
M104 S220 ; set temperature
G28 ; home all axes
M106 S255;
G1 Z200 F1200 ; lift nozzle
M109 S220 ; wait for temperature to be reached
G90 ; use absolute coordinates
G92 E0
M82 ; use absolute distances for extrusion
G1 F1800.000 E-1.00000
G92 E0
G1 Z0.300 F7200.000
G1 X128.523 Y89.383 F7200.000
G1 E1.00000 F1800.000
G1 X128.953 Y88.843 E1.04700 F1080.000
G1 X131.753 Y85.743 E1.33145
G1 X132.233 Y85.273 E1.37719
G1 X132.763 Y84.843 E1.42366
G1 X136.143 Y82.383 E1.70832
G1 X136.723 Y82.003 E1.75553
G1 X137.333 Y81.693 E1.80213
G1 X141.153 Y79.993 E2.08683
G1 X141.793 Y79.743 E2.13362
G1 X142.453 Y79.573 E2.18003
G1 X146.533 Y78.703 E2.46409
G1 X147.213 Y78.593 E2.51100
G1 X147.903 Y78.553 E2.55806
G1 X152.083 Y78.553 E2.84268
G1 X152.773 Y78.593 E2.88975
G1 X153.443 Y78.703 E2.93598
G1 X157.533 Y79.573 E3.22071
G1 X158.203 Y79.743 E3.26778
G1 X158.843 Y79.993 E3.31456
G1 X162.663 Y81.693 E3.59927
G1 X163.273 Y82.003 E3.64586
G1 X163.853 Y82.383 E3.69308
G1 X167.233 Y84.843 E3.97773
G1 X167.763 Y85.273 E4.02421
G1 X168.243 Y85.753 E4.07043
G1 X171.033 Y88.853 E4.35442
G1 X171.473 Y89.393 E4.40185
G1 X171.843 Y89.963 E4.44812
G1 X173.933 Y93.583 E4.73275
G1 X174.243 Y94.203 E4.77995
G1 X174.493 Y94.843 E4.82673
G1 X175.783 Y98.823 E5.11162
G1 X175.953 Y99.483 E5.15803
G1 X176.063 Y100.153 E5.20426
G1 X176.503 Y104.303 E5.48843
G1 X176.543 Y104.993 E5.53549
G1 X176.503 Y105.683 E5.58255
G1 X176.063 Y109.843 E5.86740
G1 X175.953 Y110.523 E5.91430
G1 X175.783 Y111.183 E5.96071
G1 X174.493 Y115.153 E6.24495
G1 X174.243 Y115.793 E6.29174
G1 X173.933 Y116.403 E6.33833
G1 X171.843 Y120.023 E6.62296
G1 X171.473 Y120.593 E6.66923
G1 X171.043 Y121.123 E6.71570
G1 X168.253 Y124.233 E7.00020
G1 X167.763 Y124.723 E7.04738
G1 X167.223 Y125.163 E7.09481
G1 X163.843 Y127.613 E7.37907
G1 X163.263 Y127.983 E7.42591
G1 X162.663 Y128.293 E7.47190
G1 X158.843 Y129.993 E7.75661
G1 X158.203 Y130.243 E7.80339
G1 X157.533 Y130.413 E7.85046
G1 X153.443 Y131.283 E8.13519
G1 X152.773 Y131.393 E8.18142
G1 X152.083 Y131.433 E8.22848
G1 X147.903 Y131.433 E8.51311
G1 X147.213 Y131.393 E8.56017
G1 X146.533 Y131.283 E8.60708
G1 X142.453 Y130.413 E8.89114
G1 X141.793 Y130.243 E8.93755
G1 X141.153 Y129.993 E8.98433
G1 X137.333 Y128.293 E9.26904
G1 X136.733 Y127.983 E9.31503
G1 X136.153 Y127.613 E9.36187
G1 X132.773 Y125.163 E9.64613
G1 X132.243 Y124.733 E9.69260
G1 X131.753 Y124.243 E9.73979
G1 X128.953 Y121.133 E10.02474
G1 X128.523 Y120.593 E10.07174
G1 X128.143 Y120.023 E10.11839
G1 X126.053 Y116.403 E10.40301
G1 X125.743 Y115.793 E10.44961
G1 X125.493 Y115.153 E10.49639
G1 X124.203 Y111.183 E10.78063
G1 X124.033 Y110.513 E10.82770
G1 X123.923 Y109.823 E10.87528
G1 X123.493 Y105.663 E11.16005
G1 X123.453 Y104.993 E11.20575
G1 X123.493 Y104.313 E11.25214
G1 X123.923 Y100.163 E11.53623
G1 X124.023 Y99.483 E11.58303
G1 X124.203 Y98.823 E11.62962
G1 X125.493 Y94.843 E11.91450
G1 X125.743 Y94.203 E11.96129
G1 X126.053 Y93.583 E12.00849
G1 X128.143 Y89.963 E12.29312
G1 X128.477 Y89.452 E12.33464
G1 F1800.000 E11.33464
G92 E0
G1 X147.948 Y88.679 F7200.000
G1 E1.00000 F1800.000
G1 X148.100 Y87.917 E1.05290 F540.000
G1 X148.531 Y87.271 E1.10581
G1 X149.177 Y86.839 E1.15871
G1 X149.939 Y86.688 E1.21161
G1 X150.701 Y86.839 E1.26451
G1 X151.347 Y87.271 E1.31741
G1 X151.779 Y87.917 E1.37032
G1 X151.930 Y88.679 E1.42321
G1 X151.779 Y89.441 E1.47612
G1 X151.347 Y90.087 E1.52902
G1 X150.701 Y90.518 E1.58192
G1 X149.939 Y90.670 E1.63482
G1 X149.177 Y90.518 E1.68772
G1 X148.531 Y90.087 E1.74063
G1 X148.100 Y89.441 E1.79353
G1 X147.964 Y88.761 E1.84074
G1 X148.516 Y88.679 F7200.000
G1 X148.624 Y88.134 E1.87855 F540.000
G1 X148.933 Y87.672 E1.91636
G1 X149.395 Y87.364 E1.95417
G1 X149.939 Y87.256 E1.99198
G1 X150.484 Y87.364 E2.02979
G1 X150.946 Y87.672 E2.06760
G1 X151.254 Y88.134 E2.10542
G1 X151.362 Y88.679 E2.14323
G1 X151.254 Y89.223 E2.18104
G1 X150.946 Y89.685 E2.21885
G1 X150.484 Y89.994 E2.25666
G1 X149.939 Y90.102 E2.29447
G1 X149.395 Y89.994 E2.33228
G1 X148.933 Y89.685 E2.37009
G1 X148.624 Y89.223 E2.40790
G1 X148.532 Y88.761 E2.44002
G1 X148.054 Y88.370 F7200.000
G1 F1800.000 E1.44002
G92 E0
G1 X165.130 Y103.469 F7200.000
G1 E1.00000 F1800.000
G1 X165.776 Y103.038 E1.05290 F540.000
G1 X166.538 Y102.886 E1.10580
G1 X167.300 Y103.038 E1.15870
G1 X167.946 Y103.469 E1.21161
G1 X168.377 Y104.115 E1.26451
G1 X168.529 Y104.877 E1.31741
G1 X168.377 Y105.639 E1.37031
G1 X167.946 Y106.285 E1.42321
G1 X167.300 Y106.717 E1.47612
G1 X166.538 Y106.868 E1.52902
G1 X165.776 Y106.717 E1.58192
G1 X165.130 Y106.285 E1.63482
G1 X164.698 Y105.639 E1.68772
G1 X164.547 Y104.877 E1.74062
G1 X164.698 Y104.115 E1.79353
G1 X165.083 Y103.539 E1.84074
G1 X165.531 Y103.871 F7200.000
G1 X165.993 Y103.562 E1.87855 F540.000
G1 X166.538 Y103.454 E1.91636
G1 X167.082 Y103.562 E1.95417
G1 X167.544 Y103.871 E1.99198
G1 X167.853 Y104.333 E2.02979
G1 X167.961 Y104.877 E2.06760
G1 X167.853 Y105.422 E2.10541
G1 X167.544 Y105.884 E2.14322
G1 X167.082 Y106.192 E2.18104
G1 X166.538 Y106.300 E2.21885
G1 X165.993 Y106.192 E2.25666
G1 X165.531 Y105.884 E2.29447
G1 X165.223 Y105.422 E2.33228
G1 X165.115 Y104.877 E2.37009
G1 X165.223 Y104.333 E2.40790
G1 X165.485 Y103.940 E2.44002
G1 X165.423 Y103.326 F7200.000
G1 F1800.000 E1.44002
G92 E0
G1 X135.465 Y104.877 F7200.000
G1 E1.00000 F1800.000
G1 X135.314 Y105.639 E1.05290 F540.000
G1 X134.882 Y106.285 E1.10580
G1 X134.236 Y106.717 E1.15870
G1 X133.474 Y106.868 E1.21161
G1 X132.712 Y106.717 E1.26451
G1 X132.066 Y106.285 E1.31741
G1 X131.635 Y105.639 E1.37031
G1 X131.483 Y104.877 E1.42321
G1 X131.635 Y104.115 E1.47611
G1 X132.066 Y103.469 E1.52902
G1 X132.712 Y103.038 E1.58191
G1 X133.474 Y102.886 E1.63482
G1 X134.236 Y103.038 E1.68772
G1 X134.882 Y103.469 E1.74062
G1 X135.314 Y104.115 E1.79353
G1 X135.449 Y104.795 E1.84074
G1 X134.897 Y104.877 F7200.000
G1 X134.789 Y105.422 E1.87855 F540.000
G1 X134.480 Y105.884 E1.91636
G1 X134.019 Y106.192 E1.95417
G1 X133.474 Y106.300 E1.99198
G1 X132.929 Y106.192 E2.02979
G1 X132.468 Y105.884 E2.06760
G1 X132.159 Y105.422 E2.10542
G1 X132.051 Y104.877 E2.14323
G1 X132.159 Y104.333 E2.18104
G1 X132.468 Y103.871 E2.21885
G1 X132.929 Y103.562 E2.25666
G1 X133.474 Y103.454 E2.29447
G1 X134.019 Y103.562 E2.33228
G1 X134.480 Y103.871 E2.37009
G1 X134.789 Y104.333 E2.40790
G1 X134.881 Y104.795 E2.44002
G1 X135.359 Y105.186 F7200.000
G1 F1800.000 E1.44002
G92 E0
G1 X143.441 Y105.000 F7200.000
G1 E1.00000 F1800.000
G1 X143.585 Y103.636 E1.09336 F1080.000
G1 X143.935 Y102.558 E1.17058
G1 X144.008 Y102.332 E1.18673
G1 X144.694 Y101.145 E1.28010
G1 X145.611 Y100.126 E1.37346
G1 X146.721 Y99.320 E1.46682
G1 X147.973 Y98.762 E1.56019
G1 X149.314 Y98.477 E1.65355
G1 X150.686 Y98.477 E1.74692
G1 X152.027 Y98.762 E1.84029
G1 X153.279 Y99.320 E1.93365
G1 X154.389 Y100.126 E2.02701
G1 X155.306 Y101.145 E2.12038
G1 X155.992 Y102.332 E2.21374
G1 X156.415 Y103.636 E2.30711
G1 X156.559 Y105.000 E2.40047
G1 X156.415 Y106.364 E2.49384
G1 X155.992 Y107.668 E2.58720
G1 X155.306 Y108.855 E2.68057
G1 X154.547 Y109.698 E2.75778
G1 X154.389 Y109.874 E2.77393
G1 X153.279 Y110.680 E2.86730
G1 X152.027 Y111.238 E2.96066
G1 X150.686 Y111.523 E3.05403
G1 X149.314 Y111.523 E3.14739
G1 X147.973 Y111.238 E3.24076
G1 X146.721 Y110.680 E3.33412
G1 X145.611 Y109.874 E3.42749
G1 X144.694 Y108.855 E3.52085
G1 X144.008 Y107.668 E3.61422
G1 X143.585 Y106.364 E3.70758
G1 X143.450 Y105.083 E3.79526
G1 X144.001 Y105.000 F7200.000
G1 X144.132 Y103.753 E3.88065 F540.000
G1 X144.465 Y102.730 E3.95387
G1 X144.520 Y102.560 E3.96604
G1 X145.147 Y101.474 E4.05143
G1 X145.986 Y100.542 E4.13682
G1 X147.001 Y99.805 E4.22221
G1 X148.146 Y99.295 E4.30760
G1 X149.373 Y99.034 E4.39299
G1 X150.627 Y99.034 E4.47839
G1 X151.854 Y99.295 E4.56378
G1 X152.999 Y99.805 E4.64917
G1 X154.014 Y100.542 E4.73456
G1 X154.853 Y101.474 E4.81995
G1 X155.480 Y102.560 E4.90534
G1 X155.868 Y103.753 E4.99073
G1 X155.999 Y105.000 E5.07612
G1 X155.868 Y106.247 E5.16151
G1 X155.480 Y107.440 E5.24690
G1 X154.853 Y108.526 E5.33229
G1 X154.133 Y109.325 E5.40552
G1 X154.014 Y109.458 E5.41769
G1 X152.999 Y110.195 E5.50308
G1 X151.854 Y110.705 E5.58847
G1 X150.627 Y110.966 E5.67386
G1 X149.373 Y110.966 E5.75925
G1 X148.146 Y110.705 E5.84464
G1 X147.001 Y110.195 E5.93003
G1 X145.986 Y109.458 E6.01542
G1 X145.147 Y108.526 E6.10082
G1 X144.520 Y107.440 E6.18621
G1 X144.132 Y106.247 E6.27160
G1 X144.010 Y105.083 E6.35130
G1 X144.562 Y105.000 F7200.000
G1 X144.680 Y103.869 E6.42872 F540.000
G1 X145.032 Y102.788 E6.50613
G1 X145.600 Y101.803 E6.58355
G1 X146.361 Y100.958 E6.66097
G1 X147.281 Y100.290 E6.73838
G1 X148.319 Y99.828 E6.81580
G1 X149.432 Y99.591 E6.89322
G1 X150.568 Y99.591 E6.97064
G1 X151.681 Y99.828 E7.04805
G1 X152.639 Y100.254 E7.11950
G1 X152.719 Y100.290 E7.12547
G1 X153.639 Y100.958 E7.20289
G1 X154.400 Y101.803 E7.28030
G1 X154.968 Y102.788 E7.35772
G1 X155.320 Y103.869 E7.43514
G1 X155.438 Y105.000 E7.51256
G1 X155.320 Y106.131 E7.58997
G1 X154.968 Y107.212 E7.66739
G1 X154.400 Y108.197 E7.74481
G1 X153.719 Y108.952 E7.81405
G1 X153.639 Y109.042 E7.82223
G1 X152.719 Y109.710 E7.89964
G1 X151.681 Y110.172 E7.97706
G1 X150.568 Y110.409 E8.05448
G1 X149.432 Y110.409 E8.13189
G1 X148.319 Y110.172 E8.20931
G1 X147.281 Y109.710 E8.28673
G1 X146.361 Y109.042 E8.36415
G1 X145.600 Y108.197 E8.44156
G1 X145.032 Y107.212 E8.51898
G1 X144.680 Y106.131 E8.59640
G1 X144.570 Y105.083 E8.66813
G1 X144.089 Y104.705 F7200.000
G1 F1800.000 E7.66813
G92 E0
G1 X149.177 Y119.636 F7200.000
G1 E1.00000 F1800.000
G1 X149.939 Y119.485 E1.05290 F540.000
G1 X150.701 Y119.636 E1.10581
G1 X151.347 Y120.068 E1.15871
G1 X151.779 Y120.714 E1.21161
G1 X151.930 Y121.476 E1.26451
G1 X151.779 Y122.238 E1.31742
G1 X151.347 Y122.884 E1.37032
G1 X150.701 Y123.315 E1.42322
G1 X149.939 Y123.467 E1.47612
G1 X149.177 Y123.315 E1.52902
G1 X148.531 Y122.884 E1.58192
G1 X148.100 Y122.238 E1.63482
G1 X147.948 Y121.476 E1.68772
G1 X148.100 Y120.714 E1.74063
G1 X148.531 Y120.068 E1.79353
G1 X149.108 Y119.683 E1.84074
G1 X149.395 Y120.161 F7200.000
G1 X149.939 Y120.053 E1.87855 F540.000
G1 X150.484 Y120.161 E1.91636
G1 X150.946 Y120.469 E1.95417
G1 X151.254 Y120.931 E1.99198
G1 X151.362 Y121.476 E2.02979
G1 X151.254 Y122.020 E2.06761
G1 X150.946 Y122.482 E2.10542
G1 X150.484 Y122.791 E2.14323
G1 X149.939 Y122.899 E2.18104
G1 X149.395 Y122.791 E2.21885
G1 X148.933 Y122.482 E2.25666
G1 X148.624 Y122.020 E2.29447
G1 X148.516 Y121.476 E2.33228
G1 X148.624 Y120.931 E2.37009
G1 X148.933 Y120.469 E2.40790
G1 X149.325 Y120.207 E2.44002
G1 X149.503 Y119.616 F7200.000
G1 X149.252 Y119.053 F7200.000
G1 X148.960 Y119.111 E2.46031 F1080.000
G1 X148.130 Y119.666 E2.52830
G1 X147.575 Y120.496 E2.59629
G1 X147.380 Y121.476 E2.66428
G1 X147.575 Y122.455 E2.73227
G1 X148.280 Y123.511 E2.81870
G1 X144.263 Y122.657 E3.09835
G1 X140.717 Y121.078 E3.36263
G1 X137.577 Y118.797 E3.62691
G1 X134.980 Y115.912 E3.89119
G1 X133.040 Y112.551 E4.15547
G1 X131.840 Y108.860 E4.41975
G1 X131.608 Y106.649 E4.57112
G1 X132.495 Y107.242 E4.64374
G1 X133.474 Y107.436 E4.71174
G1 X134.453 Y107.242 E4.77973
G1 X135.284 Y106.687 E4.84772
G1 X135.838 Y105.857 E4.91572
G1 X136.033 Y104.877 E4.98371
G1 X135.839 Y103.898 E5.05170
G1 X135.284 Y103.068 E5.11969
G1 X134.453 Y102.513 E5.18769
G1 X133.474 Y102.318 E5.25568
G1 X132.495 Y102.513 E5.32368
G1 X131.636 Y103.087 E5.39402
G1 X131.840 Y101.140 E5.52732
G1 X133.040 Y97.449 E5.79160
G1 X134.980 Y94.088 E6.05588
G1 X137.577 Y91.203 E6.32016
G1 X140.717 Y88.922 E6.58444
G1 X144.263 Y87.343 E6.84872
G1 X148.401 Y86.464 E7.13675
G1 X147.575 Y87.700 E7.23794
G1 X147.380 Y88.679 E7.30593
G1 X147.575 Y89.658 E7.37392
G1 X148.130 Y90.488 E7.44191
G1 X148.960 Y91.043 E7.50990
G1 X149.939 Y91.238 E7.57790
G1 X150.919 Y91.043 E7.64589
G1 X151.749 Y90.488 E7.71388
G1 X152.304 Y89.658 E7.78187
G1 X152.498 Y88.679 E7.84987
G1 X152.304 Y87.700 E7.91785
G1 X151.458 Y86.434 E8.02151
G1 X155.737 Y87.343 E8.31939
G1 X159.283 Y88.922 E8.58367
G1 X162.423 Y91.203 E8.84795
G1 X165.020 Y94.088 E9.11223
G1 X166.960 Y97.449 E9.37651
G1 X168.160 Y101.140 E9.64079
G1 X168.363 Y103.078 E9.77351
G1 X167.517 Y102.513 E9.84281
G1 X166.538 Y102.318 E9.91081
G1 X165.558 Y102.513 E9.97880
G1 X164.728 Y103.068 E10.04679
G1 X164.173 Y103.898 E10.11478
G1 X163.979 Y104.877 E10.18277
G1 X164.173 Y105.857 E10.25076
G1 X164.728 Y106.687 E10.31876
G1 X165.558 Y107.242 E10.38675
G1 X166.538 Y107.436 E10.45474
G1 X167.517 Y107.242 E10.52273
G1 X168.391 Y106.658 E10.59431
G1 X168.160 Y108.860 E10.74510
G1 X166.960 Y112.551 E11.00938
G1 X165.020 Y115.912 E11.27366
G1 X162.423 Y118.797 E11.53794
G1 X159.283 Y121.078 E11.80222
G1 X155.737 Y122.657 E12.06650
G1 X151.578 Y123.541 E12.35600
G1 X152.304 Y122.455 E12.44490
G1 X152.498 Y121.476 E12.51289
G1 X152.304 Y120.496 E12.58088
G1 X151.749 Y119.666 E12.64888
G1 X150.919 Y119.111 E12.71687
G1 X149.939 Y118.917 E12.78487
G1 X149.334 Y119.037 E12.82688
G1 F1800.000 E11.82688
G92 E0
G1 X148.001 Y124.021 F7200.000
G1 E1.00000 F1800.000
G1 X144.090 Y123.189 E1.27225 F1080.000
G1 X140.437 Y121.563 E1.54451
G1 X137.203 Y119.213 E1.81676
G1 X134.527 Y116.242 E2.08902
G1 X132.528 Y112.779 E2.36127
G1 X131.292 Y108.976 E2.63353
G1 X130.881 Y104.941 E2.90970
G1 X131.292 Y101.024 E3.17795
G1 X132.528 Y97.221 E3.45020
G1 X134.527 Y93.758 E3.72246
G1 X137.203 Y90.787 E3.99471
G1 X140.437 Y88.437 E4.26697
G1 X144.090 Y86.811 E4.53922
G1 X148.001 Y85.979 E4.81147
G1 X151.999 Y85.979 E5.08373
G1 X155.910 Y86.811 E5.35598
G1 X159.563 Y88.437 E5.62824
G1 X162.797 Y90.787 E5.90049
G1 X165.473 Y93.758 E6.17275
G1 X167.472 Y97.221 E6.44500
G1 X168.708 Y101.024 E6.71726
G1 X169.125 Y105.000 E6.98951
G1 X168.708 Y108.976 E7.26177
G1 X167.472 Y112.779 E7.53402
G1 X165.473 Y116.242 E7.80627
G1 X162.797 Y119.213 E8.07853
G1 X159.563 Y121.563 E8.35078
G1 X155.910 Y123.189 E8.62304
G1 X151.999 Y124.021 E8.89529
G1 X148.084 Y124.021 E9.16186
G1 X147.942 Y124.578 F7200.000
G1 X143.917 Y123.722 E9.44208 F540.000
G1 X140.157 Y122.048 E9.72231
G1 X136.828 Y119.629 E10.00254
G1 X134.074 Y116.571 E10.28277
G1 X132.016 Y113.007 E10.56300
G1 X130.745 Y109.093 E10.84322
G1 X130.314 Y105.000 E11.12345
G1 X130.327 Y104.883 E11.13144
G1 X130.745 Y100.907 E11.40368
G1 X132.016 Y96.993 E11.68391
G1 X134.074 Y93.429 E11.96414
G1 X136.828 Y90.371 E12.24437
G1 X140.157 Y87.952 E12.52459
G1 X143.917 Y86.278 E12.80482
G1 X147.942 Y85.422 E13.08505
G1 X152.058 Y85.422 E13.36528
G1 X156.083 Y86.278 E13.64551
G1 X159.843 Y87.952 E13.92574
G1 X163.172 Y90.371 E14.20596
G1 X163.251 Y90.458 E14.21396
G1 X165.926 Y93.429 E14.48619
G1 X167.984 Y96.993 E14.76642
G1 X169.255 Y100.907 E15.04665
G1 X169.686 Y105.000 E15.32688
G1 X169.255 Y109.093 E15.60711
G1 X167.984 Y113.007 E15.88733
G1 X165.926 Y116.571 E16.16756
G1 X163.172 Y119.629 E16.44779
G1 X159.843 Y122.048 E16.72802
G1 X156.083 Y123.722 E17.00825
G1 X152.058 Y124.578 E17.28847
G1 X148.026 Y124.578 E17.56301
G1 X147.734 Y124.061 F7200.000
G1 F1800.000 E16.56301
G92 E0
G1 X143.693 Y121.972 F7200.000
G1 E1.00000 F1800.000
G1 X133.060 Y111.338 E2.02565 F1080.000
G1 X132.680 Y110.169 E2.10947
G1 X144.900 Y122.389 E3.28813
G1 X145.902 Y122.602 E3.35800
G1 X132.300 Y109.000 E4.66994
G1 X132.153 Y108.064 E4.73460
G1 X146.904 Y122.815 E6.15742
G1 X147.134 Y122.256 E6.19867
G1 X132.528 Y107.650 E7.60746
G1 X133.500 Y107.833 E7.67494
G1 X147.006 Y121.339 E8.97762
G1 X147.137 Y120.681 E9.02339
G1 X134.158 Y107.702 E10.27522
G1 X134.757 Y107.512 E10.31809
G1 X147.358 Y120.113 E11.53343
