; generated by Slic3r 1.0.0RC3 on 2014-03-11 at 19:32:17

; layer_height = 0.3
; perimeters = 2
; top_solid_layers = 3
; bottom_solid_layers = 3
; fill_density = 0.1
; perimeter_speed = 60
; infill_speed = 60
; travel_speed = 120
; nozzle_diameter = 0.4
; filament_diameter = 1.75
; extrusion_multiplier = 0.98
; perimeters extrusion width = 0.40mm
; infill extrusion width = 0.42mm
; solid infill extrusion width = 0.42mm
; top infill extrusion width = 0.42mm
; first layer extrusion width = 0.60mm

G21 ; set units to millimeters
M107
M104 S220 ; set temperature
G28 ; home all axes
M106 S255;
G1 Z200 F1200 ; lift nozzle
M109 S220 ; wait for temperature to be reached
G90 ; use absolute coordinates
G92 E0
M82 ; use absolute distances for extrusion
G1 F1800.000 E-1.00000
G92 E0
G1 Z0.300 F7200.000
G1 X129.608 Y56.470 F7200.000
G1 E1.00000 F1800.000
G1 X130.218 Y55.360 E1.08624 F1080.000
G1 X131.038 Y54.390 E1.17273
G1 X132.028 Y53.590 E1.25940
G1 X133.148 Y53.000 E1.34560
G1 X134.368 Y52.640 E1.43221
G1 X135.628 Y52.510 E1.51847
G1 X164.318 Y52.510 E3.47204
G1 X165.578 Y52.640 E3.55829
G1 X166.788 Y53.000 E3.64425
G1 X167.908 Y53.590 E3.73045
G1 X168.898 Y54.380 E3.81669
G1 X169.718 Y55.350 E3.90318
G1 X170.328 Y56.450 E3.98883
G1 X173.868 Y64.580 E4.59262
G1 X174.278 Y65.860 E4.68414
G1 X174.418 Y67.200 E4.77588
G1 X174.428 Y147.840 E10.26685
G1 X174.278 Y149.200 E10.36002
G1 X173.858 Y150.510 E10.45369
G1 X173.168 Y151.690 E10.54677
G1 X172.258 Y152.710 E10.63985
G1 X171.148 Y153.520 E10.73342
G1 X169.888 Y154.080 E10.82730
G1 X166.068 Y155.320 E11.10078
G1 X162.538 Y156.310 E11.35042
G1 X161.978 Y156.440 E11.38956
G1 X161.408 Y156.530 E11.42886
G1 X155.608 Y157.100 E11.82570
G1 X150.298 Y157.310 E12.18755
G1 X149.798 Y157.310 E12.22160
G1 X144.878 Y157.120 E12.55686
G1 X144.338 Y157.080 E12.59373
G1 X139.618 Y156.510 E12.91746
G1 X139.058 Y156.420 E12.95608
G1 X134.698 Y155.500 E13.25950
G1 X134.028 Y155.320 E13.30674
G1 X130.208 Y154.080 E13.58022
G1 X128.968 Y153.530 E13.67258
G1 X127.868 Y152.730 E13.76520
G1 X126.948 Y151.730 E13.85773
G1 X126.268 Y150.560 E13.94987
G1 X125.828 Y149.280 E14.04204
G1 X125.668 Y147.930 E14.13460
G1 X125.558 Y140.090 E14.66850
G1 X125.558 Y67.200 E19.63176
G1 X125.698 Y65.870 E19.72282
G1 X126.098 Y64.600 E19.81348
G1 X129.575 Y56.547 E20.41078
G1 F1800.000 E19.41078
G92 E0
G1 X139.152 Y64.341 F7200.000
G1 E1.00000 F1800.000
G1 X139.417 Y64.122 E1.02345 F540.000
G1 X139.720 Y63.958 E1.04688
G1 X140.049 Y63.857 E1.07030
G1 X140.391 Y63.823 E1.09370
G1 X140.733 Y63.857 E1.11711
G1 X141.062 Y63.958 E1.14052
G1 X141.364 Y64.122 E1.16395
G1 X141.630 Y64.341 E1.18741
G1 X141.847 Y64.609 E1.21088
G1 X142.008 Y64.914 E1.23438
G1 X142.108 Y65.245 E1.25790
G1 X142.141 Y65.589 E1.28143
G1 X142.108 Y65.933 E1.30495
G1 X142.008 Y66.264 E1.32847
G1 X141.847 Y66.569 E1.35197
G1 X141.630 Y66.836 E1.37545
G1 X141.364 Y67.056 E1.39891
G1 X141.062 Y67.220 E1.42234
G1 X140.733 Y67.321 E1.44575
G1 X140.391 Y67.355 E1.46915
G1 X140.049 Y67.321 E1.49256
G1 X139.720 Y67.220 E1.51597
G1 X139.417 Y67.056 E1.53941
G1 X139.152 Y66.836 E1.56286
G1 X138.935 Y66.569 E1.58634
G1 X138.774 Y66.264 E1.60984
G1 X138.674 Y65.933 E1.63335
G1 X138.641 Y65.589 E1.65688
G1 X138.674 Y65.245 E1.68041
G1 X138.774 Y64.914 E1.70392
G1 X138.935 Y64.609 E1.72743
G1 X139.100 Y64.406 E1.74522
G1 X139.072 Y64.006 F7200.000
G1 F1800.000 E0.74522
G92 E0
G1 X157.822 Y65.585 F7200.000
G1 E1.00000 F1800.000
G1 X157.857 Y65.237 E1.02387 F540.000
G1 X157.960 Y64.901 E1.04775
G1 X158.127 Y64.592 E1.07165
G1 X158.351 Y64.322 E1.09558
G1 X158.624 Y64.100 E1.11952
G1 X158.935 Y63.936 E1.14349
G1 X159.272 Y63.834 E1.16747
G1 X159.623 Y63.800 E1.19147
G1 X159.974 Y63.834 E1.21546
G1 X160.311 Y63.936 E1.23945
G1 X160.622 Y64.100 E1.26342
G1 X160.895 Y64.322 E1.28736
G1 X161.119 Y64.592 E1.31128
G1 X161.286 Y64.901 E1.33518
G1 X161.389 Y65.237 E1.35906
G1 X161.424 Y65.585 E1.38294
G1 X161.389 Y65.934 E1.40681
G1 X161.286 Y66.270 E1.43069
G1 X161.119 Y66.579 E1.45459
G1 X160.895 Y66.849 E1.47852
G1 X160.622 Y67.071 E1.50246
G1 X160.311 Y67.235 E1.52643
G1 X159.974 Y67.337 E1.55041
G1 X159.623 Y67.371 E1.57441
G1 X159.272 Y67.337 E1.59840
G1 X158.938 Y67.236 E1.62218
G1 X158.624 Y67.077 E1.64615
G1 X158.349 Y66.847 E1.67054
G1 X158.127 Y66.579 E1.69429
G1 X157.960 Y66.270 E1.71819
G1 X157.857 Y65.934 E1.74207
G1 X157.831 Y65.669 E1.76026
G1 X157.525 Y65.400 F7200.000
G1 F1800.000 E0.76026
G92 E0
G1 X164.033 Y68.819 F7200.000
G1 E1.00000 F1800.000
G1 X165.486 Y68.819 E1.09891 F540.000
G1 X165.485 Y137.816 E5.79710
G1 X134.505 Y137.816 E7.90664
G1 X134.467 Y68.818 E12.60483
G1 X163.950 Y68.819 E14.61237
G1 X164.312 Y68.336 F7200.000
G1 F1800.000 E13.61237
G92 E0
G1 X159.748 Y139.413 F7200.000
G1 E1.00000 F1800.000
G1 X160.126 Y139.447 E1.02589 F540.000
G1 X160.491 Y139.550 E1.05170
G1 X160.829 Y139.718 E1.07738
G1 X161.127 Y139.945 E1.10288
G1 X161.373 Y140.224 E1.12818
G1 X161.557 Y140.544 E1.15331
G1 X161.670 Y140.893 E1.17830
G1 X161.709 Y141.256 E1.20322
G1 X161.670 Y141.620 E1.22814
G1 X161.557 Y141.969 E1.25314
G1 X161.373 Y142.289 E1.27826
G1 X161.127 Y142.568 E1.30357
G1 X160.829 Y142.795 E1.32906
G1 X160.491 Y142.963 E1.35474
G1 X160.126 Y143.066 E1.38056
G1 X159.748 Y143.100 E1.40645
G1 X159.369 Y143.066 E1.43233
G1 X159.004 Y142.963 E1.45815
G1 X158.667 Y142.795 E1.48382
G1 X158.369 Y142.568 E1.50932
G1 X158.123 Y142.289 E1.53462
G1 X157.939 Y141.969 E1.55975
G1 X157.825 Y141.620 E1.58475
G1 X157.786 Y141.256 E1.60967
G1 X157.825 Y140.892 E1.63459
G1 X157.939 Y140.544 E1.65958
G1 X158.123 Y140.224 E1.68471
G1 X158.369 Y139.945 E1.71001
G1 X158.667 Y139.718 E1.73551
G1 X159.004 Y139.550 E1.76119
G1 X159.369 Y139.447 E1.78700
G1 X159.665 Y139.420 E1.80720
G1 X159.948 Y139.089 F7200.000
G1 F1800.000 E0.80720
G92 E0
G1 X142.279 Y141.012 F7200.000
G1 E1.00000 F1800.000
G1 X142.316 Y141.366 E1.02428 F540.000
G1 X142.251 Y141.998 E1.06751
G1 X142.207 Y141.998 E1.07050
G1 X141.996 Y142.374 E1.09987
G1 X141.762 Y142.647 E1.12437
G1 X141.478 Y142.871 E1.14898
G1 X141.154 Y143.036 E1.17370
G1 X140.805 Y143.137 E1.19850
G1 X140.441 Y143.171 E1.22334
G1 X140.078 Y143.137 E1.24817
G1 X139.729 Y143.036 E1.27297
G1 X139.405 Y142.871 E1.29768
G1 X139.121 Y142.647 E1.32230
G1 X138.887 Y142.374 E1.34680
G1 X138.712 Y142.062 E1.37120
G1 X138.604 Y141.721 E1.39552
G1 X138.567 Y141.366 E1.41981
G1 X138.604 Y141.012 E1.44409
G1 X138.712 Y140.671 E1.46841
G1 X138.887 Y140.358 E1.49281
G1 X139.121 Y140.085 E1.51732
G1 X139.405 Y139.862 E1.54193
G1 X139.729 Y139.697 E1.56665
G1 X140.078 Y139.596 E1.59144
G1 X140.441 Y139.561 E1.61628
G1 X140.805 Y139.596 E1.64112
G1 X141.154 Y139.697 E1.66591
G1 X141.478 Y139.862 E1.69063
G1 X141.762 Y140.085 E1.71524
G1 X141.996 Y140.358 E1.73974
G1 X142.171 Y140.671 E1.76415
G1 X142.254 Y140.932 E1.78278
G1 X142.614 Y141.135 F7200.000
G1 X142.866 Y141.272 F7200.000
G1 X142.828 Y140.898 E1.80839 F1080.000
G1 X142.685 Y140.449 E1.84046
G1 X142.455 Y140.038 E1.87252
G1 X142.149 Y139.681 E1.90455
G1 X141.779 Y139.391 E1.93656
G1 X141.361 Y139.177 E1.96857
G1 X140.909 Y139.046 E2.00057
G1 X140.441 Y139.002 E2.03256
G1 X139.974 Y139.046 E2.06455
G1 X139.522 Y139.177 E2.09654
G1 X139.104 Y139.391 E2.12855
G1 X138.734 Y139.681 E2.16057
G1 X138.428 Y140.038 E2.19260
G1 X137.901 Y140.979 E2.26604
G1 X137.695 Y140.925 E2.28057
G1 X137.695 Y139.400 E2.38442
G1 X136.706 Y139.325 E2.45194
G1 X132.976 Y139.180 E2.70615
G1 X132.978 Y68.064 E7.54859
G1 X133.908 Y68.064 E7.61191
G1 X133.948 Y138.373 E12.39938
G1 X166.042 Y138.373 E14.58473
G1 X166.042 Y68.064 E19.37220
G1 X167.004 Y68.064 E19.43771
G1 X167.004 Y139.169 E24.27942
G1 X162.572 Y139.290 E24.58133
G1 X162.571 Y140.790 E24.68342
G1 X162.371 Y140.843 E24.69752
G1 X161.828 Y139.897 E24.77181
G1 X161.508 Y139.535 E24.80468
G1 X161.124 Y139.243 E24.83753
G1 X160.692 Y139.028 E24.87037
G1 X159.748 Y138.762 E24.93721
G1 X158.803 Y139.028 E25.00405
G1 X158.371 Y139.243 E25.03689
G1 X157.987 Y139.535 E25.06974
G1 X157.668 Y139.897 E25.10260
G1 X157.427 Y140.316 E25.13549
G1 X157.277 Y140.775 E25.16841
G1 X157.226 Y141.256 E25.20134
G1 X157.277 Y141.738 E25.23429
G1 X157.427 Y142.197 E25.26720
G1 X157.668 Y142.616 E25.30010
G1 X157.987 Y142.978 E25.33296
G1 X158.371 Y143.270 E25.36581
G1 X158.803 Y143.485 E25.39865
G1 X159.267 Y143.616 E25.43150
G1 X159.748 Y143.660 E25.46435
G1 X160.228 Y143.616 E25.49720
G1 X160.692 Y143.485 E25.53004
G1 X161.124 Y143.270 E25.56290
G1 X161.508 Y142.978 E25.59574
G1 X161.827 Y142.616 E25.62861
G1 X162.371 Y141.670 E25.70290
G1 X162.571 Y141.723 E25.71700
G1 X162.572 Y146.098 E26.01487
G1 X167.020 Y146.104 E26.31775
G1 X167.020 Y147.223 E26.39397
G1 X163.808 Y148.267 E26.62392
G1 X160.649 Y149.161 E26.84744
G1 X154.903 Y149.723 E27.24057
G1 X150.054 Y149.912 E27.57102
G1 X145.205 Y149.723 E27.90147
G1 X140.549 Y149.163 E28.22079
G1 X136.273 Y148.258 E28.51841
G1 X133.089 Y147.223 E28.74639
G1 X133.089 Y146.044 E28.82665
G1 X137.695 Y146.044 E29.14028
G1 X137.695 Y141.807 E29.42880
G1 X137.901 Y141.754 E29.44334
G1 X138.428 Y142.695 E29.51678
G1 X138.734 Y143.052 E29.54881
G1 X139.104 Y143.342 E29.58082
G1 X139.522 Y143.556 E29.61283
G1 X139.974 Y143.687 E29.64483
G1 X140.441 Y143.731 E29.67681
G1 X140.909 Y143.687 E29.70882
G1 X141.361 Y143.556 E29.74081
G1 X141.779 Y143.342 E29.77282
G1 X142.149 Y143.052 E29.80482
G1 X142.455 Y142.695 E29.83686
G1 X142.534 Y142.555 E29.84778
G1 X142.753 Y142.555 E29.86274
G1 X142.875 Y141.355 E29.94487
G1 F1800.000 E28.94487
G92 E0
G1 X140.757 Y68.261 F7200.000
G1 E1.00000 F1800.000
G1 X140.703 Y68.047 E1.01505 F1080.000
G1 X141.678 Y67.520 E1.09052
G1 X142.027 Y67.230 E1.12146
G1 X142.314 Y66.877 E1.15240
G1 X142.526 Y66.476 E1.18332
G1 X142.657 Y66.041 E1.21425
G1 X142.701 Y65.589 E1.24517
G1 X142.657 Y65.137 E1.27609
G1 X142.526 Y64.702 E1.30701
G1 X142.314 Y64.300 E1.33794
G1 X142.028 Y63.948 E1.36888
G1 X141.678 Y63.658 E1.39982
G1 X141.278 Y63.442 E1.43076
G1 X140.843 Y63.308 E1.46172
G1 X140.391 Y63.263 E1.49267
G1 X139.939 Y63.308 E1.52363
G1 X139.504 Y63.442 E1.55458
G1 X139.104 Y63.658 E1.58552
G1 X138.755 Y63.948 E1.61646
G1 X138.468 Y64.300 E1.64740
G1 X138.256 Y64.702 E1.67833
G1 X138.125 Y65.137 E1.70925
G1 X138.081 Y65.589 E1.74017
G1 X138.125 Y66.041 E1.77110
G1 X138.256 Y66.476 E1.80202
G1 X138.468 Y66.877 E1.83295
G1 X138.754 Y67.230 E1.86388
G1 X139.104 Y67.520 E1.89482
G1 X140.079 Y68.047 E1.97029
G1 X140.025 Y68.261 E1.98534
G1 X136.486 Y68.261 E2.22630
G1 X136.486 Y59.927 E2.79378
G1 X163.469 Y59.928 E4.63108
G1 X163.469 Y68.262 E5.19856
G1 X160.031 Y68.262 E5.43264
G1 X159.977 Y68.042 E5.44801
G1 X160.931 Y67.538 E5.52152
G1 X161.289 Y67.247 E5.55292
G1 X161.583 Y66.892 E5.58433
G1 X161.803 Y66.486 E5.61574
G1 X161.938 Y66.045 E5.64716
G1 X161.984 Y65.585 E5.67858
G1 X161.938 Y65.126 E5.71000
G1 X161.803 Y64.685 E5.74141
G1 X161.583 Y64.279 E5.77283
G1 X161.289 Y63.924 E5.80424
G1 X160.931 Y63.633 E5.83564
G1 X160.523 Y63.418 E5.86704
G1 X160.082 Y63.285 E5.89844
G1 X159.623 Y63.240 E5.92982
G1 X159.164 Y63.285 E5.96122
G1 X158.723 Y63.418 E5.99262
G1 X158.315 Y63.633 E6.02401
G1 X157.957 Y63.924 E6.05541
G1 X157.663 Y64.279 E6.08682
G1 X157.443 Y64.685 E6.11824
G1 X157.308 Y65.126 E6.14965
G1 X157.263 Y65.585 E6.18107
G1 X157.308 Y66.045 E6.21249
G1 X157.443 Y66.486 E6.24391
G1 X157.663 Y66.892 E6.27532
G1 X157.952 Y67.241 E6.30623
G1 X158.315 Y67.544 E6.33840
G1 X159.278 Y68.031 E6.41189
G1 X159.223 Y68.262 E6.42799
G1 X140.840 Y68.261 E7.67971
G1 F1800.000 E6.67971
G92 E0
G1 X135.929 Y67.507 F7200.000
G1 E1.00000 F1800.000
G1 X135.929 Y59.370 E1.55406 F540.000
G1 X164.026 Y59.371 E3.46722
G1 X164.026 Y67.507 E4.02128
G1 X167.561 Y67.507 E4.26202
G1 X167.561 Y139.712 E9.17862
G1 X163.129 Y139.830 E9.48053
G1 X163.129 Y145.542 E9.86943
G1 X166.296 Y145.546 E10.08513
G1 X166.296 Y142.063 E10.32226
G1 X167.577 Y142.065 E10.40945
G1 X167.577 Y147.628 E10.78825
G1 X163.970 Y148.800 E11.04649
G1 X160.732 Y149.713 E11.27555
G1 X154.948 Y150.279 E11.67132
G1 X150.054 Y150.469 E12.00478
G1 X145.161 Y150.279 E12.33824
G1 X140.458 Y149.714 E12.66078
G1 X136.129 Y148.797 E12.96209
G1 X132.532 Y147.628 E13.21963
G1 X132.532 Y142.520 E13.56742
G1 X133.989 Y142.520 E13.66668
G1 X133.989 Y145.487 E13.86872
G1 X137.138 Y145.487 E14.08310
G1 X137.138 Y139.917 E14.46242
G1 X136.674 Y139.882 E14.49408
G1 X132.418 Y139.716 E14.78407
G1 X132.421 Y67.507 E19.70093
G1 X135.846 Y67.507 E19.93412
G1 X136.486 Y67.507 F7200.000
G1 F1800.000 E18.93412
G92 E0
G1 X158.323 Y138.784 F7200.000
G1 E1.00000 F1800.000
G1 X158.306 Y138.767 E1.00168 F1080.000
G1 X157.867 Y139.132 E1.04139
G1 X157.502 Y138.767 E1.07728
G1 X156.697 Y138.767 E1.13320
G1 X157.464 Y139.533 E1.20855
G1 X157.144 Y140.018 E1.24890
G1 X155.893 Y138.767 E1.37190
G1 X155.089 Y138.767 E1.42781
G1 X156.921 Y140.599 E1.60790
G1 X156.837 Y141.319 E1.65832
G1 X154.284 Y138.767 E1.90923
G1 X153.480 Y138.767 E1.96514
G1 X157.062 Y142.349 E2.31731
G1 F1800.000 E1.31731
G92 E0
G1 X162.178 Y143.443 F7200.000
G1 E1.00000 F1800.000
G1 X161.883 Y143.148 E1.02897 F1080.000
G1 X161.449 Y143.518 E1.06863
G1 X162.178 Y144.247 E1.14029
G1 X162.178 Y145.051 E1.19621
G1 X160.932 Y143.806 E1.31868
G1 X160.321 Y143.999 E1.36323
G1 X162.178 Y145.856 E1.54579
G1 F1800.000 E0.54579
G92 E0
G1 X165.685 Y146.950 F7200.000
G1 E1.00000 F1800.000
G1 X165.230 Y146.495 E1.04470 F1080.000
G1 X164.425 Y146.494 E1.10069
G1 X165.078 Y147.147 E1.16489
G1 X164.471 Y147.345 E1.20926
G1 X163.619 Y146.493 E1.29297
G1 X162.814 Y146.492 E1.34896
G1 X163.864 Y147.542 E1.45217
G1 X163.245 Y147.728 E1.49707
G1 X159.555 Y144.037 E1.85984
G1 X158.475 Y143.762 E1.93734
G1 X162.618 Y147.905 E2.34468
G1 X161.992 Y148.082 E2.38997
G1 X152.676 Y138.767 E3.30580
G1 X151.872 Y138.767 E3.36172
G1 X161.365 Y148.260 E4.29499
G1 X160.738 Y148.437 E4.34028
G1 X151.067 Y138.767 E5.29100
G1 X150.263 Y138.767 E5.34692
G1 X160.041 Y148.545 E6.30822
G1 X159.308 Y148.617 E6.35940
G1 X149.459 Y138.767 E7.32775
G1 X148.654 Y138.767 E7.38366
G1 X158.576 Y148.688 E8.35905
G1 X157.843 Y148.760 E8.41023
G1 X147.850 Y138.767 E9.39265
G1 X147.046 Y138.767 E9.44856
G1 X157.110 Y148.831 E10.43803
G1 X156.378 Y148.903 E10.48920
G1 X146.241 Y138.767 E11.48571
G1 X145.437 Y138.767 E11.54162
G1 X155.645 Y148.975 E12.54516
G1 X154.912 Y149.046 E12.59634
G1 X144.633 Y138.767 E13.60692
G1 X143.828 Y138.767 E13.66283
G1 X154.141 Y149.080 E14.67670
G1 X153.367 Y149.110 E14.73056
G1 X143.024 Y138.767 E15.74739
G1 X142.435 Y138.982 E15.79101
G1 X152.593 Y149.140 E16.78970
G1 X151.819 Y149.170 E16.84355
G1 X143.227 Y140.578 E17.68826
G1 X143.266 Y141.421 E17.74696
G1 X151.045 Y149.200 E18.51171
G1 X150.271 Y149.231 E18.56556
G1 X143.191 Y142.151 E19.26160
G1 X143.116 Y142.880 E19.31255
G1 X149.497 Y149.261 E19.93987
G1 X148.723 Y149.291 E19.99372
G1 X142.583 Y143.151 E20.59733
G1 X142.166 Y143.539 E20.63689
G1 X148.068 Y149.440 E21.21706
G1 X147.231 Y149.408 E21.27529
G1 X141.666 Y143.842 E21.82240
G1 X141.069 Y144.051 E21.86630
G1 X146.394 Y149.375 E22.38975
G1 X145.557 Y149.342 E22.44797
G1 X140.331 Y144.116 E22.96177
G1 X139.289 Y143.879 E23.03599
G1 X144.672 Y149.262 E23.56518
G1 X143.758 Y149.152 E23.62918
G1 X138.089 Y143.483 E24.18655
G1 X138.089 Y144.287 E24.24247
G1 X142.844 Y149.042 E24.70997
G1 X141.930 Y148.933 E24.77397
G1 X138.089 Y145.091 E25.15161
G1 X138.089 Y145.896 E25.20752
G1 X141.016 Y148.823 E25.49528
G1 X140.042 Y148.654 E25.56398
G1 X137.827 Y146.438 E25.78176
G1 X137.023 Y146.438 E25.83767
G1 X139.022 Y148.438 E26.03421
G1 X138.002 Y148.222 E26.10671
G1 X136.218 Y146.438 E26.28202
G1 X135.414 Y146.438 E26.33793
G1 X136.981 Y148.006 E26.49201
G1 X135.891 Y147.720 E26.57032
G1 X134.610 Y146.438 E26.69633
G1 X134.700 Y147.333 E26.75881
G1 X133.805 Y146.438 E26.84674
G1 X133.483 Y146.920 E26.88703
G1 X133.508 Y146.945 E26.88955
G1 X133.120 Y145.476 F7200.000
G1 X133.100 Y145.456 E26.89172 F360.000
G1 X133.421 Y144.887 E26.94190 F360.000
G1 X133.100 Y144.567 E26.97675 F360.000
