; generated by Slic3r 1.0.0RC2 on 2014-05-19 at 21:31:39

; layer_height = 0.3
; perimeters = 2
; top_solid_layers = 3
; bottom_solid_layers = 3
; fill_density = 0.1
; perimeter_speed = 60
; infill_speed = 60
; travel_speed = 120
; nozzle_diameter = 0.4
; filament_diameter = 1.75
; extrusion_multiplier = 0.98
; perimeters extrusion width = 0.40mm
; infill extrusion width = 0.42mm
; solid infill extrusion width = 0.42mm
; top infill extrusion width = 0.42mm
; first layer extrusion width = 0.80mm

G21 ; set units to millimeters
M107
M104 S220 ; set temperature
G28 ; home all axes
M106 S255;
G1 Z200 F1200 ; lift nozzle
M109 S220 ; wait for temperature to be reached
G90 ; use absolute coordinates
G92 E0
M82 ; use absolute distances for extrusion
G1 F1800.000 E-1.00000
G92 E0
G1 Z0.400 F7200.000
G1 X55.705 Y59.088 F7200.000
G1 E1.00000 F1800.000
G1 X56.845 Y58.268 E1.16344 F1080.000
G1 X58.135 Y57.698 E1.32759
G1 X76.315 Y51.898 E3.54863
G1 X76.975 Y51.728 E3.62796
G1 X93.315 Y48.288 E5.57146
G1 X93.825 Y48.198 E5.63173
G1 X147.235 Y41.248 E11.90052
G1 X148.055 Y41.198 E11.99614
G1 X193.705 Y40.888 E17.30946
G1 X232.155 Y40.888 E21.78465
G1 X233.555 Y41.028 E21.94841
G1 X234.885 Y41.468 E22.11146
G1 X236.095 Y42.168 E22.27416
G1 X237.145 Y43.098 E22.43741
G1 X237.965 Y44.238 E22.60086
G1 X238.535 Y45.518 E22.76394
G1 X246.205 Y69.058 E25.64552
G1 X246.455 Y70.088 E25.76889
G1 X246.535 Y71.138 E25.89145
G1 X246.525 Y80.968 E27.03556
G1 X243.225 Y136.918 E33.55889
G1 X243.015 Y138.248 E33.71561
G1 X242.535 Y139.508 E33.87254
G1 X241.815 Y140.648 E34.02947
G1 X240.885 Y141.618 E34.18588
G1 X239.785 Y142.388 E34.34216
G1 X201.035 Y163.878 E39.49940
G1 X199.615 Y164.468 E39.67837
G1 X198.115 Y164.718 E39.85537
G1 X110.265 Y169.108 E50.09297
G1 X109.265 Y169.078 E50.20942
G1 X100.305 Y168.198 E51.25729
G1 X99.665 Y168.108 E51.33251
G1 X99.025 Y167.948 E51.40929
G1 X90.055 Y165.238 E52.49991
G1 X78.505 Y161.068 E53.92915
G1 X77.285 Y160.478 E54.08688
G1 X76.195 Y159.648 E54.24634
G1 X75.305 Y158.628 E54.40389
G1 X66.275 Y145.878 E56.22235
G1 X65.835 Y145.158 E56.32056
G1 X61.595 Y137.218 E57.36820
G1 X61.315 Y136.628 E57.44421
G1 X61.085 Y136.008 E57.52118
G1 X58.475 Y127.398 E58.56833
G1 X58.315 Y126.758 E58.64511
G1 X58.225 Y126.108 E58.72148
G1 X57.345 Y117.158 E59.76820
G1 X53.485 Y67.258 E65.59340
G1 X53.465 Y66.738 E65.65397
G1 X53.465 Y64.098 E65.96124
G1 X53.605 Y62.698 E66.12500
G1 X54.045 Y61.358 E66.28915
G1 X54.755 Y60.138 E66.45344
G1 X55.633 Y59.167 E66.60578
G1 F1800.000 E65.60578
G92 E0
G1 X189.030 Y114.123 F7200.000
G1 E1.00000 F1800.000
G1 X198.883 Y114.123 E2.14683 F1080.000
G1 X198.897 Y115.431 E2.29899
G1 X198.895 Y139.707 E5.12456
G1 X189.026 Y139.707 E6.27319
G1 X189.030 Y114.231 E9.23844
G1 X189.742 Y114.838 F7200.000
G1 X198.177 Y114.838 E10.22015 F756.000
G1 X198.181 Y138.993 E13.03162
G1 X189.740 Y138.993 E14.01400
G1 X189.742 Y114.945 E16.81301
G1 X189.742 Y114.123 F7200.000
G1 X186.105 Y111.075 F7200.000
G1 X206.106 Y111.075 E19.14103 F1080.000
G1 X206.106 Y116.352 E19.75520
G1 X228.223 Y116.352 E22.32932
G1 X228.223 Y106.873 E23.43253
G1 X235.438 Y106.873 E24.27236
G1 X235.430 Y135.403 E27.59300
G1 X216.312 Y135.403 E29.81809
G1 X198.453 Y155.509 E32.94812
G1 X197.267 Y156.895 E33.16037
G1 X193.259 Y156.895 E33.62694
G1 X188.598 Y152.283 E34.39010
G1 X184.143 Y146.228 E35.26512
G1 X184.143 Y115.357 E38.85811
G1 X186.060 Y111.173 E39.39385
G1 X185.646 Y110.361 F7200.000
G1 X206.821 Y110.361 E41.85834 F756.000
G1 X206.821 Y115.638 E42.47252
G1 X227.509 Y115.638 E44.88039
G1 X227.509 Y106.159 E45.98360
G1 X236.153 Y106.159 E46.98967
G1 X236.153 Y134.387 E50.27518
G1 X236.137 Y136.118 E50.47656
G1 X216.633 Y136.118 E52.74660
G1 X198.991 Y155.979 E55.83850
G1 X197.596 Y157.610 E56.08825
G1 X192.965 Y157.610 E56.62729
G1 X188.056 Y152.751 E57.43113
G1 X183.429 Y146.462 E58.33993
G1 X183.429 Y115.201 E61.97838
G1 X185.602 Y110.458 E62.58558
G1 X186.207 Y110.803 F7200.000
G1 X198.472 Y113.642 F7200.000
G1 X196.387 Y111.557 E62.93101 F1080.000
G1 X195.371 Y111.557 E63.05011
G1 X197.455 Y113.642 E63.39554
G1 X196.439 Y113.642 E63.51465
G1 X194.354 Y111.557 E63.86008
G1 X193.337 Y111.557 E63.97919
G1 X195.422 Y113.642 E64.32461
G1 X194.405 Y113.642 E64.44372
G1 X192.321 Y111.557 E64.78914
G1 X191.304 Y111.557 E64.90825
G1 X193.389 Y113.642 E65.25366
G1 X192.372 Y113.642 E65.37277
G1 X190.287 Y111.557 E65.71818
G1 X189.271 Y111.557 E65.83729
G1 X191.355 Y113.642 E66.18270
G1 X190.339 Y113.642 E66.30181
G1 X188.254 Y111.557 E66.64722
G1 X187.238 Y111.557 E66.76633
G1 X189.322 Y113.642 E67.11173
G1 X188.548 Y113.884 E67.20676
G1 X186.353 Y111.689 E67.57046
G1 X186.034 Y112.386 E67.66031
G1 X188.548 Y114.901 E68.07692
G1 X188.548 Y115.917 E68.19601
G1 X185.714 Y113.084 E68.66551
G1 X185.395 Y113.781 E68.75537
G1 X188.548 Y116.934 E69.27777
G1 X188.548 Y117.950 E69.39686
G1 X185.075 Y114.478 E69.97216
G1 X184.756 Y115.175 E70.06201
G1 X188.547 Y118.967 E70.69021
G1 X188.547 Y119.983 E70.80930
G1 X184.624 Y116.060 E71.45927
G1 X184.624 Y117.077 E71.57838
G1 X188.547 Y121.000 E72.22831
G1 X188.547 Y122.016 E72.34740
G1 X184.624 Y118.094 E72.99731
G1 X184.624 Y119.110 E73.11642
G1 X188.547 Y123.033 E73.76631
G1 X188.547 Y124.049 E73.88540
G1 X184.624 Y120.127 E74.53526
G1 X184.624 Y121.144 E74.65436
G1 X188.546 Y125.066 E75.30420
G1 X188.546 Y126.082 E75.42329
G1 X184.624 Y122.160 E76.07309
G1 X184.624 Y123.177 E76.19220
G1 X188.546 Y127.099 E76.84198
G1 X188.546 Y128.115 E76.96107
G1 X184.624 Y124.194 E77.61082
G1 X184.624 Y125.210 E77.72993
G1 X188.546 Y129.132 E78.37965
G1 X188.546 Y130.148 E78.49874
G1 X184.624 Y126.227 E79.14844
G1 X184.624 Y127.244 E79.26755
G1 X188.546 Y131.165 E79.91722
G1 X188.545 Y132.181 E80.03631
G1 X184.624 Y128.260 E80.68596
G1 X184.624 Y129.277 E80.80507
G1 X188.545 Y133.198 E81.45468
G1 X188.545 Y134.214 E81.57377
G1 X184.624 Y130.294 E82.22336
G1 X184.624 Y131.310 E82.34247
G1 X188.545 Y135.231 E82.99204
G1 X188.545 Y136.247 E83.11113
G1 X184.624 Y132.327 E83.76067
G1 X184.624 Y133.344 E83.87978
G1 X188.545 Y137.264 E84.52929
G1 X188.544 Y138.280 E84.64838
G1 X184.624 Y134.360 E85.29786
G1 X184.624 Y135.377 E85.41697
G1 X188.544 Y139.297 E86.06643
G1 X185.991 Y147.926 F7200.000
G1 X194.478 Y156.414 E87.47270 F1080.000
G1 X195.495 Y156.414 E87.59181
G1 X184.624 Y145.543 E89.39288
G1 X184.624 Y144.527 E89.51199
G1 X196.511 Y156.414 E91.48151
G1 X197.268 Y156.153 E91.57524
G1 X184.624 Y143.510 E93.67011
G1 X184.624 Y142.493 E93.78922
G1 X197.737 Y155.605 E95.96174
G1 X198.208 Y155.060 E96.04619
G1 X184.624 Y141.477 E98.29675
G1 X184.624 Y140.460 E98.41586
G1 X198.686 Y154.521 E100.74567
G1 X199.164 Y153.983 E100.83004
G1 X184.624 Y139.443 E103.23908
G1 X184.624 Y138.427 E103.35819
G1 X199.642 Y153.445 E105.84647
G1 X200.121 Y152.906 E105.93084
G1 X184.624 Y137.410 E108.49836
G1 X184.624 Y136.393 E108.61747
G1 X200.599 Y152.368 E111.26423
G1 X201.077 Y151.829 E111.34860
G1 X189.437 Y140.189 E113.27724
G1 X190.454 Y140.189 E113.39635
G1 X201.555 Y151.291 E115.23578
G1 X202.034 Y150.753 E115.32015
G1 X191.470 Y140.189 E117.07037
G1 X192.487 Y140.189 E117.18948
G1 X202.512 Y150.214 E118.85049
G1 X202.990 Y149.676 E118.93486
G1 X193.503 Y140.189 E120.50667
G1 X194.520 Y140.189 E120.62578
G1 X203.468 Y149.137 E122.10838
G1 X203.947 Y148.599 E122.19275
G1 X195.537 Y140.189 E123.58614
G1 X196.553 Y140.189 E123.70525
G1 X204.425 Y148.061 E125.00944
G1 X204.903 Y147.522 E125.09381
G1 X197.570 Y140.189 E126.30878
G1 X198.587 Y140.189 E126.42789
G1 X205.381 Y146.984 E127.55366
G1 X205.859 Y146.445 E127.63803
G1 X199.377 Y139.962 E128.71218
G1 X199.377 Y138.946 E128.83128
G1 X206.338 Y145.907 E129.98465
G1 X206.816 Y145.369 E130.06903
G1 X199.377 Y137.929 E131.30162
G1 X199.377 Y136.913 E131.42072
G1 X207.294 Y144.830 E132.73255
G1 X207.772 Y144.292 E132.81692
G1 X199.377 Y135.896 E134.20797
G1 X199.377 Y134.880 E134.32707
G1 X208.251 Y143.753 E135.79734
G1 X208.729 Y143.215 E135.88171
G1 X199.377 Y133.863 E137.43121
G1 X199.377 Y132.846 E137.55031
G1 X209.207 Y142.676 E139.17904
G1 X209.685 Y142.138 E139.26341
G1 X199.377 Y131.830 E140.97136
G1 X199.377 Y130.813 E141.09046
G1 X210.164 Y141.600 E142.87764
G1 X210.642 Y141.061 E142.96201
G1 X199.377 Y129.797 E144.82841
G1 X199.377 Y128.780 E144.94751
G1 X211.120 Y140.523 E146.89313
G1 X211.598 Y139.984 E146.97751
G1 X199.378 Y127.764 E149.00236
G1 X199.378 Y126.747 E149.12146
G1 X212.077 Y139.446 E151.22553
G1 X212.555 Y138.908 E151.30990
G1 X199.378 Y125.730 E153.49321
G1 X199.378 Y124.714 E153.61231
G1 X213.033 Y138.369 E155.87483
G1 X213.511 Y137.831 E155.95921
G1 X199.378 Y123.697 E158.30096
G1 X199.378 Y122.681 E158.42006
G1 X213.990 Y137.292 E160.84104
G1 X214.468 Y136.754 E160.92541
G1 X199.378 Y121.664 E163.42561
G1 X199.378 Y120.648 E163.54471
G1 X214.946 Y136.216 E166.12414
G1 X215.424 Y135.677 E166.20851
G1 X199.378 Y119.631 E168.86716
G1 X199.378 Y118.614 E168.98626
G1 X215.903 Y135.139 E171.72414
G1 X216.702 Y134.922 E171.82120
G1 X199.378 Y117.598 E174.69152
G1 X199.378 Y116.581 E174.81062
G1 X217.719 Y134.922 E177.84937
G1 X218.735 Y134.922 E177.96848
G1 X199.379 Y115.565 E181.17566
G1 X199.369 Y114.539 E181.29584
G1 X219.752 Y134.922 E184.67298
G1 X220.769 Y134.922 E184.79209
G1 X197.404 Y111.557 E188.66336
G1 X198.420 Y111.557 E188.78247
G1 X221.785 Y134.922 E192.65374
G1 X222.802 Y134.922 E192.77285
G1 X199.437 Y111.557 E196.64413
G1 X200.454 Y111.557 E196.76324
G1 X223.819 Y134.922 E200.63452
G1 X224.835 Y134.922 E200.75363
G1 X206.747 Y116.833 E203.75061
G1 X207.764 Y116.833 E203.86972
G1 X225.852 Y134.922 E206.86670
G1 X226.869 Y134.922 E206.98581
G1 X208.780 Y116.833 E209.98279
G1 X209.797 Y116.833 E210.10190
G1 X227.885 Y134.922 E213.09889
G1 X228.902 Y134.922 E213.21800
G1 X210.814 Y116.833 E216.21498
G1 X211.830 Y116.833 E216.33409
G1 X229.918 Y134.922 E219.33107
G1 X230.935 Y134.922 E219.45018
G1 X212.847 Y116.833 E222.44716
G1 X213.864 Y116.833 E222.56627
G1 X231.952 Y134.922 E225.56326
G1 X232.968 Y134.922 E225.68237
G1 X214.880 Y116.833 E228.67935
G1 X215.897 Y116.833 E228.79846
G1 X233.985 Y134.922 E231.79544
G1 X234.939 Y134.859 E231.90744
G1 X216.914 Y116.833 E234.89401
G1 X217.930 Y116.833 E235.01312
G1 X234.948 Y133.851 E237.83281
G1 X234.949 Y132.835 E237.95188
G1 X218.947 Y116.833 E240.60317
G1 X219.964 Y116.833 E240.72228
G1 X234.949 Y131.819 E243.20518
G1 X234.949 Y130.802 E243.32425
G1 X220.980 Y116.833 E245.63875
G1 X221.997 Y116.833 E245.75786
G1 X234.950 Y129.786 E247.90397
G1 X234.950 Y128.770 E248.02304
G1 X223.014 Y116.833 E250.00075
G1 X224.030 Y116.833 E250.11986
G1 X234.950 Y127.753 E251.92917
G1 X234.951 Y126.737 E252.04825
G1 X225.047 Y116.833 E253.68917
G1 X226.063 Y116.833 E253.80828
G1 X234.951 Y125.721 E255.28080
G1 X234.951 Y124.704 E255.39988
G1 X227.080 Y116.833 E256.70401
G1 X228.097 Y116.833 E256.82312
G1 X234.951 Y123.688 E257.95885
G1 X234.952 Y122.672 E258.07792
G1 X228.705 Y116.425 E259.11301
G1 X228.705 Y115.408 E259.23212
G1 X234.952 Y121.655 E260.26726
G1 X234.952 Y120.639 E260.38633
G1 X228.705 Y114.391 E261.42153
G1 X228.705 Y113.375 E261.54064
G1 X234.953 Y119.623 E262.57588
G1 X234.953 Y118.606 E262.69495
G1 X228.705 Y112.358 E263.73025
G1 X228.705 Y111.341 E263.84936
G1 X234.953 Y117.590 E264.88471
G1 X234.954 Y116.574 E265.00378
G1 X228.705 Y110.325 E266.03918
G1 X228.705 Y109.308 E266.15829
G1 X234.954 Y115.557 E267.19374
G1 X234.954 Y114.541 E267.31282
G1 X228.705 Y108.291 E268.34832
G1 X228.785 Y107.355 E268.45844
G1 X234.955 Y113.525 E269.48071
G1 X234.955 Y112.508 E269.59979
G1 X229.801 Y107.355 E270.45367
G1 X230.818 Y107.355 E270.57278
G1 X234.955 Y111.492 E271.25826
G1 X234.956 Y110.476 E271.37733
G1 X231.835 Y107.355 E271.89442
G1 X232.851 Y107.355 E272.01353
G1 X234.956 Y109.459 E272.36223
G1 X234.956 Y108.443 E272.48130
G1 X233.868 Y107.355 E272.66160
G1 X234.885 Y107.355 E272.78071
G1 X234.956 Y107.427 E272.79261
G1 F1800.000 E271.79261
G92 E0
G1 X205.625 Y111.644 F7200.000
G1 E1.00000 F1800.000
G1 X205.537 Y111.557 E1.01454 F1080.000
G1 X204.520 Y111.557 E1.13365
G1 X205.625 Y112.661 E1.31663
G1 X205.625 Y113.678 E1.43574
G1 X203.504 Y111.557 E1.78717
G1 X202.487 Y111.557 E1.90627
G1 X205.625 Y114.694 E2.42614
G1 X205.625 Y115.711 E2.54525
G1 X201.470 Y111.557 E3.23357
G1 X189.141 Y114.238 F7200.000
G1 X188.822 Y151.775 F7200.000
G1 X193.461 Y156.414 E4.00220 F1080.000
G1 F1800.000 E3.00220
G92 E0
G1 X169.832 Y119.969 F7200.000
G1 E1.00000 F1800.000
G1 X169.035 Y120.128 E1.09463 F1080.000
G1 X168.470 Y120.015 E1.16169
G1 X168.237 Y119.969 E1.18927
G1 X167.561 Y119.518 E1.28390
G1 X167.110 Y118.841 E1.37853
G1 X166.951 Y118.044 E1.47317
G1 X167.110 Y117.247 E1.56780
G1 X167.743 Y116.299 E1.70043
G1 X166.379 Y116.028 E1.86223
G1 X164.126 Y114.523 E2.17760
G1 X162.621 Y112.270 E2.49297
G1 X162.092 Y109.612 E2.80834
G1 X162.621 Y106.954 E3.12372
G1 X164.126 Y104.701 E3.43909
G1 X166.357 Y103.211 E3.75130
G1 X167.547 Y102.916 E3.89402
G1 X167.110 Y102.261 E3.98562
G1 X166.951 Y101.464 E4.08026
G1 X167.110 Y100.666 E4.17489
G1 X167.561 Y99.990 E4.26952
G1 X168.237 Y99.538 E4.36416
G1 X169.035 Y99.380 E4.45878
G1 X169.832 Y99.539 E4.55342
G1 X170.508 Y99.990 E4.64805
G1 X170.960 Y100.666 E4.74269
G1 X171.119 Y101.464 E4.83731
G1 X170.960 Y102.261 E4.93194
G1 X170.523 Y102.915 E5.02342
G1 X171.717 Y103.211 E5.16658
G1 X173.947 Y104.702 E5.47878
G1 X175.453 Y106.954 E5.79415
G1 X175.981 Y109.612 E6.10953
G1 X175.453 Y112.270 E6.42490
G1 X173.947 Y114.523 E6.74028
G1 X171.694 Y116.028 E7.05564
G1 X170.327 Y116.300 E7.21787
G1 X170.960 Y117.247 E7.35040
G1 X171.119 Y118.044 E7.44503
G1 X170.960 Y118.841 E7.53966
G1 X170.508 Y119.518 E7.63430
G1 X169.921 Y119.910 E7.71646
G1 X176.146 Y122.029 F7200.000
G1 X169.037 Y115.828 F7200.000
G1 X166.658 Y115.355 E7.99876 F756.000
G1 X164.641 Y114.008 E8.28106
G1 X163.294 Y111.991 E8.56337
G1 X162.820 Y109.612 E8.84568
G1 X163.294 Y107.233 E9.12798
G1 X164.641 Y105.216 E9.41029
G1 X166.650 Y103.874 E9.69145
G1 X167.861 Y103.573 E9.83675
G1 X168.354 Y102.608 E9.96288
G1 X168.076 Y102.422 E10.00182
G1 X167.782 Y101.982 E10.06338
G1 X167.679 Y101.464 E10.12495
G1 X167.782 Y100.945 E10.18652
G1 X168.076 Y100.505 E10.24808
G1 X168.516 Y100.211 E10.30964
G1 X169.035 Y100.108 E10.37121
G1 X169.554 Y100.211 E10.43278
G1 X169.993 Y100.505 E10.49434
G1 X170.287 Y100.945 E10.55591
G1 X170.390 Y101.464 E10.61747
G1 X170.287 Y101.982 E10.67903
G1 X169.993 Y102.422 E10.74060
G1 X169.718 Y102.606 E10.77910
G1 X170.212 Y103.573 E10.90551
G1 X171.424 Y103.874 E11.05080
G1 X173.432 Y105.216 E11.33197
G1 X174.780 Y107.233 E11.61427
G1 X175.253 Y109.612 E11.89658
G1 X174.780 Y111.991 E12.17888
G1 X173.432 Y114.008 E12.46119
G1 X171.416 Y115.355 E12.74349
G1 X169.142 Y115.807 E13.01333
G1 X168.640 Y116.422 F7200.000
G1 X168.516 Y116.792 F7200.000
G1 X169.035 Y116.688 E13.07489 F540.000
G1 X169.554 Y116.792 E13.13646
G1 X169.993 Y117.085 E13.19803
G1 X170.287 Y117.525 E13.25959
G1 X170.390 Y118.044 E13.32115
G1 X170.287 Y118.563 E13.38271
G1 X169.993 Y119.003 E13.44428
G1 X169.554 Y119.297 E13.50584
G1 X169.035 Y119.400 E13.56741
G1 X168.516 Y119.296 E13.62898
G1 X168.076 Y119.003 E13.69054
G1 X167.782 Y118.563 E13.75210
G1 X167.679 Y118.044 E13.81367
G1 X167.782 Y117.525 E13.87523
G1 X168.076 Y117.085 E13.93680
G1 X168.427 Y116.851 E13.98589
G1 X168.619 Y116.273 F7200.000
G1 X160.139 Y119.517 F7200.000
G1 X160.139 Y100.320 E16.22018 F1080.000
G1 X165.998 Y92.166 E17.38885
G1 X166.413 Y84.712 E18.25780
G1 X171.696 Y84.712 E18.87266
G1 X172.112 Y92.166 E19.74161
G1 X177.971 Y100.320 E20.91029
G1 X177.971 Y119.517 E23.14457
G1 X172.115 Y126.983 E24.24894
G1 X171.702 Y133.779 E25.04139
G1 X166.408 Y133.779 E25.65751
G1 X165.994 Y126.983 E26.44996
G1 X160.205 Y119.601 E27.54187
G1 X159.425 Y119.764 F7200.000
G1 X159.425 Y100.090 E29.83162 F756.000
G1 X165.296 Y91.918 E31.00283
G1 X165.738 Y83.998 E31.92616
G1 X172.372 Y83.998 E32.69825
G1 X172.814 Y91.918 E33.62158
G1 X178.685 Y100.090 E34.79279
G1 X178.685 Y119.764 E37.08254
