; generated by Slic3r 1.0.0RC2 on 2014-05-19 at 18:21:18

; layer_height = 0.3
; perimeters = 4
; top_solid_layers = 3
; bottom_solid_layers = 3
; fill_density = 0.1
; perimeter_speed = 60
; infill_speed = 60
; travel_speed = 120
; nozzle_diameter = 0.4
; filament_diameter = 1.75
; extrusion_multiplier = 0.98
; perimeters extrusion width = 0.40mm
; infill extrusion width = 0.42mm
; solid infill extrusion width = 0.42mm
; top infill extrusion width = 0.42mm
; first layer extrusion width = 0.80mm

G21 ; set units to millimeters
M107
M104 S220 ; set temperature
G28 ; home all axes
M106 S255;
G1 Z200 F1200 ; lift nozzle
M109 S220 ; wait for temperature to be reached
G90 ; use absolute coordinates
G92 E0
M82 ; use absolute distances for extrusion
G1 F1800.000 E-1.00000
G92 E0
G1 Z0.400 F7200.000
G1 X125.018 Y74.502 F7200.000
G1 E1.00000 F1800.000
G1 X125.848 Y73.372 E1.16319 F1080.000
G1 X126.888 Y72.432 E1.32635
G1 X128.108 Y71.732 E1.49006
G1 X129.438 Y71.302 E1.65275
G1 X130.828 Y71.162 E1.81535
G1 X169.228 Y71.162 E6.28472
G1 X170.628 Y71.302 E6.44848
G1 X171.958 Y71.742 E6.61152
G1 X173.168 Y72.442 E6.77423
G1 X174.218 Y73.372 E6.93748
G1 X175.038 Y74.512 E7.10092
G1 X175.608 Y75.792 E7.26401
G1 X183.278 Y99.332 E10.14559
G1 X183.528 Y100.362 E10.26895
G1 X183.608 Y101.412 E10.39152
G1 X183.608 Y110.842 E11.48907
G1 X183.508 Y112.002 E11.62459
G1 X183.218 Y113.122 E11.75924
G1 X175.548 Y134.402 E14.39199
G1 X174.948 Y135.632 E14.55127
G1 X174.118 Y136.722 E14.71073
G1 X173.088 Y137.612 E14.86916
G1 X171.898 Y138.282 E15.02811
G1 X170.588 Y138.692 E15.18788
G1 X169.228 Y138.832 E15.34700
G1 X130.828 Y138.832 E19.81637
G1 X129.468 Y138.702 E19.97539
G1 X128.168 Y138.282 E20.13439
G1 X126.978 Y137.622 E20.29277
G1 X125.938 Y136.732 E20.45209
G1 X125.108 Y135.642 E20.61155
G1 X124.518 Y134.412 E20.77033
G1 X116.788 Y113.132 E23.40545
G1 X116.488 Y112.002 E23.54153
G1 X116.388 Y110.842 E23.67704
G1 X116.388 Y101.412 E24.77460
G1 X116.468 Y100.352 E24.89832
G1 X116.718 Y99.322 E25.02168
G1 X124.448 Y75.782 E27.90544
G1 X124.975 Y74.600 E28.05605
G1 F1800.000 E27.05605
G92 E0
G1 X134.949 Y83.335 F7200.000
G1 E1.00000 F1800.000
G1 X165.118 Y83.335 E4.51144 F1080.000
G1 X165.118 Y94.787 E5.84440
G1 X150.035 Y104.665 E7.94290
G1 X134.952 Y94.788 E10.04134
G1 X134.949 Y83.442 E11.36187
G1 X135.663 Y84.049 F7200.000
G1 X164.404 Y84.049 E14.70704 F1080.000
G1 X164.404 Y94.401 E15.91196
G1 X150.035 Y103.812 E17.91110
G1 X135.666 Y94.402 E19.91019
G1 X135.663 Y84.156 E21.10267
G1 X136.377 Y84.763 F7200.000
G1 X163.690 Y84.763 E24.28157 F1080.000
G1 X163.690 Y94.015 E25.35845
G1 X150.035 Y102.958 E27.25823
G1 X136.380 Y94.016 E29.15798
G1 X136.377 Y84.870 E30.22240
G1 X137.092 Y85.477 F7200.000
G1 X162.976 Y85.477 E33.23503 F756.000
G1 X162.976 Y93.629 E34.18386
G1 X150.035 Y102.104 E35.98428
G1 X137.094 Y93.630 E37.78469
G1 X137.092 Y85.584 E38.72106
G1 X137.092 Y84.763 F7200.000
G1 F1800.000 E37.72106
G92 E0
G1 X150.035 Y107.151 F7200.000
G1 E1.00000 F1800.000
G1 X164.765 Y116.814 E3.05036 F1080.000
G1 X164.765 Y127.325 E4.27378
G1 X135.302 Y127.325 E7.70296
G1 X135.306 Y116.813 E8.92642
G1 X149.945 Y107.210 E10.96425
G1 X150.035 Y108.005 F7200.000
G1 X164.051 Y117.199 E12.91520 F1080.000
G1 X164.051 Y126.611 E14.01062
G1 X136.016 Y126.611 E17.27352
G1 X136.020 Y117.199 E18.36897
G1 X149.945 Y108.064 E20.30741
G1 X150.035 Y108.859 F7200.000
G1 X163.337 Y117.585 E22.15895 F1080.000
G1 X163.337 Y125.897 E23.12636
G1 X136.731 Y125.897 E26.22300
G1 X136.734 Y117.585 E27.19043
G1 X149.945 Y108.918 E29.02948
G1 X150.035 Y109.713 F7200.000
G1 X162.622 Y117.971 E30.78161 F756.000
G1 X162.622 Y125.183 E31.62102
G1 X137.445 Y125.183 E34.55138
G1 X137.448 Y117.971 E35.39080
G1 X149.945 Y109.772 E37.13046
G1 X150.504 Y109.175 F7200.000
G1 X166.692 Y108.305 F7200.000
G1 X166.692 Y129.585 E39.60715 F1080.000
G1 X133.376 Y129.585 E43.48484
G1 X133.379 Y108.305 E45.96154
G1 X125.641 Y108.305 E46.86223
G1 X125.641 Y103.961 E47.36786
G1 X133.379 Y103.961 E48.26854
G1 X133.376 Y80.414 E51.00914
G1 X166.692 Y80.414 E54.88683
G1 X166.692 Y103.961 E57.62742
G1 X174.359 Y103.961 E58.51982
G1 X174.359 Y108.305 E59.02545
G1 X166.799 Y108.305 E59.90539
G1 X167.406 Y109.020 F7200.000
G1 X167.406 Y130.299 E62.38208 F1080.000
G1 X132.661 Y130.299 E66.42603
G1 X132.665 Y109.020 E68.90273
G1 X124.927 Y109.020 E69.80340
G1 X124.927 Y103.247 E70.47528
G1 X132.665 Y103.247 E71.37595
G1 X132.661 Y79.700 E74.11654
G1 X167.406 Y79.700 E78.16049
G1 X167.406 Y103.247 E80.90108
G1 X175.073 Y103.247 E81.79348
G1 X175.073 Y109.020 E82.46535
G1 X167.513 Y109.020 E83.34529
G1 X168.120 Y109.734 F7200.000
G1 X168.120 Y131.013 E85.82198 F1080.000
G1 X131.947 Y131.013 E90.03219
G1 X131.951 Y109.734 E92.50888
G1 X124.212 Y109.734 E93.40954
G1 X124.212 Y102.533 E94.24766
G1 X131.951 Y102.533 E95.14832
G1 X131.947 Y78.986 E97.88891
G1 X168.120 Y78.986 E102.09911
G1 X168.120 Y102.533 E104.83970
G1 X175.788 Y102.533 E105.73210
G1 X175.788 Y109.734 E106.57022
G1 X168.227 Y109.734 E107.45015
G1 X168.834 Y110.448 F7200.000
G1 X168.834 Y131.727 E109.92685 F756.000
G1 X131.233 Y131.727 E114.30331
G1 X131.236 Y110.448 E116.78001
G1 X123.498 Y110.448 E117.68065
G1 X123.498 Y101.819 E118.68501
G1 X131.236 Y101.819 E119.58565
G1 X131.233 Y78.272 E122.32624
G1 X168.834 Y78.272 E126.70271
G1 X168.834 Y101.819 E129.44329
G1 X176.502 Y101.819 E130.33570
G1 X176.502 Y110.448 E131.34005
G1 X168.942 Y110.448 E132.21999
G1 X168.120 Y110.448 F7200.000
G1 X165.853 Y105.650 F7200.000
G1 X159.346 Y99.143 E133.30569 F1080.000
G1 X165.853 Y95.412 F7200.000
G1 X165.791 Y95.349 E133.31609 F1080.000
G1 X164.914 Y95.497 E133.42097
G1 X165.853 Y96.435 E133.57763
G1 X165.853 Y97.459 E133.69842
G1 X164.296 Y95.902 E133.95832
G1 X163.677 Y96.307 E134.04557
G1 X165.853 Y98.483 E134.40869
G1 X165.853 Y99.507 E134.52948
G1 X163.058 Y96.712 E134.99582
G1 X162.440 Y97.117 E135.08308
G1 X165.853 Y100.531 E135.65265
G1 X165.853 Y101.555 E135.77344
G1 X161.821 Y97.522 E136.44624
G1 X161.202 Y97.927 E136.53349
G1 X165.853 Y102.578 E137.30952
G1 X165.853 Y103.602 E137.43032
G1 X160.584 Y98.333 E138.30957
G1 X159.965 Y98.738 E138.39682
G1 X165.853 Y104.626 E139.37930
G1 X172.837 Y104.443 F7200.000
G1 X173.521 Y105.127 E139.49343 F1080.000
G1 X173.521 Y106.150 E139.61422
G1 X171.813 Y104.443 E139.89918
G1 X170.789 Y104.443 E140.01997
G1 X173.521 Y107.174 E140.47576
G1 X172.789 Y107.467 E140.56869
G1 X169.765 Y104.443 E141.07328
G1 X168.741 Y104.443 E141.19407
G1 X171.766 Y107.467 E141.69867
G1 X170.742 Y107.467 E141.81946
G1 X167.718 Y104.443 E142.32406
G1 X166.816 Y104.565 E142.43136
G1 X169.718 Y107.467 E142.91549
G1 X168.694 Y107.467 E143.03629
G1 X166.816 Y105.589 E143.34959
G1 X166.432 Y106.228 E143.43760
G1 X167.670 Y107.467 E143.64429
G1 X166.646 Y107.467 E143.76508
G1 X158.728 Y99.548 E145.08636
G1 X158.109 Y99.953 E145.17361
G1 X165.853 Y107.697 E146.46577
G1 X165.853 Y108.721 E146.58656
G1 X157.491 Y100.358 E147.98195
G1 X156.872 Y100.764 E148.06920
G1 X165.853 Y109.745 E149.56782
G1 X165.853 Y110.769 E149.68861
G1 X156.253 Y101.169 E151.29045
G1 X155.635 Y101.574 E151.37771
G1 X165.853 Y111.793 E153.08278
G1 X165.853 Y112.817 E153.20357
G1 X155.016 Y101.979 E155.01187
G1 X154.397 Y102.384 E155.09912
G1 X165.853 Y113.840 E157.01064
G1 X165.853 Y114.864 E157.13144
G1 X153.779 Y102.789 E159.14619
G1 X153.160 Y103.195 E159.23344
G1 X165.853 Y115.888 E161.35141
G1 X164.729 Y115.787 E161.48465
G1 X152.541 Y103.600 E163.51818
G1 X151.923 Y104.005 E163.60543
G1 X161.752 Y113.835 E165.24559
G1 X158.776 Y111.882 F7200.000
G1 X151.304 Y104.410 E166.49238 F1080.000
G1 X150.685 Y104.815 E166.57963
G1 X155.800 Y109.930 E167.43305
G1 X152.824 Y107.977 F7200.000
G1 X150.067 Y105.220 E167.89310 F1080.000
G1 X149.996 Y106.174 E168.00588
G1 X147.220 Y103.397 E168.46916
G1 X144.253 Y101.454 F7200.000
G1 X149.378 Y106.579 E169.32428 F1080.000
G1 X148.760 Y106.985 E169.41152
G1 X141.286 Y99.511 E170.65851
G1 X138.319 Y97.568 F7200.000
G1 X148.141 Y107.390 E172.29735 F1080.000
G1 X147.523 Y107.796 E172.38459
G1 X135.353 Y95.626 E174.41528
G1 X133.870 Y95.167 E174.59840
G1 X146.905 Y108.201 E176.77332
G1 X146.287 Y108.607 E176.86056
G1 X133.860 Y96.180 E178.93410
G1 X133.860 Y97.204 E179.05491
G1 X145.668 Y109.013 E181.02526
G1 X145.050 Y109.418 E181.11250
G1 X133.860 Y98.228 E182.97967
G1 X133.860 Y99.252 E183.10048
G1 X144.432 Y109.824 E184.86446
G1 X143.814 Y110.229 E184.95170
G1 X133.860 Y100.276 E186.61250
G1 X133.860 Y101.300 E186.73331
G1 X143.195 Y110.635 E188.29092
G1 X142.577 Y111.040 E188.37816
G1 X133.860 Y102.324 E189.83259
G1 X133.861 Y103.348 E189.95340
G1 X141.959 Y111.446 E191.30464
G1 X141.341 Y111.852 E191.39188
G1 X133.861 Y104.372 E192.63994
G1 X132.908 Y104.443 E192.75268
G1 X140.722 Y112.257 E194.05659
G1 X140.104 Y112.663 E194.14383
G1 X131.884 Y104.443 E195.51541
G1 X130.860 Y104.443 E195.63620
G1 X139.486 Y113.068 E197.07545
G1 X138.868 Y113.474 E197.16269
G1 X133.861 Y108.467 E197.99812
G1 X133.861 Y109.491 E198.11889
G1 X138.249 Y113.879 E198.85120
G1 X137.631 Y114.285 E198.93843
G1 X133.860 Y110.514 E199.56761
G1 X133.860 Y111.538 E199.68838
G1 X137.013 Y114.691 E200.21443
G1 X136.395 Y115.096 E200.30167
G1 X133.860 Y112.562 E200.72458
G1 X133.860 Y113.585 E200.84536
G1 X135.776 Y115.502 E201.16514
G1 X135.158 Y115.907 E201.25238
G1 X133.860 Y114.609 E201.46904
G1 X133.860 Y115.632 E201.58981
G1 X134.540 Y116.313 E201.70334
G1 X133.859 Y116.656 E201.79327
G1 X133.922 Y116.718 E201.80368
G1 X133.218 Y107.824 F7200.000
G1 X129.836 Y104.443 E202.36785 F1080.000
G1 X128.813 Y104.443 E202.48864
G1 X132.194 Y107.824 E203.05282
G1 X131.170 Y107.824 E203.17361
G1 X127.789 Y104.443 E203.73779
G1 X126.765 Y104.443 E203.85858
G1 X130.146 Y107.824 E204.42276
G1 X129.122 Y107.824 E204.54355
G1 X126.122 Y104.824 E205.04414
G1 X126.122 Y105.848 E205.16493
G1 X128.099 Y107.824 E205.49468
G1 X127.075 Y107.824 E205.61548
G1 X126.122 Y106.871 E205.77440
G1 X141.674 Y114.481 F7200.000
G1 X134.522 Y117.335 F7200.000
G1 X134.585 Y117.398 E205.78500 F360.000
G1 X134.098 Y117.945 E205.87221 F360.000
G1 X134.585 Y118.431 E205.95416 F360.000
G1 X134.098 Y118.978 E206.04137 F360.000
G1 X134.584 Y119.465 E206.12330 F360.000
G1 X134.098 Y120.012 E206.21050 F360.000
G1 X134.584 Y120.498 E206.29240 F360.000
G1 X134.098 Y121.045 E206.37961 F360.000
G1 X134.584 Y121.531 E206.46147 F360.000
G1 X134.097 Y122.079 E206.54868 F360.000
G1 X134.583 Y122.564 E206.63051 F360.000
G1 X134.097 Y123.112 E206.71773 F360.000
G1 X134.583 Y123.598 E206.79953 F360.000
G1 X134.097 Y124.145 E206.88674 F360.000
G1 X134.582 Y124.631 E206.96851 F360.000
G1 X134.097 Y125.179 E207.05573 F360.000
G1 X134.582 Y125.664 E207.13746 F360.000
G1 X134.097 Y126.212 E207.22468 F360.000
G1 X134.582 Y126.697 E207.30638 F360.000
G1 X134.096 Y127.246 E207.39360 F360.000
G1 X134.170 Y127.319 E207.40592 F360.000
G1 X165.482 Y127.243 F7200.000
G1 X165.974 Y126.617 E207.50851 F360.000
G1 X165.482 Y126.125 E207.59816 F360.000
G1 X165.974 Y125.499 E207.70076 F360.000
G1 X165.482 Y125.007 E207.79041 F360.000
G1 X165.974 Y124.381 E207.89300 F360.000
G1 X165.482 Y123.889 E207.98265 F360.000
G1 X165.974 Y123.262 E208.08525 F360.000
G1 X165.482 Y122.770 E208.17490 F360.000
G1 X165.974 Y122.144 E208.27749 F360.000
G1 X165.482 Y121.652 E208.36714 F360.000
G1 X165.974 Y121.026 E208.46974 F360.000
G1 X165.482 Y120.534 E208.55939 F360.000
G1 X165.974 Y119.908 E208.66198 F360.000
G1 X165.482 Y119.416 E208.75163 F360.000
G1 X165.974 Y118.790 E208.85423 F360.000
G1 X165.482 Y118.298 E208.94388 F360.000
G1 X165.974 Y117.672 E209.04647 F360.000
G1 X165.797 Y117.495 E209.07872 F360.000
G1 X165.482 Y127.243 F7200.000
G1 X165.561 Y127.322 E209.09312 F360.000
G1 X165.886 Y94.251 F7200.000
G1 X165.837 Y94.202 E209.10182 F360.000
G1 X165.973 Y93.246 E209.22331 F360.000
G1 X165.837 Y93.109 E209.24765 F360.000
G1 X165.973 Y92.154 E209.36914 F360.000
G1 X165.837 Y92.017 E209.39348 F360.000
G1 X165.973 Y91.062 E209.51496 F360.000
G1 X165.837 Y90.925 E209.53931 F360.000
G1 X165.973 Y89.970 E209.66079 F360.000
G1 X165.837 Y89.833 E209.68513 F360.000
G1 X165.973 Y88.877 E209.80662 F360.000
G1 X165.837 Y88.741 E209.83096 F360.000
G1 X165.973 Y87.785 E209.95245 F360.000
G1 X165.837 Y87.648 E209.97679 F360.000
G1 X165.973 Y86.693 E210.09827 F360.000
G1 X165.837 Y86.556 E210.12262 F360.000
G1 X165.973 Y85.601 E210.24410 F360.000
G1 X165.837 Y85.464 E210.26844 F360.000
G1 X165.973 Y84.509 E210.38993 F360.000
G1 X165.837 Y84.372 E210.41427 F360.000
G1 X165.973 Y83.416 E210.53576 F360.000
G1 X165.905 Y83.348 E210.54792 F360.000
G1 X134.230 Y83.416 F7200.000
G1 X134.162 Y83.348 E210.55994 F360.000
G1 X134.230 Y83.416 F7200.000
G1 X134.095 Y84.369 E210.68059 F360.000
G1 X134.230 Y84.505 E210.70464 F360.000
G1 X134.095 Y85.457 E210.82527 F360.000
G1 X134.231 Y85.593 E210.84936 F360.000
G1 X134.095 Y86.545 E210.96997 F360.000
G1 X134.231 Y86.681 E210.99409 F360.000
G1 X134.095 Y87.633 E211.11468 F360.000
G1 X134.231 Y87.770 E211.13883 F360.000
G1 X134.095 Y88.722 E211.25941 F360.000
G1 X134.232 Y88.858 E211.28359 F360.000
G1 X134.096 Y89.810 E211.40415 F360.000
G1 X134.232 Y89.946 E211.42836 F360.000
G1 X134.096 Y90.898 E211.54890 F360.000
G1 X134.232 Y91.035 E211.57314 F360.000
G1 X134.096 Y91.986 E211.69366 F360.000
G1 X134.233 Y92.123 E211.71793 F360.000
G1 X134.096 Y93.074 E211.83843 F360.000
G1 X134.233 Y93.211 E211.86274 F360.000
G1 X134.096 Y94.162 E211.98322 F360.000
G1 X134.185 Y94.251 E211.99889 F360.000
G1 X133.929 Y82.496 F7200.000
G1 X133.858 Y82.424 E212.01073 F1080.000
G1 X133.858 Y81.410 E212.12917
G1 X134.943 Y82.496 E212.30850
G1 X135.957 Y82.496 E212.42691
G1 X134.357 Y80.896 E212.69115
G1 X135.371 Y80.896 E212.80956
G1 X136.970 Y82.496 E213.07380
G1 X137.984 Y82.496 E213.19222
G1 X136.385 Y80.896 E213.45645
G1 X137.398 Y80.896 E213.57487
G1 X138.998 Y82.496 E213.83911
G1 X140.011 Y82.496 E213.95752
G1 X138.412 Y80.896 E214.22176
G1 X139.426 Y80.896 E214.34017
G1 X141.025 Y82.496 E214.60441
G1 X142.039 Y82.496 E214.72282
G1 X140.439 Y80.896 E214.98706
G1 X141.453 Y80.896 E215.10548
G1 X143.053 Y82.496 E215.36971
G1 X144.066 Y82.496 E215.48813
G1 X142.467 Y80.896 E215.75237
G1 X143.480 Y80.896 E215.87078
G1 X145.080 Y82.496 E216.13502
G1 X146.094 Y82.496 E216.25343
G1 X144.494 Y80.896 E216.51767
G1 X145.508 Y80.896 E216.63609
G1 X147.107 Y82.496 E216.90032
G1 X148.121 Y82.496 E217.01874
G1 X146.521 Y80.896 E217.28298
G1 X147.535 Y80.896 E217.40139
G1 X149.135 Y82.496 E217.66563
G1 X150.148 Y82.496 E217.78404
G1 X148.549 Y80.896 E218.04828
G1 X149.562 Y80.896 E218.16670
G1 X151.162 Y82.496 E218.43093
G1 X152.176 Y82.496 E218.54935
G1 X150.576 Y80.896 E218.81359
G1 X151.590 Y80.896 E218.93200
G1 X153.189 Y82.496 E219.19624
G1 X154.203 Y82.496 E219.31465
G1 X152.603 Y80.896 E219.57889
G1 X153.617 Y80.896 E219.69731
G1 X155.217 Y82.496 E219.96154
G1 X156.230 Y82.496 E220.07996
G1 X154.631 Y80.896 E220.34420
G1 X155.645 Y80.896 E220.46261
G1 X157.244 Y82.496 E220.72685
G1 X158.258 Y82.496 E220.84526
G1 X156.658 Y80.896 E221.10950
G1 X157.672 Y80.896 E221.22792
G1 X159.271 Y82.496 E221.49215
G1 X160.285 Y82.496 E221.61057
G1 X158.686 Y80.896 E221.87481
G1 X159.699 Y80.896 E221.99322
G1 X161.299 Y82.496 E222.25746
G1 X162.312 Y82.496 E222.37587
G1 X160.713 Y80.896 E222.64011
G1 X161.727 Y80.896 E222.75853
G1 X163.326 Y82.496 E223.02276
G1 X164.340 Y82.496 E223.14118
G1 X162.740 Y80.896 E223.40542
G1 X163.754 Y80.896 E223.52383
G1 X165.353 Y82.496 E223.78807
G1 X165.853 Y81.982 E223.87181
G1 X164.768 Y80.896 E224.05111
G1 X165.781 Y80.896 E224.16953
G1 X165.853 Y80.968 E224.18137
G1 F1800.000 E223.18137
G92 E0
G1 Z0.700 F7200.000
G1 X163.976 Y84.477 F7200.000
G1 E1.00000 F1800.000
G1 X163.976 Y94.170 E1.47390 F3600
G1 X150.035 Y103.300 E2.28865
G1 X136.095 Y94.170 E3.10339
G1 X136.091 Y84.477 E3.57729
G1 X163.916 Y84.477 E4.93769
G1 X163.576 Y84.877 F7200.000
G1 X163.576 Y93.954 E5.38146 F3600
G1 X150.035 Y102.822 E6.17284
G1 X136.495 Y93.954 E6.96420
G1 X136.492 Y84.877 E7.40798
