; generated by Slic3r 1.0.0RC3 on 2014-03-11 at 21:25:40

; layer_height = 0.3
; perimeters = 2
; top_solid_layers = 3
; bottom_solid_layers = 3
; fill_density = 0.1
; perimeter_speed = 60
; infill_speed = 60
; travel_speed = 120
; nozzle_diameter = 0.4
; filament_diameter = 1.75
; extrusion_multiplier = 0.98
; perimeters extrusion width = 0.40mm
; infill extrusion width = 0.42mm
; solid infill extrusion width = 0.42mm
; top infill extrusion width = 0.42mm
; first layer extrusion width = 0.60mm

G21 ; set units to millimeters
M107
M104 S220 ; set temperature
G28 ; home all axes
M106 S255;
G1 Z200 F1200 ; lift nozzle
M109 S220 ; wait for temperature to be reached
G90 ; use absolute coordinates
G92 E0
M82 ; use absolute distances for extrusion
G1 F1800.000 E-1.00000
G92 E0
G1 Z0.300 F7200.000
G1 X120.330 Y76.890 F7200.000
G1 E1.00000 F1800.000
G1 X121.140 Y75.790 E1.09302 F1080.000
G1 X122.150 Y74.880 E1.18559
G1 X123.340 Y74.200 E1.27891
G1 X124.630 Y73.780 E1.37129
G1 X125.990 Y73.640 E1.46439
G1 X174.000 Y73.640 E4.73350
G1 X175.360 Y73.780 E4.82660
G1 X176.650 Y74.200 E4.91898
G1 X177.840 Y74.880 E5.01230
G1 X178.850 Y75.790 E5.10487
G1 X179.660 Y76.890 E5.19789
G1 X180.220 Y78.130 E5.29054
G1 X180.520 Y79.460 E5.38337
G1 X180.530 Y80.820 E5.47598
G1 X180.260 Y82.160 E5.56906
G1 X177.350 Y91.450 E6.23195
G1 X176.960 Y92.450 E6.30503
G1 X174.270 Y98.440 E6.75215
G1 X170.620 Y106.370 E7.34657
G1 X167.840 Y112.270 E7.79068
G1 X166.440 Y115.180 E8.01057
G1 X165.080 Y117.910 E8.21825
G1 X163.800 Y120.380 E8.40768
G1 X162.570 Y122.560 E8.57812
G1 X161.360 Y124.530 E8.73555
G1 X159.550 Y127.250 E8.95802
G1 X158.890 Y128.190 E9.03623
G1 X158.410 Y128.800 E9.08908
G1 X157.370 Y129.830 E9.18875
G1 X156.140 Y130.600 E9.28756
G1 X154.760 Y131.070 E9.38683
G1 X153.310 Y131.240 E9.48624
G1 X146.680 Y131.240 E9.93769
G1 X145.180 Y131.060 E10.04056
G1 X143.760 Y130.550 E10.14330
G1 X142.490 Y129.720 E10.24661
G1 X141.450 Y128.630 E10.34919
G1 X140.860 Y127.850 E10.41579
G1 X139.910 Y126.480 E10.52931
G1 X138.740 Y124.700 E10.67435
G1 X137.550 Y122.780 E10.82816
G1 X136.190 Y120.380 E11.01600
G1 X135.540 Y119.170 E11.10953
G1 X134.220 Y116.540 E11.30990
G1 X132.850 Y113.740 E11.52216
G1 X129.370 Y106.370 E12.07713
G1 X125.720 Y98.440 E12.67156
G1 X123.110 Y92.640 E13.10464
G1 X122.840 Y91.990 E13.15256
G1 X122.640 Y91.450 E13.19177
G1 X119.730 Y82.160 E13.85466
G1 X119.460 Y80.820 E13.94774
G1 X119.470 Y79.460 E14.04035
G1 X119.770 Y78.130 E14.13318
G1 X120.295 Y76.966 E14.22014
G1 F1800.000 E13.22014
G92 E0
G1 X121.372 Y79.434 F7200.000
G1 E1.00000 F1800.000
G1 X123.876 Y76.025 E1.28799 F1080.000
G1 X128.814 Y76.025 E1.62420
G1 X176.123 Y76.025 E4.84561
G1 X178.628 Y79.434 E5.13361
G1 X174.989 Y91.023 E5.96072
G1 X174.694 Y91.719 E6.01221
G1 X173.911 Y93.339 E6.13471
G1 X173.046 Y95.370 E6.28505
G1 X172.116 Y97.447 E6.43999
G1 X168.451 Y105.392 E7.03579
G1 X165.708 Y111.221 E7.47447
G1 X164.292 Y114.168 E7.69711
G1 X163.006 Y116.775 E7.89505
G1 X161.748 Y119.195 E8.08075
G1 X160.478 Y121.439 E8.25635
G1 X159.278 Y123.389 E8.41225
G1 X157.647 Y125.828 E8.61205
G1 X156.900 Y126.887 E8.70025
G1 X155.990 Y128.037 E8.80009
G1 X154.270 Y128.866 E8.93013
G1 X145.701 Y128.866 E9.51359
G1 X143.941 Y127.989 E9.64752
G1 X142.842 Y126.529 E9.77192
G1 X141.833 Y125.069 E9.89278
G1 X140.713 Y123.375 E10.03107
G1 X139.562 Y121.506 E10.18054
G1 X138.322 Y119.322 E10.35158
G1 X137.606 Y117.973 E10.45552
G1 X136.363 Y115.508 E10.64353
G1 X135.016 Y112.736 E10.85340
G1 X131.549 Y105.393 E11.40629
G1 X127.884 Y97.447 E12.00219
G1 X126.954 Y95.370 E12.15713
G1 X126.089 Y93.339 E12.30747
G1 X125.306 Y91.719 E12.42997
G1 X124.944 Y90.840 E12.49470
G1 X121.397 Y79.513 E13.30287
G1 X121.988 Y79.536 F7200.000
G1 X124.158 Y76.582 E13.55246 F1080.000
G1 X128.814 Y76.582 E13.86947
G1 X175.841 Y76.582 E17.07168
G1 X178.012 Y79.536 E17.32128
G1 X174.470 Y90.819 E18.12654
G1 X174.189 Y91.483 E18.17561
G1 X173.404 Y93.108 E18.29851
G1 X172.536 Y95.144 E18.44923
G1 X171.609 Y97.215 E18.60368
G1 X167.946 Y105.158 E19.19931
G1 X165.204 Y110.983 E19.63769
G1 X163.790 Y113.926 E19.86000
G1 X162.508 Y116.526 E20.05745
G1 X161.261 Y118.925 E20.24154
G1 X159.996 Y121.161 E20.41644
G1 X158.812 Y123.084 E20.57024
G1 X157.160 Y125.553 E20.77254
G1 X156.450 Y126.559 E20.85638
G1 X155.634 Y127.590 E20.94591
G1 X154.143 Y128.309 E21.05861
G1 X145.832 Y128.309 E21.62448
G1 X144.307 Y127.549 E21.74055
G1 X143.297 Y126.208 E21.85486
G1 X142.296 Y124.760 E21.97472
G1 X141.180 Y123.072 E22.11250
G1 X140.039 Y121.218 E22.26072
G1 X138.808 Y119.050 E22.43046
G1 X138.102 Y117.720 E22.53303
G1 X136.863 Y115.263 E22.72041
G1 X135.519 Y112.496 E22.92983
G1 X132.055 Y105.159 E23.48236
G1 X128.391 Y97.215 E24.07806
G1 X127.464 Y95.144 E24.23250
G1 X126.596 Y93.108 E24.38324
G1 X125.811 Y91.483 E24.50613
G1 X125.472 Y90.661 E24.56669
G1 X122.013 Y79.616 E25.35477
G1 X122.604 Y79.639 F7200.000
G1 X124.440 Y77.139 E25.56597 F1080.000
G1 X128.814 Y77.139 E25.86377
G1 X175.559 Y77.139 E29.04678
G1 X177.396 Y79.639 E29.25798
G1 X173.951 Y90.616 E30.04139
G1 X173.685 Y91.247 E30.08804
G1 X172.897 Y92.877 E30.21134
G1 X172.027 Y94.919 E30.36246
G1 X171.103 Y96.983 E30.51641
G1 X167.440 Y104.924 E31.11186
G1 X164.701 Y110.745 E31.54994
G1 X163.289 Y113.683 E31.77192
G1 X162.009 Y116.277 E31.96888
G1 X160.773 Y118.655 E32.15136
G1 X159.513 Y120.882 E32.32557
G1 X158.346 Y122.779 E32.47725
G1 X156.703 Y125.235 E32.67848
G1 X155.999 Y126.232 E32.76153
G1 X155.277 Y127.144 E32.84076
G1 X154.016 Y127.752 E32.93612
G1 X145.964 Y127.752 E33.48439
G1 X144.673 Y127.109 E33.58260
G1 X143.752 Y125.886 E33.68682
G1 X142.777 Y124.477 E33.80347
G1 X141.621 Y122.727 E33.94633
G1 X140.516 Y120.931 E34.08992
G1 X139.295 Y118.779 E34.25838
G1 X138.598 Y117.467 E34.35956
G1 X137.363 Y115.017 E34.54633
G1 X136.022 Y112.257 E34.75529
G1 X132.560 Y104.924 E35.30745
G1 X128.890 Y96.967 E35.90414
G1 X127.973 Y94.919 E36.05692
G1 X127.103 Y92.877 E36.20804
G1 X126.315 Y91.247 E36.33133
G1 X126.000 Y90.482 E36.38771
G1 X122.629 Y79.719 E37.15570
G1 X123.220 Y79.741 F7200.000
G1 X124.722 Y77.696 E37.32850 F1080.000
G1 X128.814 Y77.696 E37.60710
G1 X175.277 Y77.696 E40.77091
G1 X176.780 Y79.741 E40.94371
G1 X173.433 Y90.413 E41.70527
G1 X173.180 Y91.011 E41.74951
G1 X172.389 Y92.647 E41.87320
G1 X171.517 Y94.694 E42.02471
G1 X170.596 Y96.751 E42.17817
G1 X166.935 Y104.689 E42.77343
G1 X164.197 Y110.506 E43.21122
G1 X162.787 Y113.441 E43.43288
G1 X161.511 Y116.028 E43.62934
G1 X160.286 Y118.385 E43.81021
G1 X159.031 Y120.603 E43.98374
G1 X157.880 Y122.473 E44.13329
G1 X156.245 Y124.917 E44.33345
G1 X155.549 Y125.904 E44.41572
G1 X154.920 Y126.697 E44.48464
G1 X153.888 Y127.195 E44.56266
G1 X146.095 Y127.195 E45.09334
G1 X145.039 Y126.669 E45.17369
G1 X144.207 Y125.564 E45.26782
G1 X143.222 Y124.141 E45.38570
G1 X142.093 Y122.431 E45.52521
G1 X140.993 Y120.643 E45.66816
G1 X139.782 Y118.508 E45.83533
G1 X139.094 Y117.213 E45.93513
G1 X137.864 Y114.772 E46.12128
G1 X136.525 Y112.018 E46.32978
G1 X133.065 Y104.690 E46.88158
G1 X129.398 Y96.738 E47.47786
G1 X128.483 Y94.694 E47.63036
G1 X127.611 Y92.647 E47.78187
G1 X126.820 Y91.011 E47.90556
G1 X126.527 Y90.303 E47.95776
G1 X123.245 Y79.821 E48.70567
G1 X123.836 Y79.844 F7200.000
G1 X125.004 Y78.253 E48.84007 F1080.000
G1 X128.814 Y78.253 E49.09947
G1 X174.995 Y78.253 E52.24407
G1 X176.164 Y79.844 E52.37847
G1 X172.914 Y90.210 E53.11818
G1 X172.675 Y90.776 E53.16001
G1 X171.882 Y92.416 E53.28410
G1 X171.008 Y94.469 E53.43599
G1 X170.090 Y96.519 E53.58896
G1 X166.430 Y104.455 E54.18404
G1 X163.693 Y110.268 E54.62153
G1 X162.286 Y113.198 E54.84287
G1 X161.013 Y115.779 E55.03883
G1 X159.799 Y118.115 E55.21809
G1 X158.549 Y120.324 E55.39093
G1 X157.414 Y122.168 E55.53837
G1 X155.788 Y124.598 E55.73746
G1 X155.098 Y125.576 E55.81894
G1 X154.564 Y126.251 E55.87755
G1 X153.761 Y126.638 E55.93824
G1 X146.226 Y126.638 E56.45132
G1 X145.404 Y126.229 E56.51382
G1 X144.662 Y125.243 E56.59785
G1 X143.685 Y123.831 E56.71474
G1 X142.565 Y122.135 E56.85313
G1 X141.470 Y120.355 E56.99543
G1 X140.268 Y118.236 E57.16131
G1 X139.590 Y116.960 E57.25972
G1 X138.364 Y114.527 E57.44526
G1 X137.029 Y111.779 E57.65331
G1 X133.571 Y104.456 E58.20474
G1 X129.906 Y96.509 E58.80062
G1 X128.985 Y94.452 E58.95405
G1 X128.118 Y92.416 E59.10474
G1 X127.325 Y90.776 E59.22883
G1 X127.055 Y90.124 E59.27684
G1 X123.861 Y79.924 E60.00467
G1 X124.452 Y79.947 F7200.000
G1 X125.286 Y78.810 E60.10066 F1080.000
G1 X128.814 Y78.810 E60.34087
G1 X174.713 Y78.810 E63.46627
G1 X175.548 Y79.947 E63.56227
G1 X172.395 Y90.006 E64.28012
G1 X172.170 Y90.540 E64.31954
G1 X171.375 Y92.186 E64.44403
G1 X170.498 Y94.243 E64.59631
G1 X169.583 Y96.287 E64.74878
G1 X165.924 Y104.221 E65.34369
G1 X163.190 Y110.030 E65.78088
G1 X161.784 Y112.956 E66.00189
G1 X160.514 Y115.530 E66.19736
G1 X159.311 Y117.845 E66.37501
G1 X158.066 Y120.045 E66.54716
G1 X156.962 Y121.841 E66.69070
G1 X155.331 Y124.280 E66.89049
G1 X154.648 Y125.248 E66.97120
G1 X154.207 Y125.804 E67.01950
G1 X153.634 Y126.081 E67.06285
G1 X146.357 Y126.081 E67.55833
G1 X145.770 Y125.788 E67.60297
G1 X145.117 Y124.921 E67.67692
G1 X144.149 Y123.521 E67.79281
G1 X143.049 Y121.858 E67.92856
G1 X141.934 Y120.046 E68.07345
G1 X140.755 Y117.965 E68.23632
G1 X140.087 Y116.706 E68.33336
G1 X138.864 Y114.281 E68.51827
G1 X137.532 Y111.539 E68.72587
G1 X134.076 Y104.221 E69.27694
G1 X130.413 Y96.280 E69.87241
G1 X129.502 Y94.243 E70.02434
G1 X128.620 Y92.174 E70.17754
G1 X127.814 Y90.506 E70.30367
G1 X127.583 Y89.945 E70.34495
G1 X124.477 Y80.026 E71.05270
G1 X125.068 Y80.049 F7200.000
G1 X125.568 Y79.368 E71.11030 F1080.000
G1 X148.373 Y79.367 E72.66311
G1 X174.432 Y79.368 E74.43750
G1 X174.932 Y80.049 E74.49510
G1 X171.876 Y89.803 E75.19110
G1 X171.666 Y90.304 E75.22810
G1 X170.867 Y91.955 E75.35299
G1 X169.989 Y94.018 E75.50566
G1 X169.077 Y96.055 E75.65764
G1 X165.419 Y103.986 E76.25236
G1 X162.686 Y109.792 E76.68926
G1 X161.283 Y112.713 E76.90995
G1 X160.016 Y115.281 E77.10492
G1 X158.831 Y117.562 E77.27994
G1 X157.584 Y119.767 E77.45242
G1 X156.490 Y121.544 E77.59456
G1 X154.874 Y123.962 E77.79256
G1 X154.197 Y124.921 E77.87248
G1 X153.850 Y125.358 E77.91048
G1 X153.506 Y125.524 E77.93649
G1 X146.488 Y125.524 E78.41437
G1 X146.136 Y125.348 E78.44116
G1 X145.582 Y124.613 E78.50385
G1 X144.612 Y123.212 E78.61991
G1 X143.509 Y121.543 E78.75607
G1 X142.416 Y119.767 E78.89810
G1 X141.236 Y117.684 E79.06115
G1 X140.583 Y116.453 E79.15602
G1 X139.367 Y114.042 E79.33990
G1 X138.037 Y111.304 E79.54714
G1 X134.581 Y103.987 E80.09817
G1 X130.921 Y96.051 E80.69323
G1 X130.011 Y94.018 E80.84489
G1 X129.127 Y91.943 E80.99847
G1 X128.325 Y90.283 E81.12398
G1 X128.110 Y89.766 E81.16210
G1 X125.093 Y80.129 E81.84976
G1 X125.684 Y80.152 F7200.000
G1 X125.850 Y79.925 E81.86896 F1080.000
G1 X148.373 Y79.924 E83.40256
G1 X149.623 Y79.925 E83.48768
G1 X149.769 Y80.072 E83.50177
G1 X150.231 Y80.072 E83.53321
G1 X150.377 Y79.925 E83.54730
G1 X174.150 Y79.925 E85.16602
G1 X174.316 Y80.152 E85.18522
G1 X171.357 Y89.600 E85.85937
G1 X171.161 Y90.068 E85.89396
G1 X170.360 Y91.725 E86.01924
G1 X169.480 Y93.790 E86.17213
G1 X168.570 Y95.823 E86.32379
G1 X164.913 Y103.752 E86.91833
G1 X162.183 Y109.553 E87.35493
G1 X160.781 Y112.470 E87.57529
G1 X159.518 Y115.032 E87.76978
G1 X158.339 Y117.301 E87.94386
G1 X157.102 Y119.488 E88.11497
G1 X156.018 Y121.248 E88.25571
G1 X154.417 Y123.643 E88.45193
G1 X153.747 Y124.593 E88.53106
G1 X153.494 Y124.911 E88.55875
G1 X153.379 Y124.967 E88.56742
G1 X150.377 Y124.967 E88.77181
G1 X150.231 Y124.820 E88.78592
G1 X149.769 Y124.820 E88.81735
G1 X149.623 Y124.967 E88.83146
G1 X146.619 Y124.967 E89.03597
G1 X146.502 Y124.908 E89.04490
G1 X146.027 Y124.278 E89.09867
G1 X145.075 Y122.902 E89.21257
G1 X143.981 Y121.248 E89.34761
G1 X142.898 Y119.488 E89.48831
G1 X141.726 Y117.419 E89.65023
G1 X141.079 Y116.199 E89.74424
G1 X139.865 Y113.793 E89.92778
G1 X138.538 Y111.062 E90.13450
G1 X135.087 Y103.752 E90.68495
G1 X131.429 Y95.822 E91.27961
G1 X130.520 Y93.790 E91.43116
G1 X129.634 Y91.712 E91.58496
G1 X128.836 Y90.061 E91.70985
G1 X128.638 Y89.588 E91.74481
G1 X125.708 Y80.232 E92.41238
G1 X126.399 Y80.503 F7200.000
G1 X149.207 Y80.504 E93.96545 F540.000
G1 X149.207 Y124.388 E96.95366
G1 X146.823 Y124.388 E97.11601
G1 X145.555 Y122.579 E97.26647
G1 X144.470 Y120.938 E97.40043
G1 X143.933 Y120.082 E97.46919
G1 X142.856 Y118.259 E97.61342
G1 X142.171 Y117.028 E97.70935
G1 X141.593 Y115.934 E97.79354
G1 X140.999 Y114.772 E97.88241
G1 X139.739 Y112.218 E98.07635
G1 X136.485 Y105.382 E98.59185
G1 X131.956 Y95.583 E99.32691
G1 X131.051 Y93.560 E99.47784
G1 X130.164 Y91.479 E99.63189
G1 X129.365 Y89.826 E99.75687
G1 X129.185 Y89.397 E99.78860
G1 X126.424 Y80.583 E100.41752
G1 X126.907 Y80.731 F7200.000
G1 X127.157 Y81.060 F7200.000
G1 X148.650 Y81.060 E101.88104 F1080.000
G1 X148.650 Y123.831 E104.79342
G1 X147.104 Y123.831 E104.89871
G1 X145.482 Y121.471 E105.09371
G1 X144.278 Y119.578 E105.24645
G1 X143.340 Y117.983 E105.37245
G1 X142.661 Y116.763 E105.46751
G1 X141.497 Y114.521 E105.63954
G1 X139.562 Y110.569 E105.93916
G1 X136.990 Y105.147 E106.34784
G1 X132.463 Y95.353 E107.08249
G1 X131.561 Y93.337 E107.23286
G1 X130.671 Y91.248 E107.38751
G1 X129.873 Y89.597 E107.51241
G1 X129.710 Y89.208 E107.54107
G1 X127.182 Y81.140 E108.11681
G1 F1800.000 E107.11681
G92 E0
G1 X150.793 Y80.504 F7200.000
G1 E1.00000 F1800.000
G1 X173.601 Y80.503 E2.55307 F540.000
G1 X170.815 Y89.397 E3.18768
G1 X170.635 Y89.826 E3.21941
G1 X169.836 Y91.479 E3.34439
G1 X168.949 Y93.560 E3.49843
G1 X168.044 Y95.583 E3.64937
G1 X164.389 Y103.509 E4.24365
G1 X161.660 Y109.305 E4.67991
G1 X160.261 Y112.218 E4.89993
G1 X159.001 Y114.772 E5.09387
G1 X157.829 Y117.028 E5.26693
G1 X156.602 Y119.196 E5.43658
G1 X155.530 Y120.938 E5.57584
G1 X154.445 Y122.579 E5.70980
G1 X153.177 Y124.388 E5.86026
G1 X150.793 Y124.388 E6.02260
G1 X150.793 Y80.587 E9.00513
G1 X151.275 Y80.782 F7200.000
G1 X151.350 Y81.060 F7200.000
G1 X172.843 Y81.060 E10.46865 F1080.000
G1 X170.290 Y89.208 E11.05008
G1 X170.127 Y89.597 E11.07874
G1 X169.329 Y91.248 E11.20364
G1 X168.439 Y93.337 E11.35829
G1 X167.537 Y95.353 E11.50866
G1 X163.010 Y105.147 E12.24331
G1 X159.760 Y111.974 E12.75821
G1 X158.503 Y114.521 E12.95161
G1 X157.339 Y116.763 E13.12364
G1 X156.122 Y118.913 E13.29185
G1 X155.203 Y120.411 E13.41149
G1 X153.984 Y122.266 E13.56266
G1 X152.896 Y123.831 E13.69245
G1 X151.350 Y123.831 E13.79773
G1 X151.350 Y81.144 E16.70442
G1 F1800.000 E15.70442
G92 E0
G1 X172.301 Y81.472 F7200.000
G1 E1.00000 F1800.000
G1 X172.283 Y81.454 E1.00173 F1080.000
G1 X171.492 Y81.454 E1.05584
G1 X172.112 Y82.074 E1.11583
G1 X171.924 Y82.677 E1.15900
G1 X170.701 Y81.454 E1.27726
G1 X169.910 Y81.454 E1.33136
G1 X171.735 Y83.279 E1.50787
G1 X171.546 Y83.882 E1.55104
G1 X169.119 Y81.454 E1.78582
G1 X168.327 Y81.454 E1.83992
G1 X171.358 Y84.484 E2.13296
G1 X171.169 Y85.087 E2.17613
G1 X167.536 Y81.454 E2.52743
G1 X166.745 Y81.454 E2.58153
G1 X170.980 Y85.689 E2.99109
G1 X170.791 Y86.291 E3.03426
G1 X165.954 Y81.454 E3.50208
G1 X165.163 Y81.454 E3.55618
G1 X170.603 Y86.894 E4.08226
G1 X170.414 Y87.496 E4.12543
G1 X164.371 Y81.454 E4.70977
G1 X163.580 Y81.454 E4.76387
G1 X170.225 Y88.099 E5.40647
G1 X170.036 Y88.701 E5.44964
G1 X162.789 Y81.454 E6.15050
G1 X161.998 Y81.454 E6.20461
G1 X169.830 Y89.286 E6.96206
G1 X169.579 Y89.826 E7.00277
G1 X161.207 Y81.454 E7.81241
G1 X160.416 Y81.454 E7.86652
G1 X169.321 Y90.359 E8.72773
G1 X169.063 Y90.893 E8.76823
G1 X159.624 Y81.454 E9.68101
G1 X158.833 Y81.454 E9.73511
G1 X168.819 Y91.440 E10.70080
G1 X168.583 Y91.994 E10.74204
G1 X158.042 Y81.454 E11.76138
G1 X157.251 Y81.454 E11.81548
G1 X168.346 Y92.549 E12.88848
G1 X168.110 Y93.104 E12.92972
G1 X156.460 Y81.454 E14.05638
G1 X155.669 Y81.454 E14.11049
G1 X167.867 Y93.652 E15.29011
G1 X167.622 Y94.198 E15.33106
G1 X154.877 Y81.454 E16.56353
G1 X154.086 Y81.454 E16.61764
G1 X167.377 Y94.745 E17.90297
G1 X167.132 Y95.290 E17.94388
