; generated by Slic3r 1.0.0RC2 on 2014-05-19 at 17:57:15

; layer_height = 0.3
; perimeters = 2
; top_solid_layers = 3
; bottom_solid_layers = 3
; fill_density = 0.1
; perimeter_speed = 60
; infill_speed = 60
; travel_speed = 120
; nozzle_diameter = 0.4
; filament_diameter = 1.75
; extrusion_multiplier = 0.98
; perimeters extrusion width = 0.40mm
; infill extrusion width = 0.42mm
; solid infill extrusion width = 0.42mm
; top infill extrusion width = 0.42mm
; first layer extrusion width = 0.80mm

G21 ; set units to millimeters
M107
M104 S220 ; set temperature
G28 ; home all axes
M106 S255;
G1 Z200 F1200 ; lift nozzle
M109 S220 ; wait for temperature to be reached
G90 ; use absolute coordinates
G92 E0
M82 ; use absolute distances for extrusion
G1 F1800.000 E-1.00000
G92 E0
G1 Z0.400 F7200.000
G1 X112.303 Y42.925 F7200.000
G1 E1.00000 F1800.000
G1 X112.923 Y41.765 E1.15309 F1080.000
G1 X113.753 Y40.745 E1.30614
G1 X114.773 Y39.915 E1.45920
G1 X115.933 Y39.295 E1.61229
G1 X117.193 Y38.905 E1.76580
G1 X118.503 Y38.785 E1.91891
G1 X173.383 Y38.785 E8.30639
G1 X174.693 Y38.905 E8.45950
G1 X175.953 Y39.295 E8.61301
G1 X177.113 Y39.915 E8.76610
G1 X178.133 Y40.745 E8.91915
G1 X178.963 Y41.765 E9.07221
G1 X179.583 Y42.925 E9.22530
G1 X179.973 Y44.185 E9.37881
G1 X180.093 Y45.495 E9.53192
G1 X180.093 Y154.625 E22.23355
G1 X179.953 Y155.995 E22.39383
G1 X179.543 Y157.305 E22.55360
G1 X178.863 Y158.505 E22.71413
G1 X177.963 Y159.535 E22.87333
G1 X176.863 Y160.365 E23.03371
G1 X175.623 Y160.955 E23.19354
G1 X174.283 Y161.275 E23.35389
G1 X172.913 Y161.325 E23.51345
G1 X171.553 Y161.085 E23.67419
G1 X170.273 Y160.575 E23.83456
G1 X170.043 Y160.455 E23.86475
G1 X169.363 Y160.045 E23.95717
G1 X168.523 Y159.465 E24.07598
G1 X166.633 Y158.015 E24.35323
G1 X154.263 Y147.075 E26.27525
G1 X153.533 Y146.405 E26.39058
G1 X147.883 Y140.975 E27.30264
G1 X145.393 Y138.325 E27.72587
G1 X143.693 Y136.315 E28.03227
G1 X139.583 Y130.975 E28.81657
G1 X138.213 Y129.065 E29.09014
G1 X136.283 Y126.175 E29.49462
G1 X134.313 Y123.025 E29.92704
G1 X132.013 Y119.225 E30.44403
G1 X130.723 Y117.045 E30.73885
G1 X125.473 Y107.095 E32.04825
G1 X124.373 Y104.925 E32.33142
G1 X123.953 Y103.985 E32.45125
G1 X121.363 Y97.735 E33.23867
G1 X119.303 Y92.575 E33.88533
G1 X118.903 Y91.345 E34.03587
G1 X114.813 Y77.925 E35.66875
G1 X114.663 Y77.385 E35.73398
G1 X114.523 Y76.775 E35.80683
G1 X113.073 Y68.725 E36.75884
G1 X113.003 Y68.225 E36.81761
G1 X112.273 Y61.185 E37.64138
G1 X112.243 Y60.725 E37.69504
G1 X111.873 Y49.855 E38.96093
G1 X111.793 Y46.465 E39.35560
G1 X111.793 Y45.495 E39.46850
G1 X111.913 Y44.185 E39.62161
G1 X112.271 Y43.027 E39.76265
G1 F1800.000 E38.76265
G92 E0
G1 X119.629 Y46.609 F7200.000
G1 E1.00000 F1800.000
G1 X172.277 Y46.609 E7.12772 F1080.000
G1 X172.277 Y152.527 E19.45545
G1 X171.479 Y151.852 E19.57709
G1 X168.349 Y148.541 E20.10739
G1 X167.181 Y147.339 E20.30243
G1 X166.929 Y147.144 E20.33953
G1 X166.686 Y146.892 E20.38027
G1 X166.477 Y146.627 E20.41958
G1 X164.926 Y145.633 E20.63395
G1 X163.033 Y144.191 E20.91089
G1 X161.390 Y142.843 E21.15831
G1 X160.601 Y142.112 E21.28341
G1 X159.430 Y141.194 E21.45662
G1 X158.943 Y140.756 E21.53289
G1 X156.606 Y138.471 E21.91332
G1 X155.232 Y137.201 E22.13111
G1 X153.565 Y135.592 E22.40072
G1 X151.117 Y132.991 E22.81643
G1 X149.889 Y131.522 E23.03922
G1 X146.411 Y126.956 E23.70735
G1 X145.792 Y126.199 E23.82110
G1 X144.596 Y124.535 E24.05968
G1 X144.197 Y123.902 E24.14668
G1 X142.914 Y122.020 E24.41191
G1 X141.009 Y118.963 E24.83110
G1 X138.714 Y115.183 E25.34584
G1 X137.635 Y113.355 E25.59286
G1 X132.908 Y104.365 E26.77498
G1 X132.407 Y103.455 E26.89592
G1 X132.041 Y102.751 E26.98831
G1 X131.764 Y102.157 E27.06459
G1 X131.489 Y101.655 E27.13117
G1 X131.119 Y100.818 E27.23773
G1 X128.633 Y94.820 E27.99343
G1 X126.744 Y90.124 E28.58252
G1 X126.365 Y88.938 E28.72737
G1 X122.353 Y75.817 E30.32441
G1 X122.223 Y75.341 E30.38182
G1 X120.792 Y67.368 E31.32462
G1 X120.096 Y60.690 E32.10608
G1 X120.040 Y59.714 E32.21983
G1 X119.833 Y53.182 E32.98055
G1 X119.781 Y52.223 E33.09228
G1 X119.632 Y46.716 E33.73345
G1 X118.905 Y46.305 F7200.000
G1 X118.900 Y45.895 E33.78121 F756.000
G1 X172.991 Y45.896 E40.07689
G1 X172.991 Y153.924 E52.65027
G1 X171.259 Y152.610 E52.90329
G1 X170.974 Y152.357 E52.94768
G1 X167.844 Y149.047 E53.47780
G1 X166.703 Y147.872 E53.66851
G1 X166.451 Y147.677 E53.70560
G1 X166.148 Y147.362 E53.75643
G1 X165.991 Y147.164 E53.78594
G1 X164.514 Y146.217 E53.99003
G1 X162.559 Y144.728 E54.27607
G1 X161.245 Y143.658 E54.47332
G1 X160.915 Y143.377 E54.52378
G1 X160.148 Y142.666 E54.64544
G1 X158.974 Y141.743 E54.81931
G1 X158.451 Y141.274 E54.90106
G1 X156.122 Y138.997 E55.28016
G1 X154.741 Y137.720 E55.49913
G1 X153.057 Y136.095 E55.77143
G1 X150.583 Y133.466 E56.19163
G1 X149.331 Y131.967 E56.41895
G1 X145.856 Y127.406 E57.08632
G1 X145.228 Y126.636 E57.20198
G1 X144.006 Y124.938 E57.44551
G1 X143.602 Y124.297 E57.53368
G1 X142.314 Y122.407 E57.79989
G1 X140.400 Y119.337 E58.22086
G1 X138.099 Y115.547 E58.73697
G1 X137.011 Y113.702 E58.98627
G1 X132.279 Y104.703 E60.16963
G1 X131.775 Y103.788 E60.29123
G1 X131.410 Y103.087 E60.38322
G1 X131.122 Y102.470 E60.46249
G1 X130.862 Y102.000 E60.52503
G1 X130.461 Y101.096 E60.64015
G1 X127.972 Y95.090 E61.39677
G1 X126.072 Y90.366 E61.98946
G1 X125.683 Y89.149 E62.13812
G1 X121.668 Y76.020 E63.73606
G1 X121.527 Y75.502 E63.79851
G1 X120.086 Y67.481 E64.74710
G1 X119.385 Y60.758 E65.53380
G1 X119.326 Y59.740 E65.65251
G1 X119.119 Y53.207 E66.41326
G1 X119.067 Y52.249 E66.52489
G1 X118.909 Y46.412 E67.20446
G1 X119.257 Y46.094 F7200.000
G1 X126.814 Y88.757 F7200.000
G1 X171.795 Y133.738 E74.67121 F1080.000
G1 X171.795 Y132.720 E74.79076
G1 X126.365 Y87.289 E82.33199
G1 X125.916 Y85.822 E82.51208
G1 X171.795 Y131.701 E90.12779
G1 X171.795 Y130.683 E90.24734
G1 X125.467 Y84.355 E97.93754
G1 X125.019 Y82.888 E98.11763
G1 X171.795 Y129.664 E105.88231
G1 X171.795 Y128.646 E106.00186
G1 X124.570 Y81.420 E113.84102
G1 X124.121 Y79.953 E114.02111
G1 X171.795 Y127.627 E121.93476
G1 X171.795 Y126.609 E122.05431
G1 X123.673 Y78.486 E130.04244
G1 X123.224 Y77.019 E130.22253
G1 X171.795 Y125.590 E138.28514
G1 X171.795 Y124.571 E138.40470
G1 X122.781 Y75.558 E146.54079
G1 X122.522 Y74.280 E146.69385
G1 X171.795 Y123.553 E154.87299
G1 X171.795 Y122.534 E154.99255
G1 X122.299 Y73.038 E163.20869
G1 X122.076 Y71.797 E163.35673
G1 X171.795 Y121.516 E171.60986
G1 X171.795 Y120.497 E171.72941
G1 X121.853 Y70.555 E180.01954
G1 X121.630 Y69.314 E180.16758
G1 X171.795 Y119.479 E188.49470
G1 X171.795 Y118.460 E188.61425
G1 X121.408 Y68.073 E196.97837
G1 X121.224 Y66.871 E197.12108
G1 X171.795 Y117.442 E205.51564
G1 X171.795 Y116.423 E205.63519
G1 X121.106 Y65.734 E214.04941
G1 X120.987 Y64.597 E214.18359
G1 X171.795 Y115.405 E222.61747
G1 X171.795 Y114.386 E222.73703
G1 X120.869 Y63.460 E231.19058
G1 X120.750 Y62.323 E231.32475
G1 X171.795 Y113.368 E239.79797
G1 X171.795 Y112.349 E239.91752
G1 X120.632 Y61.186 E248.41040
G1 X120.543 Y60.079 E248.54075
G1 X171.795 Y111.331 E257.04831
G1 X171.795 Y110.312 E257.16786
G1 X120.500 Y59.017 E265.68265
G1 X120.466 Y57.965 E265.80619
G1 X171.795 Y109.293 E274.32652
G1 X171.795 Y108.275 E274.44607
G1 X120.433 Y56.913 E282.97195
G1 X120.400 Y55.861 E283.09549
G1 X171.795 Y107.256 E291.62691
G1 X171.795 Y106.238 E291.74646
G1 X120.366 Y54.809 E300.28343
G1 X120.333 Y53.757 E300.40697
G1 X171.795 Y105.219 E308.94948
G1 X171.795 Y104.201 E309.06903
G1 X120.289 Y52.694 E317.61886
G1 X120.247 Y51.634 E317.74343
G1 X171.795 Y103.182 E326.30021
G1 X171.795 Y102.164 E326.41977
G1 X120.218 Y50.587 E334.98126
G1 X120.190 Y49.540 E335.10419
G1 X171.795 Y101.145 E343.67040
G1 X171.795 Y100.127 E343.78995
G1 X120.162 Y48.493 E352.36087
G1 X120.133 Y47.446 E352.48380
G1 X171.795 Y99.108 E361.05943
G1 X171.795 Y98.090 E361.17898
G1 X120.796 Y47.091 E369.64453
G1 X121.815 Y47.091 E369.76408
G1 X171.795 Y97.071 E378.06056
G1 X171.795 Y96.053 E378.18011
G1 X122.834 Y47.091 E386.30751
G1 X123.852 Y47.091 E386.42706
G1 X171.795 Y95.034 E394.38540
G1 X171.795 Y94.015 E394.50495
G1 X124.871 Y47.091 E402.29421
G1 X125.889 Y47.091 E402.41376
G1 X171.795 Y92.997 E410.03395
G1 X171.795 Y91.978 E410.15350
G1 X126.908 Y47.091 E417.60461
G1 X127.926 Y47.091 E417.72416
G1 X171.795 Y90.960 E425.00621
G1 X171.795 Y89.941 E425.12576
G1 X128.945 Y47.091 E432.23873
G1 X129.963 Y47.091 E432.35828
G1 X171.795 Y88.923 E439.30218
G1 X171.795 Y87.904 E439.42173
G1 X130.982 Y47.091 E446.19656
G1 X132.000 Y47.091 E446.31611
G1 X171.795 Y86.886 E452.92187
G1 X171.795 Y85.867 E453.04142
G1 X133.019 Y47.091 E459.47810
G1 X134.037 Y47.091 E459.59766
G1 X171.795 Y84.849 E465.86527
G1 X171.795 Y83.830 E465.98482
G1 X135.056 Y47.091 E472.08336
G1 X136.074 Y47.091 E472.20291
G1 X171.795 Y82.812 E478.13238
G1 X171.795 Y81.793 E478.25193
G1 X137.093 Y47.091 E484.01233
G1 X138.112 Y47.091 E484.13188
G1 X171.795 Y80.775 E489.72320
G1 X171.795 Y79.756 E489.84275
G1 X139.130 Y47.091 E495.26501
G1 X140.149 Y47.091 E495.38456
G1 X171.795 Y78.737 E500.63774
G1 X171.795 Y77.719 E500.75729
G1 X141.167 Y47.091 E505.84140
G1 X142.186 Y47.091 E505.96095
G1 X171.795 Y76.700 E510.87598
G1 X171.795 Y75.682 E510.99554
G1 X143.204 Y47.091 E515.74150
G1 X144.223 Y47.091 E515.86105
G1 X171.795 Y74.663 E520.43794
G1 X171.795 Y73.645 E520.55750
G1 X145.241 Y47.091 E524.96532
G1 X146.260 Y47.091 E525.08487
G1 X171.795 Y72.626 E529.32362
G1 X171.795 Y71.608 E529.44317
G1 X147.278 Y47.091 E533.51284
G1 X148.297 Y47.091 E533.63240
G1 X171.795 Y70.589 E537.53300
G1 X171.795 Y69.571 E537.65255
G1 X149.315 Y47.091 E541.38408
G1 X150.334 Y47.091 E541.50363
G1 X171.795 Y68.552 E545.06609
G1 X171.795 Y67.534 E545.18565
G1 X151.352 Y47.091 E548.57903
G1 X152.371 Y47.091 E548.69859
G1 X171.795 Y66.515 E551.92290
G1 X171.795 Y65.496 E552.04245
G1 X153.390 Y47.091 E555.09770
G1 X154.408 Y47.091 E555.21725
G1 X171.795 Y64.478 E558.10342
G1 X171.795 Y63.459 E558.22297
G1 X155.427 Y47.091 E560.94007
G1 X156.445 Y47.091 E561.05963
G1 X171.795 Y62.441 E563.60765
G1 X171.795 Y61.422 E563.72721
G1 X157.464 Y47.091 E566.10616
G1 X158.482 Y47.091 E566.22571
G1 X171.795 Y60.404 E568.43560
G1 X171.795 Y59.385 E568.55515
G1 X159.501 Y47.091 E570.59596
G1 X160.519 Y47.091 E570.71551
G1 X171.795 Y58.367 E572.58725
G1 X171.795 Y57.348 E572.70681
G1 X161.538 Y47.091 E574.40948
G1 X162.556 Y47.091 E574.52903
G1 X171.795 Y56.330 E576.06262
G1 X171.795 Y55.311 E576.18218
G1 X163.575 Y47.091 E577.54670
G1 X164.593 Y47.091 E577.66625
G1 X171.795 Y54.293 E578.86170
G1 X171.795 Y53.274 E578.98126
G1 X165.612 Y47.091 E580.00764
G1 X166.631 Y47.091 E580.12719
G1 X171.795 Y52.256 E580.98450
G1 X171.795 Y51.237 E581.10405
G1 X167.649 Y47.091 E581.79228
G1 X168.668 Y47.091 E581.91184
G1 X171.795 Y50.218 E582.43100
G1 X171.795 Y49.200 E582.55055
G1 X169.686 Y47.091 E582.90065
G1 X170.705 Y47.091 E583.02020
G1 X171.795 Y48.181 E583.20122
G1 X171.795 Y47.163 E583.32077
G1 X171.723 Y47.091 E583.33272
G1 X127.332 Y90.294 F7200.000
G1 X171.795 Y134.757 E590.71341 F1080.000
G1 X171.795 Y135.775 E590.83297
G1 X128.017 Y91.997 E598.09994
G1 X128.702 Y93.701 F7200.000
G1 X171.795 Y136.794 E605.25320 F1080.000
G1 X171.795 Y137.812 E605.37275
G1 X129.403 Y95.421 E612.40962
G1 X130.124 Y97.160 F7200.000
G1 X171.795 Y138.831 E619.32681 F1080.000
G1 X171.795 Y139.850 E619.44637
G1 X130.845 Y98.899 E626.24390
G1 X131.566 Y100.639 F7200.000
G1 X171.795 Y140.868 E632.92168 F1080.000
G1 X171.795 Y141.887 E633.04123
G1 X132.502 Y102.593 E639.56371
G1 X133.672 Y104.782 F7200.000
G1 X171.795 Y142.905 E645.89204 F1080.000
G1 X171.795 Y143.924 E646.01160
G1 X134.801 Y106.929 E652.15250
G1 X135.930 Y109.077 F7200.000
G1 X171.795 Y144.942 E658.10598 F1080.000
G1 X164.191 Y144.468 F7200.000
G1 X148.093 Y128.370 E660.77809 F1080.000
G1 X144.975 Y124.233 F7200.000
G1 X171.795 Y151.053 E665.23016 F1080.000
G1 X171.795 Y150.035 E665.34971
G1 X142.987 Y121.227 E670.13165
G1 X141.310 Y118.531 F7200.000
G1 X171.795 Y149.016 E675.19206 F1080.000
G1 X171.795 Y147.998 E675.31161
G1 X139.736 Y115.939 E680.63321
G1 X138.228 Y113.412 F7200.000
G1 X171.795 Y146.979 E686.20523 F1080.000
G1 X171.795 Y145.961 E686.32479
G1 X137.059 Y111.225 E692.09083
G1 X153.097 Y134.392 F7200.000
G1 X155.351 Y136.647 E692.46513 F1080.000
G1 F1800.000 E691.46513
G92 E0
G1 Z0.700 F7200.000
G1 X154.608 Y137.387 F7200.000
G1 E1.00000 F1800.000
G1 X153.272 Y136.095 E1.09087 F3600
G1 X150.521 Y133.186 E1.28661
G1 X149.506 Y131.936 E1.36534
G1 X148.653 Y130.845 E1.43305
G1 X145.806 Y127.106 E1.66282
G1 X145.329 Y126.520 E1.69976
G1 X143.849 Y124.444 E1.82444
G1 X142.465 Y122.372 E1.94623
G1 X138.744 Y116.357 E2.29206
G1 X137.863 Y114.857 E2.37710
G1 X137.081 Y113.478 E2.45459
G1 X136.235 Y111.930 E2.54087
G1 X132.103 Y104.068 E2.97510
G1 X131.350 Y102.623 E3.05479
G1 X131.079 Y102.060 E3.08532
G1 X129.369 Y97.988 E3.30127
G1 X127.482 Y93.390 E3.54427
G1 X126.279 Y90.308 E3.70599
G1 X125.775 Y88.781 E3.78466
G1 X125.181 Y86.874 E3.88228
G1 X122.190 Y77.116 E4.38131
G1 X121.926 Y76.177 E4.42897
G1 X121.787 Y75.633 E4.45643
G1 X121.594 Y74.645 E4.50564
G1 X120.360 Y67.695 E4.85077
G1 X120.261 Y67.004 E4.88491
G1 X120.141 Y65.917 E4.93839
G1 X119.666 Y61.282 E5.16619
G1 X119.564 Y59.980 E5.23003
G1 X119.464 Y56.978 E5.37687
G1 X119.376 Y55.613 E5.44377
G1 X119.284 Y52.770 E5.58286
G1 X119.228 Y52.206 E5.61053
G1 X119.174 Y50.922 E5.67338
G1 X119.115 Y48.604 E5.78675
G1 X119.097 Y46.095 E5.90942
G1 X172.791 Y46.095 E8.53464
G1 X172.791 Y153.685 E13.79493
G1 X171.960 Y153.066 E13.84558
G1 X171.115 Y152.317 E13.90076
G1 X168.849 Y149.938 E14.06140
G1 X167.915 Y148.927 E14.12871
G1 X167.433 Y148.469 E14.16124
G1 X166.942 Y147.956 E14.19596
G1 X166.517 Y147.628 E14.22221
G1 X166.282 Y147.420 E14.23755
G1 X166.053 Y147.131 E14.25556
G1 X165.312 Y146.656 E14.29859
G1 X162.768 Y144.725 E14.45476
G1 X161.235 Y143.482 E14.55122
G1 X160.520 Y142.835 E14.59839
G1 X159.976 Y142.452 E14.63090
G1 X159.500 Y142.051 E14.66133
G1 X158.459 Y141.101 E14.73026
G1 X156.899 Y139.558 E14.83755
G1 X154.651 Y137.429 E14.98893
G1 X154.330 Y137.675 F7200.000
G1 X152.988 Y136.376 E15.08026 F2520
G1 X150.219 Y133.449 E15.27724
G1 X149.193 Y132.185 E15.35685
G1 X148.337 Y131.089 E15.42487
G1 X145.495 Y127.358 E15.65415
G1 X145.010 Y126.761 E15.69176
G1 X143.520 Y124.671 E15.81726
G1 X142.129 Y122.589 E15.93968
G1 X138.401 Y116.563 E16.28614
G1 X137.516 Y115.057 E16.37154
G1 X136.732 Y113.673 E16.44932
G1 X135.884 Y112.120 E16.53583
G1 X131.749 Y104.255 E16.97028
G1 X130.993 Y102.803 E17.05030
G1 X130.721 Y102.240 E17.08085
G1 X129.000 Y98.141 E17.29823
G1 X127.111 Y93.538 E17.54148
G1 X125.903 Y90.444 E17.70390
G1 X125.394 Y88.903 E17.78324
G1 X124.799 Y86.992 E17.88108
G1 X121.807 Y77.229 E18.38033
G1 X121.540 Y76.281 E18.42850
G1 X121.397 Y75.723 E18.45664
G1 X121.200 Y74.716 E18.50680
G1 X119.965 Y67.758 E18.85233
G1 X119.864 Y67.054 E18.88710
G1 X119.743 Y65.959 E18.94098
G1 X119.268 Y61.320 E19.16899
G1 X119.165 Y60.001 E19.23368
G1 X119.064 Y56.995 E19.38069
G1 X118.977 Y55.633 E19.44744
G1 X118.885 Y52.798 E19.58615
G1 X118.829 Y52.235 E19.61381
G1 X118.774 Y50.936 E19.67733
G1 X118.706 Y47.760 E19.83268
G1 X118.697 Y46.085 E19.91455
G1 X118.720 Y45.695 E19.93367
G1 X173.191 Y45.695 E22.59689
G1 X173.191 Y154.478 E27.91557
G1 X171.711 Y153.380 E28.00570
G1 X170.832 Y152.600 E28.06311
G1 X168.559 Y150.213 E28.22428
G1 X167.633 Y149.211 E28.29102
G1 X167.150 Y148.752 E28.32357
G1 X166.674 Y148.254 E28.35725
G1 X166.259 Y147.933 E28.38290
G1 X165.994 Y147.700 E28.40019
G1 X165.781 Y147.431 E28.41692
G1 X165.082 Y146.983 E28.45753
G1 X162.524 Y145.042 E28.61452
G1 X160.982 Y143.792 E28.71159
G1 X160.267 Y143.145 E28.75873
G1 X159.750 Y142.785 E28.78952
G1 X159.244 Y142.359 E28.82187
G1 X158.184 Y141.392 E28.89201
G1 X156.621 Y139.845 E28.99953
G1 X154.373 Y137.717 E29.15087
G1 X154.426 Y137.287 F7200.000
G1 X172.518 Y153.078 F7200.000
G1 X172.482 Y153.114 E29.15349 F3600
G1 X172.141 Y152.861 E29.17529
