; generated by Slic3r 1.0.0RC2 on 2014-05-19 at 18:06:49

; layer_height = 0.3
; perimeters = 2
; top_solid_layers = 3
; bottom_solid_layers = 3
; fill_density = 0.1
; perimeter_speed = 60
; infill_speed = 60
; travel_speed = 120
; nozzle_diameter = 0.4
; filament_diameter = 1.75
; extrusion_multiplier = 0.98
; perimeters extrusion width = 0.40mm
; infill extrusion width = 0.42mm
; solid infill extrusion width = 0.42mm
; top infill extrusion width = 0.42mm
; first layer extrusion width = 0.80mm

G21 ; set units to millimeters
M107
M104 S220 ; set temperature
G28 ; home all axes
M106 S255;
G1 Z200 F1200 ; lift nozzle
M109 S220 ; wait for temperature to be reached
G90 ; use absolute coordinates
G92 E0
M82 ; use absolute distances for extrusion
G1 F1800.000 E-1.00000
G92 E0
G1 Z0.400 F7200.000
G1 X95.379 Y66.950 F7200.000
G1 E1.00000 F1800.000
G1 X96.209 Y65.990 E1.14771 F1080.000
G1 X97.209 Y65.190 E1.29676
G1 X98.349 Y64.610 E1.44563
G1 X99.579 Y64.250 E1.59479
G1 X100.849 Y64.130 E1.74327
G1 X199.139 Y64.130 E13.18323
G1 X200.409 Y64.250 E13.33170
G1 X201.639 Y64.610 E13.48086
G1 X202.769 Y65.190 E13.62870
G1 X203.779 Y65.990 E13.77866
G1 X204.609 Y66.950 E13.92637
G1 X205.249 Y68.060 E14.07549
G1 X205.669 Y69.270 E14.22457
G1 X205.849 Y70.530 E14.37271
G1 X205.779 Y71.810 E14.52191
G1 X205.479 Y73.050 E14.67040
G1 X201.319 Y84.970 E16.13983
G1 X195.749 Y100.280 E18.03602
G1 X189.709 Y115.800 E19.97436
G1 X183.689 Y130.970 E21.87394
G1 X183.079 Y132.160 E22.02958
G1 X182.249 Y133.200 E22.18445
G1 X181.229 Y134.050 E22.33899
G1 X180.059 Y134.690 E22.49421
G1 X178.779 Y135.080 E22.64995
G1 X177.459 Y135.210 E22.80432
G1 X153.899 Y135.240 E25.54647
G1 X122.549 Y135.240 E29.19529
G1 X121.219 Y135.110 E29.35083
G1 X119.949 Y134.720 E29.50546
G1 X118.779 Y134.080 E29.66068
G1 X117.749 Y133.230 E29.81611
G1 X116.919 Y132.190 E29.97098
G1 X116.309 Y131.000 E30.12662
G1 X110.269 Y115.760 E32.03463
G1 X104.249 Y100.310 E33.96453
G1 X98.629 Y84.840 E35.88022
G1 X94.509 Y73.050 E37.33383
G1 X94.209 Y71.810 E37.48231
G1 X94.139 Y70.540 E37.63035
G1 X94.319 Y69.270 E37.77965
G1 X94.739 Y68.060 E37.92872
G1 X95.325 Y67.043 E38.06538
G1 F1800.000 E37.06538
G92 E0
G1 X155.013 Y71.968 F7200.000
G1 E1.00000 F1800.000
G1 X197.569 Y71.968 E5.95306 F1080.000
G1 X193.963 Y82.297 E7.22639
G1 X188.453 Y97.443 E9.10220
G1 X182.412 Y112.960 E11.04031
G1 X176.695 Y127.388 E12.84660
G1 X155.013 Y127.422 E15.37014
G1 X155.013 Y72.075 E21.81194
G1 X154.299 Y71.254 F7200.000
G1 X198.575 Y71.254 E26.96519 F756.000
G1 X194.636 Y82.537 E28.35613
G1 X189.120 Y97.699 E30.23398
G1 X183.077 Y113.220 E32.17260
G1 X177.186 Y128.101 E34.03538
G1 X154.299 Y128.139 E36.69915
G1 X154.299 Y71.361 E43.30746
G1 X154.917 Y71.611 F7200.000
G1 X196.804 Y72.450 F7200.000
G1 X196.868 Y72.514 E43.31813 F1080.000
G1 X196.605 Y73.269 E43.41196
G1 X195.785 Y72.450 E43.54790
G1 X194.767 Y72.450 E43.66741
G1 X196.341 Y74.024 E43.92863
G1 X196.077 Y74.779 E44.02246
G1 X193.749 Y72.450 E44.40896
G1 X192.730 Y72.450 E44.52847
G1 X195.814 Y75.534 E45.04025
G1 X195.550 Y76.288 E45.13408
G1 X191.712 Y72.450 E45.77114
G1 X190.694 Y72.450 E45.89065
G1 X195.287 Y77.043 E46.65299
G1 X195.023 Y77.798 E46.74682
G1 X189.675 Y72.450 E47.63444
G1 X188.657 Y72.450 E47.75395
G1 X194.760 Y78.553 E48.76684
G1 X194.496 Y79.308 E48.86067
G1 X187.639 Y72.450 E49.99885
G1 X186.620 Y72.450 E50.11836
G1 X194.233 Y80.063 E51.38182
G1 X193.969 Y80.817 E51.47565
G1 X185.602 Y72.450 E52.86438
G1 X184.583 Y72.450 E52.98389
G1 X193.706 Y81.572 E54.49790
G1 X193.440 Y82.325 E54.59158
G1 X183.565 Y72.450 E56.23053
G1 X182.547 Y72.450 E56.35005
G1 X193.168 Y83.072 E58.11293
G1 X192.897 Y83.818 E58.20618
G1 X181.528 Y72.450 E60.09299
G1 X180.510 Y72.450 E60.21250
G1 X192.625 Y84.565 E62.22324
G1 X192.354 Y85.312 E62.31649
G1 X179.492 Y72.450 E64.45117
G1 X178.473 Y72.450 E64.57068
G1 X192.082 Y86.059 E66.82928
G1 X191.810 Y86.805 E66.92254
G1 X177.455 Y72.450 E69.30507
G1 X176.436 Y72.450 E69.42458
G1 X191.539 Y87.552 E71.93105
G1 X191.267 Y88.299 E72.02430
G1 X175.418 Y72.450 E74.65470
G1 X174.400 Y72.450 E74.77421
G1 X190.995 Y89.045 E77.52854
G1 X190.724 Y89.792 E77.62179
G1 X173.381 Y72.450 E80.50005
G1 X172.363 Y72.450 E80.61956
G1 X190.452 Y90.539 E83.62175
G1 X190.180 Y91.286 E83.71500
G1 X171.345 Y72.450 E86.84113
G1 X170.326 Y72.450 E86.96064
G1 X189.909 Y92.032 E90.21069
G1 X189.637 Y92.779 E90.30394
G1 X169.308 Y72.450 E93.67792
G1 X168.290 Y72.450 E93.79744
G1 X189.365 Y93.526 E97.29535
G1 X189.094 Y94.272 E97.38860
G1 X167.271 Y72.450 E101.01045
G1 X166.253 Y72.450 E101.12996
G1 X188.822 Y95.019 E104.87574
G1 X188.550 Y95.766 E104.96899
G1 X165.234 Y72.450 E108.83870
G1 X164.216 Y72.450 E108.95821
G1 X188.279 Y96.513 E112.95185
G1 X188.007 Y97.259 E113.04510
G1 X163.198 Y72.450 E117.16267
G1 X162.179 Y72.450 E117.28218
G1 X187.722 Y97.993 E121.52144
G1 X187.437 Y98.726 E121.61376
G1 X161.161 Y72.450 E125.97467
G1 X160.143 Y72.450 E126.09418
G1 X187.151 Y99.459 E130.57676
G1 X186.866 Y100.192 E130.66907
G1 X159.124 Y72.450 E135.27329
G1 X158.106 Y72.450 E135.39280
G1 X186.581 Y100.925 E140.11868
G1 X186.295 Y101.658 E140.21099
G1 X157.088 Y72.450 E145.05852
G1 X156.069 Y72.450 E145.17803
G1 X186.010 Y102.391 E150.14722
G1 X185.724 Y103.124 E150.23953
G1 X155.495 Y72.894 E155.25666
G1 X155.495 Y73.912 E155.37617
G1 X185.439 Y103.856 E160.34593
G1 X185.154 Y104.589 E160.43825
G1 X155.495 Y74.931 E165.36065
G1 X155.495 Y75.949 E165.48016
G1 X184.868 Y105.322 E170.35520
G1 X184.583 Y106.055 E170.44751
G1 X155.495 Y76.967 E175.27519
G1 X155.495 Y77.986 E175.39470
G1 X184.298 Y106.788 E180.17501
G1 X184.012 Y107.521 E180.26732
G1 X155.495 Y79.004 E185.00027
G1 X155.495 Y80.023 E185.11979
G1 X183.727 Y108.254 E189.80537
G1 X183.441 Y108.987 E189.89768
G1 X155.495 Y81.041 E194.53591
G1 X155.495 Y82.059 E194.65542
G1 X183.156 Y109.720 E199.24628
G1 X182.871 Y110.453 E199.33859
G1 X155.495 Y83.078 E203.88209
G1 X155.495 Y84.096 E204.00160
G1 X182.585 Y111.186 E208.49774
G1 X182.300 Y111.919 E208.59005
G1 X155.495 Y85.114 E213.03882
G1 X155.495 Y86.133 E213.15833
G1 X182.015 Y112.652 E217.55974
G1 X181.726 Y113.382 E217.65185
G1 X155.495 Y87.151 E222.00541
G1 X155.495 Y88.170 E222.12492
G1 X181.437 Y114.112 E226.43050
G1 X181.148 Y114.841 E226.52258
G1 X155.495 Y89.188 E230.78020
G1 X155.495 Y90.206 E230.89971
G1 X180.859 Y115.571 E235.10937
G1 X180.570 Y116.300 E235.20144
G1 X155.495 Y91.225 E239.36313
G1 X155.495 Y92.243 E239.48264
G1 X180.281 Y117.029 E243.59637
G1 X179.992 Y117.759 E243.68844
G1 X155.495 Y93.261 E247.75421
G1 X155.495 Y94.280 E247.87372
G1 X179.703 Y118.488 E251.89152
G1 X179.414 Y119.217 E251.98359
G1 X155.495 Y95.298 E255.95342
G1 X155.495 Y96.316 E256.07293
G1 X179.125 Y119.947 E259.99480
G1 X178.836 Y120.676 E260.08687
G1 X155.495 Y97.335 E263.96078
G1 X155.495 Y98.353 E264.08029
G1 X178.547 Y121.405 E267.90623
G1 X178.258 Y122.135 E267.99830
G1 X155.495 Y99.372 E271.77627
G1 X155.495 Y100.390 E271.89579
G1 X177.969 Y122.864 E275.62580
G1 X177.680 Y123.594 E275.71787
G1 X155.495 Y101.408 E279.39991
G1 X155.495 Y102.427 E279.51943
G1 X177.391 Y124.323 E283.15351
G1 X177.102 Y125.052 E283.24558
G1 X155.495 Y103.445 E286.83169
G1 X155.495 Y104.463 E286.95121
G1 X176.813 Y125.782 E290.48936
G1 X176.524 Y126.511 E290.58143
G1 X155.495 Y105.482 E294.07161
G1 X155.495 Y106.500 E294.19113
G1 X175.902 Y126.907 E297.57806
G1 X174.885 Y126.909 E297.69739
G1 X155.495 Y107.519 E300.91558
G1 X155.495 Y108.537 E301.03509
G1 X173.869 Y126.911 E304.08453
G1 X172.852 Y126.912 E304.20385
G1 X155.495 Y109.555 E307.08454
G1 X155.495 Y110.574 E307.20405
G1 X171.835 Y126.914 E309.91599
G1 X170.818 Y126.915 E310.03531
G1 X155.495 Y111.592 E312.57850
G1 X155.495 Y112.610 E312.69802
G1 X169.802 Y126.917 E315.07245
G1 X168.785 Y126.919 E315.19178
G1 X155.495 Y113.629 E317.39747
G1 X155.495 Y114.647 E317.51698
G1 X167.768 Y126.920 E319.55392
G1 X166.751 Y126.922 E319.67324
G1 X155.495 Y115.665 E321.54143
G1 X155.495 Y116.684 E321.66095
G1 X165.734 Y126.923 E323.36039
G1 X164.718 Y126.925 E323.47971
G1 X155.495 Y117.702 E325.01040
G1 X155.495 Y118.721 E325.12991
G1 X163.701 Y126.927 E326.49185
G1 X162.684 Y126.928 E326.61118
G1 X155.495 Y119.739 E327.80437
G1 X155.495 Y120.757 E327.92388
G1 X161.667 Y126.930 E328.94832
G1 X160.651 Y126.931 E329.06764
G1 X155.495 Y121.776 E329.92334
G1 X155.495 Y122.794 E330.04285
G1 X159.634 Y126.933 E330.72979
G1 X158.617 Y126.935 E330.84911
G1 X155.495 Y123.812 E331.36730
G1 X155.495 Y124.831 E331.48682
G1 X157.600 Y126.936 E331.83626
G1 X156.584 Y126.938 E331.95558
G1 X155.495 Y125.849 E332.13627
G1 X155.495 Y126.867 E332.25579
G1 X155.567 Y126.939 E332.26773
G1 F1800.000 E331.26773
G92 E0
G1 X144.990 Y127.388 F7200.000
G1 E1.00000 F1800.000
G1 X123.310 Y127.421 E3.52330 F1080.000
G1 X117.571 Y112.916 E5.33887
G1 X111.555 Y97.470 E7.26819
G1 X106.026 Y82.262 E9.15165
G1 X102.429 Y71.967 E10.42081
G1 X144.990 Y71.967 E15.37454
G1 X144.990 Y127.281 E21.81244
G1 X145.315 Y128.102 F7200.000
G1 X122.820 Y128.136 E24.43072 F756.000
G1 X116.906 Y113.177 E26.30287
G1 X110.888 Y97.727 E28.23275
G1 X105.353 Y82.502 E30.11827
G1 X101.423 Y71.253 E31.50505
G1 X145.704 Y71.253 E36.65900
G1 X145.704 Y128.102 E43.27555
G1 X145.422 Y128.102 E43.30835
G1 X144.958 Y127.483 F7200.000
G1 X123.698 Y126.938 F7200.000
G1 X123.598 Y126.839 E43.32490 F1080.000
G1 X124.713 Y126.937 E43.45602
G1 X122.933 Y125.156 E43.75102
G1 X122.267 Y123.474 F7200.000
G1 X125.728 Y126.935 E44.32447 F1080.000
G1 X126.743 Y126.934 E44.44338
G1 X121.601 Y121.792 E45.29529
G1 X120.936 Y120.110 F7200.000
G1 X127.758 Y126.932 E46.42566 F1080.000
G1 X128.773 Y126.931 E46.54457
G1 X120.270 Y118.427 E47.95339
G1 X119.604 Y116.745 F7200.000
G1 X129.788 Y126.929 E49.64066 F1080.000
G1 X130.803 Y126.928 E49.75958
G1 X118.939 Y115.063 E51.72531
G1 X118.273 Y113.381 F7200.000
G1 X131.818 Y126.926 E53.96949 F1080.000
G1 X132.833 Y126.925 E54.08841
G1 X117.618 Y111.709 E56.60930
G1 X116.969 Y110.044 F7200.000
G1 X133.848 Y126.923 E59.40583 F1080.000
G1 X134.864 Y126.921 E59.52474
G1 X116.321 Y108.379 E62.59691
G1 X115.672 Y106.713 F7200.000
G1 X135.879 Y126.920 E65.94471 F1080.000
G1 X136.894 Y126.918 E66.06363
G1 X115.023 Y105.048 E69.68707
G1 X114.375 Y103.383 F7200.000
G1 X137.909 Y126.917 E73.58615 F1080.000
G1 X138.924 Y126.915 E73.70506
G1 X113.726 Y101.718 E77.87978
G1 X113.077 Y100.052 F7200.000
G1 X139.939 Y126.914 E82.33013 F1080.000
G1 X140.954 Y126.912 E82.44904
G1 X112.429 Y98.387 E87.17503
G1 X111.804 Y96.746 F7200.000
G1 X141.969 Y126.911 E92.17274 F1080.000
G1 X142.984 Y126.909 E92.29166
G1 X111.223 Y95.148 E97.55375
G1 X110.642 Y93.551 F7200.000
G1 X143.999 Y126.908 E103.08022 F1080.000
G1 X144.508 Y126.400 E103.16444
G1 X110.062 Y91.954 E108.87150
G1 X109.481 Y90.356 F7200.000
G1 X144.508 Y125.384 E114.67476 F1080.000
G1 X144.508 Y124.367 E114.79386
G1 X108.900 Y88.759 E120.69334
G1 X108.320 Y87.162 F7200.000
G1 X144.508 Y123.351 E126.68902 F1080.000
G1 X144.508 Y122.334 E126.80812
G1 X107.739 Y85.565 E132.90001
G1 X107.158 Y83.967 F7200.000
G1 X144.508 Y121.317 E139.08811 F1080.000
G1 X144.508 Y120.301 E139.20720
G1 X106.578 Y82.370 E145.49151
G1 X106.026 Y80.802 F7200.000
G1 X144.508 Y119.284 E151.86725 F1080.000
G1 X144.508 Y118.268 E151.98634
G1 X105.480 Y79.239 E158.45253
G1 X104.934 Y77.677 F7200.000
G1 X144.508 Y117.251 E165.00917 F1080.000
G1 X144.508 Y116.234 E165.12826
G1 X104.388 Y76.114 E171.77536
G1 X103.842 Y74.552 F7200.000
G1 X144.508 Y115.218 E178.51290 F1080.000
G1 X144.508 Y114.201 E178.63199
G1 X103.296 Y72.989 E185.45999
G1 X103.773 Y72.449 E185.54436
G1 X144.508 Y113.185 E192.29336
G1 X144.508 Y112.168 E192.41245
G1 X104.790 Y72.449 E198.99301
G1 X105.806 Y72.449 E199.11211
G1 X144.508 Y111.151 E205.52425
G1 X144.508 Y110.135 E205.64334
G1 X106.823 Y72.449 E211.88705
G1 X107.839 Y72.449 E212.00615
G1 X144.508 Y109.118 E218.08143
G1 X144.508 Y108.102 E218.20053
G1 X108.856 Y72.449 E224.10738
G1 X109.873 Y72.449 E224.22648
G1 X144.508 Y107.085 E229.96491
G1 X144.508 Y106.069 E230.08400
G1 X110.889 Y72.449 E235.65400
G1 X111.906 Y72.449 E235.77310
G1 X144.508 Y105.052 E241.17467
G1 X144.508 Y104.035 E241.29377
G1 X112.922 Y72.449 E246.52692
G1 X113.939 Y72.449 E246.64601
G1 X144.508 Y103.019 E251.71073
G1 X144.508 Y102.002 E251.82983
G1 X114.955 Y72.449 E256.72612
G1 X115.972 Y72.449 E256.84522
G1 X144.508 Y100.986 E261.57308
G1 X144.508 Y99.969 E261.69218
G1 X116.989 Y72.449 E266.25161
G1 X118.005 Y72.449 E266.37071
G1 X144.508 Y98.952 E270.76172
G1 X144.508 Y97.936 E270.88082
G1 X119.022 Y72.449 E275.10340
G1 X120.038 Y72.449 E275.22250
G1 X144.508 Y96.919 E279.27665
G1 X144.508 Y95.903 E279.39575
G1 X121.055 Y72.449 E283.28148
G1 X122.072 Y72.449 E283.40057
G1 X144.508 Y94.886 E287.11788
G1 X144.508 Y93.869 E287.23697
G1 X123.088 Y72.449 E290.78585
G1 X124.105 Y72.449 E290.90494
G1 X144.508 Y92.853 E294.28539
G1 X144.508 Y91.836 E294.40449
G1 X125.121 Y72.449 E297.61651
G1 X126.138 Y72.449 E297.73560
G1 X144.508 Y90.820 E300.77920
G1 X144.508 Y89.803 E300.89829
G1 X127.155 Y72.449 E303.77346
G1 X128.171 Y72.449 E303.89256
G1 X144.508 Y88.787 E306.59930
G1 X144.508 Y87.770 E306.71839
G1 X129.188 Y72.449 E309.25670
G1 X130.204 Y72.449 E309.37580
G1 X144.508 Y86.753 E311.74569
G1 X144.508 Y85.737 E311.86478
G1 X131.221 Y72.449 E314.06624
G1 X132.238 Y72.449 E314.18534
G1 X144.508 Y84.720 E316.21837
G1 X144.508 Y83.704 E316.33746
G1 X133.254 Y72.449 E318.20207
G1 X134.271 Y72.449 E318.32116
G1 X144.508 Y82.687 E320.01734
G1 X144.508 Y81.670 E320.13643
G1 X135.287 Y72.449 E321.66418
G1 X136.304 Y72.449 E321.78328
G1 X144.508 Y80.654 E323.14260
G1 X144.508 Y79.637 E323.26170
G1 X137.321 Y72.449 E324.45259
G1 X138.337 Y72.449 E324.57169
G1 X144.508 Y78.621 E325.59416
G1 X144.508 Y77.604 E325.71325
G1 X139.354 Y72.449 E326.56729
G1 X140.370 Y72.449 E326.68639
G1 X144.508 Y76.587 E327.37200
G1 X144.509 Y75.571 E327.49110
G1 X141.387 Y72.449 E328.00829
G1 X142.403 Y72.449 E328.12738
G1 X144.509 Y74.554 E328.47614
G1 X144.509 Y73.538 E328.59524
G1 X143.420 Y72.449 E328.77557
G1 X144.437 Y72.449 E328.89467
G1 X144.509 Y72.521 E328.90657
G1 F1800.000 E327.90657
G92 E0
G1 Z0.700 F7200.000
G1 X154.499 Y71.454 F7200.000
G1 E1.00000 F1800.000
G1 X198.320 Y71.454 E3.14250 F3600
G1 X194.551 Y82.247 E3.70145
G1 X189.769 Y95.380 E4.38476
G1 X188.895 Y97.830 E4.51194
G1 X183.021 Y112.893 E5.30246
G1 X178.184 Y125.103 E5.94456
G1 X176.999 Y128.143 E6.10408
G1 X154.499 Y128.183 E7.20415
G1 X154.499 Y71.514 E9.97482
G1 X154.099 Y71.054 F7200.000
G1 X198.887 Y71.044 E12.16461 F2520
G1 X194.928 Y82.382 E12.75178
G1 X190.146 Y95.514 E13.43511
G1 X189.268 Y97.973 E13.56275
G1 X183.393 Y113.039 E14.35339
G1 X178.557 Y125.248 E14.99544
G1 X177.285 Y128.501 E15.16621
M106 S255
G1 X177.268 Y128.542 E15.16850 F3600
G1 X154.099 Y128.584 E16.35479
G1 X154.099 Y128.540 E16.35707
M107
G1 X154.099 Y71.114 E19.16475 F2520
G1 X154.445 Y71.254 F7200.000
G1 X154.814 Y71.727 F7200.000
G1 X154.772 Y71.769 E19.16782 F3600
G1 X154.772 Y72.366 E19.19855
G1 X155.411 Y71.727 E19.24507
G1 X156.007 Y71.727 E19.27579
G1 X154.772 Y72.962 E19.36577
G1 X154.772 Y73.558 E19.39649
G1 X156.603 Y71.727 E19.52992
G1 X157.199 Y71.727 E19.56064
G1 X154.772 Y74.154 E19.73752
G1 X154.772 Y74.750 E19.76824
G1 X157.795 Y71.727 E19.98857
G1 X158.392 Y71.727 E20.01929
G1 X154.772 Y75.347 E20.28307
G1 X154.772 Y75.943 E20.31379
G1 X158.988 Y71.727 E20.62102
G1 X159.584 Y71.727 E20.65174
G1 X154.772 Y76.539 E21.00242
G1 X154.772 Y77.135 E21.03315
G1 X160.180 Y71.727 E21.42728
G1 X160.777 Y71.727 E21.45800
G1 X154.772 Y77.732 E21.89558
G1 X154.772 Y78.328 E21.92631
G1 X161.373 Y71.727 E22.40734
G1 X161.969 Y71.727 E22.43806
G1 X154.772 Y78.924 E22.96254
G1 X154.772 Y79.520 E22.99327
G1 X162.565 Y71.727 E23.56120
G1 X163.161 Y71.727 E23.59192
G1 X154.772 Y80.116 E24.20331
G1 X154.772 Y80.713 E24.23403
G1 X163.758 Y71.727 E24.88887
G1 X164.354 Y71.727 E24.91959
G1 X154.772 Y81.309 E25.61787
G1 X154.772 Y81.905 E25.64860
