; generated by Slic3r 1.0.0RC3 on 2014-03-11 at 21:32:27

; layer_height = 0.3
; perimeters = 2
; top_solid_layers = 3
; bottom_solid_layers = 3
; fill_density = 0.1
; perimeter_speed = 60
; infill_speed = 60
; travel_speed = 120
; nozzle_diameter = 0.4
; filament_diameter = 1.75
; extrusion_multiplier = 0.98
; perimeters extrusion width = 0.40mm
; infill extrusion width = 0.42mm
; solid infill extrusion width = 0.42mm
; top infill extrusion width = 0.42mm
; support material extrusion width = 0.40mm
; first layer extrusion width = 0.60mm

G21 ; set units to millimeters
M107
M104 S220 ; set temperature
G28 ; home all axes
M106 S255;
G1 Z200 F1200 ; lift nozzle
M109 S220 ; wait for temperature to be reached
G90 ; use absolute coordinates
G92 E0
M82 ; use absolute distances for extrusion
G1 F1800.000 E-1.00000
G92 E0
G1 Z0.300 F7200.000
G1 X98.758 Y36.293 F7200.000
G1 E1.00000 F1800.000
G1 X99.648 Y34.933 E1.11067 F1080.000
G1 X100.908 Y33.783 E1.22683
G1 X102.088 Y33.123 E1.31889
G1 X103.368 Y32.703 E1.41063
G1 X104.718 Y32.563 E1.50304
G1 X195.278 Y32.563 E7.66949
G1 X196.628 Y32.703 E7.76191
G1 X197.908 Y33.123 E7.85364
G1 X199.088 Y33.783 E7.94570
G1 X200.348 Y34.933 E8.06186
G1 X201.238 Y36.293 E8.17253
G1 X201.768 Y37.823 E8.28279
G1 X213.168 Y91.933 E12.04815
G1 X213.268 Y92.603 E12.09428
G1 X213.308 Y93.283 E12.14066
G1 X213.308 Y101.083 E12.67178
G1 X213.248 Y101.963 E12.73184
G1 X213.098 Y103.073 E12.80811
G1 X213.008 Y103.593 E12.84405
G1 X201.418 Y156.653 E16.54222
G1 X201.168 Y157.493 E16.60189
G1 X200.928 Y158.153 E16.64971
G1 X200.448 Y159.183 E16.72709
G1 X199.808 Y160.113 E16.80396
G1 X199.458 Y160.533 E16.84119
G1 X198.868 Y161.143 E16.89898
G1 X183.778 Y175.093 E18.29829
G1 X182.878 Y175.793 E18.37593
G1 X181.868 Y176.333 E18.45391
G1 X181.368 Y176.543 E18.49084
G1 X180.298 Y176.883 E18.56729
G1 X179.648 Y177.033 E18.61271
G1 X178.858 Y177.163 E18.66723
G1 X177.998 Y177.253 E18.72611
G1 X176.768 Y177.333 E18.81004
G1 X173.028 Y177.443 E19.06481
G1 X169.898 Y177.463 E19.27795
G1 X130.088 Y177.463 E21.98871
G1 X126.968 Y177.443 E22.20116
G1 X123.458 Y177.343 E22.44026
G1 X122.268 Y177.273 E22.52143
G1 X121.128 Y177.163 E22.59942
G1 X120.278 Y177.023 E22.65807
G1 X119.138 Y176.733 E22.73817
G1 X118.578 Y176.523 E22.77890
G1 X118.088 Y176.313 E22.81520
G1 X117.098 Y175.783 E22.89166
G1 X116.218 Y175.093 E22.96781
G1 X101.128 Y161.143 E24.36712
G1 X100.598 Y160.603 E24.41864
G1 X100.238 Y160.183 E24.45631
G1 X99.538 Y159.183 E24.53942
G1 X99.028 Y158.073 E24.62260
G1 X98.798 Y157.413 E24.67019
G1 X98.578 Y156.653 E24.72407
G1 X86.998 Y103.593 E28.42209
G1 X86.758 Y102.023 E28.53024
G1 X86.688 Y101.083 E28.59442
G1 X86.688 Y93.283 E29.12555
G1 X86.728 Y92.603 E29.17193
G1 X86.828 Y91.933 E29.21806
G1 X98.228 Y37.823 E32.98342
G1 X98.731 Y36.372 E33.08798
G1 F1800.000 E32.08798
G92 E0
G1 X105.440 Y40.394 F7200.000
G1 E1.00000 F1800.000
G1 X107.004 Y42.008 E1.15301 F1080.000
G1 X107.806 Y42.873 E1.23334
G1 X110.882 Y46.236 E1.54368
G1 X112.467 Y48.011 E1.70571
G1 X114.226 Y50.014 E1.88724
G1 X116.110 Y52.213 E2.08439
G1 X116.960 Y53.221 E2.17420
G1 X118.948 Y55.647 E2.38773
G1 X120.942 Y58.177 E2.60713
G1 X122.901 Y60.781 E2.82899
G1 X124.774 Y63.427 E3.04977
G1 X126.516 Y66.078 E3.26574
G1 X128.140 Y68.730 E3.47748
G1 X129.648 Y71.389 E3.68561
G1 X131.050 Y74.042 E3.88994
G1 X132.357 Y76.693 E4.09119
G1 X133.576 Y79.325 E4.28872
G1 X134.708 Y81.947 E4.48315
G1 X135.769 Y84.553 E4.67478
G1 X136.762 Y87.135 E4.86315
G1 X137.687 Y89.677 E5.04734
G1 X138.541 Y92.160 E5.22611
G1 X139.328 Y94.564 E5.39837
G1 X140.042 Y96.885 E5.56375
G1 X140.686 Y99.093 E5.72033
G1 X141.258 Y101.174 E5.86728
G1 X141.759 Y103.115 E6.00381
G1 X142.184 Y104.890 E6.12809
G1 X142.544 Y106.530 E6.24238
G1 X142.853 Y108.045 E6.34766
G1 X143.111 Y109.466 E6.44601
G1 X143.534 Y112.089 E6.62694
G1 X144.054 Y115.797 E6.88188
G1 X144.210 Y117.057 E6.96839
G1 X144.334 Y118.415 E7.06123
G1 X144.413 Y119.909 E7.16310
G1 X144.441 Y121.608 E7.27880
G1 X144.374 Y123.546 E7.41081
G1 X144.237 Y125.802 E7.56474
G1 X143.999 Y128.404 E7.74267
G1 X143.430 Y132.910 E8.05190
G1 X142.421 Y139.738 E8.52189
G1 X141.738 Y143.968 E8.81365
G1 X141.518 Y145.480 E8.91771
G1 X141.182 Y147.542 E9.05992
G1 X140.659 Y150.967 E9.29589
G1 X140.195 Y154.138 E9.51408
G1 X139.680 Y158.086 E9.78519
G1 X139.425 Y160.400 E9.94369
G1 X139.241 Y162.382 E10.07927
G1 X139.119 Y164.073 E10.19469
G1 X139.009 Y166.676 E10.37213
G1 X138.996 Y169.048 E10.53360
G1 X138.972 Y169.360 E10.55490
G1 X138.887 Y169.603 E10.57246
G1 X138.701 Y169.687 E10.58634
G1 X138.237 Y169.800 E10.61888
G1 X137.485 Y169.880 E10.67034
G1 X136.449 Y169.944 E10.74102
G1 X133.255 Y170.026 E10.95857
G1 X130.134 Y170.047 E11.17112
G1 X128.244 Y170.039 E11.29979
G1 X126.464 Y170.019 E11.42100
G1 X123.523 Y169.931 E11.62138
G1 X122.752 Y169.882 E11.67397
G1 X121.952 Y169.799 E11.72878
G1 X121.431 Y169.683 E11.76511
G1 X121.219 Y169.593 E11.78076
G1 X121.184 Y169.465 E11.78980
G1 X121.090 Y169.315 E11.80187
G1 X121.072 Y169.053 E11.81976
G1 X121.052 Y166.705 E11.97966
G1 X121.015 Y166.000 E12.02768
G1 X120.955 Y165.584 E12.05634
G1 X120.806 Y163.961 E12.16727
G1 X120.673 Y163.079 E12.22804
G1 X120.545 Y162.564 E12.26421
G1 X120.244 Y161.703 E12.32632
G1 X120.153 Y161.332 E12.35231
G1 X119.724 Y160.221 E12.43342
G1 X118.810 Y158.844 E12.54593
G1 X117.852 Y158.124 E12.62752
G1 X117.587 Y157.863 E12.65291
G1 X116.596 Y157.251 E12.73221
G1 X116.014 Y156.997 E12.77543
G1 X114.994 Y156.691 E12.84793
G1 X114.532 Y156.505 E12.88182
G1 X113.609 Y156.216 E12.94770
G1 X112.892 Y156.082 E12.99737
G1 X111.414 Y155.904 E13.09872
G1 X110.768 Y155.796 E13.14336
G1 X109.957 Y155.746 E13.19869
G1 X108.681 Y155.715 E13.28560
G1 X106.780 Y155.715 E13.41500
G1 X106.263 Y155.670 E13.45037
G1 X106.132 Y155.621 E13.45989
G1 X106.062 Y155.517 E13.46842
G1 X105.963 Y155.428 E13.47751
G1 X105.821 Y155.037 E13.50580
G1 X105.696 Y154.214 E13.56250
G1 X105.621 Y152.970 E13.64739
G1 X105.579 Y151.584 E13.74181
G1 X105.515 Y146.318 E14.10036
G1 X105.488 Y141.483 E14.42961
G1 X105.474 Y134.790 E14.88539
G1 X105.474 Y62.942 E19.77766
G1 X105.441 Y40.478 E21.30729
G1 X104.887 Y40.485 F7200.000
G1 X104.896 Y39.238 E21.39221 F540.000
G1 X105.548 Y39.758 E21.44903
G1 X106.071 Y40.244 E21.49760
G1 X107.409 Y41.627 E21.62866
G1 X108.215 Y42.495 E21.70929
G1 X111.295 Y45.863 E22.02009
G1 X112.884 Y47.641 E22.18246
G1 X114.646 Y49.649 E22.36438
G1 X116.535 Y51.852 E22.56199
G1 X117.389 Y52.866 E22.65223
G1 X119.382 Y55.298 E22.86635
G1 X121.384 Y57.837 E23.08651
G1 X123.351 Y60.453 E23.30937
G1 X125.234 Y63.113 E23.53126
G1 X126.211 Y64.594 E23.65211
G1 X126.987 Y65.780 E23.74858
G1 X128.620 Y68.447 E23.96157
G1 X130.137 Y71.121 E24.17089
G1 X131.546 Y73.789 E24.37635
G1 X132.860 Y76.452 E24.57856
G1 X134.084 Y79.098 E24.77704
G1 X135.221 Y81.731 E24.97236
G1 X136.287 Y84.348 E25.16474
G1 X137.284 Y86.940 E25.35387
G1 X138.213 Y89.491 E25.53872
G1 X139.069 Y91.982 E25.71810
G1 X139.859 Y94.396 E25.89101
G1 X140.575 Y96.725 E26.05697
G1 X141.222 Y98.941 E26.21413
G1 X141.797 Y101.030 E26.36168
G1 X142.299 Y102.981 E26.49887
G1 X142.727 Y104.765 E26.62374
G1 X143.400 Y107.940 E26.84474
G1 X143.887 Y110.721 E27.03699
G1 X144.264 Y113.258 E27.21170
G1 X144.696 Y116.433 E27.42986
G1 X144.889 Y118.375 E27.56272
G1 X144.970 Y119.892 E27.66619
G1 X144.998 Y121.610 E27.78318
G1 X144.930 Y123.575 E27.91707
G1 X144.793 Y125.845 E28.07191
G1 X144.554 Y128.462 E28.25085
G1 X143.982 Y132.985 E28.56127
G1 X142.971 Y139.822 E29.03188
G1 X142.289 Y144.053 E29.32370
G1 X142.069 Y145.565 E29.42777
G1 X141.733 Y147.627 E29.56999
G1 X141.210 Y151.050 E29.80580
G1 X140.746 Y154.217 E30.02372
G1 X140.234 Y158.152 E30.29393
G1 X139.979 Y160.455 E30.45173
G1 X139.797 Y162.428 E30.58666
G1 X139.675 Y164.108 E30.70134
G1 X139.566 Y166.688 E30.87721
G1 X139.554 Y169.071 E31.03942
G1 X139.520 Y169.511 E31.06951
G1 X139.457 Y169.635 E31.07895
G1 X139.396 Y169.847 E31.09395
G1 X139.240 Y170.050 E31.11141
G1 X138.883 Y170.216 E31.13823
G1 X138.334 Y170.350 E31.17667
G1 X137.533 Y170.436 E31.23158
G1 X136.469 Y170.500 E31.30417
G1 X133.262 Y170.583 E31.52257
G1 X130.134 Y170.604 E31.73558
G1 X128.241 Y170.596 E31.86451
G1 X124.929 Y170.539 E32.09004
G1 X123.652 Y170.496 E32.17703
G1 X122.702 Y170.437 E32.24185
G1 X121.865 Y170.350 E32.29917
G1 X121.259 Y170.215 E32.34145
G1 X120.868 Y170.047 E32.37043
G1 X120.711 Y169.848 E32.38763
G1 X120.668 Y169.691 E32.39872
G1 X120.546 Y169.496 E32.41445
G1 X120.515 Y169.072 E32.44334
G1 X120.515 Y167.651 E32.54012
G1 X120.460 Y166.055 E32.64889
G1 X120.402 Y165.650 E32.67676
G1 X120.254 Y164.033 E32.78732
G1 X120.127 Y163.188 E32.84547
G1 X120.011 Y162.723 E32.87809
G1 X119.709 Y161.861 E32.94026
G1 X119.620 Y161.499 E32.96565
G1 X119.224 Y160.473 E33.04052
G1 X118.400 Y159.233 E33.14194
G1 X117.488 Y158.547 E33.21966
G1 X117.240 Y158.304 E33.24331
G1 X116.337 Y157.745 E33.31563
G1 X115.822 Y157.521 E33.35388
G1 X114.810 Y157.217 E33.42583
G1 X114.345 Y157.030 E33.45995
G1 X113.474 Y156.758 E33.52209
G1 X112.808 Y156.633 E33.56823
G1 X111.335 Y156.456 E33.66928
G1 X110.704 Y156.351 E33.71280
G1 X109.933 Y156.303 E33.76542
G1 X108.674 Y156.272 E33.85118
G1 X106.755 Y156.272 E33.98186
G1 X106.142 Y156.219 E34.02374
G1 X105.773 Y156.088 E34.05042
G1 X105.637 Y155.884 E34.06712
G1 X105.483 Y155.745 E34.08120
G1 X105.280 Y155.184 E34.12187
G1 X105.141 Y154.269 E34.18484
G1 X105.064 Y152.995 E34.27175
G1 X105.022 Y151.596 E34.36710
G1 X104.958 Y146.323 E34.72614
G1 X104.931 Y141.485 E35.05559
G1 X104.917 Y134.790 E35.51146
G1 X104.917 Y62.943 E40.40373
G1 X104.887 Y40.569 E41.92723
G1 X105.370 Y40.209 F7200.000
G1 F1800.000 E40.92723
G92 E0
G1 X168.950 Y74.042 F7200.000
G1 E1.00000 F1800.000
G1 X170.352 Y71.389 E1.20433 F1080.000
G1 X171.020 Y70.208 E1.29667
G1 X171.863 Y68.731 E1.41253
G1 X173.484 Y66.078 E1.62424
G1 X175.226 Y63.427 E1.84017
G1 X177.099 Y60.781 E2.06094
G1 X179.058 Y58.177 E2.28281
G1 X181.053 Y55.647 E2.50221
G1 X183.040 Y53.221 E2.71573
G1 X185.774 Y50.014 E3.00270
G1 X189.118 Y46.236 E3.34626
G1 X191.178 Y43.975 E3.55452
G1 X192.998 Y42.009 E3.73696
G1 X194.560 Y40.394 E3.88993
G1 X194.526 Y65.618 E5.60746
G1 X194.520 Y138.162 E10.54713
G1 X194.498 Y144.599 E10.98545
G1 X194.451 Y149.691 E11.33223
G1 X194.379 Y152.970 E11.55552
G1 X194.304 Y154.214 E11.64041
G1 X194.180 Y155.037 E11.69711
G1 X194.037 Y155.428 E11.72540
G1 X193.938 Y155.517 E11.73449
G1 X193.868 Y155.621 E11.74301
G1 X193.737 Y155.670 E11.75256
G1 X193.222 Y155.715 E11.78773
G1 X191.320 Y155.715 E11.91730
G1 X190.043 Y155.746 E12.00423
G1 X189.236 Y155.796 E12.05933
G1 X188.590 Y155.904 E12.10393
G1 X187.108 Y156.082 E12.20554
G1 X186.391 Y156.216 E12.25522
G1 X185.468 Y156.505 E12.32109
G1 X185.006 Y156.691 E12.35498
G1 X183.986 Y156.997 E12.42748
G1 X183.404 Y157.251 E12.47070
G1 X182.413 Y157.863 E12.55000
G1 X182.148 Y158.124 E12.57539
G1 X181.190 Y158.844 E12.65698
G1 X180.275 Y160.222 E12.76960
G1 X179.851 Y161.335 E12.85071
G1 X179.762 Y161.702 E12.87643
G1 X179.457 Y162.562 E12.93855
G1 X179.329 Y163.079 E12.97484
G1 X179.196 Y163.961 E13.03559
G1 X179.045 Y165.584 E13.14654
G1 X178.985 Y166.000 E13.17520
G1 X178.948 Y166.705 E13.22322
G1 X178.932 Y169.048 E13.38277
G1 X178.910 Y169.315 E13.40099
G1 X178.816 Y169.465 E13.41311
G1 X178.780 Y169.595 E13.42224
G1 X178.572 Y169.683 E13.43763
G1 X178.049 Y169.799 E13.47412
G1 X177.248 Y169.882 E13.52899
G1 X176.329 Y169.940 E13.59168
G1 X172.986 Y170.026 E13.81935
G1 X169.866 Y170.047 E14.03183
G1 X166.196 Y170.018 E14.28173
G1 X163.423 Y169.939 E14.47061
G1 X162.515 Y169.880 E14.53258
G1 X161.764 Y169.800 E14.58403
G1 X161.299 Y169.687 E14.61661
G1 X161.113 Y169.603 E14.63048
G1 X161.028 Y169.360 E14.64804
G1 X161.004 Y169.048 E14.66934
G1 X160.991 Y166.679 E14.83067
G1 X160.957 Y165.496 E14.91124
G1 X160.881 Y164.071 E15.00840
G1 X160.759 Y162.382 E15.12369
G1 X160.575 Y160.400 E15.25927
G1 X160.320 Y158.086 E15.41777
G1 X159.806 Y154.138 E15.68888
G1 X159.341 Y150.967 E15.90707
G1 X158.818 Y147.542 E16.14304
G1 X158.482 Y145.480 E16.28525
G1 X158.262 Y143.968 E16.38930
G1 X157.579 Y139.738 E16.68106
G1 X156.570 Y132.911 E17.15100
G1 X156.001 Y128.404 E17.46035
G1 X155.766 Y125.803 E17.63813
G1 X155.626 Y123.546 E17.79213
G1 X155.563 Y121.607 E17.92425
G1 X155.587 Y119.909 E18.03984
G1 X155.666 Y118.415 E18.14172
G1 X155.793 Y117.059 E18.23445
G1 X155.947 Y115.795 E18.32119
G1 X156.466 Y112.089 E18.57600
G1 X156.889 Y109.464 E18.75705
G1 X157.150 Y108.046 E18.85520
G1 X157.456 Y106.530 E18.96056
G1 X157.819 Y104.889 E19.07497
G1 X158.241 Y103.115 E19.19912
G1 X158.742 Y101.174 E19.33565
G1 X159.314 Y99.093 E19.48260
G1 X159.958 Y96.885 E19.63918
G1 X160.672 Y94.564 E19.80456
G1 X161.459 Y92.160 E19.97682
G1 X162.313 Y89.677 E20.15559
G1 X163.238 Y87.135 E20.33978
G1 X164.231 Y84.553 E20.52815
G1 X165.292 Y81.947 E20.71978
G1 X166.424 Y79.325 E20.91420
G1 X167.643 Y76.693 E21.11173
G1 X168.914 Y74.117 E21.30730
G1 X168.454 Y73.789 F7200.000
G1 X169.863 Y71.121 E21.51276 F540.000
G1 X170.536 Y69.933 E21.60570
G1 X171.383 Y68.447 E21.72217
G1 X173.014 Y65.779 E21.93508
G1 X174.766 Y63.113 E22.15238
G1 X176.649 Y60.453 E22.37426
G1 X178.616 Y57.837 E22.59713
G1 X180.618 Y55.298 E22.81729
G1 X182.611 Y52.866 E23.03141
G1 X184.547 Y50.584 E23.23519
G1 X187.116 Y47.641 E23.50117
G1 X188.705 Y45.863 E23.66355
G1 X190.767 Y43.598 E23.87210
G1 X193.225 Y40.962 E24.11754
G1 X194.286 Y39.906 E24.21947
G1 X195.105 Y39.238 E24.29140
G1 X195.083 Y65.619 E26.08772
G1 X195.077 Y138.163 E31.02744
G1 X195.055 Y144.602 E31.46589
G1 X195.008 Y149.699 E31.81300
G1 X194.936 Y152.995 E32.03748
G1 X194.859 Y154.269 E32.12439
G1 X194.720 Y155.184 E32.18736
G1 X194.517 Y155.745 E32.22802
G1 X194.363 Y155.884 E32.24211
G1 X194.227 Y156.088 E32.25880
G1 X193.858 Y156.219 E32.28549
G1 X193.248 Y156.272 E32.32719
G1 X191.326 Y156.272 E32.45804
G1 X190.067 Y156.303 E32.54381
G1 X189.299 Y156.351 E32.59621
G1 X188.669 Y156.456 E32.63970
G1 X187.192 Y156.633 E32.74100
G1 X186.526 Y156.758 E32.78714
G1 X185.655 Y157.030 E32.84928
G1 X185.190 Y157.217 E32.88339
G1 X184.178 Y157.521 E32.95535
G1 X183.663 Y157.745 E32.99359
G1 X182.760 Y158.304 E33.06592
G1 X182.512 Y158.547 E33.08957
G1 X181.600 Y159.233 E33.16728
G1 X180.775 Y160.474 E33.26874
G1 X180.384 Y161.501 E33.34355
G1 X180.297 Y161.861 E33.36882
G1 X179.991 Y162.723 E33.43106
G1 X179.876 Y163.188 E33.46372
G1 X179.748 Y164.033 E33.52187
G1 X179.598 Y165.650 E33.63244
G1 X179.540 Y166.055 E33.66030
G1 X179.505 Y166.723 E33.70586
G1 X179.489 Y167.652 E33.76915
G1 X179.489 Y169.071 E33.86575
G1 X179.454 Y169.496 E33.89477
G1 X179.332 Y169.691 E33.91050
G1 X179.288 Y169.850 E33.92172
G1 X179.136 Y170.047 E33.93866
G1 X178.972 Y170.119 E33.95082
G1 X178.744 Y170.215 E33.96767
G1 X178.136 Y170.350 E34.01013
G1 X177.298 Y170.437 E34.06747
G1 X176.353 Y170.496 E34.13192
G1 X175.071 Y170.539 E34.21927
G1 X171.759 Y170.596 E34.44480
G1 X169.866 Y170.604 E34.57373
G1 X166.738 Y170.583 E34.78674
G1 X163.532 Y170.500 E35.00514
G1 X162.467 Y170.436 E35.07773
G1 X161.667 Y170.350 E35.13256
G1 X161.117 Y170.216 E35.17108
G1 X160.760 Y170.050 E35.19790
G1 X160.604 Y169.847 E35.21536
G1 X160.543 Y169.635 E35.23036
G1 X160.480 Y169.511 E35.23980
G1 X160.447 Y169.071 E35.26989
G1 X160.434 Y166.689 E35.43205
G1 X160.401 Y165.519 E35.51179
G1 X160.325 Y164.107 E35.60802
G1 X160.204 Y162.428 E35.72266
G1 X160.021 Y160.455 E35.85759
G1 X159.767 Y158.152 E36.01539
G1 X159.254 Y154.217 E36.28560
G1 X158.790 Y151.050 E36.50352
G1 X158.267 Y147.627 E36.73933
G1 X157.931 Y145.565 E36.88155
G1 X157.711 Y144.053 E36.98562
G1 X157.029 Y139.822 E37.27744
G1 X156.276 Y134.791 E37.62378
G1 X156.018 Y132.985 E37.74803
G1 X155.446 Y128.462 E38.05849
G1 X155.210 Y125.845 E38.23737
G1 X155.070 Y123.575 E38.39224
G1 X155.029 Y122.481 E38.46678
G1 X155.006 Y121.609 E38.52617
G1 X155.030 Y119.892 E38.64311
G1 X155.111 Y118.375 E38.74658
G1 X155.239 Y116.999 E38.84065
G1 X155.394 Y115.722 E38.92826
