; generated by Slic3r 1.0.0RC3 on 2014-03-11 at 20:27:51

; layer_height = 0.3
; perimeters = 2
; top_solid_layers = 3
; bottom_solid_layers = 3
; fill_density = 0.1
; perimeter_speed = 60
; infill_speed = 60
; travel_speed = 120
; nozzle_diameter = 0.4
; filament_diameter = 1.75
; extrusion_multiplier = 0.98
; perimeters extrusion width = 0.40mm
; infill extrusion width = 0.42mm
; solid infill extrusion width = 0.42mm
; top infill extrusion width = 0.42mm
; first layer extrusion width = 0.60mm

G21 ; set units to millimeters
M107
M104 S220 ; set temperature
G28 ; home all axes
M106 S255;
G1 Z200 F1200 ; lift nozzle
M109 S220 ; wait for temperature to be reached
G90 ; use absolute coordinates
G92 E0
M82 ; use absolute distances for extrusion
G1 F1800.000 E-1.00000
G92 E0
G1 Z0.300 F7200.000
G1 X116.765 Y54.653 F7200.000
G1 E1.00000 F1800.000
G1 X117.535 Y53.513 E1.09367 F1080.000
G1 X118.525 Y52.553 E1.18757
G1 X119.695 Y51.813 E1.28184
G1 X120.995 Y51.343 E1.37597
G1 X136.225 Y47.583 E2.44415
G1 X137.315 Y47.413 E2.51927
G1 X146.965 Y46.703 E3.17814
G1 X147.445 Y46.683 E3.21085
G1 X148.075 Y46.703 E3.25377
G1 X157.955 Y47.463 E3.92851
G1 X158.825 Y47.593 E3.98841
G1 X177.145 Y51.503 E5.26396
G1 X178.345 Y51.883 E5.34967
G1 X179.455 Y52.493 E5.43591
G1 X180.435 Y53.293 E5.52205
G1 X181.235 Y54.273 E5.60819
G1 X181.825 Y55.393 E5.69439
G1 X200.645 Y100.583 E9.02767
G1 X200.955 Y101.503 E9.09378
G1 X201.125 Y102.463 E9.16016
G1 X201.895 Y110.273 E9.69454
G1 X201.925 Y110.913 E9.73817
G1 X201.895 Y111.553 E9.78180
G1 X201.125 Y119.353 E10.31550
G1 X200.875 Y120.603 E10.40230
G1 X200.385 Y121.783 E10.48930
G1 X199.685 Y122.843 E10.57580
G1 X187.995 Y137.253 E11.83928
G1 X183.005 Y143.343 E12.37539
G1 X182.575 Y143.823 E12.41927
G1 X182.095 Y144.263 E12.46361
G1 X161.615 Y161.053 E14.26688
G1 X160.545 Y161.763 E14.35432
G1 X159.355 Y162.253 E14.44195
G1 X158.095 Y162.513 E14.52956
G1 X150.295 Y163.283 E15.06326
G1 X149.655 Y163.313 E15.10689
G1 X149.015 Y163.283 E15.15051
G1 X141.215 Y162.513 E15.68422
G1 X139.395 Y162.063 E15.81188
G1 X137.785 Y161.123 E15.93882
G1 X117.255 Y144.853 E17.72252
G1 X116.795 Y144.453 E17.76403
G1 X116.385 Y144.023 E17.80449
G1 X111.155 Y138.023 E18.34647
G1 X110.515 Y137.163 E18.41946
G1 X99.095 Y118.683 E19.89869
G1 X98.365 Y117.033 E20.02155
G1 X98.115 Y115.243 E20.14462
G1 X98.075 Y91.723 E21.74615
G1 X98.265 Y90.143 E21.85451
G1 X98.835 Y88.653 E21.96314
G1 X116.726 Y54.727 E24.57479
G1 F1800.000 E23.57479
G92 E0
G1 X145.322 Y56.899 F7200.000
G1 E1.00000 F1800.000
G1 X145.487 Y56.072 E1.05742 F540.000
G1 X145.955 Y55.371 E1.11484
G1 X146.657 Y54.902 E1.17226
G1 X147.484 Y54.738 E1.22968
G1 X148.311 Y54.902 E1.28710
G1 X149.012 Y55.371 E1.34452
G1 X149.480 Y56.072 E1.40195
G1 X149.645 Y56.899 E1.45937
G1 X149.480 Y57.726 E1.51679
G1 X149.012 Y58.427 E1.57421
G1 X148.311 Y58.896 E1.63163
G1 X147.484 Y59.060 E1.68905
G1 X146.656 Y58.896 E1.74647
G1 X145.955 Y58.427 E1.80389
G1 X145.487 Y57.726 E1.86131
G1 X145.339 Y56.981 E1.91304
G1 X145.890 Y56.899 F7200.000
G1 X146.012 Y56.289 E1.95537 F540.000
G1 X146.357 Y55.773 E1.99770
G1 X146.874 Y55.427 E2.04003
G1 X147.484 Y55.306 E2.08236
G1 X148.093 Y55.427 E2.12469
G1 X148.610 Y55.773 E2.16702
G1 X148.956 Y56.289 E2.20935
G1 X149.077 Y56.899 E2.25168
G1 X148.956 Y57.509 E2.29401
G1 X148.610 Y58.026 E2.33634
G1 X148.093 Y58.371 E2.37867
G1 X147.484 Y58.492 E2.42100
G1 X146.874 Y58.371 E2.46333
G1 X146.357 Y58.026 E2.50566
G1 X146.012 Y57.509 E2.54799
G1 X145.907 Y56.981 E2.58463
G1 X145.427 Y56.590 F7200.000
G1 F1800.000 E1.58463
G92 E0
G1 X111.869 Y96.107 F7200.000
G1 E1.00000 F1800.000
G1 X112.460 Y96.993 E1.07251 F540.000
G1 X112.668 Y98.037 E1.14502
G1 X112.460 Y99.081 E1.21754
G1 X111.869 Y99.967 E1.29005
G1 X110.983 Y100.559 E1.36256
G1 X109.939 Y100.766 E1.43507
G1 X108.894 Y100.559 E1.50758
G1 X108.009 Y99.967 E1.58009
G1 X107.417 Y99.081 E1.65261
G1 X107.210 Y98.037 E1.72512
G1 X107.417 Y96.993 E1.79763
G1 X108.009 Y96.107 E1.87014
G1 X108.894 Y95.516 E1.94265
G1 X109.939 Y95.308 E2.01516
G1 X110.983 Y95.516 E2.08767
G1 X111.799 Y96.061 E2.15449
G1 X111.467 Y96.509 F7200.000
G1 X111.936 Y97.210 E2.21192 F540.000
G1 X112.100 Y98.037 E2.26934
G1 X111.936 Y98.864 E2.32676
G1 X111.467 Y99.565 E2.38418
G1 X110.766 Y100.034 E2.44160
G1 X109.939 Y100.198 E2.49902
G1 X109.112 Y100.034 E2.55644
G1 X108.411 Y99.565 E2.61386
G1 X107.942 Y98.864 E2.67128
G1 X107.778 Y98.037 E2.72870
G1 X107.942 Y97.210 E2.78612
G1 X108.411 Y96.509 E2.84355
G1 X109.112 Y96.040 E2.90097
G1 X109.939 Y95.876 E2.95839
G1 X110.766 Y96.040 E3.01581
G1 X111.398 Y96.462 E3.06754
G1 X111.065 Y96.910 F7200.000
G1 X111.411 Y97.427 E3.10987 F540.000
G1 X111.532 Y98.037 E3.15220
G1 X111.411 Y98.647 E3.19453
G1 X111.065 Y99.164 E3.23686
G1 X110.549 Y99.509 E3.27919
G1 X109.939 Y99.630 E3.32152
G1 X109.329 Y99.509 E3.36385
G1 X108.812 Y99.164 E3.40618
G1 X108.467 Y98.647 E3.44851
G1 X108.346 Y98.037 E3.49084
G1 X108.467 Y97.427 E3.53317
G1 X108.812 Y96.910 E3.57550
G1 X109.329 Y96.565 E3.61783
G1 X109.939 Y96.444 E3.66016
G1 X110.549 Y96.565 E3.70249
G1 X110.996 Y96.864 E3.73913
G1 X111.612 Y96.802 F7200.000
G1 F1800.000 E2.73913
G92 E0
G1 X187.505 Y110.807 F7200.000
G1 E1.00000 F1800.000
G1 X187.713 Y109.763 E1.07251 F540.000
G1 X188.305 Y108.877 E1.14502
G1 X189.190 Y108.286 E1.21754
G1 X190.235 Y108.078 E1.29005
G1 X191.279 Y108.286 E1.36256
G1 X192.164 Y108.877 E1.43507
G1 X192.756 Y109.763 E1.50759
G1 X192.964 Y110.807 E1.58009
G1 X192.756 Y111.852 E1.65260
G1 X192.164 Y112.737 E1.72511
G1 X191.279 Y113.329 E1.79763
G1 X190.235 Y113.536 E1.87014
G1 X189.190 Y113.329 E1.94265
G1 X188.305 Y112.737 E2.01516
G1 X187.713 Y111.852 E2.08768
G1 X187.522 Y110.889 E2.15450
G1 X188.073 Y110.807 F7200.000
G1 X188.238 Y109.980 E2.21192 F540.000
G1 X188.706 Y109.279 E2.26934
G1 X189.408 Y108.810 E2.32676
G1 X190.235 Y108.646 E2.38418
G1 X191.062 Y108.810 E2.44160
G1 X191.763 Y109.279 E2.49902
G1 X192.231 Y109.980 E2.55645
G1 X192.396 Y110.807 E2.61386
G1 X192.231 Y111.634 E2.67128
G1 X191.763 Y112.335 E2.72870
G1 X191.062 Y112.804 E2.78613
G1 X190.235 Y112.968 E2.84355
G1 X189.408 Y112.804 E2.90097
G1 X188.706 Y112.335 E2.95839
G1 X188.238 Y111.634 E3.01581
G1 X188.090 Y110.889 E3.06754
G1 X188.641 Y110.807 F7200.000
G1 X188.763 Y110.197 E3.10987 F540.000
G1 X189.108 Y109.681 E3.15220
G1 X189.625 Y109.335 E3.19453
G1 X190.235 Y109.214 E3.23686
G1 X190.844 Y109.335 E3.27919
G1 X191.361 Y109.681 E3.32152
G1 X191.707 Y110.197 E3.36385
G1 X191.828 Y110.807 E3.40618
G1 X191.707 Y111.417 E3.44851
G1 X191.361 Y111.934 E3.49084
G1 X190.844 Y112.279 E3.53317
G1 X190.235 Y112.400 E3.57550
G1 X189.625 Y112.279 E3.61783
G1 X189.108 Y111.934 E3.66016
G1 X188.763 Y111.417 E3.70250
G1 X188.658 Y110.889 E3.73913
G1 X188.178 Y110.498 F7200.000
G1 F1800.000 E2.73913
G92 E0
G1 X171.143 Y110.913 F7200.000
G1 E1.00000 F1800.000
G1 X170.730 Y115.105 E1.28679 F1080.000
G1 X169.507 Y119.135 E1.57357
G1 X167.522 Y122.850 E1.86036
G1 X164.850 Y126.105 E2.14715
G1 X161.594 Y128.777 E2.43394
G1 X157.880 Y130.763 E2.72072
G1 X153.851 Y131.985 E3.00739
G1 X149.658 Y132.399 E3.29430
G1 X145.465 Y131.985 E3.58121
G1 X141.436 Y130.763 E3.86787
G1 X137.722 Y128.777 E4.15465
G1 X134.466 Y126.105 E4.44144
G1 X131.794 Y122.850 E4.72823
G1 X129.809 Y119.135 E5.01502
G1 X128.586 Y115.105 E5.30180
G1 X128.173 Y110.913 E5.58859
G1 X128.586 Y106.722 E5.87538
G1 X129.809 Y102.692 E6.16216
G1 X131.794 Y98.977 E6.44895
G1 X134.466 Y95.721 E6.73574
G1 X137.722 Y93.050 E7.02253
G1 X141.436 Y91.064 E7.30931
G1 X145.465 Y89.842 E7.59597
G1 X149.660 Y89.428 E7.88301
G1 X153.849 Y89.842 E8.16968
G1 X157.880 Y91.064 E8.45646
G1 X161.594 Y93.050 E8.74325
G1 X164.850 Y95.722 E9.03004
G1 X167.522 Y98.977 E9.31682
G1 X169.507 Y102.692 E9.60361
G1 X170.730 Y106.722 E9.89040
G1 X171.134 Y110.830 E10.17149
G1 X170.583 Y110.913 F7200.000
G1 X170.181 Y114.996 E10.45081 F1080.000
G1 X168.990 Y118.921 E10.73012
G1 X167.056 Y122.539 E11.00944
G1 X164.454 Y125.710 E11.28875
G1 X161.283 Y128.312 E11.56807
G1 X157.666 Y130.246 E11.84738
G1 X153.741 Y131.436 E12.12662
G1 X149.658 Y131.839 E12.40601
G1 X145.575 Y131.436 E12.68540
G1 X141.650 Y130.246 E12.96464
G1 X138.033 Y128.312 E13.24396
G1 X134.862 Y125.710 E13.52327
G1 X132.260 Y122.539 E13.80258
G1 X130.326 Y118.921 E14.08190
G1 X129.135 Y114.996 E14.36121
G1 X128.733 Y110.913 E14.64053
G1 X129.135 Y106.831 E14.91984
G1 X130.326 Y102.906 E15.19916
G1 X132.260 Y99.288 E15.47847
G1 X134.862 Y96.117 E15.75779
G1 X138.033 Y93.515 E16.03710
G1 X141.650 Y91.581 E16.31642
G1 X145.575 Y90.391 E16.59566
G1 X149.659 Y89.988 E16.87512
G1 X153.740 Y90.391 E17.15437
G1 X157.666 Y91.581 E17.43368
G1 X161.283 Y93.515 E17.71300
G1 X164.454 Y96.117 E17.99231
G1 X167.056 Y99.288 E18.27163
G1 X168.990 Y102.906 E18.55094
G1 X170.181 Y106.831 E18.83025
G1 X170.575 Y110.830 E19.10388
G1 X170.023 Y110.913 F7200.000
G1 X169.632 Y114.887 E19.37572 F540.000
G1 X168.473 Y118.707 E19.64756
G1 X166.591 Y122.228 E19.91941
G1 X164.058 Y125.314 E20.19125
G1 X160.972 Y127.846 E20.46309
G1 X157.451 Y129.728 E20.73493
G1 X153.631 Y130.887 E21.00675
G1 X149.658 Y131.279 E21.27862
G1 X145.685 Y130.887 E21.55049
G1 X141.865 Y129.728 E21.82231
G1 X138.344 Y127.846 E22.09415
G1 X135.258 Y125.314 E22.36599
G1 X132.725 Y122.228 E22.63783
G1 X130.843 Y118.707 E22.90968
G1 X129.684 Y114.886 E23.18152
G1 X129.293 Y110.913 E23.45336
G1 X129.684 Y106.940 E23.72521
G1 X130.843 Y103.120 E23.99705
G1 X132.725 Y99.599 E24.26889
G1 X135.258 Y96.513 E24.54073
G1 X138.344 Y93.980 E24.81258
G1 X141.865 Y92.099 E25.08442
G1 X145.685 Y90.940 E25.35623
G1 X149.658 Y90.548 E25.62813
G1 X153.631 Y90.940 E25.89995
G1 X157.451 Y92.099 E26.17179
G1 X160.972 Y93.981 E26.44364
G1 X164.058 Y96.513 E26.71548
G1 X166.591 Y99.599 E26.98732
G1 X168.473 Y103.120 E27.25916
G1 X169.632 Y106.940 E27.53101
G1 X170.015 Y110.830 E27.79716
G1 X170.496 Y111.208 F7200.000
G1 F1800.000 E26.79716
G92 E0
G1 X151.153 Y149.427 F7200.000
G1 E1.00000 F1800.000
G1 X152.038 Y150.019 E1.07251 F540.000
G1 X152.630 Y150.904 E1.14502
G1 X152.838 Y151.949 E1.21753
G1 X152.630 Y152.993 E1.29004
G1 X152.038 Y153.879 E1.36256
G1 X151.153 Y154.470 E1.43507
G1 X150.108 Y154.678 E1.50758
G1 X149.064 Y154.470 E1.58009
G1 X148.178 Y153.879 E1.65260
G1 X147.587 Y152.993 E1.72511
G1 X147.379 Y151.949 E1.79762
G1 X147.587 Y150.904 E1.87014
G1 X148.178 Y150.019 E1.94265
G1 X149.064 Y149.427 E2.01516
G1 X150.108 Y149.219 E2.08767
G1 X151.071 Y149.411 E2.15449
G1 X150.935 Y149.952 F7200.000
G1 X151.637 Y150.420 E2.21191 F540.000
G1 X152.105 Y151.122 E2.26933
G1 X152.270 Y151.949 E2.32676
G1 X152.105 Y152.776 E2.38417
G1 X151.637 Y153.477 E2.44160
G1 X150.935 Y153.945 E2.49902
G1 X150.108 Y154.110 E2.55644
G1 X149.281 Y153.945 E2.61386
G1 X148.580 Y153.477 E2.67128
G1 X148.112 Y152.776 E2.72870
G1 X147.947 Y151.949 E2.78612
G1 X148.112 Y151.122 E2.84354
G1 X148.580 Y150.420 E2.90096
G1 X149.281 Y149.952 E2.95838
G1 X150.108 Y149.787 E3.01580
G1 X150.853 Y149.936 E3.06753
G1 X150.718 Y150.477 F7200.000
G1 X151.235 Y150.822 E3.10987 F540.000
G1 X151.580 Y151.339 E3.15219
G1 X151.702 Y151.949 E3.19453
G1 X151.580 Y152.558 E3.23685
G1 X151.235 Y153.075 E3.27919
G1 X150.718 Y153.421 E3.32152
G1 X150.108 Y153.542 E3.36384
G1 X149.499 Y153.421 E3.40617
G1 X148.982 Y153.075 E3.44850
G1 X148.636 Y152.558 E3.49084
G1 X148.515 Y151.949 E3.53316
G1 X148.636 Y151.339 E3.57550
G1 X148.982 Y150.822 E3.61782
G1 X149.499 Y150.477 E3.66016
G1 X150.108 Y150.355 E3.70249
G1 X150.636 Y150.460 E3.73913
G1 X151.181 Y150.167 F7200.000
G1 F1800.000 E2.73913
G92 E0
G1 X149.658 Y155.336 F7200.000
G1 E1.00000 F1800.000
G1 X142.488 Y154.630 E1.49058 F1080.000
G1 X134.338 Y146.681 E2.26578
G1 X128.237 Y143.353 E2.73899
G1 X122.304 Y138.687 E3.25297
G1 X117.282 Y132.914 E3.77400
G1 X113.706 Y125.969 E4.30586
G1 X113.510 Y113.880 E5.12916
G1 X106.094 Y113.831 E5.63419
G1 X106.106 Y103.108 E6.36433
G1 X106.056 Y93.132 E7.04364
G1 X116.760 Y93.124 E7.77252
G1 X121.145 Y89.334 E8.16716
G1 X123.443 Y82.161 E8.68005
G1 X123.722 Y80.311 E8.80748
G1 X126.919 Y80.310 E9.02519
G1 X126.989 Y82.994 E9.20799
G1 X132.044 Y83.044 E9.55219
G1 X169.800 Y83.050 E12.12306
G1 X169.800 Y59.549 E13.72332
G1 X148.649 Y59.539 E15.16351
G1 X148.599 Y59.373 E15.17530
G1 X149.413 Y58.829 E15.24200
G1 X150.005 Y57.944 E15.31451
G1 X150.213 Y56.899 E15.38702
G1 X150.005 Y55.855 E15.45953
G1 X149.297 Y54.794 E15.54637
G1 X157.257 Y55.414 E16.09006
G1 X174.361 Y59.060 E17.28084
G1 X174.341 Y79.841 E18.69589
G1 X176.803 Y83.481 E18.99507
G1 X181.729 Y89.484 E19.52389
G1 X185.469 Y96.481 E20.06409
G1 X193.242 Y103.779 E20.79007
G1 X193.944 Y110.914 E21.27826
G1 X193.242 Y118.048 E21.76645
G1 X185.469 Y125.346 E22.49243
G1 X181.729 Y132.343 E23.03263
G1 X176.932 Y138.188 E23.54751
G1 X171.087 Y142.985 E24.06238
G1 X164.108 Y146.715 E24.60124
G1 X156.785 Y154.634 E25.33569
G1 X149.741 Y155.328 E25.81765
G1 F1800.000 E24.81765
G92 E0
G1 X146.316 Y59.538 F7200.000
G1 E1.00000 F1800.000
G1 X132.047 Y59.538 E1.97158 F1080.000
G1 X126.990 Y59.568 E2.31594
G1 X126.920 Y62.221 E2.49662
G1 X123.923 Y62.220 E2.70067
G1 X123.971 Y58.827 E2.93174
G1 X138.019 Y55.362 E3.91697
G1 X145.666 Y54.801 E4.43907
G1 X144.962 Y55.855 E4.52534
G1 X144.754 Y56.899 E4.59785
G1 X144.962 Y57.944 E4.67037
G1 X145.554 Y58.829 E4.74288
G1 X146.366 Y59.372 E4.80940
G1 X146.340 Y59.458 E4.81552
G1 F1800.000 E3.81552
G92 E0
G1 X147.514 Y54.107 F7200.000
G1 E1.00000 F1800.000
G1 X157.337 Y54.861 E1.67082 F1080.000
G1 X174.918 Y58.609 E2.89485
G1 X174.899 Y79.670 E4.32898
G1 X177.250 Y83.147 E4.61477
G1 X182.195 Y89.173 E5.14557
G1 X185.917 Y96.137 E5.68326
G1 X193.776 Y103.516 E6.41726
G1 X194.504 Y110.914 E6.92343
G1 X193.776 Y118.311 E7.42961
G1 X185.917 Y125.690 E8.16360
G1 X182.195 Y132.654 E8.70130
G1 X177.328 Y138.584 E9.22365
G1 X171.398 Y143.450 E9.74600
G1 X164.445 Y147.167 E10.28288
G1 X157.051 Y155.168 E11.02471
G1 X149.658 Y155.896 E11.53053
G1 X142.239 Y155.165 E12.03815
G1 X134.004 Y147.133 E12.82143
G1 X127.930 Y143.820 E13.29260
G1 X121.919 Y139.092 E13.81334
G1 X116.818 Y133.229 E14.34253
G1 X113.151 Y126.109 E14.88784
G1 X112.962 Y114.434 E15.68294
G1 X105.536 Y114.385 E16.18861
G1 X105.549 Y103.110 E16.95636
G1 X105.496 Y92.576 E17.67366
G1 X116.552 Y92.567 E18.42652
G1 X120.663 Y89.014 E18.79649
G1 X122.901 Y82.027 E19.29608
G1 X123.242 Y79.754 E19.45259
G1 X127.462 Y79.753 E19.73998
G1 X127.532 Y82.442 E19.92316
G1 X132.047 Y82.487 E20.23058
G1 X169.243 Y82.493 E22.76333
G1 X169.243 Y60.105 E24.28775
G1 X138.023 Y60.091 E26.41356
G1 X132.049 Y60.095 E26.82038
G1 X127.533 Y60.122 E27.12788
G1 X127.463 Y62.778 E27.30880
G1 X123.358 Y62.777 E27.58827
G1 X123.420 Y58.389 E27.88708
G1 X137.931 Y54.810 E28.90481
G1 X147.431 Y54.113 E29.55341
G1 X147.474 Y53.552 F7200.000
G1 X147.583 Y53.544 E29.56085 F540.000
G1 X157.417 Y54.309 E30.23253
G1 X175.476 Y58.158 E31.48981
G1 X175.456 Y79.500 E32.94302
G1 X177.697 Y82.814 E33.21541
G1 X182.660 Y88.862 E33.74819
G1 X186.365 Y95.794 E34.28338
G1 X194.310 Y103.253 E35.02539
G1 X195.064 Y110.914 E35.54955
G1 X194.310 Y118.574 E36.07371
G1 X186.365 Y126.033 E36.81572
G1 X182.660 Y132.965 E37.35091
G1 X177.724 Y138.980 E37.88073
G1 X171.709 Y143.916 E38.41055
G1 X164.781 Y147.619 E38.94546
G1 X157.316 Y155.702 E39.69466
G1 X149.658 Y156.456 E40.21865
G1 X141.990 Y155.701 E40.74331
G1 X133.670 Y147.586 E41.53468
G1 X127.622 Y144.287 E42.00381
G1 X121.533 Y139.497 E42.53131
G1 X116.353 Y133.544 E43.06866
G1 X112.596 Y126.248 E43.62743
G1 X112.414 Y114.987 E44.39432
G1 X104.978 Y114.938 E44.90064
G1 X104.992 Y103.111 E45.70600
G1 X104.936 Y92.019 E46.46127
G1 X116.345 Y92.010 E47.23812
G1 X120.181 Y88.694 E47.58341
G1 X122.359 Y81.893 E48.06970
G1 X122.761 Y79.197 E48.25531
G1 X128.005 Y79.195 E48.61237
G1 X128.075 Y81.890 E48.79593
G1 X132.049 Y81.930 E49.06657
G1 X139.044 Y81.938 E49.54282
G1 X168.685 Y81.936 E51.56120
G1 X168.686 Y60.662 E53.00977
G1 X138.023 Y60.648 E55.09764
G1 X132.050 Y60.652 E55.50436
