; generated by Slic3r 1.0.0RC3 on 2014-03-11 at 20:26:51

; layer_height = 0.3
; perimeters = 2
; top_solid_layers = 3
; bottom_solid_layers = 3
; fill_density = 0.1
; perimeter_speed = 60
; infill_speed = 60
; travel_speed = 120
; nozzle_diameter = 0.4
; filament_diameter = 1.75
; extrusion_multiplier = 0.98
; perimeters extrusion width = 0.40mm
; infill extrusion width = 0.42mm
; solid infill extrusion width = 0.42mm
; top infill extrusion width = 0.42mm
; first layer extrusion width = 0.60mm

G21 ; set units to millimeters
M107
M104 S220 ; set temperature
G28 ; home all axes
M106 S255;
G1 Z200 F1200 ; lift nozzle
M109 S220 ; wait for temperature to be reached
G90 ; use absolute coordinates
G92 E0
M82 ; use absolute distances for extrusion
G1 F1800.000 E-1.00000
G92 E0
G1 Z0.300 F7200.000
G1 X88.491 Y77.902 F7200.000
G1 E1.00000 F1800.000
G1 X115.041 Y49.272 E3.65873 F1080.000
G1 X116.051 Y48.392 E3.74994
G1 X117.221 Y47.732 E3.84141
G1 X118.491 Y47.322 E3.93228
G1 X119.821 Y47.172 E4.02342
G1 X129.991 Y47.132 E4.71593
G1 X206.691 Y47.152 E9.93861
G1 X207.971 Y47.282 E10.02622
G1 X209.201 Y47.652 E10.11368
G1 X210.331 Y48.262 E10.20112
G1 X211.331 Y49.072 E10.28875
G1 X212.141 Y50.072 E10.37638
G1 X212.751 Y51.202 E10.46382
G1 X213.121 Y52.432 E10.55128
G1 X213.251 Y53.712 E10.63888
G1 X213.251 Y69.752 E11.73109
G1 X213.171 Y70.772 E11.80075
G1 X205.521 Y119.252 E15.14272
G1 X201.641 Y137.982 E16.44517
G1 X201.261 Y139.202 E16.53218
G1 X200.661 Y140.322 E16.61869
G1 X199.851 Y141.302 E16.70527
G1 X198.861 Y142.102 E16.79194
G1 X197.741 Y142.702 E16.87846
G1 X152.181 Y161.672 E20.23892
G1 X151.221 Y161.992 E20.30782
G1 X150.231 Y162.152 E20.37611
G1 X142.431 Y162.832 E20.90925
G1 X141.781 Y162.862 E20.95355
G1 X141.141 Y162.822 E20.99722
G1 X133.361 Y161.962 E21.53020
G1 X132.471 Y161.802 E21.59178
G1 X131.611 Y161.512 E21.65358
G1 X90.831 Y144.902 E24.65188
G1 X89.681 Y144.302 E24.74021
G1 X88.681 Y143.482 E24.82827
G1 X87.861 Y142.492 E24.91580
G1 X87.251 Y141.352 E25.00384
G1 X86.871 Y140.122 E25.09150
G1 X86.741 Y138.832 E25.17978
G1 X86.741 Y82.362 E29.02496
G1 X86.951 Y80.742 E29.13619
G1 X87.541 Y79.232 E29.24658
G1 X88.443 Y77.970 E29.35219
G1 F1800.000 E28.35219
G92 E0
G1 X160.504 Y77.402 F7200.000
G1 E1.00000 F1800.000
G1 X160.552 Y68.896 E1.57921 F1080.000
G1 X198.634 Y68.896 E4.17235
G1 X198.634 Y84.160 E5.21172
G1 X173.188 Y84.160 E6.94439
G1 X173.050 Y84.091 E6.95494
G1 X164.042 Y81.386 E7.59534
G1 X160.560 Y77.464 E7.95246
G1 X161.062 Y77.192 F7200.000
G1 X161.106 Y69.453 E8.47942 F540.000
G1 X198.077 Y69.453 E10.99690
G1 X198.077 Y83.603 E11.96041
G1 X173.319 Y83.603 E13.64623
G1 X164.354 Y80.898 E14.28389
G1 X161.118 Y77.254 E14.61573
G1 X160.528 Y77.035 F7200.000
G1 F1800.000 E13.61573
G92 E0
G1 X155.251 Y90.556 F7200.000
G1 E1.00000 F1800.000
G1 X155.361 Y90.615 E1.00851 F1080.000
G1 X158.975 Y93.581 E1.32685
G1 X161.941 Y97.195 E1.64519
G1 X164.145 Y101.318 E1.96353
G1 X165.502 Y105.792 E2.28187
G1 X165.960 Y110.445 E2.60021
G1 X165.502 Y115.097 E2.91855
G1 X164.145 Y119.571 E3.23688
G1 X161.941 Y123.694 E3.55522
G1 X158.975 Y127.308 E3.87356
G1 X155.361 Y130.274 E4.19190
G1 X151.238 Y132.478 E4.51024
G1 X146.764 Y133.835 E4.82858
G1 X141.240 Y134.379 E5.20654
G1 X141.240 Y134.207 E5.21823
G1 X137.459 Y133.835 E5.47694
G1 X132.985 Y132.478 E5.79528
G1 X128.862 Y130.274 E6.11362
G1 X125.248 Y127.308 E6.43196
G1 X122.282 Y123.694 E6.75030
G1 X120.079 Y119.571 E7.06864
G1 X118.722 Y115.097 E7.38698
G1 X118.263 Y110.445 E7.70532
G1 X118.722 Y105.792 E8.02367
G1 X120.079 Y101.318 E8.34201
G1 X122.283 Y97.195 E8.66035
G1 X125.248 Y93.581 E8.97869
G1 X128.862 Y90.615 E9.29703
G1 X132.985 Y88.411 E9.61537
G1 X137.459 Y87.054 E9.93371
G1 X142.112 Y86.596 E10.25204
G1 X146.764 Y87.054 E10.57038
G1 X151.238 Y88.411 E10.88872
G1 X155.177 Y90.517 E11.19286
G1 X154.988 Y91.048 F7200.000
G1 X155.050 Y91.081 E11.19763 F540.000
G1 X158.579 Y93.977 E11.50850
G1 X161.475 Y97.506 E11.81936
G1 X163.627 Y101.532 E12.13023
G1 X164.953 Y105.901 E12.44110
G1 X165.400 Y110.445 E12.75196
G1 X164.953 Y114.988 E13.06283
G1 X163.627 Y119.357 E13.37370
G1 X161.475 Y123.383 E13.68457
G1 X158.579 Y126.912 E13.99543
G1 X155.050 Y129.808 E14.30630
G1 X151.024 Y131.960 E14.61717
G1 X146.655 Y133.286 E14.92803
G1 X141.797 Y133.764 E15.26041
G1 X141.797 Y133.702 E15.26463
G1 X137.568 Y133.286 E15.55398
G1 X133.200 Y131.960 E15.86485
G1 X129.173 Y129.808 E16.17571
G1 X125.644 Y126.912 E16.48658
G1 X122.748 Y123.383 E16.79745
G1 X120.596 Y119.357 E17.10832
G1 X119.271 Y114.988 E17.41918
G1 X118.823 Y110.445 E17.73005
G1 X119.271 Y105.901 E18.04093
G1 X120.596 Y101.532 E18.35180
G1 X122.748 Y97.506 E18.66267
G1 X125.644 Y93.977 E18.97353
G1 X129.173 Y91.081 E19.28440
G1 X133.200 Y88.928 E19.59527
G1 X137.568 Y87.603 E19.90613
G1 X142.112 Y87.156 E20.21700
G1 X146.655 Y87.603 E20.52786
G1 X151.024 Y88.929 E20.83873
G1 X154.915 Y91.008 E21.13913
G1 X155.048 Y91.011 F7200.000
G1 F1800.000 E20.13913
G92 E0
G1 X162.228 Y66.363 F7200.000
G1 E1.00000 F1800.000
G1 X196.768 Y66.263 E3.35193 F1080.000
G1 X196.772 Y54.572 E4.14799
G1 X205.841 Y54.572 E4.76554
G1 X205.841 Y69.639 E5.79155
G1 X198.121 Y98.268 E7.81055
G1 X199.006 Y108.269 E8.49421
G1 X198.192 Y118.113 E9.16681
G1 X194.527 Y135.799 E10.39670
G1 X173.580 Y135.799 E11.82300
G1 X169.855 Y137.980 E12.11693
G1 X163.718 Y143.131 E12.66247
G1 X156.724 Y146.767 E13.19924
G1 X149.262 Y154.801 E13.94584
G1 X141.876 Y155.443 E14.45068
G1 X134.480 Y154.629 E14.95736
G1 X126.513 Y146.596 E15.72774
G1 X120.347 Y143.065 E16.21156
G1 X114.410 Y138.019 E16.74209
G1 X94.159 Y137.983 E18.12107
G1 X94.159 Y83.223 E21.84983
G1 X113.347 Y83.255 E23.15644
G1 X119.103 Y78.183 E23.67882
G1 X120.707 Y71.871 E24.12225
G1 X120.710 Y54.593 E25.29878
G1 X129.171 Y54.553 E25.87493
G1 X129.171 Y66.363 E26.67911
G1 X162.144 Y66.363 E28.92431
G1 X162.227 Y65.806 F7200.000
G1 X196.211 Y65.707 E31.23838 F540.000
G1 X196.215 Y54.014 E32.03454
G1 X206.398 Y54.014 E32.72794
G1 X206.398 Y69.713 E33.79690
G1 X198.685 Y98.317 E35.81417
G1 X199.565 Y108.268 E36.49441
G1 X198.745 Y118.193 E37.17251
G1 X194.980 Y136.356 E38.43559
G1 X173.731 Y136.356 E39.88248
G1 X170.177 Y138.437 E40.16293
G1 X164.030 Y143.597 E40.70942
G1 X157.067 Y147.217 E41.24379
G1 X149.524 Y155.337 E41.99844
G1 X141.870 Y156.003 E42.52164
G1 X134.223 Y155.161 E43.04547
G1 X126.170 Y147.042 E43.82413
G1 X120.026 Y143.523 E44.30631
G1 X114.205 Y138.576 E44.82642
G1 X93.601 Y138.539 E46.22938
G1 X93.601 Y82.665 E50.03400
G1 X113.136 Y82.699 E51.36416
G1 X118.605 Y77.879 E51.86055
G1 X120.150 Y71.801 E52.28754
G1 X120.153 Y54.038 E53.49706
G1 X129.728 Y53.993 E54.14907
G1 X129.728 Y65.806 E54.95342
G1 X162.143 Y65.806 E57.16063
G1 X162.506 Y66.288 F7200.000
G1 F1800.000 E56.16063
G92 E0
G1 X151.927 Y88.333 F7200.000
G1 E1.00000 F1800.000
G1 X130.351 Y66.757 E3.08269 F1080.000
G1 X131.140 Y66.757 E3.13660
G1 X153.623 Y89.240 E5.30683
G1 X155.320 Y90.147 F7200.000
G1 X131.930 Y66.757 E7.56459 F1080.000
G1 X132.720 Y66.757 E7.61849
G1 X195.436 Y129.473 E13.67230
G1 X195.300 Y130.127 E13.71790
G1 X162.409 Y97.236 E16.89274
G1 X163.316 Y98.933 F7200.000
G1 X195.164 Y130.781 E19.96696 F1080.000
G1 X195.029 Y131.435 E20.01256
G1 X164.223 Y100.629 E22.98616
G1 X164.745 Y101.941 F7200.000
G1 X194.893 Y132.089 E25.89627 F1080.000
G1 X194.758 Y132.743 E25.94187
G1 X165.089 Y103.075 E28.80570
G1 X165.433 Y104.208 E28.88656
G1 X194.622 Y133.397 E31.70411
G1 X194.486 Y134.052 E31.74970
G1 X165.777 Y105.342 E34.52097
G1 X165.948 Y106.303 E34.58758
G1 X194.351 Y134.706 E37.32926
G1 X194.215 Y135.360 E37.37485
G1 X166.034 Y107.179 E40.09511
G1 X166.120 Y108.055 E40.15519
G1 X193.471 Y135.405 E42.79528
G1 X192.681 Y135.405 E42.84918
G1 X166.207 Y108.931 E45.40470
G1 X166.293 Y109.807 E45.46478
G1 X191.891 Y135.405 E47.93575
G1 X191.102 Y135.405 E47.98965
G1 X166.337 Y110.640 E50.38018
G1 X166.266 Y111.359 E50.42949
G1 X190.312 Y135.405 E52.75063
G1 X189.522 Y135.405 E52.80453
G1 X166.195 Y112.078 E55.05627
G1 X166.124 Y112.797 E55.10558
G1 X188.733 Y135.405 E57.28792
G1 X187.943 Y135.405 E57.34183
G1 X166.053 Y113.515 E59.45478
G1 X165.982 Y114.234 E59.50408
G1 X187.153 Y135.405 E61.54764
G1 X186.363 Y135.405 E61.60155
G1 X165.912 Y114.953 E63.57571
G1 X165.763 Y115.594 E63.62061
G1 X185.574 Y135.405 E65.53293
G1 X184.784 Y135.405 E65.58683
G1 X165.579 Y116.200 E67.44067
G1 X165.395 Y116.806 E67.48388
G1 X183.994 Y135.405 E69.27923
G1 X183.205 Y135.405 E69.33314
G1 X165.211 Y117.412 E71.07000
G1 X165.027 Y118.018 E71.11321
G1 X182.415 Y135.405 E72.79159
G1 X181.625 Y135.405 E72.84549
G1 X164.844 Y118.624 E74.46538
G1 X164.660 Y119.229 E74.50860
G1 X180.835 Y135.405 E76.06999
G1 X180.046 Y135.405 E76.12390
G1 X164.459 Y119.818 E77.62845
G1 X164.184 Y120.333 E77.66828
G1 X179.256 Y135.405 E79.12316
G1 X178.466 Y135.405 E79.17706
G1 X163.909 Y120.848 E80.58226
G1 X163.634 Y121.362 E80.62209
G1 X177.677 Y135.405 E81.97762
G1 X176.887 Y135.405 E82.03152
G1 X163.359 Y121.877 E83.33737
G1 X163.084 Y122.392 E83.37720
G1 X176.097 Y135.405 E84.63337
G1 X175.307 Y135.405 E84.68727
G1 X162.809 Y122.906 E85.89376
G1 X162.533 Y123.421 E85.93359
G1 X174.518 Y135.405 E87.09041
G1 X173.728 Y135.405 E87.14431
G1 X162.255 Y123.932 E88.25178
G1 X161.899 Y124.366 E88.29008
G1 X173.136 Y135.603 E89.37474
G1 X172.638 Y135.894 E89.41414
G1 X161.543 Y124.800 E90.48508
G1 X161.187 Y125.233 E90.52338
G1 X172.140 Y136.186 E91.58060
G1 X171.642 Y136.477 E91.62000
G1 X160.831 Y125.667 E92.66351
G1 X160.475 Y126.101 E92.70181
G1 X171.144 Y136.769 E93.73160
G1 X170.645 Y137.061 E93.77099
G1 X160.119 Y126.535 E94.78706
G1 X159.763 Y126.968 E94.82536
G1 X170.147 Y137.352 E95.82772
G1 X169.649 Y137.644 E95.86711
G1 X159.407 Y127.402 E96.85575
G1 X159.007 Y127.791 E96.89386
G1 X169.217 Y138.001 E97.87941
G1 X168.788 Y138.362 E97.91767
G1 X158.573 Y128.147 E98.90365
G1 X158.139 Y128.503 E98.94195
G1 X168.358 Y138.722 E99.92835
G1 X167.929 Y139.082 E99.96661
G1 X157.706 Y128.859 E100.95344
G1 X157.272 Y129.215 E100.99174
G1 X167.500 Y139.443 E101.97899
G1 X167.070 Y139.803 E102.01725
G1 X156.838 Y129.571 E103.00493
G1 X156.404 Y129.927 E103.04323
G1 X166.641 Y140.164 E104.03133
G1 X166.212 Y140.524 E104.06959
G1 X155.971 Y130.283 E105.05812
G1 X155.529 Y130.631 E105.09651
G1 X165.782 Y140.884 E106.08626
G1 X165.353 Y141.245 E106.12452
G1 X155.014 Y130.906 E107.12250
G1 X154.499 Y131.181 E107.16233
G1 X164.924 Y141.605 E108.16855
G1 X164.494 Y141.966 E108.20681
G1 X153.985 Y131.456 E109.22126
G1 X153.470 Y131.731 E109.26109
G1 X164.065 Y142.326 E110.28377
G1 X163.636 Y142.686 E110.32203
G1 X152.955 Y132.006 E111.35295
G1 X152.441 Y132.281 E111.39278
G1 X163.145 Y142.985 E112.42601
G1 X162.625 Y143.255 E112.46598
G1 X151.926 Y132.556 E113.49873
G1 X151.412 Y132.831 E113.53856
G1 X162.106 Y143.526 E114.57083
G1 X161.586 Y143.796 E114.61080
G1 X150.810 Y133.019 E115.65103
G1 X150.204 Y133.203 E115.69425
G1 X161.066 Y144.066 E116.74281
G1 X160.547 Y144.336 E116.78278
G1 X149.598 Y133.387 E117.83967
G1 X148.992 Y133.571 E117.88289
G1 X160.027 Y144.606 E118.94811
G1 X159.508 Y144.876 E118.98808
G1 X148.386 Y133.754 E120.06164
G1 X147.780 Y133.938 E120.10486
G1 X158.988 Y145.146 E121.18675
G1 X158.469 Y145.416 E121.22672
G1 X147.174 Y134.122 E122.31694
G1 X146.517 Y134.255 E122.36268
G1 X157.949 Y145.687 E123.46616
G1 X157.429 Y145.957 E123.50613
G1 X145.798 Y134.326 E124.62884
G1 X145.079 Y134.396 E124.67815
G1 X156.910 Y146.227 E125.82010
G1 X156.415 Y146.522 E125.85943
G1 X144.361 Y134.467 E127.02300
G1 X143.642 Y134.538 E127.07230
G1 X156.035 Y146.931 E128.26856
G1 X155.654 Y147.340 E128.30670
G1 X142.923 Y134.609 E129.53564
G1 X142.204 Y134.680 E129.58495
G1 X155.274 Y147.750 E130.84658
G1 X154.894 Y148.159 E130.88472
G1 X141.485 Y134.750 E132.17903
G1 X140.472 Y134.527 E132.24983
G1 X154.513 Y148.569 E133.60522
G1 X154.133 Y148.978 E133.64336
G1 X139.596 Y134.441 E135.04659
G1 X138.720 Y134.355 E135.10668
G1 X153.753 Y149.388 E136.55776
G1 X153.373 Y149.797 E136.59590
G1 X137.844 Y134.268 E138.09484
G1 X136.846 Y134.060 E138.16440
G1 X152.992 Y150.206 E139.72293
G1 X152.612 Y150.616 E139.76107
G1 X135.713 Y133.717 E141.39232
G1 X134.579 Y133.373 E141.47318
G1 X152.232 Y151.025 E143.17714
G1 X151.851 Y151.435 E143.21528
G1 X133.445 Y133.029 E144.99196
G1 X132.053 Y132.426 F7200.000
G1 X151.471 Y151.844 E146.86637 F1080.000
G1 X151.091 Y152.254 E146.90451
G1 X130.356 Y131.519 E148.90598
G1 X128.660 Y130.612 F7200.000
G1 X150.711 Y152.663 E151.03450 F1080.000
G1 X150.330 Y153.072 E151.07264
G1 X94.552 Y97.295 E156.45674
G1 X94.552 Y98.084 E156.51064
G1 X149.950 Y153.482 E161.85803
G1 X149.570 Y153.891 E161.89617
G1 X94.552 Y98.874 E167.20686
G1 X94.552 Y99.664 E167.26076
G1 X149.189 Y154.301 E172.53474
G1 X148.565 Y154.466 E172.57881
G1 X94.552 Y100.453 E177.79254
G1 X94.552 Y101.243 E177.84644
G1 X147.839 Y154.529 E182.99003
G1 X147.112 Y154.593 E183.03981
G1 X94.552 Y102.033 E188.11327
G1 X94.552 Y102.823 E188.16717
G1 X146.386 Y154.656 E193.17050
G1 X145.659 Y154.719 E193.22028
G1 X94.552 Y103.612 E198.15347
G1 X94.552 Y104.402 E198.20738
G1 X144.933 Y154.782 E203.07044
G1 X144.206 Y154.845 E203.12022
G1 X94.552 Y105.192 E207.91316
G1 X94.552 Y105.981 E207.96706
G1 X143.479 Y154.908 E212.68987
G1 X142.753 Y154.972 E212.73964
G1 X94.552 Y106.771 E217.39232
G1 X94.552 Y107.561 E217.44622
G1 X142.026 Y155.035 E222.02876
G1 X141.171 Y154.969 E222.08730
G1 X94.552 Y108.351 E226.58730
G1 X94.552 Y109.140 E226.64120
G1 X140.284 Y154.872 E231.05555
G1 X139.397 Y154.774 E231.11648
G1 X94.552 Y109.930 E235.44517
G1 X94.552 Y110.720 E235.49908
G1 X138.509 Y154.676 E239.74211
G1 X137.622 Y154.579 E239.80305
G1 X94.552 Y111.509 E243.96043
G1 X94.552 Y112.299 E244.01433
G1 X136.734 Y154.481 E248.08605
G1 X135.847 Y154.384 E248.14699
G1 X94.552 Y113.089 E252.13305
G1 X94.552 Y113.879 E252.18696
G1 X134.960 Y154.286 E256.08737
G1 F1800.000 E255.08737
G92 E0
G1 X125.374 Y145.490 F7200.000
G1 E1.00000 F1800.000
G1 X94.552 Y114.668 E3.97517 F1080.000
G1 X94.552 Y115.458 E4.02907
G1 X123.526 Y144.431 E6.82581
G1 F1800.000 E5.82581
G92 E0
G1 X121.677 Y143.373 F7200.000
G1 E1.00000 F1800.000
G1 X94.552 Y116.248 E3.61831 F1080.000
G1 X94.552 Y117.037 E3.67221
G1 X118.453 Y140.939 E5.97932
G1 F1800.000 E4.97932
G92 E0
G1 X114.351 Y137.625 F7200.000
G1 E1.00000 F1800.000
G1 X94.552 Y117.827 E2.91108 F1080.000
G1 X94.552 Y118.617 E2.96498
G1 X113.560 Y137.624 E4.79969
G1 X112.768 Y137.623 E4.85369
G1 X94.552 Y119.407 E6.61203
G1 X94.552 Y120.196 E6.66593
G1 X111.977 Y137.621 E8.34791
G1 X111.186 Y137.620 E8.40191
G1 X94.552 Y120.986 E10.00753
G1 X94.552 Y121.776 E10.06143
G1 X110.395 Y137.618 E11.59068
G1 X109.604 Y137.617 E11.64467
G1 X94.552 Y122.565 E13.09756
G1 X94.552 Y123.355 E13.15146
G1 X108.813 Y137.616 E14.52797
G1 X108.022 Y137.614 E14.58197
G1 X94.552 Y124.145 E15.88212
G1 X94.552 Y124.935 E15.93603
G1 X107.231 Y137.613 E17.15981
G1 X106.439 Y137.611 E17.21381
G1 X94.552 Y125.724 E18.36123
G1 X94.552 Y126.514 E18.41513
G1 X105.648 Y137.610 E19.48618
G1 X104.857 Y137.608 E19.54018
G1 X94.552 Y127.304 E20.53487
G1 X94.552 Y128.093 E20.58877
G1 X104.066 Y137.607 E21.50709
G1 X103.275 Y137.606 E21.56109
G1 X94.552 Y128.883 E22.40305
G1 X94.552 Y129.673 E22.45695
G1 X102.484 Y137.604 E23.22254
G1 X101.693 Y137.603 E23.27654
G1 X94.552 Y130.463 E23.96576
G1 X94.552 Y131.252 E24.01966
G1 X100.901 Y137.601 E24.63252
G1 X100.110 Y137.600 E24.68652
G1 X94.552 Y132.042 E25.22301
G1 X94.552 Y132.832 E25.27692
G1 X99.319 Y137.599 E25.73704
G1 X98.528 Y137.597 E25.79104
G1 X94.552 Y133.621 E26.17480
G1 X94.552 Y134.411 E26.22870
G1 X97.737 Y137.596 E26.53610
G1 X96.946 Y137.594 E26.59010
G1 X94.552 Y135.201 E26.82113
G1 X94.552 Y135.991 E26.87503
G1 X96.155 Y137.593 E27.02969
G1 X95.364 Y137.591 E27.08369
G1 X94.552 Y136.780 E27.16199
G1 X94.552 Y137.570 E27.21589
G1 X94.572 Y137.590 E27.21783
G1 F1800.000 E26.21783
G92 E0
G1 X121.944 Y123.897 F7200.000
G1 E1.00000 F1800.000
G1 X94.552 Y96.505 E3.64406 F1080.000
