; generated by Slic3r 1.0.0RC3 on 2014-03-12 at 09:53:41

; layer_height = 0.2
; perimeters = 3
; top_solid_layers = 3
; bottom_solid_layers = 3
; fill_density = 1
; perimeter_speed = 60
; infill_speed = 60
; travel_speed = 120
; nozzle_diameter = 0.4
; filament_diameter = 1.75
; extrusion_multiplier = 0.98
; perimeters extrusion width = 0.40mm
; infill extrusion width = 0.67mm
; solid infill extrusion width = 0.67mm
; top infill extrusion width = 0.67mm
; first layer extrusion width = 0.60mm

G21 ; set units to millimeters
M107
M104 S220 ; set temperature
G28 ; home all axes
M106 S255;
G1 Z200 F1200 ; lift nozzle
M109 S220 ; wait for temperature to be reached
G90 ; use absolute coordinates
G92 E0
M82 ; use absolute distances for extrusion
G1 F1800.000 E-1.00000
G92 E0
G1 Z0.300 F7200.000
G1 X127.363 Y91.143 F7200.000
G1 E1.00000 F1800.000
G1 X129.813 Y87.763 E1.28426 F1080.000
G1 X130.243 Y87.233 E1.33073
G1 X130.733 Y86.743 E1.37791
G1 X133.843 Y83.943 E1.66286
G1 X134.383 Y83.503 E1.71029
G1 X134.963 Y83.133 E1.75714
G1 X138.593 Y81.043 E2.04236
G1 X139.193 Y80.733 E2.08834
G1 X139.823 Y80.493 E2.13425
G1 X143.793 Y79.193 E2.41870
G1 X144.463 Y79.013 E2.46594
G1 X145.163 Y78.903 E2.51419
G1 X149.323 Y78.473 E2.79896
G1 X149.993 Y78.433 E2.84467
G1 X150.663 Y78.473 E2.89037
G1 X154.823 Y78.903 E3.17514
G1 X155.513 Y79.013 E3.22272
G1 X156.193 Y79.193 E3.27062
G1 X160.173 Y80.493 E3.55571
G1 X160.803 Y80.733 E3.60162
G1 X161.413 Y81.043 E3.64821
G1 X165.033 Y83.133 E3.93284
G1 X165.603 Y83.513 E3.97949
G1 X166.143 Y83.943 E4.02649
G1 X169.253 Y86.743 E4.31144
G1 X169.733 Y87.223 E4.35766
G1 X170.163 Y87.753 E4.40413
G1 X172.623 Y91.133 E4.68879
G1 X173.003 Y91.713 E4.73601
G1 X173.313 Y92.323 E4.78260
G1 X175.013 Y96.143 E5.06731
G1 X175.263 Y96.783 E5.11409
G1 X175.433 Y97.453 E5.16116
G1 X176.303 Y101.543 E5.44589
G1 X176.413 Y102.213 E5.49212
G1 X176.453 Y102.903 E5.53918
G1 X176.453 Y107.083 E5.82381
G1 X176.413 Y107.773 E5.87087
G1 X176.303 Y108.443 E5.91710
G1 X175.433 Y112.533 E6.20183
G1 X175.263 Y113.193 E6.24824
G1 X175.013 Y113.833 E6.29503
G1 X173.313 Y117.663 E6.58036
G1 X173.003 Y118.283 E6.62756
G1 X172.623 Y118.863 E6.67477
G1 X170.163 Y122.243 E6.95943
G1 X169.733 Y122.773 E7.00590
G1 X169.253 Y123.253 E7.05212
G1 X166.143 Y126.053 E7.33707
G1 X165.603 Y126.483 E7.38408
G1 X165.033 Y126.863 E7.43072
G1 X161.413 Y128.953 E7.71535
G1 X160.793 Y129.263 E7.76255
G1 X160.153 Y129.513 E7.80934
G1 X156.173 Y130.803 E8.09422
G1 X155.513 Y130.973 E8.14063
G1 X154.843 Y131.083 E8.18687
G1 X150.683 Y131.523 E8.47171
G1 X149.993 Y131.563 E8.51877
G1 X149.303 Y131.523 E8.56583
G1 X145.143 Y131.083 E8.85068
G1 X144.463 Y130.973 E8.89758
G1 X143.803 Y130.803 E8.94399
G1 X139.833 Y129.513 E9.22823
G1 X139.203 Y129.263 E9.27438
G1 X138.593 Y128.953 E9.32098
G1 X134.963 Y126.863 E9.60619
G1 X134.383 Y126.493 E9.65304
G1 X133.843 Y126.053 E9.70047
G1 X130.733 Y123.253 E9.98542
G1 X130.243 Y122.763 E10.03260
G1 X129.813 Y122.233 E10.07908
G1 X127.363 Y118.853 E10.36333
G1 X126.983 Y118.263 E10.41112
G1 X126.663 Y117.633 E10.45923
G1 X124.983 Y113.833 E10.74214
G1 X124.733 Y113.193 E10.78893
G1 X124.563 Y112.533 E10.83534
G1 X123.693 Y108.443 E11.12007
G1 X123.583 Y107.773 E11.16630
G1 X123.543 Y107.083 E11.21336
G1 X123.543 Y102.903 E11.49799
G1 X123.583 Y102.213 E11.54505
G1 X123.693 Y101.543 E11.59128
G1 X124.563 Y97.453 E11.87601
G1 X124.733 Y96.783 E11.92308
G1 X124.983 Y96.143 E11.96987
G1 X126.683 Y92.323 E12.25457
G1 X126.993 Y91.723 E12.30056
G1 X127.318 Y91.213 E12.34172
G1 F1800.000 E11.34172
G92 E0
G1 X147.886 Y88.462 F7200.000
G1 E1.00000 F1800.000
G1 X148.038 Y87.700 E1.05290 F540.000
G1 X148.469 Y87.054 E1.10581
G1 X149.115 Y86.623 E1.15870
G1 X149.877 Y86.471 E1.21161
G1 X150.639 Y86.623 E1.26451
G1 X151.285 Y87.054 E1.31741
G1 X151.717 Y87.700 E1.37032
G1 X151.868 Y88.462 E1.42322
G1 X151.717 Y89.224 E1.47612
G1 X151.285 Y89.870 E1.52902
G1 X150.639 Y90.302 E1.58192
G1 X149.877 Y90.453 E1.63482
G1 X149.115 Y90.302 E1.68773
G1 X148.469 Y89.870 E1.74062
G1 X148.038 Y89.224 E1.79353
G1 X147.902 Y88.544 E1.84074
G1 X148.454 Y88.462 F7200.000
G1 X148.562 Y87.918 E1.87855 F540.000
G1 X148.871 Y87.456 E1.91636
G1 X149.333 Y87.147 E1.95417
G1 X149.877 Y87.039 E1.99199
G1 X150.422 Y87.147 E2.02980
G1 X150.884 Y87.456 E2.06761
G1 X151.192 Y87.918 E2.10542
G1 X151.300 Y88.462 E2.14323
G1 X151.192 Y89.007 E2.18104
G1 X150.884 Y89.469 E2.21885
G1 X150.422 Y89.777 E2.25666
G1 X149.877 Y89.885 E2.29447
G1 X149.333 Y89.777 E2.33229
G1 X148.871 Y89.469 E2.37009
G1 X148.562 Y89.007 E2.40791
G1 X148.470 Y88.544 E2.44003
G1 X147.992 Y88.154 F7200.000
G1 F1800.000 E1.44003
G92 E0
G1 X165.068 Y103.653 F7200.000
G1 E1.00000 F1800.000
G1 X165.714 Y103.221 E1.05290 F540.000
G1 X166.476 Y103.070 E1.10580
G1 X167.238 Y103.221 E1.15870
G1 X167.884 Y103.653 E1.21161
G1 X168.315 Y104.299 E1.26451
G1 X168.467 Y105.061 E1.31741
G1 X168.315 Y105.823 E1.37032
G1 X167.884 Y106.469 E1.42322
G1 X167.238 Y106.900 E1.47612
G1 X166.476 Y107.052 E1.52902
G1 X165.714 Y106.900 E1.58192
G1 X165.068 Y106.469 E1.63482
G1 X164.636 Y105.823 E1.68772
G1 X164.485 Y105.061 E1.74062
G1 X164.636 Y104.299 E1.79353
G1 X165.021 Y103.722 E1.84074
G1 X165.469 Y104.054 F7200.000
G1 X165.931 Y103.746 E1.87855 F540.000
G1 X166.476 Y103.638 E1.91636
G1 X167.020 Y103.746 E1.95417
G1 X167.482 Y104.054 E1.99198
G1 X167.791 Y104.516 E2.02979
G1 X167.899 Y105.061 E2.06760
G1 X167.791 Y105.605 E2.10542
G1 X167.482 Y106.067 E2.14323
G1 X167.020 Y106.376 E2.18104
G1 X166.476 Y106.484 E2.21885
G1 X165.931 Y106.376 E2.25666
G1 X165.469 Y106.067 E2.29447
G1 X165.161 Y105.605 E2.33228
G1 X165.053 Y105.061 E2.37009
G1 X165.161 Y104.516 E2.40791
G1 X165.423 Y104.124 E2.44003
G1 X165.361 Y103.510 F7200.000
G1 F1800.000 E1.44003
G92 E0
G1 X135.670 Y105.061 F7200.000
G1 E1.00000 F1800.000
G1 X135.518 Y105.823 E1.05290 F540.000
G1 X135.087 Y106.469 E1.10580
G1 X134.441 Y106.900 E1.15871
G1 X133.679 Y107.052 E1.21160
G1 X132.917 Y106.900 E1.26451
G1 X132.271 Y106.469 E1.31741
G1 X131.839 Y105.823 E1.37031
G1 X131.688 Y105.061 E1.42321
G1 X131.839 Y104.299 E1.47611
G1 X132.271 Y103.653 E1.52902
G1 X132.917 Y103.221 E1.58192
G1 X133.679 Y103.070 E1.63482
G1 X134.441 Y103.221 E1.68772
G1 X135.087 Y103.653 E1.74062
G1 X135.518 Y104.299 E1.79353
G1 X135.654 Y104.979 E1.84074
G1 X135.102 Y105.061 F7200.000
G1 X134.994 Y105.605 E1.87855 F540.000
G1 X134.685 Y106.067 E1.91636
G1 X134.223 Y106.376 E1.95417
G1 X133.679 Y106.484 E1.99198
G1 X133.134 Y106.376 E2.02979
G1 X132.673 Y106.067 E2.06760
G1 X132.364 Y105.605 E2.10542
G1 X132.256 Y105.061 E2.14323
G1 X132.364 Y104.516 E2.18104
G1 X132.673 Y104.054 E2.21885
G1 X133.134 Y103.746 E2.25666
G1 X133.679 Y103.638 E2.29447
G1 X134.223 Y103.746 E2.33228
G1 X134.685 Y104.054 E2.37009
G1 X134.994 Y104.516 E2.40791
G1 X135.086 Y104.979 E2.44003
G1 X135.564 Y105.369 F7200.000
G1 F1800.000 E1.44003
G92 E0
G1 X142.770 Y106.147 F7200.000
G1 E1.00000 F1800.000
G1 X143.575 Y106.147 E1.05480 F1080.000
G1 X143.477 Y105.686 E1.08690
G1 X143.477 Y104.314 E1.18026
G1 X143.762 Y102.973 E1.27363
G1 X144.320 Y101.721 E1.36699
G1 X145.126 Y100.611 E1.46036
G1 X146.145 Y99.694 E1.55372
G1 X147.127 Y99.127 E1.63093
G1 X147.332 Y99.008 E1.64709
G1 X148.636 Y98.585 E1.74045
G1 X150.000 Y98.441 E1.83381
G1 X151.364 Y98.585 E1.92718
G1 X152.668 Y99.008 E2.02055
G1 X153.855 Y99.694 E2.11391
G1 X154.874 Y100.611 E2.20727
G1 X155.680 Y101.721 E2.30064
G1 X156.238 Y102.973 E2.39401
G1 X156.523 Y104.314 E2.48737
G1 X156.523 Y105.686 E2.58074
G1 X156.238 Y107.027 E2.67410
G1 X155.680 Y108.279 E2.76746
G1 X154.874 Y109.389 E2.86083
G1 X153.855 Y110.306 E2.95419
G1 X152.668 Y110.992 E3.04756
G1 X151.364 Y111.415 E3.14092
G1 X150.000 Y111.559 E3.23429
G1 X148.636 Y111.415 E3.32765
G1 X147.332 Y110.992 E3.42102
G1 X146.145 Y110.306 E3.51439
G1 X145.126 Y109.389 E3.60775
G1 X142.820 Y106.214 E3.87493
G1 X143.864 Y106.704 F7200.000
G1 X144.263 Y106.704 E3.90212 F540.000
G1 X144.034 Y105.627 E3.97708
G1 X144.034 Y104.373 E4.06247
G1 X144.295 Y103.146 E4.14786
G1 X144.805 Y102.001 E4.23325
G1 X145.542 Y100.986 E4.31864
G1 X146.474 Y100.147 E4.40403
G1 X147.560 Y99.520 E4.48942
G1 X148.753 Y99.132 E4.57482
G1 X150.000 Y99.001 E4.66020
G1 X151.247 Y99.132 E4.74560
G1 X152.440 Y99.520 E4.83099
G1 X153.371 Y100.058 E4.90421
G1 X153.526 Y100.147 E4.91638
G1 X154.458 Y100.986 E5.00177
G1 X155.195 Y102.001 E5.08716
G1 X155.705 Y103.146 E5.17255
G1 X155.966 Y104.373 E5.25794
G1 X155.966 Y105.627 E5.34333
G1 X155.705 Y106.854 E5.42873
G1 X155.195 Y107.999 E5.51412
G1 X154.458 Y109.014 E5.59951
G1 X153.526 Y109.853 E5.68490
G1 X152.440 Y110.480 E5.77029
G1 X151.247 Y110.868 E5.85568
G1 X150.000 Y110.999 E5.94107
G1 X148.753 Y110.868 E6.02646
G1 X147.560 Y110.480 E6.11185
G1 X146.474 Y109.853 E6.19725
G1 X145.542 Y109.014 E6.28264
G1 X143.913 Y106.771 E6.47138
G1 X144.828 Y106.681 F7200.000
G1 X144.591 Y105.568 E6.54880 F540.000
G1 X144.591 Y104.432 E6.62622
G1 X144.828 Y103.319 E6.70363
G1 X145.290 Y102.281 E6.78105
G1 X145.958 Y101.361 E6.85847
G1 X146.714 Y100.681 E6.92771
G1 X146.803 Y100.600 E6.93588
G1 X147.788 Y100.032 E7.01330
G1 X148.869 Y99.680 E7.09072
G1 X150.000 Y99.562 E7.16814
G1 X151.131 Y99.680 E7.24555
G1 X152.212 Y100.032 E7.32297
G1 X153.197 Y100.600 E7.40039
G1 X154.042 Y101.361 E7.47781
G1 X154.710 Y102.281 E7.55522
G1 X155.172 Y103.319 E7.63264
G1 X155.409 Y104.432 E7.71006
G1 X155.409 Y105.568 E7.78747
G1 X155.172 Y106.681 E7.86489
G1 X154.710 Y107.719 E7.94231
G1 X154.042 Y108.639 E8.01973
G1 X153.197 Y109.400 E8.09714
G1 X152.212 Y109.968 E8.17456
G1 X151.131 Y110.320 E8.25198
G1 X150.000 Y110.438 E8.32940
G1 X148.869 Y110.320 E8.40681
G1 X147.788 Y109.968 E8.48423
G1 X146.803 Y109.400 E8.56165
G1 X145.958 Y108.639 E8.63907
G1 X144.957 Y107.261 E8.75506
G1 X145.086 Y107.261 E8.76385
G1 X144.862 Y106.757 E8.80141
G1 X144.287 Y106.546 F7200.000
G1 F1800.000 E7.80141
G92 E0
G1 X149.115 Y119.686 F7200.000
G1 E1.00000 F1800.000
G1 X149.877 Y119.535 E1.05291 F540.000
G1 X150.639 Y119.686 E1.10580
G1 X151.285 Y120.118 E1.15871
G1 X151.717 Y120.764 E1.21161
G1 X151.868 Y121.526 E1.26451
G1 X151.717 Y122.288 E1.31741
G1 X151.285 Y122.934 E1.37032
G1 X150.639 Y123.365 E1.42322
G1 X149.877 Y123.517 E1.47612
G1 X149.115 Y123.365 E1.52902
G1 X148.469 Y122.934 E1.58192
G1 X148.038 Y122.288 E1.63482
G1 X147.886 Y121.526 E1.68772
G1 X148.038 Y120.764 E1.74063
G1 X148.469 Y120.118 E1.79353
G1 X149.046 Y119.733 E1.84074
G1 X149.333 Y120.211 F7200.000
G1 X149.877 Y120.103 E1.87855 F540.000
G1 X150.422 Y120.211 E1.91636
G1 X150.884 Y120.520 E1.95417
G1 X151.192 Y120.981 E1.99198
G1 X151.300 Y121.526 E2.02979
G1 X151.192 Y122.071 E2.06760
G1 X150.884 Y122.532 E2.10542
G1 X150.422 Y122.841 E2.14323
G1 X149.877 Y122.949 E2.18104
G1 X149.333 Y122.841 E2.21885
G1 X148.871 Y122.532 E2.25666
G1 X148.562 Y122.071 E2.29447
G1 X148.454 Y121.526 E2.33228
G1 X148.562 Y120.981 E2.37009
G1 X148.871 Y120.520 E2.40790
G1 X149.263 Y120.257 E2.44002
G1 X149.441 Y119.666 F7200.000
G1 X149.192 Y119.103 F7200.000
G1 X148.898 Y119.162 E2.46045 F1080.000
G1 X148.068 Y119.716 E2.52844
G1 X147.513 Y120.547 E2.59643
G1 X147.318 Y121.526 E2.66443
G1 X147.513 Y122.505 E2.73242
G1 X148.101 Y123.385 E2.80444
G1 X146.136 Y123.178 E2.93895
G1 X142.441 Y121.978 E3.20350
G1 X139.076 Y120.035 E3.46805
G1 X136.189 Y117.435 E3.73260
G1 X133.905 Y114.292 E3.99716
G1 X132.325 Y110.743 E4.26171
G1 X131.441 Y106.584 E4.55120
G1 X132.699 Y107.425 E4.65424
G1 X133.679 Y107.620 E4.72223
G1 X134.658 Y107.425 E4.79022
G1 X135.488 Y106.870 E4.85822
G1 X136.043 Y106.040 E4.92621
G1 X136.238 Y105.061 E4.99420
G1 X136.043 Y104.081 E5.06219
G1 X135.488 Y103.251 E5.13019
G1 X134.658 Y102.696 E5.19818
G1 X133.679 Y102.502 E5.26617
G1 X132.699 Y102.696 E5.33416
G1 X131.411 Y103.557 E5.43967
G1 X132.325 Y99.257 E5.73903
G1 X133.905 Y95.708 E6.00358
G1 X136.189 Y92.565 E6.26813
G1 X139.076 Y89.965 E6.53269
G1 X142.441 Y88.022 E6.79724
G1 X146.136 Y86.822 E7.06179
G1 X148.092 Y86.616 E7.19572
G1 X147.513 Y87.483 E7.26671
G1 X147.318 Y88.462 E7.33471
G1 X147.513 Y89.442 E7.40270
G1 X148.068 Y90.272 E7.47069
G1 X148.898 Y90.827 E7.53868
G1 X149.877 Y91.021 E7.60667
G1 X150.857 Y90.827 E7.67466
G1 X151.687 Y90.272 E7.74266
G1 X152.242 Y89.442 E7.81065
G1 X152.436 Y88.462 E7.87864
G1 X152.242 Y87.483 E7.94663
G1 X151.644 Y86.588 E8.01990
G1 X153.864 Y86.822 E8.17190
G1 X157.559 Y88.022 E8.43645
G1 X160.924 Y89.965 E8.70100
G1 X163.811 Y92.565 E8.96555
G1 X166.095 Y95.708 E9.23010
G1 X167.675 Y99.257 E9.49466
G1 X168.563 Y103.437 E9.78562
G1 X167.455 Y102.696 E9.87637
G1 X166.476 Y102.502 E9.94437
G1 X165.496 Y102.696 E10.01236
G1 X164.666 Y103.251 E10.08035
G1 X164.111 Y104.081 E10.14834
G1 X163.917 Y105.061 E10.21634
G1 X164.111 Y106.040 E10.28433
G1 X164.666 Y106.870 E10.35232
G1 X165.496 Y107.425 E10.42031
G1 X166.476 Y107.620 E10.48830
G1 X167.455 Y107.425 E10.55630
G1 X168.533 Y106.705 E10.64458
G1 X167.675 Y110.743 E10.92569
G1 X166.095 Y114.292 E11.19024
G1 X163.811 Y117.435 E11.45479
G1 X160.924 Y120.035 E11.71934
G1 X157.559 Y121.978 E11.98390
G1 X153.864 Y123.178 E12.24845
G1 X151.635 Y123.412 E12.40103
G1 X152.242 Y122.505 E12.47533
G1 X152.436 Y121.526 E12.54332
G1 X152.242 Y120.547 E12.61131
G1 X151.687 Y119.716 E12.67930
G1 X150.857 Y119.162 E12.74730
G1 X149.877 Y118.967 E12.81529
G1 X149.274 Y119.087 E12.85717
G1 F1800.000 E11.85717
G92 E0
G1 X149.917 Y124.136 F7200.000
G1 E1.00000 F1800.000
G1 X146.020 Y123.726 E1.26684 F1080.000
G1 X142.213 Y122.489 E1.53936
G1 X138.747 Y120.488 E1.81189
G1 X135.773 Y117.810 E2.08442
G1 X133.420 Y114.572 E2.35694
G1 X131.792 Y110.916 E2.62947
G1 X130.960 Y107.001 E2.90199
G1 X130.960 Y102.999 E3.17452
G1 X131.792 Y99.084 E3.44705
G1 X133.420 Y95.428 E3.71957
G1 X135.773 Y92.190 E3.99210
G1 X138.747 Y89.512 E4.26463
G1 X142.213 Y87.511 E4.53715
G1 X146.020 Y86.274 E4.80968
G1 X150.000 Y85.855 E5.08221
G1 X153.980 Y86.274 E5.35473
G1 X157.787 Y87.511 E5.62726
G1 X161.253 Y89.512 E5.89978
G1 X164.227 Y92.190 E6.17231
G1 X166.580 Y95.428 E6.44484
G1 X168.208 Y99.084 E6.71736
G1 X169.040 Y102.999 E6.98989
G1 X169.040 Y107.001 E7.26242
G1 X168.208 Y110.916 E7.53494
G1 X166.580 Y114.572 E7.80747
G1 X164.227 Y117.810 E8.07999
G1 X161.253 Y120.488 E8.35252
G1 X157.787 Y122.489 E8.62505
G1 X153.980 Y123.726 E8.89757
G1 X150.000 Y124.145 E9.17009
G1 X150.000 Y124.705 F7200.000
G1 X145.903 Y124.274 E9.45059 F540.000
G1 X141.985 Y123.001 E9.73109
G1 X138.418 Y120.941 E10.01159
G1 X135.357 Y118.185 E10.29209
G1 X132.935 Y114.852 E10.57259
G1 X131.260 Y111.089 E10.85309
G1 X130.403 Y107.060 E11.13359
G1 X130.403 Y102.940 E11.41409
G1 X131.260 Y98.911 E11.69459
G1 X132.935 Y95.148 E11.97509
G1 X135.357 Y91.815 E12.25559
G1 X138.418 Y89.059 E12.53609
G1 X141.985 Y86.999 E12.81659
G1 X145.903 Y85.726 E13.09709
G1 X150.000 Y85.295 E13.37759
G1 X154.097 Y85.726 E13.65809
G1 X158.015 Y86.999 E13.93859
G1 X161.582 Y89.059 E14.21909
G1 X164.643 Y91.815 E14.49959
G1 X167.065 Y95.148 E14.78009
G1 X168.740 Y98.911 E15.06059
G1 X169.597 Y102.940 E15.34109
G1 X169.597 Y107.060 E15.62159
G1 X168.740 Y111.089 E15.90209
G1 X167.065 Y114.852 E16.18259
G1 X164.643 Y118.185 E16.46309
G1 X161.582 Y120.941 E16.74359
G1 X158.015 Y123.001 E17.02409
G1 X154.097 Y124.274 E17.30459
G1 X150.083 Y124.696 E17.57940
G1 X149.738 Y124.213 F7200.000
G1 F1800.000 E16.57940
G92 E0
G1 X152.520 Y122.923 F7200.000
G1 E1.00000 F1800.000
G1 X152.469 Y122.873 E1.00486 F1080.000
G1 X152.684 Y122.298 E1.04677
G1 X153.235 Y122.848 E1.09990
G1 X153.922 Y122.745 E1.14733
G1 X152.815 Y121.639 E1.25413
G1 X152.676 Y120.709 E1.31833
G1 X154.518 Y122.552 E1.49620
G1 F1800.000 E0.49620
G92 E0
G1 X157.483 Y121.567 F7200.000
G1 E1.00000 F1800.000
G1 X147.317 Y111.401 E1.98159 F1080.000
G1 X148.487 Y111.781 E2.06559
G1 X157.984 Y121.278 E2.98255
G1 X158.484 Y120.989 E3.02203
G1 X149.386 Y111.890 E3.90052
G1 X150.218 Y111.932 E3.95737
G1 X158.985 Y120.699 E4.80392
G1 X159.486 Y120.410 E4.84340
G1 X150.932 Y111.857 E5.66928
