; generated by Slic3r 1.0.0RC2 on 2014-05-19 at 18:31:03

; layer_height = 0.3
; perimeters = 4
; top_solid_layers = 3
; bottom_solid_layers = 3
; fill_density = 0.1
; perimeter_speed = 60
; infill_speed = 60
; travel_speed = 120
; nozzle_diameter = 0.4
; filament_diameter = 1.75
; extrusion_multiplier = 0.98
; perimeters extrusion width = 0.40mm
; infill extrusion width = 0.42mm
; solid infill extrusion width = 0.42mm
; top infill extrusion width = 0.42mm
; first layer extrusion width = 0.80mm

G21 ; set units to millimeters
M107
M104 S220 ; set temperature
G28 ; home all axes
M106 S255;
G1 Z200 F1200 ; lift nozzle
M109 S220 ; wait for temperature to be reached
G90 ; use absolute coordinates
G92 E0
M82 ; use absolute distances for extrusion
G1 F1800.000 E-1.00000
G92 E0
G1 Z0.400 F7200.000
G1 X103.497 Y65.296 F7200.000
G1 E1.00000 F1800.000
G1 X104.527 Y64.246 E1.17119 F1080.000
G1 X121.687 Y50.156 E3.75545
G1 X122.947 Y49.336 E3.93042
G1 X124.357 Y48.826 E4.10494
G1 X137.927 Y45.406 E5.73374
G1 X138.987 Y45.226 E5.85887
G1 X140.067 Y45.216 E5.98458
G1 X191.907 Y49.056 E12.03476
G1 X193.317 Y49.316 E12.20164
G1 X194.637 Y49.866 E12.36808
G1 X195.817 Y50.696 E12.53599
G1 X196.787 Y51.746 E12.70237
G1 X197.517 Y52.976 E12.86884
G1 X197.967 Y54.336 E13.03557
G1 X198.117 Y55.766 E13.20292
G1 X198.017 Y115.426 E20.14675
G1 X197.917 Y140.586 E23.07514
G1 X197.757 Y142.046 E23.24609
G1 X197.267 Y143.436 E23.41763
G1 X196.497 Y144.696 E23.58950
G1 X195.467 Y145.746 E23.76069
G1 X178.297 Y159.836 E26.34584
G1 X177.057 Y160.646 E26.51823
G1 X175.677 Y161.156 E26.68947
G1 X162.057 Y164.586 E28.32419
G1 X160.997 Y164.766 E28.44933
G1 X159.917 Y164.776 E28.57504
G1 X108.087 Y160.936 E34.62406
G1 X106.677 Y160.676 E34.79094
G1 X105.357 Y160.126 E34.95737
G1 X104.177 Y159.296 E35.12529
G1 X103.207 Y158.246 E35.29166
G1 X102.477 Y157.016 E35.45814
G1 X102.027 Y155.656 E35.62487
G1 X101.877 Y154.226 E35.79222
G1 X101.967 Y94.566 E42.73604
G1 X102.077 Y69.406 E45.66444
G1 X102.237 Y67.946 E45.83539
G1 X102.727 Y66.556 E46.00693
G1 X103.442 Y65.387 E46.16633
G1 F1800.000 E45.16633
G92 E0
G1 X172.906 Y88.010 F7200.000
G1 E1.00000 F1800.000
G1 X173.916 Y85.494 E1.31549 F1080.000
G1 X178.091 Y86.306 E1.81058
G1 X177.977 Y129.444 E6.83138
G1 X162.594 Y120.132 E8.92431
G1 X162.594 Y113.706 E9.67222
G1 X172.867 Y88.109 E12.88241
G1 X173.569 Y88.276 F7200.000
G1 X174.359 Y86.308 E13.12920 F1080.000
G1 X177.376 Y86.895 E13.48691
G1 X177.266 Y128.179 E18.29199
G1 X163.308 Y119.729 E20.19105
G1 X163.308 Y113.844 E20.87605
G1 X173.529 Y88.375 E24.07019
G1 X174.232 Y88.542 F7200.000
G1 X174.802 Y87.121 E24.24829 F1080.000
G1 X176.660 Y87.483 E24.46861
G1 X176.556 Y126.914 E29.05797
G1 X164.022 Y119.327 E30.76315
G1 X164.022 Y113.982 E31.38525
G1 X174.192 Y88.641 E34.56333
G1 X174.895 Y88.808 F7200.000
G1 X175.245 Y87.935 E34.67274 F756.000
G1 X175.944 Y88.071 E34.75567
G1 X175.845 Y125.649 E39.12931
G1 X164.736 Y118.924 E40.64063
G1 X164.736 Y114.120 E41.19983
G1 X174.855 Y88.907 E44.36185
G1 X174.454 Y88.246 F7200.000
G1 F1800.000 E43.36185
G92 E0
G1 X162.852 Y129.592 F7200.000
G1 E1.00000 F1800.000
G1 X166.333 Y131.918 E1.48727 F1080.000
G1 X168.659 Y135.399 E1.97454
G1 X169.475 Y139.505 E2.46180
G1 X168.659 Y143.611 E2.94907
G1 X166.333 Y147.092 E3.43634
G1 X162.852 Y149.418 E3.92361
G1 X158.746 Y150.234 E4.41088
G1 X154.640 Y149.418 E4.89815
G1 X151.159 Y147.092 E5.38542
G1 X148.833 Y143.611 E5.87269
G1 X148.016 Y139.505 E6.35997
G1 X148.833 Y135.398 E6.84723
G1 X151.159 Y131.918 E7.33450
G1 X154.640 Y129.592 E7.82177
G1 X158.746 Y128.775 E8.30904
G1 X162.747 Y129.571 E8.78384
G1 X162.573 Y130.264 F7200.000
G1 X165.818 Y132.432 E9.23804 F1080.000
G1 X167.986 Y135.677 E9.69225
G1 X168.747 Y139.505 E10.14644
G1 X167.986 Y143.332 E10.60065
G1 X165.818 Y146.577 E11.05485
G1 X162.573 Y148.745 E11.50905
G1 X158.746 Y149.506 E11.96325
G1 X154.918 Y148.745 E12.41745
G1 X151.673 Y146.577 E12.87166
G1 X149.505 Y143.332 E13.32586
G1 X148.744 Y139.505 E13.78006
G1 X149.505 Y135.677 E14.23426
G1 X151.673 Y132.432 E14.68846
G1 X154.918 Y130.264 E15.14267
G1 X158.746 Y129.503 E15.59687
G1 X162.468 Y130.243 E16.03860
G1 X162.294 Y130.937 F7200.000
G1 X165.303 Y132.947 E16.45974 F1080.000
G1 X167.313 Y135.956 E16.88087
G1 X168.019 Y139.505 E17.30200
G1 X167.313 Y143.053 E17.72314
G1 X165.303 Y146.062 E18.14427
G1 X162.294 Y148.072 E18.56541
G1 X158.746 Y148.778 E18.98654
G1 X155.197 Y148.072 E19.40767
G1 X152.188 Y146.062 E19.82881
G1 X150.178 Y143.053 E20.24994
G1 X149.472 Y139.505 E20.67108
G1 X150.178 Y135.956 E21.09221
G1 X152.188 Y132.947 E21.51335
G1 X155.197 Y130.937 E21.93448
G1 X158.746 Y130.231 E22.35562
G1 X162.189 Y130.916 E22.76428
G1 X162.016 Y131.610 F7200.000
G1 X164.788 Y133.462 E23.15235 F756.000
G1 X166.640 Y136.234 E23.54042
G1 X167.291 Y139.505 E23.92848
G1 X166.640 Y142.775 E24.31655
G1 X164.788 Y145.547 E24.70462
G1 X162.016 Y147.399 E25.09268
G1 X158.746 Y148.050 E25.48075
G1 X155.475 Y147.399 E25.86881
G1 X152.703 Y145.547 E26.25688
G1 X150.851 Y142.775 E26.64495
G1 X150.200 Y139.505 E27.03302
G1 X150.851 Y136.234 E27.42108
G1 X152.703 Y133.462 E27.80915
G1 X155.475 Y131.610 E28.19722
G1 X158.746 Y130.959 E28.58528
G1 X161.911 Y131.589 E28.96088
G1 X162.610 Y131.213 F7200.000
G1 X146.358 Y121.832 F7200.000
G1 X155.655 Y112.706 E30.47722 F1080.000
G1 X165.514 Y90.164 E33.34079
G1 X168.966 Y81.177 E34.46130
G1 X176.902 Y58.305 E37.27903
G1 X183.949 Y58.305 E38.09932
G1 X183.900 Y79.959 E40.61963
G1 X188.812 Y77.103 E41.28092
G1 X188.770 Y99.900 E43.93421
G1 X183.839 Y97.225 E44.58712
G1 X183.833 Y121.464 E47.40834
G1 X188.757 Y118.512 E48.07653
G1 X188.673 Y139.358 E50.50280
G1 X172.872 Y152.323 E52.88179
G1 X160.364 Y155.478 E54.38317
G1 X147.087 Y152.794 E55.95975
G1 X140.044 Y141.917 E57.46785
G1 X140.823 Y131.156 E58.72364
G1 X146.303 Y121.924 E59.97318
G1 X145.791 Y121.388 F7200.000
G1 X155.056 Y112.293 E61.48425 F1080.000
G1 X164.853 Y89.893 E64.32984
G1 X168.295 Y80.932 E65.44710
G1 X176.394 Y57.591 E68.32261
G1 X184.665 Y57.591 E69.28534
G1 X184.617 Y78.716 E71.74410
G1 X189.528 Y75.861 E72.40531
G1 X189.482 Y101.099 E75.34276
G1 X184.553 Y98.425 E75.99542
G1 X184.548 Y120.203 E78.53022
G1 X189.477 Y117.247 E79.19926
G1 X189.386 Y139.697 E81.81219
G1 X173.201 Y152.977 E84.24891
G1 X160.381 Y156.210 E85.78774
G1 X146.650 Y153.434 E87.41818
G1 X139.315 Y142.105 E88.98913
G1 X140.123 Y130.936 E90.29239
G1 X145.736 Y121.480 E91.57236
G1 X171.148 Y96.532 F7200.000
G1 X185.804 Y56.763 F7200.000
G1 X186.150 Y57.867 F7200.000
G1 X186.220 Y57.591 E91.60548 F540.000
G1 X189.565 Y57.592 E91.99484
G1 X189.543 Y59.693 E92.23946
G1 X186.244 Y57.918 E92.67541
G1 X185.378 Y58.263 F7200.000
G1 X185.334 Y77.473 E94.91134 F1080.000
G1 X189.342 Y75.143 E95.45098
G1 X190.244 Y75.144 E95.55590
G1 X190.195 Y101.831 E98.66201
G1 X189.332 Y101.830 E98.76243
G1 X185.267 Y99.624 E99.30072
G1 X185.262 Y118.942 E101.54908
G1 X189.319 Y116.509 E102.09967
G1 X190.195 Y116.510 E102.20167
G1 X190.099 Y140.035 E104.93980
G1 X173.531 Y153.630 E107.43423
G1 X160.398 Y156.942 E109.01053
G1 X146.214 Y154.075 E110.69482
G1 X138.585 Y142.292 E112.32862
G1 X139.423 Y130.717 E113.67936
G1 X145.225 Y120.943 E115.00223
G1 X154.457 Y111.880 E116.50804
G1 X164.192 Y89.621 E119.33565
G1 X167.624 Y80.687 E120.44965
G1 X175.885 Y56.877 E123.38295
G1 X190.287 Y56.877 E125.05910
G1 X190.249 Y60.424 E125.47195
G1 X189.393 Y60.423 E125.57165
G1 X185.472 Y58.314 E126.08984
G1 X186.089 Y59.457 F7200.000
G1 X186.051 Y76.230 E128.04214 F756.000
G1 X189.150 Y74.428 E128.45937
G1 X190.959 Y74.430 E128.66993
G1 X190.908 Y102.546 E131.94228
G1 X189.151 Y102.544 E132.14681
G1 X185.981 Y100.824 E132.56652
G1 X185.977 Y117.681 E134.52847
G1 X189.122 Y115.795 E134.95530
G1 X190.913 Y115.797 E135.16383
G1 X190.812 Y140.374 E138.02443
G1 X173.665 Y154.443 E140.60589
G1 X173.665 Y154.333 E140.61877
G1 X160.416 Y157.674 E142.20917
G1 X145.778 Y154.715 E143.94731
G1 X137.855 Y142.479 E145.64395
G1 X138.723 Y130.497 E147.04216
G1 X144.658 Y120.499 E148.39548
G1 X153.858 Y111.467 E149.89602
G1 X163.531 Y89.350 E152.70565
G1 X166.954 Y80.441 E153.81640
G1 X175.377 Y56.163 E156.80747
G1 X191.008 Y56.163 E158.62677
G1 X190.956 Y61.139 E159.20595
G1 X189.212 Y61.137 E159.40889
G1 X186.184 Y59.507 E159.80921
G1 X185.385 Y59.339 F7200.000
G1 X183.395 Y58.787 F7200.000
G1 X183.466 Y58.859 E159.82099 F1080.000
G1 X183.464 Y59.869 E159.93875
G1 X182.383 Y58.787 E160.11706
G1 X181.371 Y58.787 E160.23509
G1 X183.462 Y60.878 E160.57994
G1 X183.459 Y61.888 E160.69769
G1 X180.359 Y58.787 E161.20907
G1 X179.347 Y58.787 E161.32710
G1 X183.457 Y62.898 E162.00502
G1 X183.455 Y63.907 E162.12277
G1 X178.335 Y58.787 E162.96723
G1 X177.322 Y58.787 E163.08525
G1 X183.452 Y64.917 E164.09624
G1 X183.450 Y65.927 E164.21399
G1 X177.004 Y59.481 E165.27714
G1 X176.743 Y60.232 E165.36988
G1 X183.448 Y66.936 E166.47563
G1 X183.445 Y67.946 E166.59339
G1 X176.483 Y60.983 E167.74175
G1 X176.222 Y61.734 E167.83450
G1 X183.443 Y68.956 E169.02548
G1 X183.441 Y69.965 E169.14323
G1 X175.961 Y62.486 E170.37683
G1 X175.701 Y63.237 E170.46957
G1 X183.439 Y70.975 E171.74578
G1 X183.436 Y71.985 E171.86353
G1 X175.440 Y63.988 E173.18235
G1 X175.179 Y64.740 E173.27510
G1 X183.434 Y72.994 E174.63653
G1 X183.432 Y74.004 E174.75429
G1 X174.919 Y65.491 E176.15833
G1 X174.658 Y66.242 E176.25108
G1 X183.429 Y75.014 E177.69774
G1 X183.427 Y76.024 E177.81549
G1 X174.397 Y66.994 E179.30477
G1 X174.137 Y67.745 E179.39751
G1 X183.425 Y77.033 E180.92940
G1 X183.423 Y78.043 E181.04715
G1 X173.876 Y68.496 E182.62166
G1 X173.615 Y69.248 E182.71440
G1 X183.420 Y79.053 E184.33152
G1 X188.327 Y78.899 F7200.000
G1 X187.722 Y78.295 E184.43120 F1080.000
G1 X187.082 Y78.667 E184.51753
G1 X188.325 Y79.909 E184.72245
G1 X188.323 Y80.919 E184.84026
G1 X186.442 Y79.039 E185.15041
G1 X185.802 Y79.411 E185.23674
G1 X188.321 Y81.929 E185.65212
G1 X188.319 Y82.940 E185.76993
G1 X185.163 Y79.783 E186.29055
G1 X184.523 Y80.155 E186.37688
G1 X188.317 Y83.950 E187.00273
G1 X188.315 Y84.960 E187.12054
G1 X173.355 Y69.999 E189.58801
G1 X173.094 Y70.750 E189.68076
G1 X188.314 Y85.970 E192.19092
G1 X188.312 Y86.980 E192.30873
G1 X172.833 Y71.502 E194.86158
G1 X172.573 Y72.253 E194.95433
G1 X188.310 Y87.990 E197.54987
G1 X188.308 Y89.000 E197.66767
G1 X172.312 Y73.004 E200.30591
G1 X172.051 Y73.756 E200.39865
G1 X188.306 Y90.011 E203.07957
G1 X188.304 Y91.021 E203.19737
G1 X171.791 Y74.507 E205.92098
G1 X171.530 Y75.258 E206.01373
G1 X188.303 Y92.031 E208.78002
G1 X188.301 Y93.041 E208.89783
G1 X171.269 Y76.009 E211.70681
G1 X171.009 Y76.761 E211.79956
G1 X188.299 Y94.051 E214.65123
G1 X188.292 Y98.092 F7200.000
G1 X178.568 Y88.368 E216.25492 F1080.000
G1 X178.565 Y89.377 E216.37263
G1 X188.266 Y99.078 E217.97252
G1 X188.293 Y97.082 E218.20538
G1 X178.571 Y87.359 E219.80893
G1 X178.573 Y86.350 E219.92664
G1 X188.295 Y96.071 E221.53005
G1 X188.297 Y95.061 E221.64786
G1 X170.748 Y77.512 E224.54222
G1 X170.487 Y78.263 E224.63496
G1 X178.026 Y85.803 E225.87841
G1 X176.770 Y85.558 E226.02768
G1 X170.226 Y79.015 E227.10690
G1 X169.966 Y79.766 E227.19965
G1 X175.514 Y85.314 E228.11464
G1 X174.257 Y85.069 E228.26391
G1 X169.705 Y80.517 E229.01468
G1 X169.444 Y81.269 E229.10742
G1 X173.475 Y85.299 E229.77216
G1 X173.185 Y86.021 E229.86290
G1 X169.166 Y82.002 E230.52583
G1 X168.885 Y82.733 E230.61717
G1 X172.895 Y86.743 E231.27863
G1 X172.605 Y87.466 E231.36938
G1 X168.604 Y83.464 E232.02936
G1 X168.323 Y84.195 E232.12069
G1 X172.316 Y88.188 E232.77920
G1 X172.026 Y88.910 E232.86995
G1 X168.042 Y84.926 E233.52698
G1 X167.761 Y85.657 E233.61831
G1 X171.736 Y89.632 E234.27387
G1 X171.446 Y90.354 E234.36462
G1 X167.480 Y86.388 E235.01869
G1 X167.199 Y87.120 E235.11003
G1 X171.156 Y91.076 E235.76264
G1 X170.867 Y91.799 E235.85339
G1 X166.919 Y87.851 E236.50451
G1 X166.638 Y88.582 E236.59585
G1 X170.577 Y92.521 E237.24550
G1 X170.287 Y93.243 E237.33625
G1 X166.357 Y89.313 E237.98443
G1 X166.076 Y90.044 E238.07577
G1 X169.997 Y93.965 E238.72247
G1 X169.707 Y94.687 E238.81322
G1 X165.779 Y90.759 E239.46106
G1 X165.471 Y91.463 E239.55068
G1 X169.417 Y95.409 E240.20150
G1 X169.128 Y96.132 E240.29225
G1 X165.163 Y92.167 E240.94606
G1 X164.856 Y92.871 E241.03568
G1 X168.838 Y96.854 E241.69247
G1 X168.548 Y97.576 E241.78322
G1 X164.548 Y93.576 E242.44300
G1 X164.240 Y94.280 E242.53262
G1 X168.258 Y98.298 E243.19538
G1 X167.968 Y99.020 E243.28613
G1 X163.932 Y94.984 E243.95188
G1 X163.624 Y95.688 E244.04150
G1 X167.679 Y99.742 E244.71023
G1 X167.389 Y100.465 E244.80098
G1 X163.316 Y96.392 E245.47270
G1 X163.008 Y97.096 E245.56232
G1 X167.099 Y101.187 E246.23703
G1 X166.809 Y101.909 E246.32778
G1 X162.700 Y97.800 E247.00547
G1 X162.392 Y98.504 E247.09508
G1 X166.519 Y102.631 E247.77576
G1 X166.229 Y103.353 E247.86651
G1 X162.084 Y99.208 E248.55017
G1 X161.776 Y99.912 E248.63979
G1 X165.940 Y104.075 E249.32643
G1 X165.650 Y104.798 E249.41718
G1 X161.468 Y100.616 E250.10681
G1 X161.160 Y101.320 E250.19643
G1 X165.360 Y105.520 E250.88905
G1 X165.070 Y106.242 E250.97980
G1 X160.853 Y102.024 E251.67540
G1 X160.545 Y102.728 E251.76502
G1 X164.780 Y106.964 E252.46360
G1 X164.491 Y107.686 E252.55435
G1 X160.237 Y103.432 E253.25592
G1 X159.929 Y104.137 E253.34554
G1 X164.201 Y108.408 E254.05010
G1 X163.911 Y109.131 E254.14084
G1 X159.621 Y104.841 E254.84839
G1 X159.313 Y105.545 E254.93800
G1 X163.621 Y109.853 E255.64853
G1 X163.331 Y110.575 E255.73928
G1 X159.005 Y106.249 E256.45279
G1 X158.697 Y106.953 E256.54241
G1 X163.041 Y111.297 E257.25891
G1 X162.752 Y112.019 E257.34966
G1 X158.389 Y107.657 E258.06914
G1 X158.081 Y108.361 E258.15876
G1 X162.462 Y112.741 E258.88122
G1 X162.172 Y113.464 E258.97197
G1 X157.773 Y109.065 E259.69742
G1 X157.465 Y109.769 E259.78704
G1 X162.112 Y114.416 E260.55339
G1 X162.112 Y115.428 E260.67141
G1 X157.158 Y110.473 E261.48855
G1 X156.850 Y111.177 E261.57817
G1 X162.112 Y116.440 E262.44609
G1 X162.112 Y117.452 E262.56411
G1 X156.542 Y111.881 E263.48281
G1 X156.234 Y112.585 E263.57243
G1 X162.112 Y118.464 E264.54192
G1 X162.112 Y119.476 E264.65993
G1 X155.838 Y113.201 E265.69470
G1 X151.242 Y117.713 F7200.000
G1 X162.573 Y129.045 E267.56361 F1080.000
G1 X161.310 Y128.794 E267.71382
G1 X150.731 Y118.214 E269.45861
G1 X150.220 Y118.716 E269.54207
G1 X160.047 Y128.542 E271.16274
G1 X158.784 Y128.291 E271.31295
G1 X149.710 Y119.217 E272.80950
G1 X149.199 Y119.718 E272.89295
G1 X157.927 Y128.446 E274.33243
G1 X157.083 Y128.614 E274.43280
G1 X148.688 Y120.220 E275.81729
G1 X148.178 Y120.721 E275.90074
G1 X156.239 Y128.782 E277.23025
G1 X155.395 Y128.950 E277.33062
G1 X147.667 Y121.222 E278.60513
G1 X147.156 Y121.724 E278.68859
G1 X154.551 Y129.118 E279.90812
G1 X153.916 Y129.495 E279.99422
G1 X146.670 Y122.250 E281.18924
G1 X146.293 Y122.885 E281.27536
G1 X153.309 Y129.901 E282.43249
G1 X152.703 Y130.306 E282.51758
G1 X145.916 Y123.520 E283.63683
G1 X145.540 Y124.155 E283.72296
G1 X152.096 Y130.711 E284.80433
G1 X151.490 Y131.117 E284.88942
G1 X145.163 Y124.790 E285.93291
G1 X144.786 Y125.425 E286.01903
G1 X150.883 Y131.522 E287.02464
G1 X150.454 Y132.105 E287.10905
G1 X144.409 Y126.060 E288.10604
G1 X144.032 Y126.695 E288.19217
G1 X150.048 Y132.712 E289.18448
G1 X149.643 Y133.318 E289.26957
G1 X143.655 Y127.330 E290.25720
G1 X143.278 Y127.965 E290.34332
G1 X149.238 Y133.925 E291.32627
G1 X148.832 Y134.531 E291.41136
G1 X142.901 Y128.600 E292.38962
G1 X142.524 Y129.235 E292.47575
G1 X148.427 Y135.138 E293.44933
G1 X148.231 Y135.954 E293.54718
G1 X142.147 Y129.870 E294.55057
G1 X141.770 Y130.505 E294.63670
G1 X148.063 Y136.798 E295.67457
G1 X147.895 Y137.642 E295.77494
G1 X141.393 Y131.140 E296.84729
G1 X141.245 Y132.004 E296.94951
G1 X147.727 Y138.486 E298.01858
G1 X147.559 Y139.330 E298.11895
G1 X141.177 Y132.948 E299.17160
G1 X141.108 Y133.891 E299.28195
G1 X147.724 Y140.507 E300.37302
G1 X147.975 Y141.770 E300.52323
G1 X141.040 Y134.835 E301.66702
G1 X140.972 Y135.779 E301.77736
G1 X148.226 Y143.033 E302.97386
G1 X149.182 Y145.001 F7200.000
