; generated by Slic3r 1.0.0RC3 on 2014-03-11 at 20:23:13

; layer_height = 0.3
; perimeters = 2
; top_solid_layers = 3
; bottom_solid_layers = 3
; fill_density = 0.1
; perimeter_speed = 60
; infill_speed = 60
; travel_speed = 120
; nozzle_diameter = 0.4
; filament_diameter = 1.75
; extrusion_multiplier = 0.98
; perimeters extrusion width = 0.40mm
; infill extrusion width = 0.42mm
; solid infill extrusion width = 0.42mm
; top infill extrusion width = 0.42mm
; support material extrusion width = 0.40mm
; first layer extrusion width = 0.60mm

G21 ; set units to millimeters
M107
M104 S220 ; set temperature
G28 ; home all axes
M106 S255;
G1 Z200 F1200 ; lift nozzle
M109 S220 ; wait for temperature to be reached
G90 ; use absolute coordinates
G92 E0
M82 ; use absolute distances for extrusion
G1 F1800.000 E-1.00000
G92 E0
G1 Z0.300 F7200.000
G1 X100.703 Y86.152 F7200.000
G1 E1.00000 F1800.000
G1 X101.603 Y85.132 E1.09263 F1080.000
G1 X102.693 Y84.332 E1.18469
G1 X124.523 Y71.422 E2.91163
G1 X126.133 Y70.742 E3.03064
G1 X127.863 Y70.502 E3.14957
G1 X137.353 Y70.502 E3.79576
G1 X137.943 Y70.532 E3.83599
G1 X138.533 Y70.612 E3.87653
G1 X188.683 Y79.762 E7.34774
G1 X189.773 Y80.062 E7.42472
G1 X190.803 Y80.542 E7.50210
G1 X197.263 Y84.302 E8.01106
G1 X198.363 Y85.112 E8.10407
G1 X199.273 Y86.132 E8.19715
G1 X199.953 Y87.312 E8.28989
G1 X200.373 Y88.612 E8.38291
G1 X200.523 Y89.972 E8.47608
G1 X200.523 Y120.752 E10.57196
G1 X200.383 Y122.102 E10.66438
G1 X199.963 Y123.402 E10.75741
G1 X199.283 Y124.582 E10.85014
G1 X198.373 Y125.602 E10.94322
G1 X197.283 Y126.412 E11.03569
G1 X190.823 Y130.202 E11.54568
G1 X189.733 Y130.712 E11.62763
G1 X188.563 Y131.012 E11.70987
G1 X138.323 Y139.232 E15.17632
G1 X137.263 Y139.322 E15.24876
G1 X127.933 Y139.322 E15.88406
G1 X126.343 Y139.122 E15.99318
G1 X124.853 Y138.552 E16.10181
G1 X109.393 Y130.332 E17.29407
G1 X102.703 Y126.402 E17.82239
G1 X101.613 Y125.592 E17.91486
G1 X100.713 Y124.582 E18.00698
G1 X100.033 Y123.402 E18.09971
G1 X99.613 Y122.102 E18.19274
G1 X99.473 Y120.752 E18.28516
G1 X99.473 Y89.972 E20.38104
G1 X99.613 Y88.622 E20.47346
G1 X100.033 Y87.332 E20.56584
G1 X100.662 Y86.225 E20.65254
G1 F1800.000 E19.65254
G92 E0
G1 X109.567 Y93.794 F7200.000
G1 E1.00000 F1800.000
G1 X110.035 Y93.423 E1.04072 F540.000
G1 X110.568 Y93.149 E1.08149
G1 X111.143 Y92.980 E1.12229
G1 X111.740 Y92.924 E1.16311
G1 X112.336 Y92.980 E1.20394
G1 X112.911 Y93.149 E1.24474
G1 X113.444 Y93.423 E1.28551
G1 X113.912 Y93.794 E1.32622
G1 X114.300 Y94.249 E1.36690
G1 X114.589 Y94.771 E1.40754
G1 X114.768 Y95.340 E1.44814
G1 X114.828 Y95.933 E1.48873
G1 X114.768 Y96.526 E1.52932
G1 X114.589 Y97.095 E1.56992
G1 X114.300 Y97.617 E1.61056
G1 X113.912 Y98.072 E1.65124
G1 X113.444 Y98.443 E1.69196
G1 X112.911 Y98.718 E1.73272
G1 X112.336 Y98.886 E1.77352
G1 X111.740 Y98.943 E1.81435
G1 X111.143 Y98.886 E1.85517
G1 X110.568 Y98.718 E1.89597
G1 X110.035 Y98.443 E1.93674
G1 X109.567 Y98.072 E1.97747
G1 X109.180 Y97.617 E2.01814
G1 X108.890 Y97.095 E2.05878
G1 X108.711 Y96.526 E2.09937
G1 X108.651 Y95.933 E2.13997
G1 X108.711 Y95.340 E2.18056
G1 X108.890 Y94.771 E2.22116
G1 X109.179 Y94.249 E2.26180
G1 X109.512 Y93.858 E2.29679
G1 X109.931 Y94.226 F7200.000
G1 X110.339 Y93.893 E2.33264 F540.000
G1 X110.775 Y93.668 E2.36608
G1 X111.248 Y93.530 E2.39963
G1 X111.740 Y93.483 E2.43324
G1 X112.231 Y93.530 E2.46685
G1 X112.704 Y93.668 E2.50039
G1 X113.140 Y93.893 E2.53384
G1 X113.524 Y94.197 E2.56714
G1 X113.839 Y94.568 E2.60029
G1 X114.074 Y94.992 E2.63331
G1 X114.219 Y95.453 E2.66622
G1 X114.268 Y95.933 E2.69908
G1 X114.219 Y96.413 E2.73194
G1 X114.074 Y96.874 E2.76485
G1 X113.839 Y97.298 E2.79786
G1 X113.524 Y97.669 E2.83102
G1 X113.140 Y97.973 E2.86433
G1 X112.704 Y98.198 E2.89777
G1 X112.231 Y98.336 E2.93131
G1 X111.739 Y98.383 E2.96492
G1 X111.248 Y98.336 E2.99852
G1 X110.775 Y98.198 E3.03207
G1 X110.339 Y97.973 E3.06552
G1 X109.955 Y97.669 E3.09882
G1 X109.640 Y97.298 E3.13198
G1 X109.405 Y96.874 E3.16500
G1 X109.260 Y96.413 E3.19791
G1 X109.211 Y95.933 E3.23076
G1 X109.260 Y95.453 E3.26362
G1 X109.405 Y94.992 E3.29653
G1 X109.640 Y94.568 E3.32955
G1 X109.876 Y94.290 E3.35442
G1 X109.815 Y93.712 F7200.000
G1 F1800.000 E2.35442
G92 E0
G1 X185.198 Y95.937 F7200.000
G1 E1.00000 F1800.000
G1 X185.259 Y95.337 E1.04108 F540.000
G1 X185.440 Y94.761 E1.08216
G1 X185.733 Y94.233 E1.12328
G1 X186.125 Y93.773 E1.16444
G1 X186.599 Y93.397 E1.20565
G1 X187.138 Y93.119 E1.24691
G1 X187.720 Y92.949 E1.28820
G1 X188.324 Y92.891 E1.32953
G1 X188.928 Y92.949 E1.37085
G1 X189.510 Y93.119 E1.41214
G1 X190.049 Y93.397 E1.45340
G1 X190.523 Y93.773 E1.49462
G1 X190.915 Y94.233 E1.53578
G1 X191.208 Y94.761 E1.57690
G1 X191.388 Y95.337 E1.61798
G1 X191.450 Y95.937 E1.65905
G1 X191.388 Y96.537 E1.70013
G1 X191.208 Y97.112 E1.74120
G1 X190.915 Y97.641 E1.78232
G1 X190.523 Y98.101 E1.82348
G1 X190.049 Y98.477 E1.86469
G1 X189.510 Y98.754 E1.90596
G1 X188.928 Y98.925 E1.94725
G1 X188.324 Y98.982 E1.98857
G1 X187.720 Y98.925 E2.02989
G1 X187.138 Y98.754 E2.07119
G1 X186.599 Y98.477 E2.11244
G1 X186.125 Y98.101 E2.15366
G1 X185.733 Y97.641 E2.19482
G1 X185.440 Y97.112 E2.23594
G1 X185.259 Y96.537 E2.27702
G1 X185.207 Y96.020 E2.31239
G1 X185.758 Y95.937 F7200.000
G1 X185.808 Y95.450 E2.34573 F540.000
G1 X185.955 Y94.982 E2.37912
G1 X186.193 Y94.552 E2.41263
G1 X186.513 Y94.175 E2.44627
G1 X186.903 Y93.867 E2.48006
G1 X187.346 Y93.639 E2.51400
G1 X187.825 Y93.498 E2.54804
G1 X188.324 Y93.451 E2.58214
G1 X188.823 Y93.498 E2.61624
G1 X189.302 Y93.639 E2.65028
G1 X189.745 Y93.867 E2.68422
G1 X190.134 Y94.175 E2.71801
G1 X190.455 Y94.552 E2.75166
G1 X190.693 Y94.982 E2.78516
G1 X190.840 Y95.450 E2.81855
G1 X190.890 Y95.937 E2.85188
G1 X190.840 Y96.424 E2.88522
G1 X190.693 Y96.892 E2.91861
G1 X190.454 Y97.322 E2.95211
G1 X190.134 Y97.698 E2.98575
G1 X189.745 Y98.006 E3.01955
G1 X189.302 Y98.235 E3.05348
G1 X188.822 Y98.375 E3.08753
G1 X188.324 Y98.423 E3.12163
G1 X187.825 Y98.375 E3.15573
G1 X187.345 Y98.235 E3.18978
G1 X186.903 Y98.006 E3.22370
G1 X186.513 Y97.698 E3.25750
G1 X186.193 Y97.322 E3.29114
G1 X185.955 Y96.892 E3.32464
G1 X185.808 Y96.424 E3.35804
G1 X185.767 Y96.020 E3.38568
G1 X185.343 Y95.678 F7200.000
G1 F1800.000 E2.38568
G92 E0
G1 X187.664 Y112.574 F7200.000
G1 E1.00000 F1800.000
G1 X188.261 Y112.518 E1.04082 F540.000
G1 X188.857 Y112.574 E1.08164
G1 X189.432 Y112.743 E1.12245
G1 X189.965 Y113.017 E1.16321
G1 X190.433 Y113.388 E1.20394
G1 X190.821 Y113.843 E1.24461
G1 X191.110 Y114.365 E1.28525
G1 X191.289 Y114.934 E1.32585
G1 X191.349 Y115.527 E1.36644
G1 X191.289 Y116.120 E1.40702
G1 X191.110 Y116.689 E1.44763
G1 X190.821 Y117.211 E1.48827
G1 X190.433 Y117.666 E1.52895
G1 X189.965 Y118.037 E1.56967
G1 X189.432 Y118.312 E1.61043
G1 X188.857 Y118.480 E1.65123
G1 X188.261 Y118.537 E1.69205
G1 X187.664 Y118.480 E1.73288
G1 X187.088 Y118.312 E1.77369
G1 X186.556 Y118.037 E1.81446
G1 X186.088 Y117.666 E1.85517
G1 X185.700 Y117.211 E1.89585
G1 X185.411 Y116.689 E1.93649
G1 X185.232 Y116.120 E1.97709
G1 X185.172 Y115.527 E2.01768
G1 X185.232 Y114.934 E2.05826
G1 X185.411 Y114.365 E2.09887
G1 X185.700 Y113.843 E2.13950
G1 X186.088 Y113.388 E2.18018
G1 X186.556 Y113.017 E2.22090
G1 X187.089 Y112.743 E2.26167
G1 X187.584 Y112.598 E2.29679
G1 X187.733 Y113.135 F7200.000
G1 X188.261 Y113.077 E2.33289 F540.000
G1 X188.752 Y113.124 E2.36650
G1 X189.225 Y113.262 E2.40004
G1 X189.661 Y113.488 E2.43349
G1 X190.045 Y113.791 E2.46679
G1 X190.360 Y114.162 E2.49995
G1 X190.595 Y114.586 E2.53297
G1 X190.740 Y115.047 E2.56588
G1 X190.789 Y115.527 E2.59873
G1 X190.740 Y116.007 E2.63159
G1 X190.595 Y116.468 E2.66450
G1 X190.360 Y116.892 E2.69752
G1 X190.045 Y117.263 E2.73067
G1 X189.661 Y117.567 E2.76398
G1 X189.225 Y117.792 E2.79742
G1 X188.752 Y117.930 E2.83097
G1 X188.260 Y117.977 E2.86457
G1 X187.769 Y117.930 E2.89818
G1 X187.296 Y117.792 E2.93173
G1 X186.860 Y117.567 E2.96517
G1 X186.476 Y117.263 E2.99847
G1 X186.161 Y116.892 E3.03163
G1 X185.926 Y116.468 E3.06465
G1 X185.781 Y116.007 E3.09756
G1 X185.732 Y115.527 E3.13042
G1 X185.781 Y115.047 E3.16327
G1 X185.926 Y114.586 E3.19618
G1 X186.161 Y114.162 E3.22920
G1 X186.476 Y113.791 E3.26236
G1 X186.860 Y113.487 E3.29566
G1 X187.296 Y113.262 E3.32910
G1 X187.653 Y113.158 E3.35442
G1 X187.919 Y112.638 F7200.000
G1 F1800.000 E2.35442
G92 E0
G1 X114.802 Y115.524 F7200.000
G1 E1.00000 F1800.000
G1 X114.741 Y116.124 E1.04107 F540.000
G1 X114.560 Y116.699 E1.08215
G1 X114.267 Y117.227 E1.12327
G1 X113.875 Y117.688 E1.16443
G1 X113.401 Y118.063 E1.20564
G1 X112.862 Y118.341 E1.24690
G1 X112.280 Y118.512 E1.28820
G1 X111.676 Y118.569 E1.32952
G1 X111.072 Y118.512 E1.37083
G1 X110.490 Y118.341 E1.41214
G1 X109.951 Y118.063 E1.45339
G1 X109.477 Y117.688 E1.49460
G1 X109.085 Y117.227 E1.53577
G1 X108.792 Y116.699 E1.57689
G1 X108.612 Y116.124 E1.61797
G1 X108.550 Y115.524 E1.65904
G1 X108.612 Y114.923 E1.70011
G1 X108.793 Y114.348 E1.74120
G1 X109.085 Y113.820 E1.78231
G1 X109.477 Y113.359 E1.82347
G1 X109.951 Y112.984 E1.86469
G1 X110.490 Y112.706 E1.90594
G1 X111.072 Y112.536 E1.94724
G1 X111.676 Y112.478 E1.98856
G1 X112.280 Y112.536 E2.02989
G1 X112.862 Y112.706 E2.07118
G1 X113.401 Y112.984 E2.11244
G1 X113.875 Y113.359 E2.15365
G1 X114.267 Y113.820 E2.19481
G1 X114.560 Y114.348 E2.23592
G1 X114.741 Y114.924 E2.27702
G1 X114.793 Y115.440 E2.31239
G1 X114.242 Y115.524 F7200.000
G1 X114.192 Y116.011 E2.34573 F540.000
G1 X114.045 Y116.478 E2.37912
G1 X113.807 Y116.909 E2.41262
G1 X113.487 Y117.285 E2.44626
G1 X113.097 Y117.593 E2.48006
G1 X112.654 Y117.822 E2.51399
G1 X112.175 Y117.962 E2.54803
G1 X111.676 Y118.009 E2.58214
G1 X111.178 Y117.962 E2.61624
G1 X110.698 Y117.822 E2.65028
G1 X110.255 Y117.593 E2.68422
G1 X109.866 Y117.285 E2.71801
G1 X109.545 Y116.909 E2.75166
G1 X109.307 Y116.478 E2.78516
G1 X109.160 Y116.011 E2.81855
G1 X109.110 Y115.524 E2.85188
G1 X109.160 Y115.037 E2.88522
G1 X109.307 Y114.569 E2.91861
G1 X109.546 Y114.138 E2.95211
G1 X109.866 Y113.762 E2.98575
G1 X110.255 Y113.454 E3.01955
G1 X110.698 Y113.226 E3.05348
G1 X111.178 Y113.085 E3.08753
G1 X111.676 Y113.038 E3.12162
G1 X112.175 Y113.085 E3.15573
G1 X112.655 Y113.226 E3.18977
G1 X113.097 Y113.454 E3.22370
G1 X113.487 Y113.762 E3.25750
G1 X113.807 Y114.138 E3.29114
G1 X114.045 Y114.569 E3.32464
G1 X114.192 Y115.037 E3.35804
G1 X114.233 Y115.440 E3.38568
G1 X114.657 Y115.783 F7200.000
G1 F1800.000 E2.38568
G92 E0
G1 X115.785 Y110.900 F7200.000
G1 E1.00000 F1800.000
G1 X115.785 Y89.161 E2.48024 F1080.000
G1 X184.165 Y89.123 E7.13640
G1 X184.165 Y121.616 E9.34895
G1 X115.785 Y121.616 E14.00512
G1 X115.785 Y110.983 E14.72910
G1 X116.342 Y110.900 F7200.000
G1 X116.342 Y89.718 E16.17142 F540.000
G1 X183.608 Y89.680 E20.75173
G1 X183.608 Y121.059 E22.88839
G1 X116.342 Y121.059 E27.46869
G1 X116.342 Y110.983 E28.15474
G1 X115.859 Y110.621 F7200.000
G1 F1800.000 E27.15474
G92 E0
G1 X106.890 Y110.500 F7200.000
G1 E1.00000 F1800.000
G1 X106.890 Y90.843 E2.33850 F1080.000
G1 X113.335 Y90.877 E2.77736
G1 X113.334 Y87.072 E3.03642
G1 X186.653 Y87.075 E8.02888
G1 X186.653 Y90.838 E8.28509
G1 X193.110 Y90.838 E8.72476
G1 X193.110 Y119.902 E10.70384
G1 X186.653 Y119.902 E11.14351
G1 X186.653 Y123.694 E11.40171
G1 X113.334 Y123.693 E16.39416
G1 X113.334 Y119.901 E16.65237
G1 X106.890 Y119.902 E17.09114
G1 X106.890 Y110.584 E17.72568
G1 X106.333 Y110.500 F7200.000
G1 X106.333 Y90.283 E19.10233 F540.000
G1 X112.778 Y90.318 E19.54114
G1 X112.777 Y86.515 E19.80010
G1 X187.210 Y86.518 E24.86842
G1 X187.210 Y90.281 E25.12464
G1 X193.667 Y90.281 E25.56431
G1 X193.667 Y120.459 E27.61924
G1 X187.210 Y120.459 E28.05891
G1 X187.210 Y124.251 E28.31712
G1 X112.777 Y124.251 E33.38543
G1 X112.777 Y120.458 E33.64364
G1 X106.333 Y120.460 E34.08241
G1 X106.333 Y110.584 E34.75489
G1 X106.816 Y110.222 F7200.000
G1 F1800.000 E33.75489
G92 E0
G1 X115.357 Y116.984 F7200.000
G1 E1.00000 F1800.000
G1 X115.391 Y117.018 E1.00330 F1080.000
G1 X115.391 Y117.811 E1.05758
G1 X114.993 Y117.412 E1.09616
G1 X114.628 Y117.840 E1.13467
G1 X115.391 Y118.603 E1.20853
G1 X115.391 Y119.395 E1.26281
G1 X114.334 Y118.339 E1.36518
G1 X113.822 Y118.619 E1.40517
G1 X115.391 Y120.188 E1.55717
G1 X115.391 Y120.980 E1.61145
G1 X113.288 Y118.878 E1.81509
G1 X112.766 Y119.148 E1.85538
G1 X113.126 Y119.507 E1.89024
G1 X113.728 Y120.110 F7200.000
G1 X116.918 Y123.300 E2.19922 F1080.000
G1 X116.125 Y123.300 E2.25350
G1 X113.728 Y120.902 E2.48571
G1 X113.728 Y121.695 E2.53999
G1 X115.333 Y123.300 E2.69545
G1 X114.540 Y123.300 E2.74973
G1 X113.728 Y122.487 E2.82843
G1 X113.728 Y123.280 E2.88270
G1 X113.748 Y123.300 E2.88464
G1 F1800.000 E1.88464
G92 E0
G1 X116.420 Y122.010 F7200.000
G1 E1.00000 F1800.000
G1 X117.710 Y123.300 E1.12496 F1080.000
G1 X118.503 Y123.300 E1.17924
G1 X117.212 Y122.010 E1.30421
G1 X118.005 Y122.010 E1.35849
G1 X119.295 Y123.300 E1.48345
G1 X120.088 Y123.300 E1.53773
G1 X118.797 Y122.010 E1.66269
G1 X119.590 Y122.010 E1.71697
G1 X120.880 Y123.300 E1.84194
G1 X121.672 Y123.300 E1.89621
G1 X120.382 Y122.010 E2.02118
G1 X121.175 Y122.010 E2.07546
G1 X122.465 Y123.300 E2.20042
G1 X123.257 Y123.300 E2.25470
G1 X121.967 Y122.010 E2.37966
G1 X122.760 Y122.010 E2.43394
G1 X124.050 Y123.300 E2.55891
G1 X124.842 Y123.300 E2.61319
G1 X123.552 Y122.010 E2.73815
G1 X124.345 Y122.010 E2.79243
G1 X125.635 Y123.300 E2.91739
G1 X126.427 Y123.300 E2.97167
G1 X125.137 Y122.010 E3.09663
G1 X125.930 Y122.010 E3.15091
G1 X127.220 Y123.300 E3.27588
G1 X128.012 Y123.300 E3.33016
G1 X126.722 Y122.010 E3.45512
G1 X127.515 Y122.010 E3.50940
G1 X128.805 Y123.300 E3.63436
G1 X129.597 Y123.300 E3.68864
G1 X128.307 Y122.010 E3.81361
G1 X129.100 Y122.010 E3.86788
G1 X130.390 Y123.300 E3.99285
G1 X131.182 Y123.300 E4.04713
G1 X129.892 Y122.010 E4.17209
G1 X130.684 Y122.010 E4.22637
G1 X131.975 Y123.300 E4.35133
G1 X132.767 Y123.300 E4.40561
G1 X131.477 Y122.010 E4.53058
G1 X132.269 Y122.010 E4.58486
G1 X133.560 Y123.300 E4.70982
G1 X134.352 Y123.300 E4.76410
G1 X133.062 Y122.010 E4.88906
G1 X133.854 Y122.010 E4.94334
G1 X135.144 Y123.300 E5.06831
G1 X135.937 Y123.300 E5.12258
G1 X134.647 Y122.010 E5.24755
G1 X135.439 Y122.010 E5.30183
G1 X136.729 Y123.300 E5.42679
G1 X137.522 Y123.300 E5.48107
G1 X136.232 Y122.010 E5.60603
G1 X137.024 Y122.010 E5.66031
G1 X138.314 Y123.300 E5.78528
G1 X139.107 Y123.300 E5.83956
G1 X137.817 Y122.010 E5.96452
G1 X138.609 Y122.010 E6.01880
G1 X139.899 Y123.300 E6.14376
G1 X140.692 Y123.300 E6.19804
G1 X139.402 Y122.010 E6.32301
G1 X140.194 Y122.010 E6.37729
G1 X141.484 Y123.300 E6.50225
G1 X142.277 Y123.300 E6.55653
G1 X140.987 Y122.010 E6.68149
G1 X141.779 Y122.010 E6.73577
G1 X143.069 Y123.300 E6.86074
G1 X143.862 Y123.300 E6.91501
G1 X142.572 Y122.010 E7.03998
G1 X143.364 Y122.010 E7.09426
G1 X144.654 Y123.300 E7.21922
G1 X145.447 Y123.300 E7.27350
G1 X144.156 Y122.010 E7.39846
G1 X144.949 Y122.010 E7.45274
G1 X146.239 Y123.300 E7.57771
G1 X147.032 Y123.300 E7.63199
G1 X145.741 Y122.010 E7.75695
G1 X146.534 Y122.010 E7.81123
G1 X147.824 Y123.300 E7.93619
G1 X148.616 Y123.300 E7.99047
G1 X147.326 Y122.010 E8.11544
G1 X148.119 Y122.010 E8.16971
G1 X149.409 Y123.300 E8.29468
G1 X150.201 Y123.300 E8.34896
G1 X148.911 Y122.010 E8.47392
G1 X149.704 Y122.010 E8.52820
G1 X150.994 Y123.300 E8.65316
G1 X151.786 Y123.300 E8.70744
G1 X150.496 Y122.010 E8.83241
G1 X151.289 Y122.010 E8.88669
G1 X152.579 Y123.300 E9.01165
G1 X153.371 Y123.300 E9.06593
G1 X152.081 Y122.010 E9.19089
G1 X152.874 Y122.010 E9.24517
G1 X154.164 Y123.300 E9.37014
G1 X154.956 Y123.300 E9.42442
G1 X153.666 Y122.010 E9.54938
G1 X154.459 Y122.010 E9.60366
G1 X155.749 Y123.300 E9.72862
G1 X156.541 Y123.300 E9.78290
G1 X155.251 Y122.010 E9.90787
G1 X156.044 Y122.010 E9.96215
G1 X157.334 Y123.300 E10.08711
G1 X158.126 Y123.300 E10.14139
G1 X156.836 Y122.010 E10.26635
G1 X157.628 Y122.010 E10.32063
G1 X158.919 Y123.300 E10.44560
G1 X159.711 Y123.300 E10.49987
G1 X158.421 Y122.010 E10.62484
G1 X159.213 Y122.010 E10.67912
G1 X160.504 Y123.300 E10.80408
G1 X161.296 Y123.300 E10.85836
