; generated by Slic3r 1.0.0RC2 on 2014-05-19 at 22:58:18

; layer_height = 0.3
; perimeters = 2
; top_solid_layers = 3
; bottom_solid_layers = 3
; fill_density = 0.1
; perimeter_speed = 60
; infill_speed = 60
; travel_speed = 120
; nozzle_diameter = 0.4
; filament_diameter = 1.75
; extrusion_multiplier = 0.98
; perimeters extrusion width = 0.40mm
; infill extrusion width = 0.42mm
; solid infill extrusion width = 0.42mm
; top infill extrusion width = 0.42mm
; first layer extrusion width = 0.80mm

G21 ; set units to millimeters
M107
M104 S220 ; set temperature
G28 ; home all axes
M106 S255;
G1 Z200 F1200 ; lift nozzle
M109 S220 ; wait for temperature to be reached
G90 ; use absolute coordinates
G92 E0
M82 ; use absolute distances for extrusion
G1 F1800.000 E-1.00000
G92 E0
G1 Z0.400 F7200.000
G1 X63.958 Y53.403 F7200.000
G1 E1.00000 F1800.000
G1 X64.968 Y52.423 E1.16380 F1080.000
G1 X66.168 Y51.673 E1.32850
G1 X67.498 Y51.193 E1.49307
G1 X82.728 Y47.433 E3.31891
G1 X83.848 Y47.253 E3.45094
G1 X93.458 Y46.553 E4.57241
G1 X94.118 Y46.533 E4.64926
G1 X223.148 Y46.533 E19.66705
G1 X224.568 Y46.683 E19.83324
G1 X225.918 Y47.133 E19.99886
G1 X227.148 Y47.853 E20.16475
G1 X228.198 Y48.823 E20.33112
G1 X253.868 Y78.143 E24.86676
G1 X254.778 Y79.463 E25.05337
G1 X255.338 Y80.973 E25.24081
G1 X255.528 Y82.563 E25.42719
G1 X255.528 Y87.233 E25.97073
G1 X255.418 Y88.443 E26.11214
G1 X255.098 Y89.613 E26.25332
G1 X241.768 Y124.743 E30.62655
G1 X241.408 Y125.533 E30.72760
G1 X237.158 Y133.463 E31.77477
G1 X236.818 Y134.023 E31.85102
G1 X236.428 Y134.543 E31.92667
G1 X230.728 Y141.503 E32.97374
G1 X230.298 Y141.993 E33.04962
G1 X229.818 Y142.423 E33.12462
G1 X222.868 Y148.173 E34.17449
G1 X222.328 Y148.573 E34.25270
G1 X221.758 Y148.923 E34.33055
G1 X214.018 Y153.063 E35.35218
G1 X213.418 Y153.343 E35.42925
G1 X212.798 Y153.573 E35.50621
G1 X203.978 Y156.243 E36.57878
G1 X203.338 Y156.393 E36.65529
G1 X202.688 Y156.493 E36.73183
G1 X193.498 Y157.403 E37.80668
G1 X96.618 Y163.453 E49.10450
G1 X95.538 Y163.433 E49.23022
G1 X87.738 Y162.663 E50.14248
G1 X86.488 Y162.423 E50.29062
G1 X85.298 Y161.943 E50.43997
G1 X84.228 Y161.243 E50.58879
G1 X63.698 Y144.973 E53.63766
G1 X63.228 Y144.573 E53.70949
G1 X62.808 Y144.123 E53.78113
G1 X57.578 Y138.123 E54.70753
G1 X56.928 Y137.243 E54.83487
G1 X45.508 Y118.763 E57.36330
G1 X44.758 Y117.073 E57.57850
G1 X44.508 Y115.243 E57.79347
G1 X44.468 Y91.723 E60.53097
G1 X44.658 Y90.103 E60.72081
G1 X45.238 Y88.583 E60.91017
G1 X63.168 Y54.583 E65.38397
G1 X63.898 Y53.492 E65.53678
G1 F1800.000 E64.53678
G92 E0
G1 X170.778 Y95.563 F7200.000
G1 E1.00000 F1800.000
G1 X173.009 Y91.389 E1.55078 F1080.000
G1 X176.011 Y87.731 E2.10156
G1 X179.669 Y84.729 E2.65234
G1 X183.842 Y82.498 E3.20312
G1 X188.371 Y81.125 E3.75389
G1 X193.080 Y80.661 E4.30468
G1 X197.790 Y81.125 E4.85548
G1 X202.318 Y82.498 E5.40627
G1 X206.492 Y84.729 E5.95705
G1 X210.150 Y87.731 E6.50782
G1 X213.152 Y91.389 E7.05860
G1 X215.383 Y95.563 E7.60938
G1 X216.756 Y100.091 E8.16010
G1 X217.220 Y104.801 E8.71096
G1 X216.756 Y109.511 E9.26183
G1 X215.383 Y114.038 E9.81249
G1 X213.152 Y118.212 E10.36327
G1 X210.141 Y121.877 E10.91531
G1 X206.492 Y124.871 E11.46471
G1 X202.318 Y127.103 E12.01558
G1 X197.788 Y128.477 E12.56663
G1 X197.552 Y128.499 E12.59415
G1 X188.615 Y128.499 E13.63440
G1 X188.372 Y128.477 E13.66275
G1 X183.843 Y127.103 E14.21365
G1 X179.669 Y124.872 E14.76443
G1 X176.011 Y121.870 E15.31521
G1 X173.009 Y118.212 E15.86599
G1 X170.778 Y114.038 E16.41677
G1 X169.406 Y109.516 E16.96679
G1 X168.940 Y104.801 E17.51830
G1 X169.406 Y100.085 E18.06980
G1 X170.747 Y95.665 E18.60740
G1 X171.441 Y95.837 F7200.000
G1 X173.606 Y91.788 E19.14181 F756.000
G1 X176.518 Y88.239 E19.67622
G1 X180.068 Y85.326 E20.21063
G1 X184.117 Y83.161 E20.74503
G1 X188.511 Y81.828 E21.27943
G1 X193.080 Y81.378 E21.81384
G1 X197.650 Y81.828 E22.34827
G1 X202.044 Y83.161 E22.88268
G1 X206.093 Y85.326 E23.41709
G1 X209.642 Y88.239 E23.95149
G1 X212.555 Y91.788 E24.48590
G1 X214.720 Y95.837 E25.02030
G1 X216.052 Y100.231 E25.55469
G1 X216.502 Y104.801 E26.08914
G1 X216.052 Y109.370 E26.62356
G1 X214.720 Y113.764 E27.15792
G1 X212.555 Y117.813 E27.69233
G1 X209.637 Y121.366 E28.22745
G1 X206.093 Y124.275 E28.76109
G1 X202.044 Y126.440 E29.29553
G1 X197.649 Y127.773 E29.83004
G1 X197.519 Y127.785 E29.84518
G1 X188.511 Y127.773 E30.89363
G1 X184.117 Y126.440 E31.42808
G1 X180.068 Y124.275 E31.96249
G1 X176.519 Y121.362 E32.49689
G1 X173.606 Y117.813 E33.03130
G1 X171.441 Y113.764 E33.56571
G1 X170.109 Y109.372 E34.09984
G1 X169.658 Y104.801 E34.63449
G1 X170.109 Y100.229 E35.16918
G1 X171.410 Y95.940 E35.69086
G1 X171.025 Y95.257 F7200.000
G1 X151.675 Y87.765 F7200.000
G1 X151.706 Y87.663 E35.70326 F1080.000
G1 X155.845 Y79.920 E36.72504
G1 X161.670 Y72.822 E37.79381
G1 X164.865 Y54.357 E39.97491
G1 X222.035 Y54.357 E46.62892
G1 X222.035 Y83.684 E50.04229
G1 X247.708 Y83.684 E53.03035
G1 X247.708 Y86.700 E53.38141
G1 X236.933 Y95.354 E54.98993
G1 X237.863 Y104.800 E56.09468
G1 X237.003 Y113.537 E57.11646
G1 X234.454 Y121.938 E58.13825
G1 X230.316 Y129.680 E59.16003
G1 X224.747 Y136.467 E60.18182
G1 X217.970 Y142.028 E61.20216
G1 X217.890 Y142.120 E61.21631
G1 X210.432 Y146.106 E62.20061
G1 X201.807 Y148.724 E63.24965
G1 X193.080 Y149.583 E64.27029
G1 X184.344 Y148.723 E65.29207
G1 X175.890 Y146.159 E66.32028
G1 X168.102 Y142.007 E67.34752
G1 X161.554 Y136.633 E68.33335
G1 X155.845 Y129.680 E69.38046
G1 X151.706 Y121.938 E70.40225
G1 X149.158 Y113.537 E71.42404
G1 X148.297 Y104.800 E72.44582
G1 X149.158 Y96.064 E73.46761
G1 X151.644 Y87.867 E74.46453
G1 X150.992 Y87.557 F7200.000
G1 X151.043 Y87.388 E74.48511 F756.000
G1 X155.248 Y79.522 E75.52327
G1 X160.999 Y72.515 E76.57830
G1 X164.264 Y53.643 E78.80744
G1 X222.749 Y53.643 E85.61454
G1 X222.749 Y82.970 E89.02791
G1 X248.422 Y82.970 E92.01598
G1 X248.422 Y87.042 E92.49000
G1 X237.682 Y95.669 E94.09338
G1 X238.581 Y104.800 E95.16132
G1 X237.707 Y113.677 E96.19948
G1 X235.117 Y122.213 E97.23764
G1 X230.913 Y130.079 E98.27580
G1 X225.254 Y136.974 E99.31396
G1 X218.470 Y142.542 E100.33547
G1 X218.343 Y142.688 E100.35793
G1 X210.701 Y146.772 E101.36650
G1 X201.954 Y149.427 E102.43046
G1 X193.080 Y150.301 E103.46820
G1 X184.204 Y149.427 E104.50636
G1 X175.616 Y146.822 E105.55088
G1 X167.873 Y142.683 E106.57275
G1 X167.755 Y142.646 E106.58710
G1 X161.053 Y137.146 E107.59621
G1 X155.248 Y130.079 E108.66063
G1 X151.043 Y122.213 E109.69879
G1 X148.454 Y113.677 E110.73695
G1 X147.580 Y104.800 E111.77510
G1 X148.454 Y95.924 E112.81326
G1 X150.961 Y87.660 E113.81837
G1 X151.164 Y87.517 F7200.000
G1 X170.356 Y114.271 F7200.000
G1 X150.240 Y94.155 E117.14356 F1080.000
G1 X150.477 Y93.377 E117.23861
G1 X169.899 Y112.799 E120.44918
G1 X169.457 Y111.343 E120.62702
G1 X150.713 Y92.599 E123.72556
G1 X150.949 Y91.820 E123.82061
G1 X169.015 Y109.887 E126.80712
G1 X168.841 Y108.699 E126.94750
G1 X151.185 Y91.042 E129.86621
G1 X151.421 Y90.264 E129.96127
G1 X168.730 Y107.573 E132.82256
G1 X168.619 Y106.448 E132.95477
G1 X151.657 Y89.486 E135.75864
G1 X151.893 Y88.708 E135.85369
G1 X168.508 Y105.322 E138.60014
G1 X168.505 Y104.305 E138.71902
G1 X152.129 Y87.929 E141.42600
G1 X152.470 Y87.256 E141.51421
G1 X168.596 Y103.382 E144.17983
G1 X168.687 Y102.458 E144.28828
G1 X152.823 Y86.595 E146.91053
G1 X153.177 Y85.934 E146.99813
G1 X168.777 Y101.535 E149.57700
G1 X168.868 Y100.612 E149.68545
G1 X153.530 Y85.273 E152.22094
G1 X153.883 Y84.612 E152.30854
G1 X169.008 Y99.737 E154.80876
G1 X169.244 Y98.959 E154.90382
G1 X154.237 Y83.951 E157.38466
G1 X154.590 Y83.290 E157.47227
G1 X169.480 Y98.181 E159.93373
G1 X169.717 Y97.403 E160.02879
G1 X154.943 Y82.629 E162.47087
G1 X155.296 Y81.968 E162.55848
G1 X169.953 Y96.624 E164.98118
G1 X170.189 Y95.846 E165.07624
G1 X155.650 Y81.307 E167.47956
G1 X156.003 Y80.646 E167.56717
G1 X170.471 Y95.115 E169.95882
G1 X170.825 Y94.454 E170.04642
G1 X156.388 Y80.017 E172.43277
G1 X156.846 Y79.460 E172.51701
G1 X171.178 Y93.793 E174.88618
G1 X171.531 Y93.132 E174.97379
G1 X157.303 Y78.903 E177.32579
G1 X157.760 Y78.346 E177.41003
G1 X171.885 Y92.471 E179.74486
G1 X172.238 Y91.810 E179.83246
G1 X158.217 Y77.789 E182.15011
G1 X158.674 Y77.232 E182.23435
G1 X172.591 Y91.149 E184.53483
G1 X173.044 Y90.587 E184.61915
G1 X159.132 Y76.675 E186.91889
G1 X159.589 Y76.118 E187.00313
G1 X173.501 Y90.030 E189.30287
G1 X173.958 Y89.473 E189.38710
G1 X160.046 Y75.561 E191.68685
G1 X160.503 Y75.003 E191.77108
G1 X174.415 Y88.916 E194.07082
G1 X174.873 Y88.359 E194.15506
G1 X160.960 Y74.446 E196.45480
G1 X161.418 Y73.889 E196.53904
G1 X175.330 Y87.802 E198.83878
G1 X175.813 Y87.270 E198.92271
G1 X161.875 Y73.332 E201.22672
G1 X162.192 Y72.635 E201.31627
G1 X176.370 Y86.813 E203.66001
G1 X176.927 Y86.356 E203.74425
G1 X162.341 Y71.770 E206.15535
G1 X162.491 Y70.905 E206.25793
G1 X177.484 Y85.899 E208.73639
G1 X178.041 Y85.442 E208.82063
G1 X162.640 Y70.041 E211.36645
G1 X162.790 Y69.176 E211.46902
G1 X178.598 Y84.984 E214.08220
G1 X179.156 Y84.527 E214.16644
G1 X162.940 Y68.311 E216.84697
G1 X163.089 Y67.447 E216.94955
G1 X179.771 Y84.128 E219.70708
G1 X180.432 Y83.775 E219.79468
G1 X163.239 Y66.582 E222.63674
G1 X163.388 Y65.717 E222.73931
G1 X181.093 Y83.422 E225.66591
G1 X181.754 Y83.068 E225.75351
G1 X163.538 Y64.853 E228.76464
G1 X163.688 Y63.988 E228.86721
G1 X182.415 Y82.715 E231.96287
G1 X183.076 Y82.362 E232.05047
G1 X163.837 Y63.123 E235.23066
G1 X163.987 Y62.259 E235.33323
G1 X183.751 Y82.023 E238.60029
G1 X184.529 Y81.786 E238.69534
G1 X164.137 Y61.394 E242.06631
G1 X164.286 Y60.529 E242.16888
G1 X185.307 Y81.550 E245.64375
G1 X186.086 Y81.314 E245.73881
G1 X164.436 Y59.665 E249.31759
G1 X164.585 Y58.800 E249.42016
G1 X186.864 Y81.078 E253.10286
G1 X187.642 Y80.842 E253.19791
G1 X164.735 Y57.935 E256.98452
G1 X164.885 Y57.070 E257.08709
G1 X188.447 Y80.633 E260.98203
G1 X189.370 Y80.542 E261.09048
G1 X165.034 Y56.206 E265.11333
G1 X165.184 Y55.341 E265.21590
G1 X190.294 Y80.451 E269.36665
G1 X191.217 Y80.360 E269.47510
G1 X165.696 Y54.839 E273.69387
G1 X166.710 Y54.839 E273.81243
G1 X192.140 Y80.269 E278.01617
G1 X193.064 Y80.178 E278.12461
G1 X167.724 Y54.839 E282.31332
G1 X168.739 Y54.839 E282.43188
G1 X194.185 Y80.285 E286.63830
G1 X195.310 Y80.396 E286.77044
G1 X169.753 Y54.839 E290.99518
G1 X170.767 Y54.839 E291.11374
G1 X196.435 Y80.507 E295.35680
G1 X197.561 Y80.618 E295.48895
G1 X171.781 Y54.839 E299.75033
G1 X172.796 Y54.839 E299.86888
G1 X198.921 Y80.964 E304.18753
G1 X200.377 Y81.406 E304.36537
G1 X173.810 Y54.839 E308.75702
G1 X174.824 Y54.839 E308.87558
G1 X201.833 Y81.848 E313.34024
G1 X203.679 Y82.679 F7200.000
G1 X175.839 Y54.839 E317.94239 F1080.000
G1 X176.853 Y54.839 E318.06095
G1 X205.858 Y83.844 E322.85563
G1 X214.037 Y92.023 F7200.000
G1 X236.279 Y114.264 E326.53226 F1080.000
G1 X236.515 Y113.486 E326.62732
G1 X177.867 Y54.839 E336.32196
G1 X178.881 Y54.839 E336.44052
G1 X236.614 Y112.571 E345.98387
G1 X236.705 Y111.648 E346.09232
G1 X179.896 Y54.839 E355.48305
G1 X180.910 Y54.839 E355.60160
G1 X236.796 Y110.724 E364.83969
G1 X236.887 Y109.801 E364.94814
G1 X181.924 Y54.839 E374.03360
G1 X182.939 Y54.839 E374.15216
G1 X236.978 Y108.878 E383.08498
G1 X237.068 Y107.954 E383.19343
G1 X183.953 Y54.839 E391.97363
G1 X184.967 Y54.839 E392.09218
G1 X237.159 Y107.031 E400.71975
G1 X237.250 Y106.108 E400.82819
G1 X185.981 Y54.839 E409.30312
G1 X186.996 Y54.839 E409.42168
G1 X237.341 Y105.184 E417.74398
G1 X237.314 Y104.143 E417.86572
G1 X188.010 Y54.839 E426.01590
G1 X189.024 Y54.839 E426.13446
G1 X237.204 Y103.018 E434.09866
G1 X237.093 Y101.893 E434.23081
G1 X190.039 Y54.839 E442.00902
G1 X191.053 Y54.839 E442.12758
G1 X236.982 Y100.768 E449.71981
G1 X236.871 Y99.643 E449.85196
G1 X192.067 Y54.839 E457.25821
G1 X193.081 Y54.839 E457.37677
G1 X221.553 Y83.310 E462.08324
G1 X221.553 Y82.296 E462.20180
G1 X194.096 Y54.839 E466.74061
G1 X195.110 Y54.839 E466.85916
G1 X221.553 Y81.282 E471.23031
G1 X221.553 Y80.268 E471.34886
G1 X196.124 Y54.839 E475.55234
G1 X197.139 Y54.839 E475.67090
G1 X221.553 Y79.253 E479.70671
G1 X221.553 Y78.239 E479.82527
G1 X198.153 Y54.839 E483.69342
G1 X199.167 Y54.839 E483.81197
G1 X221.553 Y77.225 E487.51245
G1 X221.553 Y76.210 E487.63101
G1 X200.181 Y54.839 E491.16383
G1 X201.196 Y54.839 E491.28239
G1 X221.553 Y75.196 E494.64754
G1 X221.553 Y74.182 E494.76609
G1 X202.210 Y54.839 E497.96358
G1 X203.224 Y54.839 E498.08214
G1 X221.553 Y73.168 E501.11196
G1 X221.553 Y72.153 E501.23052
G1 X204.239 Y54.839 E504.09267
G1 X205.253 Y54.839 E504.21123
G1 X221.553 Y71.139 E506.90572
G1 X221.553 Y70.125 E507.02428
G1 X206.267 Y54.839 E509.55110
G1 X207.281 Y54.839 E509.66966
G1 X221.553 Y69.110 E512.02882
G1 X221.553 Y68.096 E512.14738
G1 X208.296 Y54.839 E514.33887
G1 X209.310 Y54.839 E514.45743
G1 X221.553 Y67.082 E516.48126
G1 X221.553 Y66.068 E516.59982
G1 X210.324 Y54.839 E518.45598
G1 X211.339 Y54.839 E518.57454
G1 X221.553 Y65.053 E520.26304
G1 X221.553 Y64.039 E520.38159
G1 X212.353 Y54.839 E521.90243
G1 X213.367 Y54.839 E522.02099
G1 X221.553 Y63.025 E523.37415
G1 X221.553 Y62.010 E523.49271
G1 X214.381 Y54.839 E524.67821
G1 X215.396 Y54.839 E524.79677
G1 X221.553 Y60.996 E525.81461
G1 X221.553 Y59.982 E525.93317
G1 X216.410 Y54.839 E526.78334
G1 X217.424 Y54.839 E526.90190
G1 X221.553 Y58.968 E527.58441
G1 X221.553 Y57.953 E527.70296
G1 X218.439 Y54.839 E528.21781
G1 X219.453 Y54.839 E528.33636
G1 X221.553 Y56.939 E528.68354
G1 X221.553 Y55.925 E528.80210
G1 X220.467 Y54.839 E528.98161
G1 X221.482 Y54.839 E529.10017
G1 X221.553 Y54.910 E529.11201
G1 X222.408 Y84.166 F7200.000
G1 X236.760 Y98.518 E531.48443 F1080.000
G1 X236.650 Y97.392 E531.61657
G1 X223.423 Y84.166 E533.80300
G1 X224.437 Y84.166 E533.92156
G1 X236.539 Y96.267 E535.92201
G1 X236.428 Y95.142 E536.05415
G1 X225.451 Y84.166 E537.86862
G1 X226.466 Y84.166 E537.98717
G1 X236.990 Y94.690 E539.72691
G1 X237.553 Y94.238 E539.81124
G1 X227.480 Y84.166 E541.47630
G1 X228.494 Y84.166 E541.59486
G1 X238.115 Y93.787 E543.18523
G1 X238.678 Y93.335 E543.26956
G1 X229.508 Y84.166 E544.78525
G1 X230.523 Y84.166 E544.90381
G1 X239.240 Y92.883 E546.34482
G1 X239.803 Y92.431 E546.42915
G1 X231.537 Y84.166 E547.79548
G1 X232.551 Y84.166 E547.91404
G1 X240.365 Y91.980 E549.20569
G1 X240.928 Y91.528 E549.29002
G1 X233.566 Y84.166 E550.50698
G1 X234.580 Y84.166 E550.62554
G1 X241.490 Y91.076 E551.76782
G1 X242.053 Y90.624 E551.85215
G1 X235.594 Y84.166 E552.91975
G1 X236.609 Y84.166 E553.03831
G1 X242.615 Y90.172 E554.03123
G1 X243.178 Y89.721 E554.11556
G1 X237.623 Y84.166 E555.03380
G1 X238.637 Y84.166 E555.15235
G1 X243.740 Y89.269 E555.99591
G1 X244.303 Y88.817 E556.08024
G1 X239.651 Y84.166 E556.84911
G1 X240.666 Y84.166 E556.96767
G1 X244.865 Y88.365 E557.66186
G1 X245.428 Y87.913 E557.74619
G1 X241.680 Y84.166 E558.36570
G1 X242.694 Y84.166 E558.48426
G1 X245.990 Y87.462 E559.02908
G1 X246.553 Y87.010 E559.11341
G1 X243.709 Y84.166 E559.58356
G1 X244.723 Y84.166 E559.70211
G1 X247.115 Y86.558 E560.09758
G1 X247.226 Y85.655 E560.20396
G1 X245.737 Y84.166 E560.45009
G1 X246.751 Y84.166 E560.56865
G1 X247.226 Y84.640 E560.64712
G1 X215.202 Y94.202 F7200.000
G1 X236.043 Y115.043 E564.09221 F1080.000
G1 X235.806 Y115.821 E564.18727
G1 X216.033 Y96.048 E567.45585
G1 X216.475 Y97.504 E567.63369
G1 X235.570 Y116.599 E570.79024
G1 X235.334 Y117.377 E570.88530
G1 X216.917 Y98.960 E573.92982
G1 X217.263 Y100.320 E574.09393
G1 X235.098 Y118.156 E577.04218
G1 X234.862 Y118.934 E577.13723
G1 X217.374 Y101.445 E580.02813
G1 X217.485 Y102.570 E580.16028
G1 X234.626 Y119.712 E582.99384
G1 X234.390 Y120.490 E583.08890
G1 X217.595 Y103.696 E585.86512
G1 X217.703 Y104.817 E585.99681
G1 X234.154 Y121.268 E588.71627
G1 X233.874 Y122.002 E588.80811
G1 X217.612 Y105.740 E591.49627
G1 X217.521 Y106.664 E591.60471
G1 X233.520 Y122.663 E594.24951
G1 X233.167 Y123.324 E594.33712
G1 X217.430 Y107.587 E596.93855
G1 X217.339 Y108.510 E597.04700
G1 X232.814 Y123.985 E599.60507
G1 X232.460 Y124.646 E599.69267
