; generated by Slic3r 1.0.0RC3 on 2014-03-11 at 09:53:04

; layer_height = 0.3
; perimeters = 2
; top_solid_layers = 3
; bottom_solid_layers = 3
; fill_density = 0.1
; perimeter_speed = 60
; infill_speed = 60
; travel_speed = 120
; nozzle_diameter = 0.4
; filament_diameter = 1.75
; extrusion_multiplier = 0.98
; perimeters extrusion width = 0.40mm
; infill extrusion width = 0.42mm
; solid infill extrusion width = 0.42mm
; top infill extrusion width = 0.42mm
; first layer extrusion width = 0.60mm

G21 ; set units to millimeters
M107
M104 S220 ; set temperature
G28 ; home all axes
M106 S255;
G1 Z200 F1200 ; lift nozzle
M109 S220 ; wait for temperature to be reached
G90 ; use absolute coordinates
G92 E0
M82 ; use absolute distances for extrusion
G1 F1800.000 E-1.00000
G92 E0
G1 Z0.300 F7200.000
G1 X126.107 Y71.223 F7200.000
G1 E1.00000 F1800.000
G1 X126.437 Y70.673 E1.04367 F1080.000
G1 X126.827 Y70.153 E1.08793
G1 X127.707 Y69.083 E1.18227
G1 X128.127 Y68.623 E1.22468
G1 X128.597 Y68.193 E1.26806
G1 X129.677 Y67.303 E1.36335
G1 X130.207 Y66.913 E1.40816
G1 X130.767 Y66.573 E1.45277
G1 X131.987 Y65.923 E1.54690
G1 X132.547 Y65.663 E1.58894
G1 X133.137 Y65.443 E1.63181
G1 X134.467 Y65.033 E1.72658
G1 X135.107 Y64.873 E1.77150
G1 X135.757 Y64.773 E1.81628
G1 X137.207 Y64.643 E1.91541
G1 X137.827 Y64.613 E1.95768
G1 X161.757 Y64.803 E3.58718
G1 X162.367 Y64.843 E3.62881
G1 X163.747 Y64.983 E3.72326
G1 X164.367 Y65.073 E3.76592
G1 X164.977 Y65.223 E3.80869
G1 X166.307 Y65.623 E3.90326
G1 X166.937 Y65.853 E3.94893
G1 X167.537 Y66.133 E3.99402
G1 X168.757 Y66.793 E4.08847
G1 X169.287 Y67.113 E4.13062
G1 X169.777 Y67.483 E4.17243
G1 X170.857 Y68.363 E4.26729
G1 X171.347 Y68.793 E4.31168
G1 X171.777 Y69.273 E4.35556
G1 X172.657 Y70.343 E4.44990
G1 X173.047 Y70.873 E4.49471
G1 X173.387 Y71.433 E4.53932
G1 X174.037 Y72.653 E4.63344
G1 X174.307 Y73.233 E4.67701
G1 X174.527 Y73.843 E4.72116
G1 X174.927 Y75.173 E4.81573
G1 X175.077 Y75.783 E4.85850
G1 X175.167 Y76.403 E4.90116
G1 X175.307 Y77.783 E4.99561
G1 X175.337 Y78.213 E5.02497
G1 X176.227 Y103.843 E6.77123
G1 X176.227 Y104.323 E6.80391
G1 X175.157 Y132.753 E8.74115
G1 X174.977 Y134.633 E8.86975
G1 X174.887 Y135.243 E8.91173
G1 X174.737 Y135.843 E8.95385
G1 X174.317 Y137.243 E9.05337
G1 X174.097 Y137.873 E9.09881
G1 X173.807 Y138.473 E9.14419
G1 X173.107 Y139.773 E9.24473
G1 X172.787 Y140.303 E9.28688
G1 X172.417 Y140.803 E9.32924
G1 X171.497 Y141.933 E9.42846
G1 X171.067 Y142.413 E9.47234
G1 X170.587 Y142.853 E9.51668
G1 X169.457 Y143.783 E9.61633
G1 X168.927 Y144.173 E9.66114
G1 X168.357 Y144.513 E9.70633
G1 X167.057 Y145.203 E9.80655
G1 X166.497 Y145.473 E9.84888
G1 X165.917 Y145.683 E9.89088
G1 X164.517 Y146.113 E9.99061
G1 X163.867 Y146.273 E10.03619
G1 X163.217 Y146.373 E10.08097
G1 X161.757 Y146.513 E10.18084
G1 X161.097 Y146.543 E10.22583
G1 X137.967 Y146.443 E11.80082
G1 X137.367 Y146.413 E11.84172
G1 X135.907 Y146.273 E11.94159
G1 X135.257 Y146.173 E11.98638
G1 X134.627 Y146.013 E12.03064
G1 X133.217 Y145.583 E12.13101
G1 X132.177 Y145.173 E12.20713
G1 X130.827 Y144.493 E12.31006
G1 X130.117 Y144.073 E12.36623
G1 X129.477 Y143.583 E12.42112
G1 X128.397 Y142.643 E12.51861
G1 X127.657 Y141.883 E12.59084
G1 X126.717 Y140.753 E12.69093
G1 X126.297 Y140.203 E12.73805
G1 X125.947 Y139.603 E12.78535
G1 X125.267 Y138.303 E12.88524
G1 X125.017 Y137.753 E12.92638
G1 X124.807 Y137.193 E12.96711
G1 X124.377 Y135.793 E13.06683
G1 X124.217 Y135.143 E13.11241
G1 X124.117 Y134.493 E13.15719
G1 X123.977 Y133.033 E13.25706
G1 X123.947 Y132.383 E13.30137
G1 X124.137 Y78.243 E16.98792
G1 X124.167 Y77.653 E17.02814
G1 X124.297 Y76.273 E17.12253
G1 X124.387 Y75.623 E17.16721
G1 X124.547 Y74.993 E17.21147
G1 X124.947 Y73.663 E17.30604
G1 X125.167 Y73.043 E17.35084
G1 X125.447 Y72.453 E17.39530
G1 X126.067 Y71.297 E17.48466
G1 F1800.000 E16.48466
G92 E0
G1 X157.896 Y127.941 F7200.000
G1 E1.00000 F1800.000
G1 X159.606 Y127.681 E1.11781 F540.000
G1 X161.135 Y127.608 E1.22204
G1 X162.665 Y127.681 E1.32629
G1 X164.372 Y127.939 E1.44389
G1 X164.372 Y136.800 E2.04727
G1 X162.753 Y137.047 E2.15878
G1 X161.135 Y138.258 E2.29643
G1 X159.517 Y137.046 E2.43411
G1 X157.896 Y136.801 E2.54575
G1 X157.896 Y128.024 E3.14338
G1 X157.840 Y127.386 F7200.000
G1 X157.339 Y127.461 F7200.000
G1 X157.339 Y137.281 E3.81204 F1080.000
G1 X159.295 Y137.576 E3.94675
G1 X161.109 Y138.939 E4.10123
G1 X161.039 Y139.116 E4.11417
G1 X159.848 Y139.000 E4.19569
G1 X158.605 Y138.621 E4.28417
G1 X157.457 Y138.007 E4.37284
G1 X156.458 Y137.192 E4.46058
G1 X155.638 Y136.186 E4.54895
G1 X155.026 Y135.039 E4.63749
G1 X154.648 Y133.804 E4.72546
G1 X154.522 Y132.508 E4.81409
G1 X154.534 Y132.344 E4.82533
G1 X154.647 Y131.226 E4.90182
G1 X155.026 Y129.984 E4.99024
G1 X155.639 Y128.836 E5.07888
G1 X156.448 Y127.845 E5.16597
G1 X157.171 Y127.256 E5.22950
G1 X157.147 Y127.183 E5.23472
G1 X158.434 Y126.490 E5.33427
G1 X158.590 Y126.416 E5.34603
G1 X159.847 Y126.036 E5.43543
G1 X161.135 Y125.911 E5.52355
G1 X162.418 Y126.036 E5.61132
G1 X163.666 Y126.412 E5.70005
G1 X165.099 Y127.175 E5.81060
G1 X165.078 Y127.238 E5.81510
G1 X165.807 Y127.833 E5.87914
G1 X166.629 Y128.843 E5.96784
G1 X167.245 Y129.985 E6.05615
G1 X167.615 Y131.224 E6.14425
G1 X167.748 Y132.511 E6.23236
G1 X167.614 Y133.806 E6.32101
G1 X167.245 Y135.036 E6.40845
G1 X166.624 Y136.190 E6.49764
G1 X165.811 Y137.188 E6.58531
G1 X164.809 Y138.009 E6.67355
G1 X163.664 Y138.621 E6.76193
G1 X162.416 Y139.000 E6.85073
G1 X161.233 Y139.115 E6.93170
G1 X161.163 Y138.938 E6.94466
G1 X162.975 Y137.576 E7.09895
G1 X164.929 Y137.279 E7.23358
G1 X164.929 Y127.456 E7.90241
G1 X162.721 Y127.126 E8.05443
G1 X161.135 Y127.050 E8.16254
G1 X159.550 Y127.126 E8.27060
G1 X157.421 Y127.449 E8.41723
G1 X157.163 Y126.542 F7200.000
G1 X158.387 Y125.895 E8.51149 F540.000
G1 X159.738 Y125.488 E8.60757
G1 X161.135 Y125.351 E8.70314
G1 X162.529 Y125.487 E8.79847
G1 X163.878 Y125.894 E8.89442
G1 X165.123 Y126.552 E8.99031
G1 X166.207 Y127.440 E9.08573
G1 X167.091 Y128.528 E9.18118
G1 X167.762 Y129.770 E9.27727
G1 X168.162 Y131.107 E9.37234
G1 X168.308 Y132.512 E9.46850
G1 X168.164 Y133.907 E9.56401
G1 X167.762 Y135.253 E9.65966
G1 X167.093 Y136.494 E9.75566
G1 X166.207 Y137.585 E9.85136
G1 X165.120 Y138.475 E9.94702
G1 X163.879 Y139.138 E10.04281
G1 X162.528 Y139.548 E10.13896
G1 X161.135 Y139.685 E10.23429
G1 X159.737 Y139.549 E10.32990
G1 X158.391 Y139.138 E10.42575
G1 X157.150 Y138.475 E10.52155
G1 X156.059 Y137.585 E10.61745
G1 X155.171 Y136.496 E10.71310
G1 X154.509 Y135.254 E10.80892
G1 X154.098 Y133.911 E10.90454
G1 X153.962 Y132.514 E11.00014
G1 X154.098 Y131.112 E11.09606
G1 X154.509 Y129.769 E11.19164
G1 X155.171 Y128.530 E11.28733
G1 X156.055 Y127.445 E11.38261
G1 X157.099 Y126.595 E11.47429
G1 X157.653 Y126.806 F7200.000
G1 F1800.000 E10.47429
G92 E0
G1 X140.658 Y128.549 F7200.000
G1 E1.00000 F1800.000
G1 X140.658 Y136.959 E1.57265 F540.000
G1 X139.240 Y137.196 E1.67052
G1 X137.983 Y137.267 E1.75626
G1 X136.745 Y137.196 E1.84071
G1 X136.022 Y137.082 E1.89051
G1 X135.896 Y136.971 E1.90197
G1 X135.336 Y136.665 E1.94542
G1 X135.336 Y128.480 E2.50274
G1 X136.349 Y127.214 E2.61317
G1 X137.948 Y126.533 E2.73146
G1 X139.786 Y127.231 E2.86533
G1 X140.611 Y128.479 E2.96724
G1 X140.100 Y128.717 F7200.000
G1 X140.100 Y136.487 E3.49637 F540.000
G1 X139.179 Y136.641 E3.55997
G1 X137.984 Y136.709 E3.64147
G1 X136.802 Y136.641 E3.72210
G1 X136.269 Y136.557 E3.75885
G1 X136.217 Y136.511 E3.76354
G1 X135.893 Y136.334 E3.78870
G1 X135.893 Y128.675 E4.31021
G1 X136.697 Y127.671 E4.39778
G1 X137.960 Y127.134 E4.49125
G1 X139.420 Y127.688 E4.59762
G1 X140.054 Y128.647 E4.67590
G1 X140.628 Y128.896 F7200.000
G1 F1800.000 E3.67590
G92 E0
G1 X141.774 Y127.027 F7200.000
G1 E1.00000 F1800.000
G1 X142.679 Y127.715 E1.07743 F1080.000
G1 X143.510 Y128.727 E1.16656
G1 X144.121 Y129.871 E1.25487
G1 X144.497 Y131.120 E1.34369
G1 X144.622 Y132.403 E1.43147
G1 X144.498 Y133.691 E1.51958
G1 X144.118 Y134.945 E1.60882
G1 X143.500 Y136.099 E1.69794
G1 X142.694 Y137.077 E1.78426
G1 X141.786 Y137.810 E1.86372
G1 X141.323 Y138.098 E1.90080
G1 X140.523 Y138.525 E1.96261
G1 X139.290 Y138.899 E2.05030
G1 X137.997 Y139.028 E2.13882
G1 X136.707 Y138.899 E2.22709
G1 X135.445 Y138.518 E2.31682
G1 X134.254 Y137.915 E2.40771
G1 X133.310 Y137.093 E2.49296
G1 X132.476 Y136.078 E2.58244
G1 X131.873 Y134.942 E2.67003
G1 X131.496 Y133.699 E2.75845
G1 X131.367 Y132.415 E2.84630
G1 X131.494 Y131.119 E2.93501
G1 X131.870 Y129.874 E3.02357
G1 X132.486 Y128.716 E3.11286
G1 X133.308 Y127.718 E3.20090
G1 X134.299 Y126.898 E3.28849
G1 X135.458 Y126.282 E3.37786
G1 X136.703 Y125.904 E3.46643
G1 X138.003 Y125.778 E3.55538
G1 X139.286 Y125.905 E3.64318
G1 X140.529 Y126.280 E3.73156
G1 X141.597 Y126.894 E3.81548
G1 X141.707 Y126.977 E3.82484
G1 X142.109 Y126.582 F7200.000
G1 X143.078 Y127.322 E3.90787 F540.000
G1 X143.974 Y128.413 E4.00397
G1 X144.637 Y129.655 E4.09988
G1 X145.045 Y131.006 E4.19600
G1 X145.181 Y132.405 E4.29170
G1 X145.046 Y133.804 E4.38740
G1 X144.637 Y135.158 E4.48369
G1 X143.970 Y136.403 E4.57988
G1 X143.083 Y137.482 E4.67500
G1 X142.101 Y138.272 E4.76080
G1 X141.594 Y138.584 E4.80132
G1 X140.740 Y139.041 E4.86730
G1 X139.398 Y139.449 E4.96280
G1 X137.997 Y139.588 E5.05867
G1 X136.597 Y139.449 E5.15445
G1 X135.241 Y139.038 E5.25090
G1 X133.944 Y138.382 E5.34986
G1 X132.913 Y137.488 E5.44283
G1 X132.014 Y136.396 E5.53912
G1 X131.356 Y135.157 E5.63469
G1 X130.947 Y133.807 E5.73071
G1 X130.808 Y132.410 E5.82633
G1 X130.946 Y131.006 E5.92237
G1 X131.355 Y129.656 E6.01841
G1 X132.018 Y128.409 E6.11458
G1 X132.912 Y127.323 E6.21036
G1 X133.905 Y126.501 E6.29817
G1 X133.963 Y126.427 E6.30457
G1 X134.103 Y126.372 E6.31480
G1 X135.245 Y125.764 E6.40287
G1 X136.591 Y125.356 E6.49863
G1 X137.999 Y125.219 E6.59499
G1 X139.396 Y125.356 E6.69060
G1 X140.746 Y125.763 E6.78656
G1 X141.904 Y126.428 E6.87753
G1 X142.042 Y126.532 E6.88926
G1 X142.039 Y127.134 F7200.000
G1 F1800.000 E5.88926
G92 E0
G1 X140.821 Y110.776 F7200.000
G1 E1.00000 F1800.000
G1 X139.192 Y110.889 E1.11114 F540.000
G1 X137.576 Y110.776 E1.22150
G1 X136.014 Y110.432 E1.33039
G1 X135.121 Y110.098 E1.39530
G1 X134.681 Y109.760 E1.43310
G1 X134.681 Y100.918 E2.03517
G1 X135.099 Y100.597 E2.07110
G1 X136.014 Y100.242 E2.13792
G1 X137.575 Y99.907 E2.24659
G1 X139.193 Y99.790 E2.35704
G1 X140.821 Y99.907 E2.46819
G1 X142.376 Y100.242 E2.57652
G1 X143.001 Y100.482 E2.62210
G1 X143.717 Y100.892 E2.67830
G1 X143.717 Y109.789 E3.28412
G1 X142.989 Y110.206 E3.34126
G1 X142.389 Y110.429 E3.38484
G1 X140.902 Y110.759 E3.48852
G1 X140.601 Y111.288 F7200.000
G1 X140.900 Y111.329 F7200.000
G1 X142.571 Y110.959 E3.60507 F540.000
G1 X143.344 Y110.669 E3.66128
G1 X143.515 Y111.007 E3.68707
G1 X142.107 Y111.943 E3.80224
G1 X140.700 Y112.371 E3.90237
G1 X139.194 Y112.515 E4.00534
G1 X137.691 Y112.371 E4.10818
G1 X136.287 Y111.943 E4.20811
G1 X134.894 Y111.012 E4.32221
G1 X135.068 Y110.673 E4.34818
G1 X135.854 Y110.967 E4.40533
G1 X137.498 Y111.329 E4.51994
G1 X139.191 Y111.447 E4.63551
G1 X140.817 Y111.335 E4.74647
G1 F1800.000 E3.74647
G92 E0
G1 X144.274 Y110.711 F7200.000
G1 E1.00000 F1800.000
G1 X144.274 Y100.569 E1.69058 F1080.000
G1 X143.259 Y99.988 E1.77022
G1 X142.534 Y99.706 E1.82320
G1 X140.900 Y99.354 E1.93701
G1 X139.192 Y99.232 E2.05364
G1 X137.495 Y99.354 E2.16944
G1 X135.855 Y99.707 E2.28368
G1 X134.807 Y100.119 E2.36041
G1 X134.123 Y100.643 E2.41902
G1 X134.123 Y110.708 E3.10438
G1 X132.790 Y109.090 E3.24715
G1 X132.080 Y107.759 E3.34987
G1 X131.640 Y106.318 E3.45247
G1 X131.496 Y104.816 E3.55523
G1 X131.640 Y103.313 E3.65804
G1 X132.080 Y101.866 E3.76100
G1 X132.791 Y100.534 E3.86383
G1 X133.739 Y99.377 E3.96568
G1 X134.717 Y98.724 E4.04579
G1 X137.692 Y97.815 E4.25757
G1 X139.193 Y97.664 E4.36031
G1 X140.699 Y97.815 E4.46336
G1 X143.661 Y98.719 E4.67421
G1 X144.673 Y99.397 E4.75714
G1 X145.600 Y100.527 E4.85672
G1 X146.313 Y101.866 E4.95999
G1 X146.755 Y103.312 E5.06292
G1 X146.899 Y104.816 E5.16581
G1 X146.755 Y106.318 E5.26853
G1 X146.313 Y107.761 E5.37131
G1 X145.600 Y109.091 E5.47406
G1 X144.327 Y110.646 E5.61092
G1 X145.051 Y110.642 F7200.000
G1 X142.347 Y112.453 E5.83248 F540.000
G1 X140.809 Y112.920 E5.94195
G1 X139.194 Y113.075 E6.05244
G1 X137.582 Y112.920 E6.16267
G1 X136.046 Y112.452 E6.27201
G1 X133.347 Y110.642 E6.49326
G1 X132.325 Y109.402 E6.60275
G1 X131.563 Y107.974 E6.71291
G1 X131.091 Y106.427 E6.82306
G1 X130.936 Y104.816 E6.93326
G1 X131.091 Y103.203 E7.04360
G1 X131.563 Y101.653 E7.15397
G1 X132.325 Y100.223 E7.26425
G1 X133.361 Y98.959 E7.37550
G1 X135.616 Y97.453 E7.56021
G1 X135.616 Y97.867 E7.58837
G1 X137.582 Y97.266 E7.72835
G1 X139.193 Y97.104 E7.83858
G1 X140.809 Y97.266 E7.94913
G1 X142.776 Y97.867 E8.08923
G1 X142.776 Y97.460 E8.11691
G1 X145.051 Y98.979 E8.30316
G1 X146.066 Y100.217 E8.41213
G1 X146.830 Y101.652 E8.52287
G1 X147.304 Y103.203 E8.63324
G1 X147.459 Y104.816 E8.74361
G1 X147.304 Y106.427 E8.85381
G1 X146.830 Y107.975 E8.96405
G1 X146.066 Y109.402 E9.07426
G1 X145.103 Y110.577 E9.17771
G1 X144.529 Y110.446 F7200.000
G1 F1800.000 E8.17771
G92 E0
G1 X156.464 Y108.026 F7200.000
G1 E1.00000 F1800.000
G1 X156.464 Y99.099 E1.60788 F540.000
G1 X157.057 Y98.791 E1.65336
G1 X157.928 Y98.459 E1.71681
G1 X159.500 Y98.118 E1.82638
G1 X161.120 Y98.001 E1.93696
G1 X162.738 Y98.118 E2.04742
G1 X164.258 Y98.447 E2.15329
G1 X164.892 Y98.677 E2.19921
G1 X165.690 Y99.101 E2.26074
G1 X165.690 Y108.022 E2.86820
G1 X164.890 Y108.447 E2.92982
G1 X164.297 Y108.672 E2.97303
G1 X162.739 Y109.007 E3.08153
G1 X161.119 Y109.125 E3.19216
G1 X159.500 Y109.007 E3.30270
G1 X157.941 Y108.672 E3.41124
G1 X157.075 Y108.337 E3.47448
G1 X156.539 Y108.064 E3.51545
G1 X155.914 Y107.939 F7200.000
G1 X155.907 Y108.368 F7200.000
G1 X156.848 Y108.846 E3.58729 F1080.000
G1 X157.781 Y109.207 E3.65545
G1 X159.419 Y109.560 E3.76954
G1 X161.115 Y109.683 E3.88531
G1 X162.819 Y109.560 E4.00163
G1 X164.456 Y109.207 E4.11563
G1 X165.116 Y108.957 E4.16375
G1 X166.247 Y108.357 E4.25088
G1 X166.247 Y98.249 E4.93915
G1 X167.517 Y99.798 E5.07555
G1 X168.230 Y101.126 E5.17816
G1 X168.665 Y102.573 E5.28104
G1 X168.818 Y104.076 E5.38394
G1 X168.665 Y105.577 E5.48666
G1 X168.230 Y107.020 E5.58928
G1 X167.517 Y108.350 E5.69206
G1 X166.582 Y109.492 E5.79257
G1 X165.251 Y110.434 E5.90355
G1 X165.251 Y110.268 E5.91484
G1 X162.620 Y111.068 E6.10213
G1 X161.122 Y111.212 E6.20461
G1 X159.618 Y111.061 E6.30749
G1 X156.989 Y110.273 E6.49442
G1 X156.989 Y110.502 E6.51004
G1 X155.670 Y109.503 E6.62269
G1 X154.721 Y108.350 E6.72437
G1 X154.013 Y107.014 E6.82736
G1 X153.573 Y105.575 E6.92976
G1 X153.429 Y104.076 E7.03230
G1 X153.573 Y102.573 E7.13516
G1 X154.012 Y101.126 E7.23809
G1 X154.722 Y99.796 E7.34075
G1 X155.907 Y98.358 E7.46767
G1 X155.907 Y108.284 E8.14361
G1 F1800.000 E7.14361
G92 E0
G1 X157.067 Y98.263 F7200.000
G1 E1.00000 F1800.000
G1 X156.840 Y97.869 E1.03097 F540.000
G1 X158.215 Y96.953 E1.14346
G1 X159.619 Y96.530 E1.24334
G1 X161.122 Y96.381 E1.34616
G1 X162.620 Y96.530 E1.44863
G1 X164.044 Y96.958 E1.54989
G1 X164.915 Y97.493 E1.61947
G1 X165.551 Y97.950 E1.67281
G1 X165.383 Y98.265 E1.69708
G1 X164.463 Y97.924 E1.76387
G1 X162.816 Y97.565 E1.87869
G1 X161.119 Y97.442 E1.99454
G1 X159.422 Y97.565 E2.11040
G1 X157.743 Y97.930 E2.22740
G1 X157.142 Y98.226 E2.27300
G1 X156.934 Y97.139 F7200.000
G1 X157.975 Y96.444 E2.35824 F540.000
G1 X159.510 Y95.981 E2.46741
G1 X161.122 Y95.822 E2.57768
G1 X162.728 Y95.981 E2.68762
G1 X164.273 Y96.446 E2.79749
G1 X165.223 Y97.029 E2.87337
G1 X166.966 Y98.247 E3.01816
G1 X167.982 Y99.487 E3.12730
G1 X168.747 Y100.911 E3.23742
G1 X169.214 Y102.464 E3.34781
G1 X169.378 Y104.076 E3.45814
G1 X169.214 Y105.686 E3.56830
G1 X168.747 Y107.234 E3.67841
G1 X167.982 Y108.661 E3.78867
G1 X166.965 Y109.903 E3.89800
G1 X165.224 Y111.137 E4.04328
G1 X164.694 Y111.451 E4.08522
G1 X164.694 Y111.020 E4.11460
G1 X162.728 Y111.617 E4.25450
G1 X161.121 Y111.772 E4.36445
G1 X159.509 Y111.610 E4.47475
G1 X157.546 Y111.021 E4.61434
G1 X157.546 Y111.479 E4.64553
