; generated by Slic3r 1.0.0RC3 on 2014-03-11 at 10:05:05

; layer_height = 0.3
; perimeters = 2
; top_solid_layers = 3
; bottom_solid_layers = 3
; fill_density = 0.1
; perimeter_speed = 60
; infill_speed = 60
; travel_speed = 120
; nozzle_diameter = 0.4
; filament_diameter = 1.75
; extrusion_multiplier = 0.98
; perimeters extrusion width = 0.40mm
; infill extrusion width = 0.42mm
; solid infill extrusion width = 0.42mm
; top infill extrusion width = 0.42mm
; first layer extrusion width = 0.60mm

G21 ; set units to millimeters
M107
M104 S220 ; set temperature
G28 ; home all axes
M106 S255;
G1 Z200 F1200 ; lift nozzle
M109 S220 ; wait for temperature to be reached
G90 ; use absolute coordinates
G92 E0
M82 ; use absolute distances for extrusion
G1 F1800.000 E-1.00000
G92 E0
G1 Z0.300 F7200.000
G1 X122.125 Y67.236 F7200.000
G1 E1.00000 F1800.000
G1 X122.455 Y66.696 E1.04309 F1080.000
G1 X122.825 Y66.186 E1.08600
G1 X124.025 Y64.726 E1.21468
G1 X124.465 Y64.246 E1.25902
G1 X124.945 Y63.816 E1.30290
G1 X125.815 Y63.106 E1.37937
G1 X126.705 Y62.436 E1.45522
G1 X127.285 Y62.046 E1.50281
G1 X127.855 Y61.706 E1.54801
G1 X128.585 Y61.326 E1.60404
G1 X130.415 Y60.526 E1.74004
G1 X131.215 Y60.236 E1.79798
G1 X132.215 Y59.946 E1.86888
G1 X132.795 Y59.806 E1.90951
G1 X133.385 Y59.726 E1.95005
G1 X135.275 Y59.536 E2.07939
G1 X135.735 Y59.506 E2.11078
G1 X166.885 Y58.556 E4.23285
G1 X167.475 Y58.556 E4.27302
G1 X168.055 Y58.626 E4.31280
G1 X169.925 Y58.906 E4.44155
G1 X170.545 Y59.026 E4.48455
G1 X171.155 Y59.206 E4.52786
G1 X172.925 Y59.836 E4.65579
G1 X173.515 Y60.086 E4.69942
G1 X174.075 Y60.386 E4.74268
G1 X175.705 Y61.356 E4.87184
G1 X176.255 Y61.716 E4.91660
G1 X176.765 Y62.126 E4.96116
G1 X178.165 Y63.396 E5.08987
G1 X178.625 Y63.866 E5.13465
G1 X179.035 Y64.366 E5.17868
G1 X180.155 Y65.886 E5.30724
G1 X180.495 Y66.396 E5.34898
G1 X180.785 Y66.936 E5.39071
G1 X181.605 Y68.646 E5.51985
G1 X181.865 Y69.266 E5.56563
G1 X182.055 Y69.896 E5.61043
G1 X182.515 Y71.736 E5.73958
G1 X182.695 Y72.816 E5.81413
G1 X186.365 Y119.616 E9.01064
G1 X186.365 Y120.606 E9.07805
G1 X186.215 Y121.586 E9.14556
G1 X184.895 Y127.366 E9.54927
G1 X182.215 Y137.956 E10.29310
G1 X180.765 Y143.546 E10.68633
G1 X180.105 Y145.156 E10.80481
G1 X179.055 Y146.536 E10.92289
G1 X178.265 Y147.226 E10.99431
G1 X177.405 Y147.776 E11.06382
G1 X175.835 Y148.406 E11.17901
G1 X174.155 Y148.606 E11.29422
G1 X119.905 Y148.016 E14.98845
G1 X118.635 Y147.876 E15.07545
G1 X117.415 Y147.496 E15.16246
G1 X116.295 Y146.886 E15.24930
G1 X115.315 Y146.066 E15.33631
G1 X114.505 Y145.076 E15.42341
G1 X113.915 Y143.946 E15.51021
G1 X113.545 Y142.726 E15.59702
G1 X113.415 Y141.456 E15.68395
G1 X113.415 Y132.796 E16.27363
G1 X113.445 Y132.186 E16.31521
G1 X116.565 Y98.796 E18.59872
G1 X116.835 Y96.326 E18.76791
G1 X119.945 Y72.966 E20.37259
G1 X120.165 Y71.936 E20.44430
G1 X120.715 Y70.116 E20.57377
G1 X120.945 Y69.496 E20.61880
G1 X121.225 Y68.906 E20.66326
G1 X122.085 Y67.310 E20.78675
G1 F1800.000 E19.78675
G92 E0
G1 X164.090 Y124.386 F7200.000
G1 E1.00000 F1800.000
G1 X166.868 Y125.095 E1.19524 F1080.000
G1 X169.363 Y125.639 E1.36911
G1 X169.546 Y125.613 E1.38167
G1 X169.953 Y125.682 E1.40984
G1 X172.429 Y126.300 E1.58355
G1 X174.936 Y127.069 E1.76212
G1 X175.005 Y127.837 E1.81465
G1 X172.767 Y136.670 E2.43511
G1 X172.567 Y137.111 E2.46808
G1 X171.890 Y137.352 E2.51704
G1 X166.972 Y136.104 E2.86251
G1 X166.691 Y136.085 E2.88169
G1 X163.978 Y135.394 E3.07237
G1 X163.925 Y135.303 E3.07949
G1 X161.154 Y134.595 E3.27423
G1 X161.552 Y133.066 E3.38180
G1 X161.523 Y132.931 E3.39122
G1 X162.760 Y128.174 E3.72589
G1 X163.542 Y125.002 E3.94838
G1 X164.034 Y124.448 E3.99880
G1 X164.281 Y125.010 F7200.000
G1 X166.740 Y125.637 E4.17162 F540.000
G1 X169.342 Y126.204 E4.35294
G1 X169.538 Y126.177 E4.36642
G1 X169.838 Y126.228 E4.38718
G1 X172.299 Y126.843 E4.55992
G1 X174.415 Y127.491 E4.71056
G1 X174.441 Y127.792 E4.73110
G1 X172.482 Y135.561 E5.27666
G1 X172.241 Y136.483 E5.34158
G1 X172.158 Y136.666 E5.35523
G1 X171.863 Y136.770 E5.37652
G1 X167.106 Y135.563 E5.71074
G1 X166.780 Y135.533 E5.73301
G1 X164.341 Y134.911 E5.90439
G1 X164.288 Y134.821 E5.91149
G1 X161.834 Y134.194 E6.08398
G1 X162.125 Y133.079 E6.16240
G1 X162.096 Y132.943 E6.17192
G1 X163.300 Y128.312 E6.49774
G1 X164.050 Y125.269 E6.71113
G1 X164.225 Y125.072 E6.72908
G1 X164.502 Y124.498 F7200.000
G1 F1800.000 E5.72908
G92 E0
G1 X162.251 Y121.772 F7200.000
G1 E1.00000 F1800.000
G1 X162.355 Y121.460 E1.02242 F1080.000
G1 X163.509 Y116.927 E1.34089
G1 X167.090 Y117.836 E1.59240
G1 X167.252 Y117.737 E1.60533
G1 X171.245 Y118.757 E1.88595
G1 X171.315 Y118.730 E1.89104
G1 X178.813 Y120.666 E2.41836
G1 X177.600 Y125.424 E2.75275
G1 X177.688 Y125.631 E2.76804
G1 X175.037 Y136.091 E3.50283
G1 X174.929 Y136.421 E3.52646
G1 X173.750 Y141.044 E3.85136
G1 X170.070 Y140.108 E4.10996
G1 X169.970 Y140.173 E4.11805
G1 X166.033 Y139.168 E4.39476
G1 X162.067 Y138.147 E4.67357
G1 X161.974 Y138.016 E4.68452
G1 X158.427 Y137.114 E4.93377
G1 X159.640 Y132.343 E5.26897
G1 X159.594 Y132.244 E5.27640
G1 X162.231 Y121.853 E6.00635
G1 X161.713 Y121.629 F7200.000
G1 X161.823 Y121.291 E6.03057 F540.000
G1 X163.107 Y116.251 E6.38471
G1 X167.001 Y117.238 E6.65824
G1 X167.164 Y117.140 E6.67122
G1 X171.208 Y118.173 E6.95545
G1 X171.341 Y118.162 E6.96455
G1 X175.378 Y119.191 E7.24823
G1 X175.636 Y119.282 E7.26687
G1 X179.490 Y120.263 E7.53768
G1 X178.186 Y125.379 E7.89714
G1 X178.266 Y125.563 E7.91082
G1 X178.244 Y125.708 E7.92079
G1 X175.575 Y136.235 E8.66025
G1 X175.461 Y136.590 E8.68567
G1 X174.152 Y141.722 E9.04626
G1 X170.169 Y140.708 E9.32612
G1 X170.102 Y140.752 E9.33157
G1 X169.951 Y140.743 E9.34187
G1 X165.914 Y139.714 E9.62556
G1 X161.732 Y138.637 E9.91964
G1 X161.639 Y138.506 E9.93056
G1 X157.749 Y137.516 E10.20384
G1 X159.051 Y132.398 E10.56346
G1 X159.015 Y132.320 E10.56930
G1 X159.035 Y132.180 E10.57894
G1 X161.692 Y121.710 E11.31446
G1 X162.059 Y121.548 F7200.000
G1 F1800.000 E10.31446
G92 E0
G1 X166.127 Y108.822 F7200.000
G1 E1.00000 F1800.000
G1 X163.527 Y106.877 E1.22113 F1080.000
G1 X160.840 Y106.469 E1.40617
G1 X160.840 Y92.445 E2.36106
G1 X163.780 Y92.000 E2.56353
G1 X166.129 Y91.892 E2.72365
G1 X168.473 Y92.000 E2.88345
G1 X169.844 Y92.218 E2.97799
G1 X171.412 Y92.439 E3.08579
G1 X171.412 Y106.469 E4.04113
G1 X168.728 Y106.876 E4.22596
G1 X166.194 Y108.772 E4.44148
G1 X166.127 Y108.123 F7200.000
G1 X163.748 Y106.347 E4.64364 F540.000
G1 X161.397 Y105.990 E4.80555
G1 X161.397 Y92.925 E5.69514
G1 X163.837 Y92.555 E5.86315
G1 X166.128 Y92.450 E6.01933
G1 X168.417 Y92.555 E6.17540
G1 X170.855 Y92.923 E6.34327
G1 X170.855 Y105.990 E7.23302
G1 X168.507 Y106.347 E7.39477
G1 X166.194 Y108.073 E7.59127
G1 X165.752 Y108.536 F7200.000
G1 X166.125 Y110.049 F7200.000
G1 X164.105 Y109.851 E7.72952 F1080.000
G1 X162.148 Y109.255 E7.86881
G1 X160.352 Y108.298 E8.00738
G1 X158.766 Y107.011 E8.14646
G1 X157.481 Y105.442 E8.28454
G1 X156.523 Y103.638 E8.42360
G1 X155.929 Y101.700 E8.56165
G1 X155.728 Y99.671 E8.70051
G1 X155.928 Y97.652 E8.83867
G1 X156.523 Y95.704 E8.97737
G1 X157.480 Y93.907 E9.11598
G1 X158.757 Y92.342 E9.25352
G1 X160.371 Y91.033 E9.39499
G1 X161.870 Y90.225 E9.51097
G1 X162.129 Y90.104 E9.53042
G1 X164.098 Y89.512 E9.67040
G1 X166.127 Y89.312 E9.80926
G1 X168.148 Y89.510 E9.94754
G1 X170.103 Y90.097 E10.08654
G1 X171.915 Y91.052 E10.22597
G1 X173.481 Y92.328 E10.36354
G1 X174.767 Y93.911 E10.50241
G1 X175.737 Y95.704 E10.64123
G1 X176.319 Y97.648 E10.77938
G1 X176.532 Y99.670 E10.91786
G1 X176.320 Y101.701 E11.05692
G1 X175.738 Y103.635 E11.19442
G1 X174.765 Y105.441 E11.33413
G1 X173.489 Y107.008 E11.47172
G1 X171.907 Y108.296 E11.61059
G1 X170.108 Y109.255 E11.74939
G1 X168.149 Y109.850 E11.88884
G1 X166.208 Y110.041 E12.02161
G1 X166.126 Y110.609 F7200.000
G1 X163.993 Y110.399 E12.16756 F540.000
G1 X161.934 Y109.773 E12.31412
G1 X160.041 Y108.762 E12.46024
G1 X158.370 Y107.407 E12.60675
G1 X157.011 Y105.747 E12.75284
G1 X156.006 Y103.853 E12.89884
G1 X155.380 Y101.810 E13.04433
G1 X155.168 Y99.672 E13.19061
G1 X155.380 Y97.539 E13.33656
G1 X156.006 Y95.490 E13.48249
G1 X157.013 Y93.597 E13.62847
G1 X158.367 Y91.939 E13.77423
G1 X160.059 Y90.568 E13.92252
G1 X161.631 Y89.721 E14.04411
G1 X161.928 Y89.583 E14.06641
G1 X163.993 Y88.963 E14.21318
G1 X166.127 Y88.753 E14.35923
G1 X168.260 Y88.962 E14.50518
G1 X170.318 Y89.581 E14.65150
G1 X172.221 Y90.583 E14.79798
G1 X173.885 Y91.938 E14.94403
G1 X175.231 Y93.598 E15.08960
G1 X176.254 Y95.490 E15.23604
G1 X176.868 Y97.538 E15.38166
G1 X177.092 Y99.672 E15.52776
G1 X176.869 Y101.810 E15.67414
G1 X176.254 Y103.851 E15.81928
G1 X175.231 Y105.751 E15.96618
G1 X173.883 Y107.406 E16.11156
G1 X172.217 Y108.762 E16.25776
G1 X170.321 Y109.773 E16.40413
G1 X168.261 Y110.399 E16.55073
G1 X166.210 Y110.601 E16.69107
G1 X165.864 Y110.118 F7200.000
G1 F1800.000 E15.69107
G92 E0
G1 X166.245 Y82.524 F7200.000
G1 E1.00000 F1800.000
G1 X164.728 Y82.301 E1.10445 F1080.000
G1 X163.286 Y81.780 E1.20885
G1 X161.975 Y80.998 E1.31274
G1 X160.841 Y79.975 E1.41677
G1 X159.941 Y78.748 E1.52040
G1 X159.282 Y77.377 E1.62394
G1 X158.912 Y75.887 E1.72850
G1 X158.837 Y74.353 E1.83308
G1 X159.055 Y72.859 E1.93588
G1 X159.576 Y71.405 E2.04109
G1 X160.354 Y70.104 E2.14430
G1 X161.380 Y68.971 E2.24840
G1 X162.608 Y68.057 E2.35265
G1 X163.990 Y67.403 E2.45671
G1 X165.479 Y67.026 E2.56135
G1 X166.996 Y66.954 E2.66476
G1 X168.512 Y67.176 E2.76904
G1 X169.938 Y67.686 E2.87216
G1 X171.250 Y68.474 E2.97641
G1 X172.393 Y69.501 E3.08106
G1 X173.303 Y70.729 E3.18509
G1 X173.957 Y72.107 E3.28898
G1 X174.326 Y73.590 E3.39305
G1 X174.404 Y75.119 E3.49728
G1 X174.177 Y76.630 E3.60130
G1 X173.667 Y78.065 E3.70502
G1 X172.884 Y79.374 E3.80889
G1 X171.853 Y80.508 E3.91326
G1 X170.632 Y81.418 E4.01697
G1 X169.249 Y82.071 E4.12107
G1 X167.774 Y82.444 E4.22467
G1 X166.329 Y82.519 E4.32323
G1 X166.310 Y81.962 F7200.000
G1 X164.865 Y81.758 E4.42261 F540.000
G1 X163.525 Y81.274 E4.51963
G1 X162.309 Y80.548 E4.61607
G1 X161.256 Y79.599 E4.71257
G1 X160.420 Y78.459 E4.80886
G1 X159.807 Y77.184 E4.90518
G1 X159.466 Y75.805 E5.00193
G1 X159.395 Y74.384 E5.09876
G1 X159.600 Y72.988 E5.19483
G1 X160.080 Y71.646 E5.29188
G1 X160.804 Y70.436 E5.38794
G1 X161.758 Y69.384 E5.48463
G1 X162.897 Y68.537 E5.58125
G1 X164.179 Y67.930 E5.67788
G1 X165.558 Y67.580 E5.77475
G1 X166.970 Y67.514 E5.87099
G1 X168.373 Y67.718 E5.96756
G1 X169.702 Y68.193 E6.06361
G1 X170.919 Y68.925 E6.16032
G1 X171.978 Y69.877 E6.25728
G1 X172.822 Y71.016 E6.35384
G1 X173.430 Y72.295 E6.45025
G1 X173.772 Y73.672 E6.54685
G1 X173.845 Y75.090 E6.64357
G1 X173.635 Y76.492 E6.74009
G1 X173.161 Y77.826 E6.83648
G1 X172.434 Y79.042 E6.93296
G1 X171.478 Y80.093 E7.02968
G1 X170.344 Y80.939 E7.12605
G1 X169.060 Y81.544 E7.22265
G1 X167.688 Y81.891 E7.31905
G1 X166.394 Y81.958 E7.40730
G1 X165.996 Y82.422 F7200.000
G1 X166.191 Y83.518 F7200.000
G1 X164.488 Y83.267 E7.52453 F1080.000
G1 X162.864 Y82.687 E7.64195
G1 X161.390 Y81.802 E7.75902
G1 X160.114 Y80.650 E7.87610
G1 X159.085 Y79.263 E7.99369
G1 X158.353 Y77.710 E8.11058
G1 X157.932 Y76.039 E8.22793
G1 X157.846 Y74.322 E8.34501
G1 X158.099 Y72.618 E8.46228
G1 X158.677 Y70.995 E8.57960
G1 X159.560 Y69.517 E8.69688
G1 X160.710 Y68.244 E8.81366
G1 X162.097 Y67.214 E8.93129
G1 X163.651 Y66.480 E9.04832
G1 X165.325 Y66.060 E9.16588
G1 X167.045 Y65.974 E9.28314
G1 X168.749 Y66.224 E9.40036
G1 X170.366 Y66.801 E9.51731
G1 X171.849 Y67.686 E9.63493
G1 X173.121 Y68.842 E9.75192
G1 X174.146 Y70.227 E9.86928
G1 X174.885 Y71.784 E9.98659
G1 X175.305 Y73.454 E10.10385
G1 X175.389 Y75.171 E10.22091
G1 X175.139 Y76.873 E10.33809
G1 X174.560 Y78.493 E10.45523
G1 X173.676 Y79.972 E10.57258
G1 X172.518 Y81.252 E10.69008
G1 X171.140 Y82.275 E10.80696
G1 X169.583 Y83.008 E10.92413
G1 X167.909 Y83.434 E11.04175
G1 X166.275 Y83.514 E11.15315
G1 X166.164 Y84.077 F7200.000
G1 X164.352 Y83.810 E11.27787 F540.000
G1 X162.624 Y83.193 E11.40284
G1 X161.058 Y82.252 E11.52725
G1 X159.698 Y81.025 E11.65196
G1 X158.605 Y79.552 E11.77684
G1 X157.826 Y77.898 E11.90136
G1 X157.379 Y76.121 E12.02611
G1 X157.286 Y74.295 E12.15065
G1 X157.556 Y72.483 E12.27539
G1 X158.170 Y70.757 E12.40013
G1 X159.110 Y69.183 E12.52494
G1 X160.334 Y67.829 E12.64924
G1 X161.808 Y66.734 E12.77426
G1 X163.462 Y65.952 E12.89884
G1 X165.242 Y65.506 E13.02375
G1 X167.072 Y65.415 E13.14853
G1 X168.884 Y65.681 E13.27323
G1 X170.606 Y66.295 E13.39769
G1 X172.182 Y67.236 E13.52271
G1 X173.537 Y68.467 E13.64735
G1 X174.625 Y69.938 E13.77198
G1 X175.412 Y71.596 E13.89692
G1 X175.859 Y73.371 E14.02155
G1 X175.948 Y75.198 E14.14613
G1 X175.683 Y77.008 E14.27068
G1 X175.066 Y78.733 E14.39544
G1 X174.126 Y80.305 E14.52015
G1 X172.895 Y81.665 E14.64505
G1 X171.426 Y82.756 E14.76961
G1 X169.771 Y83.535 E14.89423
G1 X167.993 Y83.988 E15.01913
G1 X166.248 Y84.073 E15.13810
G1 X165.926 Y83.574 F7200.000
G1 F1800.000 E14.13810
G92 E0
G1 X138.377 Y71.772 F7200.000
G1 E1.00000 F1800.000
G1 X138.114 Y72.297 E1.03997 F540.000
G1 X137.805 Y72.653 E1.07205
G1 X137.466 Y72.949 E1.10266
G1 X136.844 Y73.274 E1.15048
G1 X136.710 Y73.274 E1.15960
G1 X136.574 Y73.315 E1.16927
G1 X136.098 Y73.359 E1.20182
G1 X135.703 Y73.334 E1.22880
G1 X135.180 Y73.177 E1.26594
G1 X134.752 Y72.960 E1.29861
G1 X134.377 Y72.631 E1.33261
G1 X134.090 Y72.278 E1.36361
G1 X133.880 Y71.877 E1.39441
G1 X133.727 Y71.423 E1.42701
G1 X133.688 Y70.936 E1.46027
G1 X133.727 Y70.464 E1.49252
G1 X133.880 Y69.996 E1.52608
G1 X134.090 Y69.608 E1.55605
G1 X134.377 Y69.241 E1.58783
G1 X134.765 Y68.917 E1.62223
G1 X135.175 Y68.712 E1.65345
G1 X135.689 Y68.544 E1.69024
G1 X136.097 Y68.515 E1.71812
G1 X136.521 Y68.543 E1.74702
G1 X137.039 Y68.708 E1.78408
G1 X137.379 Y68.890 E1.81030
G1 X137.598 Y68.927 E1.82547
G1 X138.127 Y69.613 E1.88448
G1 X138.324 Y69.978 E1.91273
G1 X138.473 Y70.463 E1.94727
G1 X138.533 Y70.942 E1.98015
G1 X138.470 Y71.422 E2.01308
G1 X138.398 Y71.692 E2.03208
G1 X137.850 Y71.586 F7200.000
G1 X137.650 Y71.982 E2.06226 F540.000
G1 X137.412 Y72.257 E2.08702
G1 X137.149 Y72.486 E2.11078
G1 X136.707 Y72.717 E2.14475
G1 X136.628 Y72.717 E2.15012
G1 X136.467 Y72.766 E2.16156
G1 X136.102 Y72.799 E2.18657
G1 X135.785 Y72.777 E2.20820
G1 X135.395 Y72.660 E2.23592
G1 X135.065 Y72.493 E2.26112
G1 X134.780 Y72.243 E2.28693
G1 X134.557 Y71.970 E2.31090
G1 X134.394 Y71.657 E2.33490
G1 X134.277 Y71.310 E2.35987
G1 X134.247 Y70.937 E2.38535
G1 X134.277 Y70.575 E2.41006
G1 X134.394 Y70.216 E2.43576
G1 X134.557 Y69.915 E2.45912
G1 X134.780 Y69.630 E2.48369
G1 X135.072 Y69.386 E2.50964
G1 X135.392 Y69.226 E2.53396
G1 X135.776 Y69.101 E2.56150
G1 X136.101 Y69.076 E2.58368
G1 X136.434 Y69.100 E2.60641
G1 X136.823 Y69.224 E2.63423
G1 X137.204 Y69.426 E2.66354
G1 X137.291 Y69.440 E2.66954
G1 X137.658 Y69.918 E2.71059
G1 X137.814 Y70.206 E2.73289
G1 X137.925 Y70.575 E2.75912
G1 X137.971 Y70.941 E2.78424
G1 X137.923 Y71.309 E2.80955
G1 X137.871 Y71.505 E2.82335
G1 X137.322 Y71.399 F7200.000
G1 X137.187 Y71.666 E2.84372 F540.000
G1 X137.019 Y71.860 E2.86117
G1 X136.832 Y72.023 E2.87809
G1 X136.570 Y72.160 E2.89819
G1 X136.361 Y72.216 E2.91297
G1 X136.105 Y72.239 E2.93043
G1 X135.867 Y72.220 E2.94671
G1 X135.609 Y72.143 E2.96501
G1 X135.377 Y72.026 E2.98274
G1 X135.182 Y71.855 E3.00037
G1 X135.025 Y71.662 E3.01732
G1 X134.908 Y71.438 E3.03451
G1 X134.827 Y71.197 E3.05184
G1 X134.806 Y70.938 E3.06955
G1 X134.827 Y70.686 E3.08673
G1 X134.908 Y70.437 E3.10457
G1 X135.025 Y70.221 E3.12130
G1 X135.182 Y70.020 E3.13866
G1 X135.380 Y69.855 E3.15617
G1 X135.608 Y69.741 E3.17359
G1 X135.864 Y69.658 E3.19188
G1 X136.105 Y69.636 E3.20836
G1 X136.347 Y69.657 E3.22492
G1 X136.607 Y69.740 E3.24351
G1 X136.829 Y69.858 E3.26059
G1 X136.935 Y69.945 E3.26995
G1 X136.983 Y69.953 E3.27328
G1 X137.189 Y70.222 E3.29635
G1 X137.304 Y70.433 E3.31271
G1 X137.378 Y70.686 E3.33064
G1 X137.409 Y70.939 E3.34799
G1 X137.343 Y71.319 E3.37423
G1 X137.508 Y71.634 F7200.000
G1 F1800.000 E2.37423
G92 E0
G1 X136.580 Y78.572 F7200.000
G1 E1.00000 F1800.000
