; generated by Slic3r 1.0.0RC3 on 2014-03-11 at 10:11:25

; layer_height = 0.3
; perimeters = 2
; top_solid_layers = 3
; bottom_solid_layers = 3
; fill_density = 0.1
; perimeter_speed = 60
; infill_speed = 60
; travel_speed = 120
; nozzle_diameter = 0.4
; filament_diameter = 1.75
; extrusion_multiplier = 0.98
; perimeters extrusion width = 0.40mm
; infill extrusion width = 0.42mm
; solid infill extrusion width = 0.42mm
; top infill extrusion width = 0.42mm
; first layer extrusion width = 0.60mm

G21 ; set units to millimeters
M107
M104 S220 ; set temperature
G28 ; home all axes
M106 S255;
G1 Z200 F1200 ; lift nozzle
M109 S220 ; wait for temperature to be reached
G90 ; use absolute coordinates
G92 E0
M82 ; use absolute distances for extrusion
G1 F1800.000 E-1.00000
G92 E0
G1 Z0.300 F7200.000
G1 X120.941 Y73.287 F7200.000
G1 E1.00000 F1800.000
G1 X122.021 Y72.157 E1.10644 F1080.000
G1 X134.221 Y62.107 E2.18273
G1 X135.271 Y61.407 E2.26866
G1 X136.431 Y60.917 E2.35441
G1 X137.671 Y60.657 E2.44068
G1 X138.931 Y60.647 E2.52648
G1 X140.171 Y60.867 E2.61223
G1 X141.341 Y61.327 E2.69783
G1 X142.411 Y61.997 E2.78380
G1 X143.321 Y62.867 E2.86952
G1 X163.741 Y86.287 E4.98529
G1 X167.651 Y90.997 E5.40212
G1 X179.881 Y106.097 E6.72526
G1 X183.561 Y110.717 E7.12744
G1 X184.261 Y111.817 E7.21622
G1 X184.741 Y113.027 E7.30486
G1 X184.971 Y114.307 E7.39342
G1 X184.941 Y115.607 E7.48196
G1 X184.651 Y116.877 E7.57066
G1 X184.121 Y118.067 E7.65937
G1 X183.361 Y119.127 E7.74818
G1 X156.561 Y149.707 E10.51693
G1 X155.411 Y150.747 E10.62251
G1 X154.051 Y151.477 E10.72762
G1 X152.551 Y151.877 E10.83332
G1 X151.011 Y151.917 E10.93822
G1 X143.351 Y151.187 E11.46217
G1 X141.981 Y150.907 E11.55739
G1 X140.711 Y150.347 E11.65190
G1 X116.371 Y136.387 E13.56252
G1 X115.311 Y135.627 E13.65133
G1 X114.421 Y134.677 E13.73997
G1 X113.741 Y133.577 E13.82803
G1 X113.291 Y132.357 E13.91657
G1 X113.081 Y131.077 E14.00489
G1 X112.451 Y120.177 E14.74834
G1 X112.451 Y119.437 E14.79873
G1 X112.531 Y118.707 E14.84873
G1 X119.721 Y76.127 E17.78915
G1 X120.161 Y74.637 E17.89494
G1 X120.899 Y73.359 E17.99542
G1 F1800.000 E16.99542
G92 E0
G1 X152.755 Y114.011 F7200.000
G1 E1.00000 F1800.000
G1 X153.487 Y113.630 E1.05617 F540.000
G1 X154.314 Y113.542 E1.11278
G1 X155.102 Y113.786 E1.16898
G1 X155.751 Y114.302 E1.22539
G1 X156.142 Y115.040 E1.28226
G1 X156.230 Y115.863 E1.33866
G1 X155.986 Y116.665 E1.39569
G1 X155.465 Y117.308 E1.45209
G1 X154.725 Y117.707 E1.50933
G1 X153.899 Y117.781 E1.56580
G1 X153.106 Y117.551 E1.62203
G1 X152.461 Y117.018 E1.67897
G1 X152.070 Y116.286 E1.73548
G1 X151.985 Y115.461 E1.79198
G1 X152.228 Y114.661 E1.84890
G1 X152.703 Y114.076 E1.90023
G1 X153.115 Y114.452 F7200.000
G1 X153.651 Y114.173 E1.94135 F540.000
G1 X154.259 Y114.108 E1.98297
G1 X154.838 Y114.287 E2.02423
G1 X155.313 Y114.665 E2.06559
G1 X155.599 Y115.206 E2.10723
G1 X155.664 Y115.810 E2.14860
G1 X155.485 Y116.398 E2.19049
G1 X155.102 Y116.871 E2.23188
G1 X154.561 Y117.162 E2.27374
G1 X153.954 Y117.217 E2.31528
G1 X153.372 Y117.048 E2.35653
G1 X152.900 Y116.659 E2.39815
G1 X152.613 Y116.120 E2.43971
G1 X152.550 Y115.516 E2.48111
G1 X152.729 Y114.928 E2.52296
G1 X153.063 Y114.517 E2.55900
G1 X153.064 Y113.897 F7200.000
G1 F1800.000 E1.55900
G92 E0
G1 X158.265 Y118.331 F7200.000
G1 E1.00000 F1800.000
G1 X157.109 Y132.216 E1.94876 F1080.000
G1 X152.090 Y131.731 E2.29208
G1 X150.862 Y144.457 E3.16262
G1 X144.915 Y143.887 E3.56940
G1 X146.142 Y131.160 E4.43999
G1 X141.201 Y130.682 E4.77806
G1 X142.804 Y114.107 E5.91196
G1 X153.793 Y95.735 E7.36968
G1 X158.683 Y91.795 E7.79729
G1 X161.349 Y95.018 E8.08213
G1 X157.031 Y98.483 E8.45914
G1 X157.691 Y99.323 E8.53187
G1 X169.710 Y114.141 E9.83101
G1 X170.333 Y114.931 E9.89957
G1 X174.658 Y111.444 E10.27787
G1 X177.233 Y114.682 E10.55957
G1 X172.463 Y118.522 E10.97655
G1 X158.349 Y118.332 E11.93768
G1 X158.777 Y118.895 F7200.000
G1 X157.617 Y132.825 E12.88948 F540.000
G1 X152.591 Y132.340 E13.23331
G1 X151.362 Y145.065 E14.10388
G1 X144.307 Y144.387 E14.58649
G1 X145.534 Y131.661 E15.45707
G1 X140.592 Y131.183 E15.79514
G1 X142.261 Y113.929 E16.97551
G1 X153.366 Y95.364 E18.44854
G1 X158.760 Y91.013 E18.92042
G1 X162.132 Y95.090 E19.28073
G1 X157.811 Y98.571 E19.65854
G1 X163.910 Y106.111 E20.31891
G1 X170.419 Y114.140 E21.02271
G1 X174.745 Y110.659 E21.40083
G1 X178.013 Y114.768 E21.75824
G1 X172.655 Y119.082 E22.22661
G1 X158.861 Y118.896 E23.16599
G1 X158.221 Y118.862 F7200.000
G1 F1800.000 E22.16599
G92 E0
G1 X135.586 Y100.799 F7200.000
G1 E1.00000 F1800.000
G1 X135.328 Y101.113 E1.02768 F540.000
G1 X135.007 Y101.385 E1.05637
G1 X134.634 Y101.572 E1.08475
G1 X134.259 Y101.695 E1.11160
G1 X133.804 Y101.739 E1.14274
G1 X133.419 Y101.695 E1.16912
G1 X133.029 Y101.572 E1.19695
G1 X132.667 Y101.384 E1.22474
G1 X132.338 Y101.115 E1.25368
G1 X132.081 Y100.794 E1.28166
G1 X131.883 Y100.431 E1.30986
G1 X131.768 Y100.039 E1.33767
G1 X131.720 Y99.620 E1.36636
G1 X131.768 Y99.205 E1.39479
G1 X131.883 Y98.816 E1.42242
G1 X132.081 Y98.454 E1.45055
G1 X132.342 Y98.129 E1.47891
G1 X132.660 Y97.866 E1.50704
G1 X133.032 Y97.675 E1.53551
G1 X133.417 Y97.554 E1.56297
G1 X133.832 Y97.509 E1.59137
G1 X134.261 Y97.554 E1.62077
G1 X134.631 Y97.675 E1.64727
G1 X135.007 Y97.860 E1.67578
G1 X135.330 Y98.137 E1.70477
G1 X135.586 Y98.449 E1.73227
G1 X135.789 Y98.819 E1.76101
G1 X135.901 Y99.212 E1.78883
G1 X135.945 Y99.620 E1.81678
G1 X135.902 Y100.032 E1.84498
G1 X135.789 Y100.428 E1.87299
G1 X135.626 Y100.726 E1.89611
G1 X135.144 Y100.448 F7200.000
G1 X134.930 Y100.720 E1.91972 F540.000
G1 X134.697 Y100.917 E1.94044
G1 X134.421 Y101.055 E1.96146
G1 X134.143 Y101.146 E1.98138
G1 X133.823 Y101.177 E2.00331
G1 X133.532 Y101.146 E2.02322
G1 X133.242 Y101.055 E2.04390
G1 X132.975 Y100.917 E2.06440
G1 X132.737 Y100.721 E2.08541
G1 X132.546 Y100.484 E2.10610
G1 X132.400 Y100.216 E2.12686
G1 X132.316 Y99.928 E2.14730
G1 X132.281 Y99.621 E2.16838
G1 X132.316 Y99.317 E2.18920
G1 X132.400 Y99.031 E2.20949
G1 X132.546 Y98.764 E2.23023
G1 X132.738 Y98.525 E2.25105
G1 X132.973 Y98.331 E2.27183
G1 X133.243 Y98.192 E2.29252
G1 X133.531 Y98.102 E2.31308
G1 X133.832 Y98.069 E2.33371
G1 X134.144 Y98.102 E2.35504
G1 X134.420 Y98.192 E2.37484
G1 X134.697 Y98.329 E2.39586
G1 X134.930 Y98.528 E2.41674
G1 X135.123 Y98.762 E2.43737
G1 X135.270 Y99.032 E2.45833
G1 X135.353 Y99.319 E2.47865
G1 X135.385 Y99.621 E2.49930
G1 X135.353 Y99.926 E2.52020
G1 X135.270 Y100.215 E2.54068
G1 X135.184 Y100.374 E2.55301
G1 X135.290 Y100.762 F7200.000
G1 F1800.000 E1.55301
G92 E0
G1 X136.225 Y109.581 F7200.000
G1 E1.00000 F1800.000
G1 X132.262 Y122.362 E1.91115 F1080.000
G1 X128.635 Y121.422 E2.16634
G1 X126.025 Y131.475 E2.87353
G1 X120.679 Y130.089 E3.24953
G1 X123.288 Y120.033 E3.95694
G1 X119.988 Y119.176 E4.18905
G1 X123.504 Y100.105 E5.50954
G1 X126.992 Y77.670 E7.05549
G1 X135.216 Y70.884 E7.78150
G1 X138.265 Y68.391 E8.04972
G1 X140.747 Y71.407 E8.31572
G1 X138.026 Y73.627 E8.55488
G1 X137.062 Y74.444 E8.64089
G1 X137.793 Y75.350 E8.72015
G1 X150.510 Y90.745 E10.07985
G1 X154.196 Y87.724 E10.40439
G1 X156.684 Y90.746 E10.67094
G1 X152.269 Y94.366 E11.05973
G1 X136.285 Y109.524 E12.55967
G1 X136.714 Y109.885 F7200.000
G1 X132.637 Y123.035 E13.49710 F540.000
G1 X129.034 Y122.101 E13.75055
G1 X126.424 Y132.154 E14.45772
G1 X120.001 Y130.488 E14.90957
G1 X122.609 Y120.432 E15.61696
G1 X119.347 Y119.585 E15.84645
G1 X122.955 Y100.011 E17.20172
G1 X126.474 Y77.376 E18.76155
G1 X134.864 Y70.452 E19.50227
G1 X138.342 Y67.608 E19.80817
G1 X141.530 Y71.482 E20.14988
G1 X137.839 Y74.516 E20.47520
G1 X138.230 Y75.005 E20.51783
G1 X150.583 Y89.963 E21.83879
G1 X154.272 Y86.939 E22.16356
G1 X157.469 Y90.822 E22.50598
G1 X152.643 Y94.780 E22.93097
G1 X136.774 Y109.828 E24.42007
G1 X136.157 Y109.915 F7200.000
G1 F1800.000 E23.42007
G92 E0
G1 X145.541 Y110.298 F7200.000
G1 E1.00000 F1800.000
G1 X151.731 Y116.489 E1.60188 F1080.000
G1 X151.599 Y115.561 E1.66629
G1 X145.839 Y109.801 E2.22639
G1 X146.136 Y109.303 E2.26627
G1 X151.741 Y114.908 E2.81124
G1 X151.976 Y114.347 E2.85304
G1 X146.434 Y108.805 E3.39186
G1 X146.732 Y108.307 E3.43174
G1 X152.332 Y113.908 E3.97626
G1 X152.776 Y113.556 E4.01520
G1 X147.030 Y107.810 E4.57394
G1 X147.327 Y107.312 E4.61382
G1 X153.299 Y113.284 E5.19447
G1 X153.991 Y113.180 E5.24258
G1 X147.625 Y106.814 E5.86157
G1 F1800.000 E4.86157
G92 E0
G1 X154.925 Y113.319 F7200.000
G1 E1.00000 F1800.000
G1 X147.923 Y106.316 E1.68087 F1080.000
G1 X148.220 Y105.819 E1.72074
G1 X160.367 Y117.965 E2.90180
G1 X161.174 Y117.976 E2.95724
G1 X148.518 Y105.321 E4.18774
G1 X148.816 Y104.823 E4.22762
G1 X161.980 Y117.987 E5.50758
G1 X162.786 Y117.998 E5.56302
G1 X149.114 Y104.325 E6.89243
G1 X149.411 Y103.828 E6.93230
G1 X163.593 Y118.009 E8.31116
G1 X164.399 Y118.020 E8.36661
G1 X149.709 Y103.330 E9.79492
G1 X150.007 Y102.832 E9.83479
G1 X165.205 Y118.030 E11.31256
G1 X166.012 Y118.041 E11.36800
G1 X150.305 Y102.334 E12.89521
G1 X150.602 Y101.837 E12.93509
G1 X166.818 Y118.052 E14.51175
G1 X167.624 Y118.063 E14.56719
G1 X150.900 Y101.339 E16.19331
G1 X151.198 Y100.841 E16.23319
G1 X168.430 Y118.074 E17.90875
G1 X169.237 Y118.085 E17.96420
G1 X151.496 Y100.343 E19.68921
G1 X151.793 Y99.846 E19.72909
G1 X170.043 Y118.096 E21.50356
G1 X170.849 Y118.106 E21.55900
G1 X152.091 Y99.348 E23.38292
G1 X152.389 Y98.850 E23.42280
G1 X171.656 Y118.117 E25.29617
G1 X172.400 Y118.066 E25.34749
G1 X152.686 Y98.352 E27.26431
G1 X152.984 Y97.855 E27.30419
G1 X168.912 Y113.783 E28.85292
G1 F1800.000 E27.85292
G92 E0
G1 X170.462 Y115.333 F7200.000
G1 E1.00000 F1800.000
G1 X172.841 Y117.712 E1.23128 F1080.000
G1 X173.282 Y117.357 E1.27017
G1 X170.903 Y114.978 E1.50148
G1 X171.343 Y114.623 E1.54038
G1 X173.722 Y117.002 E1.77172
G1 X174.163 Y116.647 E1.81062
G1 X171.784 Y114.268 E2.04199
G1 X172.224 Y113.912 E2.08089
G1 X174.604 Y116.292 E2.31229
G1 X175.045 Y115.938 E2.35119
G1 X172.664 Y113.557 E2.58263
G1 X173.105 Y113.202 E2.62152
G1 X175.485 Y115.583 E2.85300
G1 X175.926 Y115.228 E2.89189
G1 X173.545 Y112.847 E3.12340
G1 X173.985 Y112.492 E3.16229
G1 X176.367 Y114.873 E3.39383
G1 X175.793 Y113.504 F7200.000
G1 X174.426 Y112.137 E3.52675 F1080.000
G1 F1800.000 E2.52675
G92 E0
G1 X165.498 Y109.573 F7200.000
G1 E1.00000 F1800.000
G1 X153.282 Y97.357 E2.18775 F1080.000
G1 X153.580 Y96.859 E2.22762
G1 X162.083 Y105.362 E3.05438
G1 F1800.000 E2.05438
G92 E0
G1 X158.668 Y101.152 F7200.000
G1 E1.00000 F1800.000
G1 X153.877 Y96.361 E1.46577 F1080.000
G1 X154.214 Y95.902 E1.50490
G1 X156.620 Y98.308 E1.73885
G1 X157.061 Y97.954 E1.77776
G1 X154.654 Y95.547 E2.01178
G1 X155.095 Y95.192 E2.05067
G1 X157.502 Y97.600 E2.28476
G1 X157.944 Y97.246 E2.32367
G1 X155.535 Y94.837 E2.55783
G1 X155.976 Y94.483 E2.59673
G1 X158.385 Y96.892 E2.83096
G1 X158.826 Y96.537 E2.86987
G1 X156.416 Y94.128 E3.10417
G1 X156.857 Y93.773 E3.14307
G1 X159.268 Y96.183 E3.37744
G1 X159.709 Y95.829 E3.41635
G1 X157.298 Y93.418 E3.65080
G1 X157.738 Y93.063 E3.68969
G1 X160.150 Y95.475 E3.92421
G1 X160.591 Y95.121 E3.96312
G1 X158.179 Y92.708 E4.19771
G1 X158.619 Y92.353 E4.23660
G1 X158.701 Y92.435 E4.24457
G1 F1800.000 E3.24457
G92 E0
G1 X156.521 Y114.915 F7200.000
G1 E1.00000 F1800.000
G1 X159.561 Y117.955 E1.29555 F1080.000
G1 X158.755 Y117.944 E1.35099
G1 X156.620 Y115.809 E1.55854
G1 X156.464 Y116.448 E1.60377
G1 X157.948 Y117.933 E1.74812
G1 X157.845 Y118.625 E1.79627
G1 X156.221 Y117.001 E1.95424
G1 X155.865 Y117.440 E1.99313
G1 X157.784 Y119.360 E2.17978
G1 X157.723 Y120.094 E2.23044
G1 X155.413 Y117.784 E2.45510
G1 X154.896 Y118.062 E2.49547
G1 X157.662 Y120.828 E2.76444
G1 X157.601 Y121.563 E2.81510
G1 X154.189 Y118.151 E3.14689
G1 X153.243 Y118.001 E3.21268
G1 X157.540 Y122.297 E3.63043
G1 X157.479 Y123.031 E3.68109
G1 X145.243 Y110.796 E4.87076
G1 X144.945 Y111.294 E4.91064
G1 X157.417 Y123.766 E6.12331
G1 X157.356 Y124.500 E6.17397
G1 X144.648 Y111.792 E7.40965
G1 X144.350 Y112.289 E7.44952
G1 X157.295 Y125.234 E8.70820
G1 X157.234 Y125.969 E8.75887
G1 X144.052 Y112.787 E10.04055
G1 X143.755 Y113.285 E10.08042
G1 X157.173 Y126.703 E11.38511
G1 X157.112 Y127.437 E11.43577
G1 X143.457 Y113.783 E12.76346
G1 X143.180 Y114.302 E12.80389
G1 X157.051 Y128.172 E14.15250
G1 X156.989 Y128.906 E14.20317
G1 X143.110 Y115.027 E15.55266
G1 X143.040 Y115.752 E15.60276
G1 X156.928 Y129.640 E16.95312
G1 X156.867 Y130.375 E17.00378
G1 X142.970 Y116.478 E18.35502
G1 X142.900 Y117.203 E18.40512
G1 X156.806 Y131.109 E19.75723
G1 X156.681 Y131.779 E19.80411
G1 X142.830 Y117.928 E21.15087
G1 X142.760 Y118.654 E21.20097
G1 X155.800 Y131.694 E22.46893
G1 X154.920 Y131.609 E22.52975
G1 X142.689 Y119.379 E23.71892
G1 X142.619 Y120.104 E23.76902
G1 X154.039 Y131.524 E24.87938
G1 X153.158 Y131.439 E24.94020
G1 X142.549 Y120.830 E25.97177
G1 X142.479 Y121.555 E26.02187
G1 X152.278 Y131.354 E26.97464
G1 X151.709 Y131.581 E27.01673
G1 X142.409 Y122.280 E27.92103
G1 X142.339 Y123.006 E27.97113
G1 X151.639 Y132.306 E28.87543
G1 X151.569 Y133.032 E28.92554
G1 X142.269 Y123.731 E29.82986
G1 X142.198 Y124.456 E29.87996
G1 X151.499 Y133.757 E30.78428
G1 X151.429 Y134.482 E30.83439
G1 X142.128 Y125.182 E31.73873
G1 X142.058 Y125.907 E31.78883
G1 X151.359 Y135.208 E32.69318
G1 X151.289 Y135.933 E32.74329
G1 X146.536 Y131.180 E33.20542
G1 X146.466 Y131.906 E33.25553
G1 X151.219 Y136.659 E33.71766
G1 X151.149 Y137.384 E33.76777
G1 X146.396 Y132.631 E34.22988
G1 X146.326 Y133.357 E34.28000
G1 X151.079 Y138.110 E34.74211
G1 X151.009 Y138.835 E34.79222
G1 X146.256 Y134.083 E35.25432
G1 X146.186 Y134.808 E35.30443
G1 X150.939 Y139.561 E35.76653
G1 X150.869 Y140.286 E35.81664
G1 X146.116 Y135.534 E36.27873
G1 X146.046 Y136.259 E36.32884
G1 X150.799 Y141.011 E36.79092
G1 X150.729 Y141.737 E36.84103
G1 X145.976 Y136.985 E37.30310
G1 X145.907 Y137.710 E37.35322
G1 X150.659 Y142.462 E37.81528
G1 X150.589 Y143.188 E37.86539
G1 X145.837 Y138.436 E38.32745
G1 X145.767 Y139.161 E38.37757
G1 X150.519 Y143.913 E38.83962
G1 X149.766 Y143.956 E38.89143
G1 X145.697 Y139.887 E39.28713
G1 X145.627 Y140.612 E39.33725
G1 X148.886 Y143.872 E39.65420
G1 X148.007 Y143.788 E39.71497
G1 X145.557 Y141.338 E39.95318
G1 X145.487 Y142.063 E40.00329
G1 X147.127 Y143.703 E40.16275
G1 X146.247 Y143.619 E40.22352
G1 X145.417 Y142.789 E40.30424
G1 X145.347 Y143.514 E40.35435
G1 X145.367 Y143.535 E40.35632
G1 F1800.000 E39.35632
G92 E0
G1 X141.637 Y130.259 F7200.000
G1 E1.00000 F1800.000
G1 X141.715 Y130.336 E1.00754 F1080.000
G1 X142.595 Y130.422 E1.06837
G1 X141.707 Y129.534 E1.15471
G1 X141.778 Y128.808 E1.20481
G1 X143.476 Y130.507 E1.36996
G1 X144.357 Y130.592 E1.43079
G1 X141.848 Y128.083 E1.67475
G1 X141.918 Y127.358 E1.72485
G1 X145.237 Y130.677 E2.04762
G1 X146.118 Y130.762 E2.10845
G1 X141.988 Y126.632 E2.51002
G1 F1800.000 E1.51002
G92 E0
G1 X121.186 Y129.813 F7200.000
G1 E1.00000 F1800.000
G1 X121.163 Y129.791 E1.00215 F1080.000
G1 X121.327 Y129.160 E1.04693
G1 X122.258 Y130.092 E1.13739
G1 X123.331 Y130.370 E1.21351
G1 X121.491 Y128.529 E1.39228
G1 X121.654 Y127.898 E1.43706
G1 X124.404 Y130.648 E1.70414
G1 X125.477 Y130.926 E1.78027
G1 X121.818 Y127.267 E2.13566
G1 X121.982 Y126.636 E2.18044
G1 X125.866 Y130.520 E2.55768
G1 X126.029 Y129.889 E2.60245
G1 X122.145 Y126.005 E2.97971
G1 X122.309 Y125.374 E3.02449
G1 X126.193 Y129.258 E3.40176
G1 X126.357 Y128.627 E3.44653
G1 X122.473 Y124.743 E3.82382
G1 X122.636 Y124.112 E3.86860
G1 X126.521 Y127.996 E4.24590
G1 X126.685 Y127.366 E4.29066
G1 X122.800 Y123.481 E4.66798
G1 X122.964 Y122.850 E4.71275
G1 X126.848 Y126.735 E5.09008
G1 X127.012 Y126.104 E5.13485
G1 X123.127 Y122.219 E5.51219
G1 X123.291 Y121.588 E5.55696
G1 X127.176 Y125.473 E5.93432
G1 X127.340 Y124.842 E5.97909
G1 X123.455 Y120.957 E6.35645
G1 X123.618 Y120.326 E6.40123
G1 X127.504 Y124.211 E6.77861
G1 X127.667 Y123.580 E6.82338
G1 X120.836 Y116.749 E7.48691
G1 X120.960 Y116.078 E7.53377
G1 X127.831 Y122.949 E8.20120
G1 X127.995 Y122.319 E8.24597
G1 X121.084 Y115.407 E8.91730
G1 X121.207 Y114.736 E8.96416
G1 X128.159 Y121.688 E9.63939
G1 X128.323 Y121.057 E9.68415
