; generated by Slic3r 1.2.9 on 2017-02-05 at 23:50:05

; external perimeters extrusion width = 0.40mm
; perimeters extrusion width = 0.48mm
; infill extrusion width = 0.48mm
; solid infill extrusion width = 0.48mm
; top infill extrusion width = 0.48mm

M107
M104 S220 ; set temperature
G28 ; home all axes
M106 S255;
G1 Z200 F1200 ; lift nozzle
M109 S220 ; wait for temperature to be reached
G21 ; set units to millimeters
G90 ; use absolute coordinates
M82 ; use absolute distances for extrusion
G92 E0
G1 Z0.400 F7200.000
G1 E-1.00000 F2400.00000
G92 E0
G1 X14.970 Y8.540 F7200.000
G1 E1.00000 F2400.00000
G1 X15.001 Y8.485 E1.00728 F1800.000
G1 X16.757 Y6.986 E1.27602
G1 X18.917 Y6.170 E1.54476
G1 X20.174 Y6.051 E1.69173
G1 X60.174 Y6.051 E6.34733
G1 X62.448 Y6.448 E6.61607
G1 X64.454 Y7.593 E6.88481 F1800.000
G1 X65.953 Y9.348 E7.15355
G1 X66.769 Y11.508 E7.42229
G1 X66.888 Y12.759 E7.56850
G1 X66.990 Y118.172 E19.83746
G1 X66.990 Y208.172 E30.31255
G1 X66.593 Y210.446 E30.58129
G1 X65.449 Y212.452 E30.85003
G1 X63.693 Y213.951 E31.11877
G1 X61.533 Y214.767 E31.38751
G1 X60.276 Y214.886 E31.53448
G1 X20.276 Y214.886 E36.19007
G1 X18.001 Y214.489 E36.45882
G1 X15.996 Y213.345 E36.72756
G1 X14.496 Y211.589 E36.99630
G1 X13.680 Y209.429 E37.26504
G1 X13.562 Y208.178 E37.41125
G1 X13.460 Y102.772 E49.67946
G1 X13.460 Y12.766 E60.15530
G1 X13.857 Y10.491 E60.42404
G1 X14.940 Y8.592 E60.67851
G1 E59.67851 F2400.00000
G92 E0
G1 X35.187 Y153.172 F7200.000
G1 E1.00000 F2400.00000
G1 X33.756 Y152.596 E1.17958 F1800.000
G1 X32.556 Y151.991 E1.33597
G1 X31.412 Y151.287 E1.49236
G1 X30.331 Y150.488 E1.64875
G1 X29.342 Y149.617 E1.80220
G1 X28.394 Y148.631 E1.96135
G1 X27.549 Y147.585 E2.11792
G1 X26.796 Y146.471 E2.27431
G1 X26.141 Y145.298 E2.43070
G1 X25.587 Y144.074 E2.58709
G1 X25.140 Y142.807 E2.74348
G1 X24.801 Y141.507 E2.89987
G1 X24.574 Y140.182 E3.05627
G1 X24.460 Y138.843 E3.21266
G1 X24.460 Y137.500 E3.36905
G1 X24.574 Y136.161 E3.52544
G1 X24.797 Y134.862 E3.67889
G1 X25.139 Y133.538 E3.83804
G1 X25.587 Y132.269 E3.99461
G1 X26.141 Y131.045 E4.15100
G1 X26.796 Y129.872 E4.30739
G1 X27.549 Y128.759 E4.46378
G1 X28.393 Y127.713 E4.62017
G1 X29.323 Y126.743 E4.77656
G1 X30.331 Y125.855 E4.93295
G1 X31.412 Y125.056 E5.08934
G1 X32.615 Y124.315 E5.25389
G1 X33.760 Y123.745 E5.40268
G1 X35.002 Y123.246 E5.55855
G1 X36.287 Y122.852 E5.71494
G1 X37.602 Y122.569 E5.87151
G1 X38.959 Y122.398 E6.03066
G1 X40.276 Y122.342 E6.18410
G1 X41.618 Y122.399 E6.34050
G1 X42.951 Y122.569 E6.49689
G1 X44.265 Y122.852 E6.65328
G1 X45.550 Y123.246 E6.80967
G1 X46.796 Y123.747 E6.96606
G1 X47.996 Y124.352 E7.12245
G1 X49.140 Y125.056 E7.27884
G1 X50.221 Y125.855 E7.43524
G1 X51.229 Y126.743 E7.59163
G1 X52.159 Y127.713 E7.74802
G1 X53.003 Y128.759 E7.90441
G1 X53.756 Y129.872 E8.06080
G1 X54.411 Y131.045 E8.21719
G1 X54.964 Y132.269 E8.37358
G1 X55.412 Y133.536 E8.52998
G1 X55.751 Y134.837 E8.68637
G1 X55.978 Y136.161 E8.84276
G1 X56.092 Y137.500 E8.99915
G1 X56.092 Y138.843 E9.15554
G1 X55.978 Y140.182 E9.31193
G1 X55.751 Y141.507 E9.46832
G1 X55.412 Y142.807 E9.62471
G1 X54.973 Y144.050 E9.77816
G1 X54.412 Y145.297 E9.93731
G1 X53.756 Y146.471 E10.09388
G1 X53.003 Y147.585 E10.25027
G1 X52.159 Y148.630 E10.40666
G1 X51.229 Y149.600 E10.56305
G1 X50.221 Y150.488 E10.71944
G1 X49.140 Y151.287 E10.87584
G1 X47.996 Y151.991 E11.03223
G1 X46.796 Y152.596 E11.18862
G1 X45.365 Y153.172 E11.36820
G1 X46.798 Y153.747 E11.54795
G1 X48.018 Y154.365 E11.70710
G1 X49.140 Y155.056 E11.86055
G1 X50.221 Y155.855 E12.01694
G1 X51.229 Y156.743 E12.17333
G1 X52.159 Y157.713 E12.32972
G1 X53.003 Y158.759 E12.48612
G1 X53.741 Y159.851 E12.63956
G1 X54.410 Y161.044 E12.79871
G1 X54.964 Y162.269 E12.95528
G1 X55.412 Y163.536 E13.11167
G1 X55.751 Y164.837 E13.26806
G1 X55.978 Y166.161 E13.42445
G1 X56.092 Y167.500 E13.58085
G1 X56.092 Y168.843 E13.73724
G1 X55.978 Y170.182 E13.89363
G1 X55.751 Y171.507 E14.05002
G1 X55.412 Y172.807 E14.20641
G1 X54.964 Y174.074 E14.36280
G1 X54.411 Y175.298 E14.51919
G1 X53.756 Y176.471 E14.67558
G1 X53.003 Y177.585 E14.83198
G1 X52.159 Y178.630 E14.98837
G1 X51.228 Y179.601 E15.14494
G1 X50.200 Y180.503 E15.30408
G1 X49.140 Y181.287 E15.45753
G1 X47.996 Y181.991 E15.61392
G1 X46.796 Y182.596 E15.77032
G1 X45.550 Y183.097 E15.92671
G1 X44.265 Y183.491 E16.08310
G1 X42.951 Y183.774 E16.23949
G1 X41.618 Y183.945 E16.39588
G1 X40.276 Y184.002 E16.55227
G1 X38.933 Y183.945 E16.70866
G1 X37.601 Y183.774 E16.86505
G1 X36.287 Y183.491 E17.02145
G1 X35.002 Y183.097 E17.17784
G1 X33.756 Y182.596 E17.33423
G1 X32.556 Y181.991 E17.49062
G1 X31.412 Y181.287 E17.64701
G1 X30.331 Y180.488 E17.80340
G1 X29.323 Y179.600 E17.95980
G1 X28.410 Y178.648 E18.11324
G1 X27.550 Y177.586 E18.27239
G1 X26.796 Y176.471 E18.42896
G1 X26.141 Y175.298 E18.58535
G1 X25.587 Y174.074 E18.74174
G1 X25.140 Y172.807 E18.89813
G1 X24.801 Y171.507 E19.05453
G1 X24.574 Y170.182 E19.21092
G1 X24.460 Y168.843 E19.36731
G1 X24.460 Y167.500 E19.52370
G1 X24.574 Y166.161 E19.68009
G1 X24.797 Y164.862 E19.83354
G1 X25.139 Y163.538 E19.99269
G1 X25.587 Y162.269 E20.14925
G1 X26.141 Y161.045 E20.30565
G1 X26.796 Y159.872 E20.46204
G1 X27.549 Y158.759 E20.61843
G1 X28.393 Y157.713 E20.77482
G1 X29.323 Y156.743 E20.93121
G1 X30.331 Y155.855 E21.08760
G1 X31.412 Y155.056 E21.24399
G1 X32.556 Y154.352 E21.40039
G1 X33.756 Y153.747 E21.55678
G1 X35.132 Y153.194 E21.72937
G1 X37.393 Y152.999 F7200.000
G1 X36.467 Y152.799 E21.83962 F1800.000
G1 X35.240 Y152.423 E21.98895
G1 X34.050 Y151.945 E22.13828
G1 X32.904 Y151.367 E22.28761
G1 X31.812 Y150.695 E22.43694
G1 X30.780 Y149.932 E22.58627
G1 X29.836 Y149.100 E22.73273
G1 X28.930 Y148.159 E22.88481
G1 X28.123 Y147.160 E23.03425
G1 X27.405 Y146.097 E23.18358
G1 X26.779 Y144.977 E23.33291
G1 X26.251 Y143.807 E23.48224
G1 X25.823 Y142.598 E23.63157
G1 X25.500 Y141.356 E23.78090
G1 X25.283 Y140.092 E23.93023
G1 X25.174 Y138.813 E24.07956
G1 X25.174 Y137.530 E24.22889
G1 X25.283 Y136.252 E24.37822
G1 X25.496 Y135.012 E24.52467
G1 X25.823 Y133.746 E24.67676
G1 X26.251 Y132.536 E24.82620
G1 X26.779 Y131.367 E24.97552
G1 X27.405 Y130.247 E25.12485
G1 X28.123 Y129.184 E25.27418
G1 X28.929 Y128.185 E25.42351
G1 X29.817 Y127.259 E25.57284
G1 X30.780 Y126.411 E25.72217
G1 X31.812 Y125.649 E25.87150
G1 X32.963 Y124.940 E26.02878
G1 X34.053 Y124.397 E26.17051
G1 X35.240 Y123.920 E26.31952
G1 X36.467 Y123.544 E26.46885
G1 X37.722 Y123.274 E26.61829
G1 X39.019 Y123.110 E26.77037
G1 X40.276 Y123.056 E26.91683
G1 X41.558 Y123.111 E27.06616
G1 X42.830 Y123.274 E27.21549
G1 X44.085 Y123.544 E27.36482
G1 X45.311 Y123.920 E27.51415
G1 X46.502 Y124.398 E27.66348
G1 X47.648 Y124.976 E27.81280
G1 X48.740 Y125.649 E27.96213
G1 X49.772 Y126.411 E28.11146
G1 X50.735 Y127.259 E28.26079
G1 X51.622 Y128.185 E28.41012
G1 X52.428 Y129.184 E28.55945
G1 X53.147 Y130.247 E28.70878
G1 X53.773 Y131.367 E28.85811
G1 X54.301 Y132.536 E29.00744
G1 X54.729 Y133.746 E29.15677
G1 X55.052 Y134.987 E29.30610
G1 X55.269 Y136.252 E29.45543
G1 X55.377 Y137.530 E29.60476
G1 X55.377 Y138.813 E29.75409
G1 X55.269 Y140.092 E29.90342
G1 X55.052 Y141.356 E30.05275
G1 X54.729 Y142.598 E30.20208
G1 X54.309 Y143.784 E30.34853
G1 X53.773 Y144.976 E30.50062
G1 X53.147 Y146.097 E30.65006
G1 X52.428 Y147.160 E30.79939
G1 X51.622 Y148.158 E30.94872
G1 X50.735 Y149.084 E31.09805
G1 X49.772 Y149.932 E31.24737
G1 X48.740 Y150.695 E31.39670
G1 X47.648 Y151.367 E31.54603
G1 X46.502 Y151.945 E31.69536
G1 X45.311 Y152.423 E31.84469
G1 X44.085 Y152.799 E31.99402
G1 X43.159 Y152.999 E32.10427
G1 X43.159 Y153.345 E32.14454
G1 X44.085 Y153.544 E32.25479
G1 X45.311 Y153.920 E32.40412
G1 X46.503 Y154.399 E32.55356
G1 X47.669 Y154.989 E32.70564
G1 X48.740 Y155.649 E32.85210
G1 X49.772 Y156.411 E33.00143
G1 X50.735 Y157.259 E33.15076
G1 X51.622 Y158.185 E33.30009
G1 X52.428 Y159.184 E33.44942
G1 X53.133 Y160.226 E33.59587
G1 X53.772 Y161.366 E33.74796
G1 X54.301 Y162.536 E33.89740
G1 X54.729 Y163.746 E34.04673
G1 X55.052 Y164.987 E34.19606
G1 X55.269 Y166.252 E34.34539
G1 X55.377 Y167.530 E34.49472
G1 X55.377 Y168.813 E34.64404
G1 X55.269 Y170.092 E34.79337
G1 X55.052 Y171.356 E34.94270
G1 X54.729 Y172.598 E35.09203
G1 X54.301 Y173.807 E35.24136
G1 X53.773 Y174.977 E35.39069
G1 X53.147 Y176.097 E35.54002
G1 X52.428 Y177.160 E35.68935
G1 X51.622 Y178.158 E35.83868
G1 X50.734 Y179.085 E35.98812
G1 X49.752 Y179.946 E36.14020
G1 X48.740 Y180.695 E36.28666
G1 X47.648 Y181.367 E36.43599
G1 X46.502 Y181.945 E36.58532
G1 X45.311 Y182.423 E36.73465
G1 X44.085 Y182.799 E36.88398
G1 X42.830 Y183.069 E37.03331
G1 X41.558 Y183.232 E37.18264
G1 X40.276 Y183.287 E37.33197
G1 X38.994 Y183.232 E37.48130
G1 X37.721 Y183.069 E37.63063
G1 X36.467 Y182.799 E37.77996
G1 X35.240 Y182.423 E37.92929
G1 X34.050 Y181.945 E38.07862
G1 X32.904 Y181.367 E38.22794
G1 X31.812 Y180.695 E38.37727
G1 X30.780 Y179.932 E38.52660
G1 X29.817 Y179.084 E38.67593
G1 X28.946 Y178.176 E38.82239
G1 X28.124 Y177.160 E38.97447
G1 X27.405 Y176.097 E39.12391
G1 X26.779 Y174.977 E39.27324
G1 X26.251 Y173.807 E39.42257
G1 X25.823 Y172.598 E39.57190
G1 X25.500 Y171.356 E39.72123
G1 X25.283 Y170.092 E39.87056
G1 X25.174 Y168.813 E40.01989
G1 X25.174 Y167.530 E40.16922
G1 X25.283 Y166.252 E40.31855
G1 X25.496 Y165.012 E40.46500
G1 X25.823 Y163.746 E40.61709
G1 X26.251 Y162.536 E40.76653
G1 X26.779 Y161.367 E40.91586
G1 X27.405 Y160.247 E41.06519
G1 X28.123 Y159.184 E41.21452
G1 X28.929 Y158.185 E41.36385
G1 X29.817 Y157.259 E41.51318
G1 X30.780 Y156.411 E41.66250
G1 X31.812 Y155.649 E41.81183
G1 X32.904 Y154.976 E41.96116
G1 X34.050 Y154.398 E42.11049
G1 X35.240 Y153.920 E42.25982
G1 X36.467 Y153.544 E42.40915
G1 X37.393 Y153.345 E42.51940
G1 X37.393 Y153.059 E42.55269
G1 X37.615 Y154.027 F7200.000
G1 X37.843 Y153.978 E42.57979 F1800.000
G1 X39.079 Y153.822 E42.72482
G1 X40.276 Y153.771 E42.86428 F1800.000
G1 X41.497 Y153.823 E43.00655
G1 X42.710 Y153.978 E43.14881
G1 X43.904 Y154.236 E43.29108
G1 X45.073 Y154.594 E43.43335
G1 X46.208 Y155.050 E43.57565
G1 X47.319 Y155.613 E43.72068
G1 X48.340 Y156.241 E43.86014
G1 X49.323 Y156.968 E44.00241
G1 X50.240 Y157.775 E44.14468
G1 X51.086 Y158.658 E44.28694
G1 X51.854 Y159.609 E44.42921
G1 X52.525 Y160.601 E44.56868
G1 X53.134 Y161.688 E44.71370
G1 X53.638 Y162.802 E44.85601
G1 X54.045 Y163.955 E44.99827
G1 X54.353 Y165.138 E45.14054
G1 X54.560 Y166.343 E45.28281
G1 X54.663 Y167.560 E45.42508
G1 X54.663 Y168.783 E45.56734
G1 X54.560 Y170.001 E45.70961
G1 X54.353 Y171.205 E45.85188
G1 X54.045 Y172.388 E45.99415
G1 X53.638 Y173.541 E46.13641
G1 X53.134 Y174.655 E46.27868
G1 X52.538 Y175.722 E46.42095
G1 X51.854 Y176.735 E46.56322
G1 X51.086 Y177.686 E46.70549
G1 X50.240 Y178.568 E46.84779
G1 X49.303 Y179.390 E46.99282
G1 X48.340 Y180.102 E47.13228
G1 X47.299 Y180.743 E47.27455
G1 X46.207 Y181.294 E47.41681
G1 X45.073 Y181.749 E47.55908
G1 X43.904 Y182.107 E47.70135
G1 X42.710 Y182.365 E47.84362
G1 X41.497 Y182.520 E47.98589
G1 X40.276 Y182.572 E48.12815
G1 X39.055 Y182.520 E48.27042
G1 X37.842 Y182.365 E48.41269
G1 X36.647 Y182.107 E48.55496
G1 X35.479 Y181.749 E48.69722
G1 X34.344 Y181.294 E48.83949
G1 X33.253 Y180.743 E48.98176
G1 X32.212 Y180.102 E49.12403
G1 X31.229 Y179.376 E49.26629
G1 X30.312 Y178.568 E49.40856
G1 X29.483 Y177.703 E49.54802
G1 X28.698 Y176.735 E49.69305
G1 X28.014 Y175.722 E49.83536
G1 X27.417 Y174.655 E49.97762
G1 X26.914 Y173.541 E50.11989
G1 X26.507 Y172.388 E50.26216
G1 X26.199 Y171.205 E50.40443
G1 X25.992 Y170.001 E50.54669
G1 X25.889 Y168.783 E50.68896
G1 X25.889 Y167.560 E50.83123
G1 X25.992 Y166.343 E50.97350
G1 X26.195 Y165.162 E51.11296
G1 X26.507 Y163.955 E51.25798
G1 X26.914 Y162.802 E51.40029
G1 X27.417 Y161.689 E51.54256
G1 X28.014 Y160.621 E51.68483
G1 X28.698 Y159.609 E51.82709
G1 X29.466 Y158.658 E51.96936
G1 X30.312 Y157.775 E52.11163
G1 X31.229 Y156.968 E52.25390
G1 X32.212 Y156.241 E52.39616
G1 X33.253 Y155.600 E52.53843
G1 X34.344 Y155.050 E52.68070
G1 X35.479 Y154.594 E52.82297
G1 X36.647 Y154.236 E52.96523
G1 X37.556 Y154.040 E53.07345
G1 X37.686 Y153.806 F7200.000
G1 X37.842 Y152.365 F7200.000
G1 X36.647 Y152.107 E53.21572 F1800.000
G1 X35.479 Y151.749 E53.35799
G1 X34.344 Y151.294 E53.50026
G1 X33.253 Y150.743 E53.64253
G1 X32.212 Y150.102 E53.78479
G1 X31.229 Y149.376 E53.92706
G1 X30.330 Y148.584 E54.06652
G1 X29.466 Y147.686 E54.21155
G1 X28.698 Y146.735 E54.35385
G1 X28.014 Y145.722 E54.49612
G1 X27.417 Y144.655 E54.63839
G1 X26.914 Y143.541 E54.78066
G1 X26.507 Y142.388 E54.92292
G1 X26.199 Y141.205 E55.06519
G1 X25.992 Y140.001 E55.20746
G1 X25.889 Y138.783 E55.34973
G1 X25.889 Y137.560 E55.49200
G1 X25.992 Y136.343 E55.63426
G1 X26.195 Y135.162 E55.77373
G1 X26.507 Y133.955 E55.91875
G1 X26.914 Y132.802 E56.06106
G1 X27.417 Y131.689 E56.20332
G1 X28.014 Y130.621 E56.34559
G1 X28.698 Y129.609 E56.48786
G1 X29.466 Y128.658 E56.63013
G1 X30.312 Y127.775 E56.77239
G1 X31.229 Y126.968 E56.91466
G1 X32.212 Y126.241 E57.05693
G1 X33.310 Y125.565 E57.20694
G1 X34.345 Y125.049 E57.34161
G1 X35.479 Y124.594 E57.48376
G1 X36.647 Y124.236 E57.62603
G1 X37.843 Y123.978 E57.76834
G1 X39.079 Y123.822 E57.91336
G1 X40.276 Y123.771 E58.05282 F1800.000
G1 X41.497 Y123.823 E58.19509
G1 X42.710 Y123.978 E58.33736
G1 X43.904 Y124.236 E58.47963
G1 X45.073 Y124.594 E58.62189
G1 X46.207 Y125.050 E58.76416
G1 X47.299 Y125.600 E58.90643
G1 X48.340 Y126.241 E59.04870
G1 X49.323 Y126.968 E59.19096
G1 X50.240 Y127.775 E59.33323
G1 X51.086 Y128.658 E59.47550
G1 X51.854 Y129.609 E59.61777
G1 X52.538 Y130.621 E59.76004
G1 X53.134 Y131.689 E59.90230
G1 X53.638 Y132.802 E60.04457
G1 X54.045 Y133.955 E60.18684
G1 X54.353 Y135.138 E60.32911
G1 X54.560 Y136.343 E60.47137
G1 X54.663 Y137.560 E60.61364
G1 X54.663 Y138.783 E60.75591
G1 X54.560 Y140.001 E60.89818
G1 X54.353 Y141.205 E61.04044
G1 X54.045 Y142.388 E61.18271
G1 X53.646 Y143.518 E61.32217
G1 X53.135 Y144.654 E61.46720
G1 X52.538 Y145.722 E61.60951
G1 X51.854 Y146.735 E61.75177
G1 X51.086 Y147.686 E61.89404
G1 X50.240 Y148.568 E62.03631
G1 X49.323 Y149.376 E62.17858
G1 X48.340 Y150.102 E62.32084
G1 X47.299 Y150.743 E62.46311
G1 X46.207 Y151.294 E62.60538
G1 X45.073 Y151.749 E62.74765
G1 X43.904 Y152.107 E62.88991
G1 X42.710 Y152.365 E63.03218
G1 X41.497 Y152.520 E63.17445
G1 X40.276 Y152.572 E63.31672
G1 X39.055 Y152.520 E63.45899
G1 X37.902 Y152.372 E63.59427
G1 X37.582 Y152.669 F7200.000
G1 E62.59427 F2400.00000
G92 E0
G1 X25.601 Y135.077 F7200.000
G1 X24.269 Y129.959 F7200.000
G1 X25.629 Y125.526 F7200.000
G1 X26.196 Y124.092 F7200.000
G1 X24.276 Y122.172 F7200.000
G1 X22.776 Y119.172 F7200.000
G1 X23.448 Y120.000 F7200.000
G1 E1.00000 F2400.00000
G1 X58.448 Y120.000 E5.07365 F1800.000
G1 X58.448 Y206.343 E15.12314
G1 X22.104 Y206.343 E19.35314
G1 X22.104 Y200.291 E20.05751
G1 X22.138 Y200.034 E20.08775
G1 X22.396 Y200.000 E20.11799
G1 X52.104 Y200.000 E23.57576
G1 X52.104 Y186.343 E25.16526
G1 X22.396 Y186.343 E28.62302
G1 X22.138 Y186.309 E28.65326
G1 X22.104 Y186.052 E28.68350
G1 X22.104 Y112.291 E37.26846
G1 X22.138 Y112.034 E37.29870
G1 X22.396 Y112.000 E37.32894
G1 X23.448 Y112.000 E37.45137
G1 X23.448 Y119.940 E38.37550
G1 X24.162 Y119.286 F7200.000
G1 X59.162 Y119.286 E42.44915 F1800.000
G1 X59.162 Y207.057 E52.66488
G1 X21.390 Y207.057 E57.06112
G1 X21.390 Y200.245 E57.85407
G1 X21.430 Y199.945 E57.88926
G1 X21.517 Y199.734 E57.91589
G1 X21.656 Y199.552 E57.94251
G1 X21.838 Y199.413 E57.96913
G1 X22.049 Y199.325 E57.99576
G1 X22.349 Y199.286 E58.03095
G1 X51.390 Y199.286 E61.41105
G1 X51.390 Y187.057 E62.83430
G1 X22.349 Y187.057 E66.21439
G1 X22.049 Y187.018 E66.24959
G1 X21.838 Y186.930 E66.27621
G1 X21.656 Y186.791 E66.30283
G1 X21.517 Y186.610 E66.32946
G1 X21.430 Y186.398 E66.35608
G1 X21.390 Y186.099 E66.39128
G1 X21.390 Y112.245 E74.98713
G1 X21.430 Y111.945 E75.02232
G1 X21.517 Y111.734 E75.04895
G1 X21.656 Y111.552 E75.07557
G1 X21.838 Y111.413 E75.10219
G1 X22.049 Y111.325 E75.12882
G1 X22.349 Y111.286 E75.16401
G1 X29.162 Y111.286 E75.95696
G1 X29.162 Y112.099 E76.05156
G1 X29.122 Y112.398 E76.08675
