; generated by Slic3r 1.0.0RC2 on 2015-03-07 at 10:00:09

; layer_height = 0.3
; perimeters = 2
; top_solid_layers = 3
; bottom_solid_layers = 3
; fill_density = 0.1
; perimeter_speed = 60
; infill_speed = 60
; travel_speed = 120
; nozzle_diameter = 0.4
; filament_diameter = 1.75
; extrusion_multiplier = 0.98
; perimeters extrusion width = 0.40mm
; infill extrusion width = 0.42mm
; solid infill extrusion width = 0.42mm
; top infill extrusion width = 0.42mm
; first layer extrusion width = 0.80mm

G21 ; set units to millimeters
M107
M104 S220 ; set temperature
G28 ; home all axes
M106 S255;
G1 Z200 F1200 ; lift nozzle
M109 S220 ; wait for temperature to be reached
G90 ; use absolute coordinates
G92 E0
M82 ; use absolute distances for extrusion
G1 F1800.000 E-1.00000
G92 E0
G1 Z0.400 F7200.000
G1 X139.600 Y97.700 F7200.000
G1 E1.00000 F1800.000
G1 X140.040 Y97.070 E1.08944 F1080.000
G1 X140.550 Y96.500 E1.17846
G1 X141.500 Y95.550 E1.33483
G1 X142.070 Y95.040 E1.42385
G1 X142.700 Y94.600 E1.51329
G1 X143.840 Y93.890 E1.66960
G1 X144.500 Y93.530 E1.75711
G1 X145.190 Y93.250 E1.84377
G1 X146.460 Y92.810 E2.00021
G1 X147.180 Y92.600 E2.08750
G1 X147.910 Y92.480 E2.17361
G1 X149.240 Y92.330 E2.32939
G1 X149.990 Y92.290 E2.41680
G1 X150.740 Y92.330 E2.50422
G1 X152.080 Y92.480 E2.66116
G1 X152.810 Y92.600 E2.74726
G1 X153.530 Y92.810 E2.83455
G1 X154.800 Y93.250 E2.99099
G1 X155.490 Y93.530 E3.07766
G1 X156.150 Y93.890 E3.16516
G1 X157.290 Y94.600 E3.32147
G1 X157.920 Y95.040 E3.41091
G1 X158.490 Y95.550 E3.49993
G1 X159.440 Y96.500 E3.65630
G1 X159.950 Y97.070 E3.74532
G1 X160.390 Y97.700 E3.83476
G1 X161.100 Y98.840 E3.99108
G1 X161.460 Y99.500 E4.07858
G1 X161.740 Y100.190 E4.16525
G1 X162.180 Y101.460 E4.32168
G1 X162.380 Y102.150 E4.40530
G1 X162.510 Y102.860 E4.48931
G1 X162.670 Y104.200 E4.64638
G1 X162.710 Y105.000 E4.73961
G1 X162.670 Y105.800 E4.83283
G1 X162.510 Y107.130 E4.98875
G1 X162.380 Y107.840 E5.07276
G1 X162.180 Y108.530 E5.15637
G1 X161.740 Y109.800 E5.31281
G1 X161.460 Y110.490 E5.39948
G1 X161.100 Y111.150 E5.48698
G1 X160.390 Y112.290 E5.64329
G1 X159.950 Y112.920 E5.73273
G1 X159.440 Y113.490 E5.82175
G1 X158.490 Y114.440 E5.97812
G1 X157.920 Y114.950 E6.06715
G1 X157.290 Y115.390 E6.15658
G1 X156.150 Y116.100 E6.31290
G1 X155.490 Y116.460 E6.40040
G1 X154.800 Y116.740 E6.48707
G1 X153.530 Y117.180 E6.64350
G1 X152.840 Y117.380 E6.72712
G1 X152.130 Y117.510 E6.81113
G1 X150.800 Y117.670 E6.96704
G1 X150.000 Y117.710 E7.06027
G1 X149.200 Y117.670 E7.15350
G1 X147.860 Y117.510 E7.31057
G1 X147.150 Y117.380 E7.39458
G1 X146.460 Y117.180 E7.47820
G1 X145.190 Y116.740 E7.63463
G1 X144.500 Y116.460 E7.72130
G1 X143.840 Y116.100 E7.80880
G1 X142.700 Y115.390 E7.96512
G1 X142.070 Y114.950 E8.05455
G1 X141.500 Y114.440 E8.14358
G1 X140.550 Y113.490 E8.29995
G1 X140.040 Y112.920 E8.38897
G1 X139.600 Y112.290 E8.47841
G1 X138.890 Y111.150 E8.63472
G1 X138.530 Y110.490 E8.72222
G1 X138.250 Y109.800 E8.80889
G1 X137.810 Y108.530 E8.96533
G1 X137.600 Y107.810 E9.05262
G1 X137.480 Y107.080 E9.13872
G1 X137.330 Y105.750 E9.29450
G1 X137.290 Y105.000 E9.38192
G1 X137.330 Y104.250 E9.46934
G1 X137.480 Y102.910 E9.62627
G1 X137.600 Y102.180 E9.71238
G1 X137.810 Y101.460 E9.79967
G1 X138.250 Y100.190 E9.95610
G1 X138.530 Y99.500 E10.04277
G1 X138.890 Y98.840 E10.13028
G1 X139.543 Y97.791 E10.27412
G1 F1800.000 E9.27412
G92 E0
G1 X142.101 Y98.983 F7200.000
G1 E1.00000 F1800.000
G1 X142.376 Y98.638 E1.05135 F1080.000
G1 X143.638 Y97.376 E1.25907
G1 X143.983 Y97.101 E1.31042
G1 X145.494 Y96.151 E1.51815
G1 X145.891 Y95.960 E1.56949
G1 X147.576 Y95.370 E1.77722
G1 X148.006 Y95.272 E1.82857
G1 X149.779 Y95.072 E2.03629
G1 X150.221 Y95.072 E2.08764
G1 X151.994 Y95.272 E2.29537
G1 X152.424 Y95.370 E2.34672
G1 X154.109 Y95.960 E2.55444
G1 X154.506 Y96.151 E2.60579
G1 X156.017 Y97.101 E2.81352
G1 X156.362 Y97.376 E2.86486
G1 X157.624 Y98.638 E3.07259
G1 X157.899 Y98.983 E3.12394
G1 X158.849 Y100.494 E3.33166
G1 X159.040 Y100.891 E3.38301
G1 X159.630 Y102.576 E3.59074
G1 X159.728 Y103.006 E3.64208
G1 X159.928 Y104.779 E3.84981
G1 X159.928 Y105.221 E3.90116
G1 X159.728 Y106.994 E4.10888
G1 X159.630 Y107.424 E4.16023
G1 X159.040 Y109.109 E4.36796
G1 X158.849 Y109.506 E4.41931
G1 X157.899 Y111.017 E4.62703
G1 X157.624 Y111.362 E4.67838
G1 X156.362 Y112.624 E4.88610
G1 X156.017 Y112.899 E4.93745
G1 X154.506 Y113.849 E5.14518
G1 X154.109 Y114.040 E5.19653
G1 X152.424 Y114.630 E5.40425
G1 X151.994 Y114.728 E5.45560
G1 X150.221 Y114.928 E5.66333
G1 X149.779 Y114.928 E5.71467
G1 X148.006 Y114.728 E5.92240
G1 X147.576 Y114.630 E5.97375
G1 X145.891 Y114.040 E6.18147
G1 X145.494 Y113.849 E6.23282
G1 X143.983 Y112.899 E6.44055
G1 X143.638 Y112.624 E6.49189
G1 X142.376 Y111.362 E6.69962
G1 X142.101 Y111.017 E6.75097
G1 X141.151 Y109.506 E6.95869
G1 X140.960 Y109.109 E7.01004
G1 X140.370 Y107.424 E7.21777
G1 X140.272 Y106.994 E7.26912
G1 X140.072 Y105.221 E7.47684
G1 X140.072 Y104.779 E7.52819
G1 X140.272 Y103.006 E7.73592
G1 X140.370 Y102.576 E7.78726
G1 X140.960 Y100.891 E7.99499
G1 X141.151 Y100.494 E8.04634
G1 X142.044 Y99.073 E8.24159
G1 X142.684 Y99.396 F7200.000
G1 X142.909 Y99.114 E8.28361 F1080.000
G1 X144.114 Y97.909 E8.48200
G1 X144.396 Y97.684 E8.52401
G1 X145.840 Y96.777 E8.72240
G1 X146.165 Y96.620 E8.76441
G1 X147.774 Y96.057 E8.96280
G1 X148.126 Y95.977 E9.00481
G1 X149.820 Y95.786 E9.20320
G1 X150.180 Y95.786 E9.24521
G1 X151.874 Y95.977 E9.44360
G1 X152.226 Y96.057 E9.48562
G1 X153.835 Y96.620 E9.68401
G1 X154.160 Y96.777 E9.72602
G1 X155.604 Y97.684 E9.92441
G1 X155.886 Y97.909 E9.96642
G1 X157.091 Y99.114 E10.16481
G1 X157.316 Y99.396 E10.20682
G1 X158.223 Y100.840 E10.40521
G1 X158.380 Y101.165 E10.44722
G1 X158.943 Y102.774 E10.64561
G1 X159.023 Y103.126 E10.68762
G1 X159.214 Y104.820 E10.88601
G1 X159.214 Y105.180 E10.92803
G1 X159.023 Y106.874 E11.12642
G1 X158.943 Y107.226 E11.16843
G1 X158.380 Y108.835 E11.36682
G1 X158.223 Y109.160 E11.40883
G1 X157.316 Y110.604 E11.60722
G1 X157.091 Y110.886 E11.64923
G1 X155.886 Y112.091 E11.84762
G1 X155.604 Y112.316 E11.88963
G1 X154.160 Y113.223 E12.08802
G1 X153.835 Y113.380 E12.13004
G1 X152.226 Y113.943 E12.32843
G1 X151.874 Y114.023 E12.37044
G1 X150.180 Y114.214 E12.56883
G1 X149.820 Y114.214 E12.61084
G1 X148.126 Y114.023 E12.80923
G1 X147.774 Y113.943 E12.85124
G1 X146.165 Y113.380 E13.04963
G1 X145.840 Y113.223 E13.09164
G1 X144.396 Y112.316 E13.29003
G1 X144.114 Y112.091 E13.33204
G1 X142.909 Y110.886 E13.53043
G1 X142.684 Y110.604 E13.57245
G1 X141.777 Y109.160 E13.77084
G1 X141.620 Y108.835 E13.81285
G1 X141.057 Y107.226 E14.01124
G1 X140.977 Y106.874 E14.05325
G1 X140.786 Y105.180 E14.25164
G1 X140.786 Y104.820 E14.29365
G1 X140.977 Y103.126 E14.49204
G1 X141.057 Y102.774 E14.53405
G1 X141.620 Y101.165 E14.73244
G1 X141.777 Y100.840 E14.77446
G1 X142.627 Y99.487 E14.96038
G1 X143.267 Y99.810 F7200.000
G1 X143.442 Y99.591 E14.99305 F1080.000
G1 X144.591 Y98.442 E15.18211
G1 X144.810 Y98.267 E15.21478
G1 X146.186 Y97.403 E15.40384
G1 X146.439 Y97.281 E15.43651
G1 X147.972 Y96.745 E15.62557
G1 X148.246 Y96.682 E15.65824
G1 X149.860 Y96.500 E15.84730
G1 X150.140 Y96.500 E15.87997
G1 X151.754 Y96.682 E16.06903
G1 X152.028 Y96.745 E16.10170
G1 X153.561 Y97.281 E16.29076
G1 X153.814 Y97.403 E16.32343
G1 X155.190 Y98.267 E16.51249
G1 X155.409 Y98.442 E16.54516
G1 X156.558 Y99.591 E16.73422
G1 X156.733 Y99.810 E16.76689
G1 X157.597 Y101.186 E16.95595
G1 X157.719 Y101.439 E16.98862
G1 X158.255 Y102.972 E17.17768
G1 X158.318 Y103.246 E17.21035
G1 X158.500 Y104.860 E17.39941
G1 X158.500 Y105.140 E17.43208
G1 X158.318 Y106.754 E17.62114
G1 X158.255 Y107.028 E17.65381
G1 X157.719 Y108.561 E17.84287
G1 X157.597 Y108.814 E17.87554
G1 X156.733 Y110.190 E18.06460
G1 X156.558 Y110.409 E18.09727
G1 X155.409 Y111.558 E18.28633
G1 X155.190 Y111.733 E18.31900
G1 X153.814 Y112.597 E18.50806
G1 X153.561 Y112.719 E18.54073
G1 X152.028 Y113.255 E18.72979
G1 X151.754 Y113.318 E18.76246
G1 X150.140 Y113.500 E18.95152
G1 X149.860 Y113.500 E18.98419
G1 X148.246 Y113.318 E19.17325
G1 X147.972 Y113.255 E19.20592
G1 X146.439 Y112.719 E19.39498
G1 X146.186 Y112.597 E19.42765
G1 X144.810 Y111.733 E19.61671
G1 X144.591 Y111.558 E19.64938
G1 X143.442 Y110.409 E19.83844
G1 X143.267 Y110.190 E19.87111
G1 X142.403 Y108.814 E20.06017
G1 X142.281 Y108.561 E20.09284
G1 X141.745 Y107.028 E20.28190
G1 X141.682 Y106.754 E20.31457
G1 X141.500 Y105.140 E20.50363
G1 X141.500 Y104.860 E20.53630
G1 X141.682 Y103.246 E20.72536
G1 X141.745 Y102.972 E20.75803
G1 X142.281 Y101.439 E20.94709
G1 X142.403 Y101.186 E20.97976
G1 X143.210 Y99.901 E21.15635
G1 X143.851 Y100.224 F7200.000
G1 X143.976 Y100.067 E21.17969 F1080.000
G1 X145.067 Y98.976 E21.35940
G1 X145.224 Y98.851 E21.38274
G1 X146.532 Y98.029 E21.56246
G1 X146.712 Y97.942 E21.58580
G1 X148.170 Y97.432 E21.76552
G1 X148.365 Y97.387 E21.78886
G1 X149.900 Y97.215 E21.96858
G1 X150.100 Y97.215 E21.99192
G1 X151.635 Y97.387 E22.17164
G1 X151.830 Y97.432 E22.19498
G1 X153.288 Y97.942 E22.37470
G1 X153.468 Y98.029 E22.39804
G1 X154.776 Y98.851 E22.57775
G1 X154.933 Y98.976 E22.60109
G1 X156.024 Y100.067 E22.78081
G1 X156.149 Y100.224 E22.80415
G1 X156.971 Y101.532 E22.98387
G1 X157.058 Y101.712 E23.00721
G1 X157.568 Y103.170 E23.18693
G1 X157.613 Y103.365 E23.21027
G1 X157.785 Y104.900 E23.38999
G1 X157.785 Y105.100 E23.41333
G1 X157.613 Y106.635 E23.59304
G1 X157.568 Y106.830 E23.61638
G1 X157.058 Y108.288 E23.79610
G1 X156.971 Y108.468 E23.81944
G1 X156.149 Y109.776 E23.99916
G1 X156.024 Y109.933 E24.02250
G1 X154.933 Y111.024 E24.20222
G1 X154.776 Y111.149 E24.22556
G1 X153.468 Y111.971 E24.40528
G1 X153.288 Y112.058 E24.42862
G1 X151.830 Y112.568 E24.60833
G1 X151.635 Y112.613 E24.63167
G1 X150.100 Y112.785 E24.81139
G1 X149.900 Y112.785 E24.83473
G1 X148.365 Y112.613 E25.01445
G1 X148.170 Y112.568 E25.03779
G1 X146.712 Y112.058 E25.21751
G1 X146.532 Y111.971 E25.24085
G1 X145.224 Y111.149 E25.42057
G1 X145.067 Y111.024 E25.44391
G1 X143.976 Y109.933 E25.62362
G1 X143.851 Y109.776 E25.64696
G1 X143.029 Y108.468 E25.82668
G1 X142.942 Y108.288 E25.85002
G1 X142.432 Y106.830 E26.02974
G1 X142.387 Y106.635 E26.05308
G1 X142.215 Y105.100 E26.23280
G1 X142.215 Y104.900 E26.25614
G1 X142.387 Y103.365 E26.43586
G1 X142.432 Y103.170 E26.45920
G1 X142.942 Y101.712 E26.63891
G1 X143.029 Y101.532 E26.66225
G1 X143.794 Y100.315 E26.82950
G1 X144.434 Y100.638 F7200.000
G1 X145.544 Y99.509 E27.01381 F1080.000
G1 X146.878 Y98.655 E27.19811
G1 X148.368 Y98.119 E27.38242
G1 X148.485 Y98.093 E27.39642
G1 X150.060 Y97.929 E27.58073
G1 X151.632 Y98.119 E27.76503
G1 X153.014 Y98.603 E27.93541
G1 X154.362 Y99.434 E28.11972
G1 X154.456 Y99.509 E28.13372
G1 X155.566 Y100.638 E28.31803
G1 X156.397 Y101.986 E28.50233
G1 X156.907 Y103.485 E28.68664
G1 X157.071 Y104.940 E28.85702
G1 X156.907 Y106.515 E29.04132
G1 X156.397 Y108.014 E29.22563
G1 X155.566 Y109.362 E29.40993
G1 X155.491 Y109.456 E29.42394
G1 X154.362 Y110.566 E29.60824
G1 X153.014 Y111.397 E29.79255
G1 X151.515 Y111.907 E29.97685
G1 X150.060 Y112.071 E30.14724
G1 X148.485 Y111.907 E30.33154
G1 X146.986 Y111.397 E30.51584
G1 X145.638 Y110.566 E30.70015
G1 X145.544 Y110.491 E30.71415
G1 X144.434 Y109.362 E30.89846
G1 X143.603 Y108.014 E31.08276
G1 X143.093 Y106.515 E31.26707
G1 X142.929 Y104.940 E31.45137
G1 X143.093 Y103.485 E31.62175
G1 X143.603 Y101.986 E31.80606
G1 X144.377 Y100.729 E31.97790
G1 X145.017 Y101.052 F7200.000
G1 X146.021 Y100.042 E32.14358 F1080.000
G1 X147.224 Y99.281 E32.30927
G1 X148.605 Y98.798 E32.47959
G1 X150.020 Y98.643 E32.64528
G1 X151.395 Y98.798 E32.80632
G1 X152.740 Y99.264 E32.97201
G1 X153.948 Y100.017 E33.13770
G1 X154.983 Y101.052 E33.30802
G1 X155.736 Y102.260 E33.47370
G1 X156.202 Y103.605 E33.63939
G1 X156.357 Y104.980 E33.80044
G1 X156.202 Y106.395 E33.96612
G1 X155.736 Y107.740 E34.13181
G1 X154.983 Y108.948 E34.29749
G1 X153.948 Y109.983 E34.46782
G1 X152.740 Y110.736 E34.63350
G1 X151.395 Y111.202 E34.79919
G1 X150.020 Y111.357 E34.96024
G1 X148.605 Y111.202 E35.12592
G1 X147.260 Y110.736 E35.29161
G1 X146.052 Y109.983 E35.45729
G1 X145.017 Y108.948 E35.62762
G1 X144.264 Y107.740 E35.79330
G1 X143.798 Y106.395 E35.95899
G1 X143.643 Y104.980 E36.12467
G1 X143.798 Y103.605 E36.28572
G1 X144.264 Y102.260 E36.45141
G1 X144.960 Y101.143 E36.60462
G1 X145.624 Y101.510 F7200.000
G1 X146.510 Y100.624 E36.75051 F540.000
G1 X147.571 Y99.957 E36.89640
G1 X148.754 Y99.543 E37.04228
G1 X150.000 Y99.403 E37.18817
G1 X151.246 Y99.543 E37.33406
G1 X152.429 Y99.957 E37.47995
G1 X153.490 Y100.624 E37.62583
G1 X154.376 Y101.510 E37.77172
G1 X155.043 Y102.571 E37.91761
G1 X155.457 Y103.754 E38.06349
G1 X155.597 Y105.000 E38.20938
G1 X155.457 Y106.246 E38.35527
G1 X155.043 Y107.429 E38.50116
G1 X154.376 Y108.490 E38.64704
G1 X153.490 Y109.376 E38.79293
G1 X152.429 Y110.043 E38.93882
G1 X151.246 Y110.457 E39.08470
G1 X150.000 Y110.597 E39.23059
G1 X148.754 Y110.457 E39.37648
G1 X147.571 Y110.043 E39.52237
G1 X146.510 Y109.376 E39.66825
G1 X145.624 Y108.490 E39.81414
G1 X144.957 Y107.429 E39.96003
G1 X144.543 Y106.246 E40.10592
G1 X144.403 Y105.000 E40.25180
G1 X144.543 Y103.754 E40.39769
G1 X144.957 Y102.571 E40.54358
G1 X145.567 Y101.601 E40.67700
G1 X146.325 Y101.643 F7200.000
G1 X146.186 Y101.958 F7200.000
G1 X146.958 Y101.186 E40.80415 F540.000
G1 X147.883 Y100.604 E40.93131
G1 X148.914 Y100.244 E41.05846
G1 X150.000 Y100.121 E41.18562
G1 X151.086 Y100.244 E41.31278
G1 X152.117 Y100.604 E41.43993
G1 X153.042 Y101.186 E41.56709
G1 X153.814 Y101.958 E41.69425
G1 X154.396 Y102.883 E41.82140
G1 X154.756 Y103.914 E41.94856
G1 X154.879 Y105.000 E42.07571
G1 X154.756 Y106.086 E42.20287
G1 X154.396 Y107.117 E42.33003
G1 X153.814 Y108.042 E42.45718
G1 X153.042 Y108.814 E42.58434
G1 X152.117 Y109.396 E42.71150
G1 X151.086 Y109.756 E42.83865
G1 X150.000 Y109.879 E42.96581
G1 X148.914 Y109.756 E43.09296
G1 X147.883 Y109.396 E43.22012
G1 X146.958 Y108.814 E43.34728
G1 X146.186 Y108.042 E43.47443
G1 X145.604 Y107.117 E43.60159
G1 X145.244 Y106.086 E43.72875
G1 X145.121 Y105.000 E43.85590
G1 X145.244 Y103.914 E43.98306
G1 X145.604 Y102.883 E44.11021
G1 X146.129 Y102.049 E44.22490
G1 X145.696 Y105.799 F7200.000
G1 X149.201 Y109.304 E44.80788 F1080.000
G1 X150.280 Y109.363 E44.93501
G1 X145.637 Y104.720 E45.70725
G1 X145.779 Y103.841 E45.81195
G1 X151.159 Y109.221 E46.70676
G1 X151.913 Y108.955 E46.80088
G1 X146.045 Y103.087 E47.77699
G1 X146.439 Y102.460 E47.86406
G1 X152.540 Y108.561 E48.87892
G1 X153.062 Y108.062 E48.96384
G1 X146.938 Y101.938 E49.98254
G1 X147.460 Y101.439 E50.06746
G1 X153.561 Y107.540 E51.08232
G1 X153.955 Y106.913 E51.16939
G1 X148.087 Y101.045 E52.14550
G1 X148.841 Y100.779 E52.23962
G1 X154.221 Y106.159 E53.13443
G1 X154.363 Y105.280 E53.23913
G1 X149.720 Y100.637 E54.01137
G1 X150.799 Y100.696 E54.13850
G1 X154.304 Y104.201 E54.72147
G1 X153.522 Y102.398 F7200.000
G1 X152.602 Y101.478 E54.87440 F1080.000
G1 X146.478 Y107.602 F7200.000
G1 X147.398 Y108.522 E55.02733 F1080.000
M106 S255
G1 F1800.000 E54.02733
G92 E0
G1 Z0.700 F7200.000
G1 X146.636 Y109.219 F7200.000
G1 E1.00000 F1800.000
G1 X145.781 Y108.364 E1.05908 F600.000
G1 X145.138 Y107.341 E1.11816
G1 X144.739 Y106.201 E1.17724
G1 X144.616 Y105.106 E1.23110
G1 X144.592 Y105.106 E1.23227
G1 X144.722 Y103.955 E1.28892
G1 X144.685 Y103.955 E1.29072
G1 X145.138 Y102.659 E1.35785
G1 X145.781 Y101.636 E1.41693
G1 X146.636 Y100.781 E1.47601
G1 X147.659 Y100.138 E1.53509
G1 X148.799 Y99.739 E1.59417
G1 X148.860 Y99.732 E1.59717
G1 X150.000 Y99.604 E1.65325
G1 X151.201 Y99.739 E1.71233
G1 X152.341 Y100.138 E1.77141
G1 X153.364 Y100.781 E1.83049
G1 X154.219 Y101.636 E1.88957
G1 X154.862 Y102.659 E1.94865
G1 X155.261 Y103.799 E2.00773
G1 X155.396 Y105.000 E2.06681
G1 X155.261 Y106.201 E2.12589
G1 X154.862 Y107.341 E2.18497
G1 X154.219 Y108.364 E2.24405
G1 X153.364 Y109.219 E2.30313
G1 X152.341 Y109.862 E2.36221
G1 X151.201 Y110.261 E2.42129
G1 X150.000 Y110.396 E2.48037
G1 X148.799 Y110.261 E2.53945
G1 X147.659 Y109.862 E2.59853
