; generated by Slic3r 1.0.0RC2 on 2015-02-21 at 21:25:55

; layer_height = 0.3
; perimeters = 2
; top_solid_layers = 3
; bottom_solid_layers = 3
; fill_density = 0.1
; perimeter_speed = 60
; infill_speed = 60
; travel_speed = 120
; nozzle_diameter = 0.4
; filament_diameter = 1.75
; extrusion_multiplier = 0.98
; perimeters extrusion width = 0.40mm
; infill extrusion width = 0.42mm
; solid infill extrusion width = 0.42mm
; top infill extrusion width = 0.42mm
; first layer extrusion width = 0.80mm

G21 ; set units to millimeters
M107
M104 S220 ; set temperature
G28 ; home all axes
M106 S255;
G1 Z200 F1200 ; lift nozzle
M109 S220 ; wait for temperature to be reached
G90 ; use absolute coordinates
G92 E0
M82 ; use absolute distances for extrusion
G1 F1800.000 E-1.00000
G92 E0
G1 Z0.400 F7200.000
G1 X130.480 Y97.845 F7200.000
G1 E1.00000 F1800.000
G1 X131.260 Y96.815 E1.15038 F1080.000
G1 X131.730 Y96.255 E1.23547
G1 X132.270 Y95.745 E1.32192
G1 X133.260 Y94.905 E1.47303
G1 X133.830 Y94.465 E1.55684
G1 X134.450 Y94.095 E1.64088
G1 X135.600 Y93.485 E1.79239
G1 X136.280 Y93.175 E1.87937
G1 X136.990 Y92.935 E1.96660
G1 X138.280 Y92.585 E2.12217
G1 X138.990 Y92.435 E2.20663
G1 X139.720 Y92.355 E2.29211
G1 X140.970 Y92.295 E2.43776
G1 X158.950 Y92.295 E4.53045
G1 X159.920 Y92.325 E4.64340
G1 X160.520 Y92.365 E4.71339
G1 X161.110 Y92.465 E4.78304
G1 X162.050 Y92.665 E4.89490
G1 X163.000 Y92.945 E5.01017
G1 X163.910 Y93.285 E5.12324
G1 X164.920 Y93.765 E5.25339
G1 X165.750 Y94.245 E5.36499
G1 X166.610 Y94.835 E5.48637
G1 X167.340 Y95.425 E5.59562
G1 X168.160 Y96.205 E5.72734
G1 X168.820 Y96.955 E5.84362
G1 X169.430 Y97.765 E5.96164
G1 X169.950 Y98.575 E6.07367
G1 X170.470 Y99.565 E6.20382
G1 X170.850 Y100.455 E6.31646
G1 X171.200 Y101.495 E6.44417
G1 X171.430 Y102.435 E6.55681
G1 X171.600 Y103.475 E6.67946
G1 X171.680 Y104.435 E6.79158
G1 X171.680 Y105.555 E6.92194
G1 X171.600 Y106.515 E7.03406
G1 X171.430 Y107.555 E7.15671
G1 X171.200 Y108.495 E7.26934
G1 X170.850 Y109.545 E7.39816
G1 X170.480 Y110.405 E7.50713
G1 X169.990 Y111.335 E7.62948
G1 X169.460 Y112.175 E7.74508
G1 X168.830 Y113.025 E7.86822
G1 X168.190 Y113.755 E7.98122
G1 X167.380 Y114.535 E8.11210
G1 X166.630 Y115.145 E8.22462
G1 X165.750 Y115.745 E8.34858
G1 X164.920 Y116.225 E8.46017
G1 X163.910 Y116.705 E8.59033
G1 X163.000 Y117.045 E8.70339
G1 X162.050 Y117.325 E8.81867
G1 X161.110 Y117.525 E8.93052
G1 X159.990 Y117.665 E9.06189
G1 X159.020 Y117.705 E9.17489
G1 X141.290 Y117.695 E11.23848
G1 X139.640 Y117.615 E11.43075
G1 X138.910 Y117.535 E11.51622
G1 X138.190 Y117.385 E11.60182
G1 X136.940 Y117.035 E11.75291
G1 X136.230 Y116.785 E11.84052
G1 X135.550 Y116.465 E11.92799
G1 X134.370 Y115.825 E12.08423
G1 X133.780 Y115.475 E12.16407
G1 X133.240 Y115.055 E12.24369
G1 X132.280 Y114.245 E12.38989
G1 X131.740 Y113.735 E12.47634
G1 X131.260 Y113.165 E12.56307
G1 X130.480 Y112.135 E12.71345
G1 X130.080 Y111.545 E12.79641
G1 X129.740 Y110.925 E12.87871
G1 X129.190 Y109.745 E13.03024
G1 X128.910 Y109.035 E13.11907
G1 X128.710 Y108.305 E13.20716
G1 X128.440 Y107.035 E13.35828
G1 X128.330 Y106.335 E13.44075
G1 X128.300 Y105.635 E13.52230
G1 X128.300 Y104.345 E13.67244
G1 X128.330 Y103.645 E13.75399
G1 X128.440 Y102.945 E13.83647
G1 X128.710 Y101.675 E13.98758
G1 X128.910 Y100.945 E14.07568
G1 X129.190 Y100.235 E14.16451
G1 X129.740 Y99.055 E14.31604
G1 X130.080 Y98.435 E14.39834
G1 X130.420 Y97.934 E14.46883
G1 F1800.000 E13.46883
G92 E0
G1 X132.578 Y99.695 F7200.000
G1 E1.00000 F1800.000
G1 X133.621 Y98.323 E1.20058 F1080.000
G1 X133.913 Y98.014 E1.25015
G1 X135.227 Y96.898 E1.45074
G1 X135.579 Y96.659 E1.50031
G1 X137.108 Y95.849 E1.70169
G1 X137.517 Y95.688 E1.75285
G1 X139.222 Y95.227 E1.95835
G1 X139.629 Y95.162 E2.00633
G1 X141.299 Y95.071 E2.20109
G1 X141.725 Y95.094 E2.25066
G1 X143.425 Y95.373 E2.45124
G1 X143.836 Y95.487 E2.50081
G1 X145.443 Y96.127 E2.70219
G1 X145.831 Y96.335 E2.75335
G1 X147.285 Y97.336 E2.95886
G1 X147.598 Y97.604 E3.00684
G1 X148.749 Y98.818 E3.20159
G1 X149.007 Y99.158 E3.25116
G1 X149.557 Y100.072 E3.37543
G1 X150.354 Y100.081 E3.46820
G1 X150.684 Y99.560 E3.53996
G1 X151.454 Y98.535 E3.68919
G1 X151.664 Y98.298 E3.72603
G1 X152.589 Y97.410 E3.87527
G1 X152.834 Y97.210 E3.91211
G1 X153.889 Y96.481 E4.06135
G1 X154.163 Y96.323 E4.09819
G1 X155.326 Y95.771 E4.24802
G1 X155.632 Y95.656 E4.28605
G1 X156.896 Y95.297 E4.43898
G1 X157.197 Y95.237 E4.47464
G1 X158.432 Y95.087 E4.61953
G1 X158.749 Y95.074 E4.65638
G1 X160.030 Y95.125 E4.80561
G1 X160.344 Y95.164 E4.84246
G1 X161.600 Y95.420 E4.99169
G1 X161.904 Y95.508 E5.02854
G1 X163.103 Y95.963 E5.17777
G1 X163.389 Y96.099 E5.21462
G1 X164.500 Y96.740 E5.36385
G1 X164.760 Y96.919 E5.40069
G1 X165.725 Y97.707 E5.54559
G1 X165.946 Y97.918 E5.58125
G1 X166.822 Y98.897 E5.73418
G1 X167.019 Y99.158 E5.77221
G1 X167.707 Y100.246 E5.92204
G1 X167.855 Y100.526 E5.95888
G1 X168.357 Y101.706 E6.10811
G1 X168.457 Y102.006 E6.14496
G1 X168.764 Y103.251 E6.29419
G1 X168.815 Y103.564 E6.33104
G1 X168.918 Y104.842 E6.48027
G1 X168.918 Y105.158 E6.51712
G1 X168.815 Y106.436 E6.66635
G1 X168.764 Y106.749 E6.70320
G1 X168.457 Y107.994 E6.85243
G1 X168.357 Y108.294 E6.88927
G1 X167.869 Y109.439 E7.03417
G1 X167.727 Y109.711 E7.06983
G1 X167.031 Y110.825 E7.22276
G1 X166.835 Y111.087 E7.26079
G1 X165.982 Y112.050 E7.41062
G1 X165.753 Y112.270 E7.44746
G1 X164.760 Y113.081 E7.59669
G1 X164.500 Y113.260 E7.63354
G1 X163.389 Y113.901 E7.78277
G1 X163.103 Y114.037 E7.81962
G1 X161.904 Y114.492 E7.96885
G1 X161.600 Y114.580 E8.00570
G1 X160.344 Y114.836 E8.15493
G1 X160.030 Y114.875 E8.19178
G1 X158.749 Y114.926 E8.34101
G1 X158.432 Y114.913 E8.37785
G1 X157.160 Y114.759 E8.52709
G1 X156.849 Y114.696 E8.56393
G1 X155.618 Y114.339 E8.71317
G1 X155.322 Y114.227 E8.75001
G1 X154.163 Y113.677 E8.89924
G1 X153.889 Y113.519 E8.93609
G1 X152.834 Y112.790 E9.08532
G1 X152.589 Y112.590 E9.12217
G1 X151.660 Y111.698 E9.27199
G1 X151.444 Y111.453 E9.31002
G1 X150.660 Y110.399 E9.46296
G1 X150.355 Y109.913 E9.52974
G1 X149.557 Y109.921 E9.62266
G1 X149.007 Y110.835 E9.74679
G1 X148.749 Y111.174 E9.79636
G1 X147.564 Y112.425 E9.99694
G1 X147.239 Y112.701 E10.04652
G1 X145.813 Y113.668 E10.24710
G1 X145.437 Y113.867 E10.29667
G1 X143.836 Y114.505 E10.49725
G1 X143.425 Y114.619 E10.54683
G1 X141.725 Y114.898 E10.74741
G1 X141.299 Y114.921 E10.79698
G1 X139.579 Y114.828 E10.99756
G1 X139.158 Y114.759 E11.04713
G1 X137.491 Y114.296 E11.24851
G1 X137.083 Y114.132 E11.29968
G1 X135.529 Y113.294 E11.50518
G1 X135.189 Y113.061 E11.55316
G1 X133.913 Y111.978 E11.74791
G1 X133.621 Y111.669 E11.79748
G1 X132.578 Y110.297 E11.99807
G1 X132.358 Y109.932 E12.04764
G1 X131.634 Y108.368 E12.24822
G1 X131.498 Y107.964 E12.29779
G1 X131.128 Y106.281 E12.49838
G1 X131.082 Y105.858 E12.54795
G1 X131.082 Y104.134 E12.74853
G1 X131.128 Y103.711 E12.79810
G1 X131.498 Y102.028 E12.99868
G1 X131.634 Y101.624 E13.04826
G1 X132.358 Y100.060 E13.24884
G1 X132.522 Y99.787 E13.28594
G1 X133.170 Y100.097 F7200.000
G1 X134.166 Y98.786 E13.47751 F1080.000
G1 X134.405 Y98.533 E13.51807
G1 X135.660 Y97.468 E13.70964
G1 X135.948 Y97.272 E13.75020
G1 X137.407 Y96.499 E13.94242
G1 X137.742 Y96.367 E13.98428
G1 X139.372 Y95.926 E14.18077
G1 X139.705 Y95.873 E14.22003
G1 X141.299 Y95.786 E14.40591
G1 X141.647 Y95.805 E14.44647
G1 X143.272 Y96.072 E14.63804
G1 X143.607 Y96.165 E14.67860
G1 X145.142 Y96.776 E14.87082
G1 X145.459 Y96.946 E14.91268
G1 X146.849 Y97.903 E15.10916
G1 X147.106 Y98.122 E15.14842
G1 X148.204 Y99.281 E15.33431
G1 X148.415 Y99.559 E15.37487
G1 X149.264 Y100.969 E15.56643
G1 X149.526 Y101.536 E15.63906
G1 X150.413 Y101.558 E15.74242
G1 X151.134 Y100.185 E15.92285
G1 X151.272 Y99.966 E15.95300
G1 X152.008 Y98.987 E16.09553
G1 X152.180 Y98.793 E16.12568
G1 X153.063 Y97.945 E16.26821
G1 X153.263 Y97.781 E16.29836
G1 X154.271 Y97.085 E16.44089
G1 X154.496 Y96.956 E16.47104
G1 X155.606 Y96.429 E16.61405
G1 X155.856 Y96.335 E16.64517
G1 X157.065 Y95.992 E16.79140
G1 X157.310 Y95.942 E16.82058
G1 X158.490 Y95.799 E16.95888
G1 X158.749 Y95.789 E16.98903
G1 X159.972 Y95.838 E17.13156
G1 X160.229 Y95.869 E17.16171
G1 X161.429 Y96.114 E17.30424
G1 X161.678 Y96.186 E17.33439
G1 X162.823 Y96.620 E17.47692
G1 X163.057 Y96.731 E17.50707
G1 X164.118 Y97.344 E17.64960
G1 X164.331 Y97.491 E17.67975
G1 X165.251 Y98.242 E17.81805
G1 X165.433 Y98.416 E17.84723
G1 X166.271 Y99.352 E17.99346
G1 X166.432 Y99.565 E18.02457
G1 X167.088 Y100.603 E18.16759
G1 X167.209 Y100.833 E18.19774
G1 X167.689 Y101.959 E18.34027
G1 X167.771 Y102.205 E18.37042
G1 X168.064 Y103.394 E18.51295
G1 X168.105 Y103.650 E18.54310
G1 X168.204 Y104.870 E18.68563
G1 X168.204 Y105.130 E18.71578
G1 X168.105 Y106.350 E18.85831
G1 X168.064 Y106.606 E18.88846
G1 X167.771 Y107.795 E19.03099
G1 X167.689 Y108.041 E19.06114
G1 X167.223 Y109.134 E19.19944
G1 X167.107 Y109.356 E19.22862
G1 X166.441 Y110.421 E19.37485
G1 X166.281 Y110.635 E19.40597
G1 X165.466 Y111.555 E19.54898
G1 X165.279 Y111.735 E19.57913
G1 X164.331 Y112.509 E19.72166
G1 X164.118 Y112.656 E19.75181
G1 X163.057 Y113.269 E19.89434
G1 X162.823 Y113.380 E19.92449
G1 X161.678 Y113.814 E20.06702
G1 X161.429 Y113.886 E20.09717
G1 X160.229 Y114.131 E20.23970
G1 X159.972 Y114.162 E20.26985
G1 X158.749 Y114.211 E20.41238
G1 X158.490 Y114.201 E20.44253
G1 X157.274 Y114.053 E20.58506
G1 X157.020 Y114.002 E20.61521
G1 X155.844 Y113.661 E20.75774
G1 X155.602 Y113.569 E20.78789
G1 X154.496 Y113.044 E20.93042
G1 X154.271 Y112.915 E20.96057
G1 X153.263 Y112.219 E21.10310
G1 X153.063 Y112.055 E21.13325
G1 X152.177 Y111.204 E21.27627
G1 X152.000 Y111.003 E21.30738
G1 X151.250 Y109.995 E21.45361
G1 X151.117 Y109.783 E21.48279
G1 X150.411 Y108.439 E21.65948
G1 X149.524 Y108.461 E21.76283
G1 X149.264 Y109.023 E21.83492
G1 X148.415 Y110.433 E22.02649
G1 X148.204 Y110.711 E22.06705
G1 X147.072 Y111.906 E22.25862
G1 X146.807 Y112.131 E22.29918
G1 X145.444 Y113.055 E22.49075
G1 X145.136 Y113.218 E22.53131
G1 X143.607 Y113.827 E22.72287
G1 X143.272 Y113.921 E22.76344
G1 X141.647 Y114.187 E22.95500
G1 X141.299 Y114.206 E22.99556
G1 X139.656 Y114.117 E23.18713
G1 X139.312 Y114.060 E23.22769
G1 X137.721 Y113.618 E23.41991
G1 X137.387 Y113.484 E23.46177
G1 X135.901 Y112.683 E23.65826
G1 X135.622 Y112.493 E23.69752
G1 X134.405 Y111.459 E23.88340
G1 X134.166 Y111.206 E23.92396
G1 X133.170 Y109.896 E24.11553
G1 X132.990 Y109.597 E24.15609
G1 X132.299 Y108.103 E24.34766
G1 X132.188 Y107.773 E24.38822
G1 X131.834 Y106.165 E24.57978
G1 X131.796 Y105.819 E24.62034
G1 X131.796 Y104.173 E24.81191
G1 X131.834 Y103.827 E24.85247
G1 X132.188 Y102.219 E25.04404
G1 X132.299 Y101.889 E25.08460
G1 X132.990 Y100.395 E25.27617
G1 X133.114 Y100.188 E25.30426
G1 X133.762 Y100.498 F7200.000
G1 X134.711 Y99.249 E25.48681 F1080.000
G1 X134.897 Y99.053 E25.51836
G1 X136.093 Y98.037 E25.70092
G1 X136.317 Y97.885 E25.73246
G1 X137.706 Y97.148 E25.91552
G1 X137.967 Y97.046 E25.94808
G1 X139.522 Y96.626 E26.13556
G1 X139.781 Y96.584 E26.16609
G1 X141.299 Y96.502 E26.34310
G1 X141.570 Y96.516 E26.37465
G1 X143.118 Y96.770 E26.55721
G1 X143.379 Y96.843 E26.58875
G1 X144.840 Y97.425 E26.77181
G1 X145.087 Y97.557 E26.80437
G1 X146.414 Y98.470 E26.99185
G1 X146.613 Y98.640 E27.02238
G1 X147.659 Y99.744 E27.19940
G1 X147.823 Y99.960 E27.23094
G1 X148.632 Y101.304 E27.41350
G1 X148.745 Y101.550 E27.44504
G1 X149.246 Y103.037 E27.62760
G1 X149.417 Y103.811 E27.71991
G1 X150.597 Y103.778 E27.85738
G1 X150.714 Y103.064 E27.94165
G1 X150.762 Y102.868 E27.96510
G1 X151.131 Y101.761 E28.10093
G1 X151.210 Y101.576 E28.12438
G1 X151.753 Y100.542 E28.26021
G1 X151.860 Y100.372 E28.28366
G1 X152.561 Y99.439 E28.41949
G1 X152.695 Y99.288 E28.44294
G1 X153.537 Y98.480 E28.57877
G1 X153.693 Y98.352 E28.60222
G1 X154.653 Y97.690 E28.73806
G1 X154.828 Y97.589 E28.76150
G1 X155.885 Y97.087 E28.89771
G1 X156.080 Y97.014 E28.92192
G1 X157.233 Y96.686 E29.06145
G1 X157.424 Y96.648 E29.08414
G1 X158.547 Y96.511 E29.21585
G1 X158.749 Y96.503 E29.23930
G1 X159.915 Y96.550 E29.37513
G1 X160.115 Y96.575 E29.39858
G1 X161.258 Y96.808 E29.53441
G1 X161.452 Y96.864 E29.55786
G1 X162.543 Y97.278 E29.69370
G1 X162.725 Y97.364 E29.71714
G1 X163.736 Y97.948 E29.85298
G1 X163.901 Y98.062 E29.87642
G1 X164.778 Y98.778 E30.00813
G1 X164.919 Y98.913 E30.03083
G1 X165.719 Y99.806 E30.17036
G1 X165.844 Y99.972 E30.19456
G1 X166.469 Y100.961 E30.33077
G1 X166.563 Y101.139 E30.35422
G1 X167.021 Y102.213 E30.49005
G1 X167.084 Y102.404 E30.51350
G1 X167.364 Y103.537 E30.64934
G1 X167.396 Y103.736 E30.67278
G1 X167.490 Y104.899 E30.80862
G1 X167.490 Y105.101 E30.83206
G1 X167.396 Y106.264 E30.96790
G1 X167.364 Y106.463 E30.99135
G1 X167.084 Y107.596 E31.12718
G1 X167.021 Y107.787 E31.15063
G1 X166.577 Y108.828 E31.28234
G1 X166.487 Y109.001 E31.30503
G1 X165.851 Y110.018 E31.44456
G1 X165.727 Y110.184 E31.46876
G1 X164.951 Y111.060 E31.60498
G1 X164.805 Y111.200 E31.62842
G1 X163.901 Y111.938 E31.76426
G1 X163.736 Y112.052 E31.78770
G1 X162.725 Y112.636 E31.92354
G1 X162.543 Y112.722 E31.94699
G1 X161.452 Y113.136 E32.08282
G1 X161.258 Y113.192 E32.10627
G1 X160.115 Y113.425 E32.24210
G1 X159.915 Y113.450 E32.26555
G1 X158.749 Y113.497 E32.40138
G1 X158.547 Y113.489 E32.42483
G1 X157.389 Y113.348 E32.56066
G1 X157.191 Y113.308 E32.58411
G1 X156.070 Y112.983 E32.71994
G1 X155.882 Y112.912 E32.74339
G1 X154.828 Y112.411 E32.87922
G1 X154.653 Y112.310 E32.90267
G1 X153.693 Y111.648 E33.03851
G1 X153.537 Y111.520 E33.06195
G1 X152.693 Y110.709 E33.19816
G1 X152.555 Y110.553 E33.22237
G1 X151.840 Y109.591 E33.36190
G1 X151.736 Y109.426 E33.38459
G1 X151.210 Y108.424 E33.51630
G1 X151.131 Y108.239 E33.53975
G1 X150.762 Y107.132 E33.67558
G1 X150.714 Y106.936 E33.69903
G1 X150.597 Y106.217 E33.78383
G1 X149.416 Y106.184 E33.92130
G1 X149.246 Y106.956 E34.01322
G1 X148.745 Y108.442 E34.19577
G1 X148.632 Y108.688 E34.22732
G1 X147.823 Y110.032 E34.40987
G1 X147.659 Y110.248 E34.44142
G1 X146.580 Y111.386 E34.62398
G1 X146.374 Y111.562 E34.65552
G1 X145.076 Y112.442 E34.83808
G1 X144.836 Y112.569 E34.86962
G1 X143.379 Y113.150 E35.05218
G1 X143.118 Y113.222 E35.08372
G1 X141.570 Y113.476 E35.26628
G1 X141.299 Y113.490 E35.29783
G1 X139.733 Y113.406 E35.48038
G1 X139.466 Y113.362 E35.51193
G1 X137.950 Y112.941 E35.69499
G1 X137.691 Y112.837 E35.72755
G1 X136.273 Y112.072 E35.91502
G1 X136.056 Y111.924 E35.94556
G1 X134.897 Y110.940 E36.12257
G1 X134.711 Y110.743 E36.15412
G1 X133.762 Y109.494 E36.33667
G1 X133.622 Y109.262 E36.36822
G1 X132.963 Y107.838 E36.55077
G1 X132.877 Y107.582 E36.58232
G1 X132.539 Y106.050 E36.76487
G1 X132.510 Y105.780 E36.79642
G1 X132.510 Y104.212 E36.97897
G1 X132.539 Y103.942 E37.01052
G1 X132.877 Y102.411 E37.19307
G1 X132.963 Y102.154 E37.22462
G1 X133.622 Y100.730 E37.40718
G1 X133.706 Y100.590 E37.42625
G1 X134.353 Y100.899 F7200.000
G1 X135.256 Y99.712 E37.59980 F1080.000
G1 X135.389 Y99.572 E37.62233
G1 X136.525 Y98.607 E37.79587
G1 X136.686 Y98.498 E37.81840
G1 X138.006 Y97.798 E37.99231
G1 X138.192 Y97.725 E38.01556
G1 X139.672 Y97.325 E38.19402
G1 X139.857 Y97.295 E38.21583
G1 X141.299 Y97.217 E38.38398
G1 X141.493 Y97.227 E38.40651
G1 X142.964 Y97.469 E38.58005
G1 X143.151 Y97.520 E38.60259
G1 X144.539 Y98.073 E38.77649
G1 X144.715 Y98.168 E38.79975
G1 X145.978 Y99.037 E38.97821
G1 X146.120 Y99.159 E39.00002
G1 X147.114 Y100.207 E39.16816
G1 X147.231 Y100.362 E39.19070
G1 X148.000 Y101.639 E39.36424
G1 X148.081 Y101.815 E39.38677
G1 X148.557 Y103.228 E39.56031
G1 X148.599 Y103.417 E39.58284
G1 X148.760 Y104.899 E39.75639
G1 X148.760 Y105.093 E39.77892
G1 X148.599 Y106.575 E39.95246
G1 X148.557 Y106.764 E39.97499
G1 X148.081 Y108.177 E40.14853
G1 X148.000 Y108.353 E40.17107
G1 X147.231 Y109.631 E40.34461
G1 X147.114 Y109.785 E40.36714
G1 X146.088 Y110.867 E40.54068
G1 X145.941 Y110.992 E40.56322
G1 X144.707 Y111.829 E40.73676
G1 X144.536 Y111.920 E40.75929
G1 X143.151 Y112.472 E40.93283
G1 X142.964 Y112.524 E40.95537
G1 X141.493 Y112.765 E41.12891
G1 X141.299 Y112.775 E41.15144
