; generated by Slic3r 1.0.0RC2 on 2014-04-09 at 18:54:56

; layer_height = 0.3
; perimeters = 3
; top_solid_layers = 3
; bottom_solid_layers = 3
; fill_density = 0.20
; perimeter_speed = 60
; infill_speed = 60
; travel_speed = 120
; nozzle_diameter = 0.4
; filament_diameter = 1.75
; extrusion_multiplier = 0.98
; perimeters extrusion width = 0.40mm
; infill extrusion width = 0.42mm
; solid infill extrusion width = 0.42mm
; top infill extrusion width = 0.42mm
; first layer extrusion width = 0.80mm

G21 ; set units to millimeters
M107
M104 S220 ; set temperature
G28 ; home all axes
M106 S255;
G1 Z200 F1200 ; lift nozzle
M109 S220 ; wait for temperature to be reached
G90 ; use absolute coordinates
G92 E0
M82 ; use absolute distances for extrusion
G1 F1800.000 E-1.00000
G92 E0
G1 Z0.400 F7200.000
G1 X132.476 Y95.461 F7200.000
G1 E1.00000 F1800.000
G1 X133.306 Y94.441 E1.15306 F1080.000
G1 X134.326 Y93.611 E1.30611
G1 X135.486 Y92.991 E1.45920
G1 X136.746 Y92.601 E1.61271
G1 X138.056 Y92.481 E1.76582
G1 X161.936 Y92.481 E4.54521
G1 X163.246 Y92.601 E4.69832
G1 X164.506 Y92.991 E4.85184
G1 X165.666 Y93.611 E5.00493
G1 X166.686 Y94.441 E5.15798
G1 X167.516 Y95.461 E5.31104
G1 X168.136 Y96.621 E5.46412
G1 X168.526 Y97.881 E5.61764
G1 X168.646 Y99.191 E5.77075
G1 X168.646 Y110.801 E7.12204
G1 X168.526 Y112.111 E7.27514
G1 X168.136 Y113.371 E7.42866
G1 X167.516 Y114.531 E7.58175
G1 X166.686 Y115.551 E7.73480
G1 X165.666 Y116.381 E7.88786
G1 X164.506 Y117.001 E8.04095
G1 X163.246 Y117.391 E8.19446
G1 X161.936 Y117.511 E8.34757
G1 X138.056 Y117.511 E11.12696
G1 X136.746 Y117.391 E11.28007
G1 X135.486 Y117.001 E11.43358
G1 X134.326 Y116.381 E11.58667
G1 X133.306 Y115.551 E11.73973
G1 X132.476 Y114.531 E11.89278
G1 X131.856 Y113.371 E12.04587
G1 X131.466 Y112.111 E12.19939
G1 X131.346 Y110.801 E12.35250
G1 X131.346 Y99.191 E13.70378
G1 X131.466 Y97.881 E13.85689
G1 X131.856 Y96.621 E14.01041
G1 X132.426 Y95.556 E14.15103
G1 F1800.000 E13.15103
G92 E0
G1 X160.718 Y99.591 F7200.000
G1 E1.00000 F1800.000
G1 X161.544 Y99.591 E1.09606 F540.000
G1 X161.544 Y110.409 E2.35512
G1 X160.718 Y110.409 E2.45119
G1 X160.718 Y99.698 E3.69777
G1 X161.337 Y99.948 F7200.000
G1 X139.282 Y99.591 F7200.000
G1 X139.282 Y110.409 E4.95683 F540.000
G1 X138.456 Y110.409 E5.05290
G1 X138.456 Y99.591 E6.31195
G1 X139.174 Y99.591 E6.39555
G1 X138.925 Y100.210 F7200.000
G1 X139.860 Y99.344 F7200.000
G1 X140.500 Y99.887 E6.49329 F756.000
G1 X159.426 Y99.887 E8.69599
G1 X159.629 Y99.879 E8.71970
G1 X160.177 Y99.370 E8.80674
G1 X159.629 Y99.879 F7200.000
G1 X160.140 Y100.415 E8.89292 F756.000
G1 F1800.000 E7.89292
G92 E0
G1 X160.177 Y109.489 F7200.000
G1 E1.00000 F1800.000
G1 X159.693 Y110.082 E1.08909 F756.000
G1 X159.426 Y110.128 E1.12063
G1 X140.500 Y110.128 E3.32333
G1 X139.860 Y109.585 E3.42107
G1 X140.371 Y110.121 F7200.000
G1 X139.823 Y110.630 E3.50811 F756.000
G1 F1800.000 E2.50811
G92 E0
G1 X139.823 Y100.390 F7200.000
G1 E1.00000 F1800.000
G1 X140.371 Y99.880 E1.08704 F756.000
G1 F1800.000 E0.08704
G92 E0
G1 X159.643 Y110.120 F7200.000
G1 E1.00000 F1800.000
G1 X160.140 Y110.713 E1.09001 F756.000
M106 S255
G1 F1800.000 E0.09001
G92 E0
G1 Z0.700 F7200.000
G1 X160.518 Y109.632 F7200.000
G1 E1.00000 F1800.000
G1 X139.482 Y109.632 E2.02854 F604.534
G1 X139.482 Y100.368 E2.48145
G1 X160.518 Y100.368 E3.50999
G1 X160.518 Y109.572 E3.95997
G1 X160.518 Y110.032 F7200.000
G1 X160.918 Y110.209 F7200.000
G1 X160.918 Y99.791 E4.46931 F600.000
G1 X161.344 Y99.791 E4.49010
G1 X161.344 Y110.209 E4.99945
G1 X160.978 Y110.209 E5.01731
G1 X139.082 Y110.209 F7200.000
G1 X138.656 Y110.209 E5.03811 F600.000
G1 X138.656 Y99.791 E5.54745
G1 X139.082 Y99.791 E5.56824
G1 X139.082 Y110.149 E6.07465
G1 X138.256 Y110.609 F7200.000
G1 X138.256 Y99.391 E6.62311 F604.534
G1 X161.744 Y99.391 E7.77147
G1 X161.744 Y110.609 E8.31992
G1 X138.316 Y110.609 E9.46535
G1 X138.456 Y110.262 F7200.000
G1 X139.461 Y110.052 F7200.000
G1 X139.502 Y110.011 E9.46820 F600.000
G1 X139.858 Y110.229 E9.48886 F600.000
G1 X140.075 Y110.011 E9.50411 F600.000
G1 X140.431 Y110.229 E9.52478 F600.000
G1 X140.649 Y110.011 E9.54003 F600.000
G1 X141.004 Y110.229 E9.56070 F600.000
G1 X141.222 Y110.011 E9.57595 F600.000
G1 X141.578 Y110.229 E9.59661 F600.000
G1 X141.795 Y110.011 E9.61187 F600.000
G1 X142.151 Y110.229 E9.63253 F600.000
G1 X142.369 Y110.011 E9.64778 F600.000
G1 X142.724 Y110.229 E9.66845 F600.000
G1 X142.942 Y110.011 E9.68370 F600.000
G1 X143.298 Y110.229 E9.70437 F600.000
G1 X143.515 Y110.011 E9.71962 F600.000
G1 X143.871 Y110.229 E9.74028 F600.000
G1 X144.089 Y110.011 E9.75554 F600.000
G1 X144.444 Y110.229 E9.77620 F600.000
G1 X144.662 Y110.011 E9.79146 F600.000
G1 X145.018 Y110.229 E9.81212 F600.000
G1 X145.235 Y110.011 E9.82737 F600.000
G1 X145.591 Y110.229 E9.84804 F600.000
G1 X145.809 Y110.011 E9.86329 F600.000
G1 X146.164 Y110.229 E9.88396 F600.000
G1 X146.382 Y110.011 E9.89921 F600.000
G1 X146.738 Y110.229 E9.91987 F600.000
G1 X146.955 Y110.011 E9.93513 F600.000
G1 X147.311 Y110.229 E9.95579 F600.000
G1 X147.529 Y110.011 E9.97104 F600.000
G1 X147.884 Y110.229 E9.99171 F600.000
G1 X148.102 Y110.011 E10.00696 F600.000
G1 X148.458 Y110.229 E10.02763 F600.000
G1 X148.675 Y110.011 E10.04288 F600.000
G1 X149.031 Y110.229 E10.06354 F600.000
G1 X149.249 Y110.011 E10.07880 F600.000
G1 X149.605 Y110.229 E10.09946 F600.000
G1 X149.822 Y110.011 E10.11471 F600.000
G1 X150.178 Y110.229 E10.13538 F600.000
G1 X150.395 Y110.011 E10.15063 F600.000
G1 X150.751 Y110.229 E10.17130 F600.000
G1 X150.969 Y110.011 E10.18655 F600.000
G1 X151.325 Y110.229 E10.20721 F600.000
G1 X151.542 Y110.011 E10.22247 F600.000
G1 X151.898 Y110.229 E10.24313 F600.000
G1 X152.116 Y110.011 E10.25839 F600.000
G1 X152.471 Y110.229 E10.27905 F600.000
G1 X152.689 Y110.011 E10.29430 F600.000
G1 X153.045 Y110.229 E10.31497 F600.000
G1 X153.262 Y110.011 E10.33022 F600.000
G1 X153.618 Y110.229 E10.35089 F600.000
G1 X153.836 Y110.011 E10.36614 F600.000
G1 X154.191 Y110.229 E10.38680 F600.000
G1 X154.409 Y110.011 E10.40206 F600.000
G1 X154.765 Y110.229 E10.42272 F600.000
G1 X154.982 Y110.011 E10.43797 F600.000
G1 X155.338 Y110.229 E10.45864 F600.000
G1 X155.556 Y110.011 E10.47389 F600.000
G1 X155.911 Y110.229 E10.49456 F600.000
G1 X156.129 Y110.011 E10.50981 F600.000
G1 X156.485 Y110.229 E10.53047 F600.000
G1 X156.702 Y110.011 E10.54573 F600.000
G1 X157.058 Y110.229 E10.56639 F600.000
G1 X157.276 Y110.011 E10.58165 F600.000
G1 X157.631 Y110.229 E10.60231 F600.000
G1 X157.849 Y110.011 E10.61756 F600.000
G1 X158.205 Y110.229 E10.63823 F600.000
G1 X158.422 Y110.011 E10.65348 F600.000
G1 X158.778 Y110.229 E10.67415 F600.000
G1 X158.996 Y110.011 E10.68940 F600.000
G1 X159.351 Y110.229 E10.71006 F600.000
G1 X159.569 Y110.011 E10.72532 F600.000
G1 X159.925 Y110.229 E10.74598 F600.000
G1 X160.142 Y110.011 E10.76123 F600.000
G1 X160.498 Y110.229 E10.78190 F600.000
G1 X160.539 Y110.189 E10.78474 F600.000
G1 X160.498 Y99.989 F7200.000
G1 X160.142 Y99.771 E10.80540 F600.000
G1 X159.925 Y99.989 E10.82066 F600.000
G1 X159.569 Y99.771 E10.84132 F600.000
G1 X159.351 Y99.989 E10.85658 F600.000
G1 X158.996 Y99.771 E10.87724 F600.000
G1 X158.778 Y99.989 E10.89249 F600.000
G1 X158.422 Y99.771 E10.91316 F600.000
G1 X158.205 Y99.989 E10.92841 F600.000
G1 X157.849 Y99.771 E10.94908 F600.000
G1 X157.631 Y99.989 E10.96433 F600.000
G1 X157.276 Y99.771 E10.98499 F600.000
G1 X157.058 Y99.989 E11.00025 F600.000
G1 X156.702 Y99.771 E11.02091 F600.000
G1 X156.485 Y99.989 E11.03616 F600.000
G1 X156.129 Y99.771 E11.05683 F600.000
G1 X155.911 Y99.989 E11.07208 F600.000
G1 X155.556 Y99.771 E11.09275 F600.000
G1 X155.338 Y99.989 E11.10800 F600.000
G1 X154.982 Y99.771 E11.12866 F600.000
G1 X154.765 Y99.989 E11.14392 F600.000
G1 X154.409 Y99.771 E11.16458 F600.000
G1 X154.191 Y99.989 E11.17983 F600.000
G1 X153.836 Y99.771 E11.20050 F600.000
G1 X153.618 Y99.989 E11.21575 F600.000
G1 X153.262 Y99.771 E11.23642 F600.000
G1 X153.045 Y99.989 E11.25167 F600.000
G1 X152.689 Y99.771 E11.27233 F600.000
G1 X152.471 Y99.989 E11.28759 F600.000
G1 X152.116 Y99.771 E11.30825 F600.000
G1 X151.898 Y99.989 E11.32351 F600.000
G1 X151.542 Y99.771 E11.34417 F600.000
G1 X151.325 Y99.989 E11.35942 F600.000
G1 X150.969 Y99.771 E11.38009 F600.000
G1 X150.751 Y99.989 E11.39534 F600.000
G1 X150.395 Y99.771 E11.41601 F600.000
G1 X150.178 Y99.989 E11.43126 F600.000
G1 X149.822 Y99.771 E11.45192 F600.000
G1 X149.605 Y99.989 E11.46718 F600.000
G1 X149.249 Y99.771 E11.48784 F600.000
G1 X149.031 Y99.989 E11.50309 F600.000
G1 X148.675 Y99.771 E11.52376 F600.000
G1 X148.458 Y99.989 E11.53901 F600.000
G1 X148.102 Y99.771 E11.55968 F600.000
G1 X147.884 Y99.989 E11.57493 F600.000
G1 X147.529 Y99.771 E11.59559 F600.000
G1 X147.311 Y99.989 E11.61085 F600.000
G1 X146.955 Y99.771 E11.63151 F600.000
G1 X146.738 Y99.989 E11.64676 F600.000
G1 X146.382 Y99.771 E11.66743 F600.000
G1 X146.164 Y99.989 E11.68268 F600.000
G1 X145.809 Y99.771 E11.70335 F600.000
G1 X145.591 Y99.989 E11.71860 F600.000
G1 X145.235 Y99.771 E11.73927 F600.000
G1 X145.018 Y99.989 E11.75452 F600.000
G1 X144.662 Y99.771 E11.77518 F600.000
G1 X144.444 Y99.989 E11.79044 F600.000
G1 X144.089 Y99.771 E11.81110 F600.000
G1 X143.871 Y99.989 E11.82635 F600.000
G1 X143.515 Y99.771 E11.84702 F600.000
G1 X143.298 Y99.989 E11.86227 F600.000
G1 X142.942 Y99.771 E11.88294 F600.000
G1 X142.724 Y99.989 E11.89819 F600.000
G1 X142.369 Y99.771 E11.91885 F600.000
G1 X142.151 Y99.989 E11.93411 F600.000
G1 X141.795 Y99.771 E11.95477 F600.000
G1 X141.578 Y99.989 E11.97002 F600.000
G1 X141.222 Y99.771 E11.99069 F600.000
G1 X141.004 Y99.989 E12.00594 F600.000
G1 X140.649 Y99.771 E12.02661 F600.000
G1 X140.431 Y99.989 E12.04186 F600.000
G1 X140.075 Y99.771 E12.06252 F600.000
G1 X139.858 Y99.989 E12.07778 F600.000
G1 X139.502 Y99.771 E12.09844 F600.000
G1 X139.461 Y99.811 E12.10128 F600.000
G1 X160.498 Y99.989 F7200.000
G1 X160.539 Y99.948 E12.10412 F600.000
G1 F1800.000 E11.10412
G92 E0
G1 Z1.000 F7200.000
G1 X160.518 Y100.368 F7200.000
G1 E1.00000 F1800.000
G1 X160.518 Y109.632 E1.45291 F604.677
G1 X139.482 Y109.632 E2.48145
G1 X139.482 Y100.368 E2.93436
G1 X160.458 Y100.368 E3.95997
G1 X160.918 Y100.368 F7200.000
G1 X160.918 Y99.791 F7200.000
G1 X161.344 Y99.791 E3.98076 F600.000
G1 X161.344 Y110.209 E4.49010
G1 X160.918 Y110.209 E4.51090
G1 X160.918 Y99.851 E5.01731
G1 X139.082 Y99.791 F7200.000
G1 X139.082 Y110.209 E5.52665 F600.000
G1 X138.656 Y110.209 E5.54745
G1 X138.656 Y99.791 E6.05679
G1 X139.022 Y99.791 E6.07465
G1 X138.256 Y99.391 F7200.000
G1 X161.744 Y99.391 E7.22301 F604.677
G1 X161.744 Y110.609 E7.77147
G1 X138.256 Y110.609 E8.91983
G1 X138.256 Y99.451 E9.46535
G1 X138.603 Y99.591 F7200.000
G1 X139.461 Y99.948 F7200.000
G1 X139.858 Y99.771 E9.48686 F600.000
G1 X140.075 Y99.989 E9.50212 F600.000
G1 X140.431 Y99.771 E9.52278 F600.000
G1 X140.649 Y99.989 E9.53803 F600.000
G1 X141.004 Y99.771 E9.55870 F600.000
G1 X141.222 Y99.989 E9.57395 F600.000
G1 X141.578 Y99.771 E9.59462 F600.000
G1 X141.795 Y99.989 E9.60987 F600.000
G1 X142.151 Y99.771 E9.63053 F600.000
G1 X142.369 Y99.989 E9.64579 F600.000
G1 X142.724 Y99.771 E9.66645 F600.000
G1 X142.942 Y99.989 E9.68170 F600.000
G1 X143.298 Y99.771 E9.70237 F600.000
G1 X143.515 Y99.989 E9.71762 F600.000
G1 X143.871 Y99.771 E9.73829 F600.000
G1 X144.089 Y99.989 E9.75354 F600.000
G1 X144.444 Y99.771 E9.77420 F600.000
G1 X144.662 Y99.989 E9.78946 F600.000
G1 X145.018 Y99.771 E9.81012 F600.000
G1 X145.235 Y99.989 E9.82538 F600.000
G1 X145.591 Y99.771 E9.84604 F600.000
G1 X145.809 Y99.989 E9.86129 F600.000
G1 X146.164 Y99.771 E9.88196 F600.000
G1 X146.382 Y99.989 E9.89721 F600.000
G1 X146.738 Y99.771 E9.91788 F600.000
G1 X146.955 Y99.989 E9.93313 F600.000
G1 X147.311 Y99.771 E9.95379 F600.000
G1 X147.529 Y99.989 E9.96905 F600.000
G1 X147.884 Y99.771 E9.98971 F600.000
G1 X148.102 Y99.989 E10.00496 F600.000
G1 X148.458 Y99.771 E10.02563 F600.000
G1 X148.675 Y99.989 E10.04088 F600.000
G1 X149.031 Y99.771 E10.06155 F600.000
G1 X149.249 Y99.989 E10.07680 F600.000
G1 X149.605 Y99.771 E10.09746 F600.000
G1 X149.822 Y99.989 E10.11272 F600.000
G1 X150.178 Y99.771 E10.13338 F600.000
G1 X150.395 Y99.989 E10.14863 F600.000
G1 X150.751 Y99.771 E10.16930 F600.000
G1 X150.969 Y99.989 E10.18455 F600.000
G1 X151.325 Y99.771 E10.20522 F600.000
G1 X151.542 Y99.989 E10.22047 F600.000
G1 X151.898 Y99.771 E10.24114 F600.000
G1 X152.116 Y99.989 E10.25639 F600.000
G1 X152.471 Y99.771 E10.27705 F600.000
G1 X152.689 Y99.989 E10.29231 F600.000
G1 X153.045 Y99.771 E10.31297 F600.000
G1 X153.262 Y99.989 E10.32822 F600.000
G1 X153.618 Y99.771 E10.34889 F600.000
G1 X153.836 Y99.989 E10.36414 F600.000
G1 X154.191 Y99.771 E10.38481 F600.000
G1 X154.409 Y99.989 E10.40006 F600.000
G1 X154.765 Y99.771 E10.42072 F600.000
G1 X154.982 Y99.989 E10.43598 F600.000
G1 X155.338 Y99.771 E10.45664 F600.000
G1 X155.556 Y99.989 E10.47189 F600.000
G1 X155.911 Y99.771 E10.49256 F600.000
G1 X156.129 Y99.989 E10.50781 F600.000
G1 X156.485 Y99.771 E10.52848 F600.000
G1 X156.702 Y99.989 E10.54373 F600.000
G1 X157.058 Y99.771 E10.56439 F600.000
G1 X157.276 Y99.989 E10.57965 F600.000
G1 X157.631 Y99.771 E10.60031 F600.000
G1 X157.849 Y99.989 E10.61557 F600.000
G1 X158.205 Y99.771 E10.63623 F600.000
G1 X158.422 Y99.989 E10.65148 F600.000
G1 X158.778 Y99.771 E10.67215 F600.000
G1 X158.996 Y99.989 E10.68740 F600.000
G1 X159.351 Y99.771 E10.70807 F600.000
G1 X159.569 Y99.989 E10.72332 F600.000
G1 X159.925 Y99.771 E10.74398 F600.000
G1 X160.142 Y99.989 E10.75924 F600.000
G1 X160.498 Y99.771 E10.77990 F600.000
G1 X160.539 Y99.811 E10.78274 F600.000
G1 X160.498 Y110.011 F7200.000
G1 X160.539 Y110.052 E10.78558 F600.000
G1 X160.498 Y110.011 F7200.000
G1 X160.142 Y110.229 E10.80625 F600.000
G1 X159.925 Y110.011 E10.82150 F600.000
G1 X159.569 Y110.229 E10.84217 F600.000
G1 X159.351 Y110.011 E10.85742 F600.000
G1 X158.996 Y110.229 E10.87808 F600.000
G1 X158.778 Y110.011 E10.89334 F600.000
G1 X158.422 Y110.229 E10.91400 F600.000
G1 X158.205 Y110.011 E10.92925 F600.000
G1 X157.849 Y110.229 E10.94992 F600.000
G1 X157.631 Y110.011 E10.96517 F600.000
G1 X157.276 Y110.229 E10.98584 F600.000
G1 X157.058 Y110.011 E11.00109 F600.000
G1 X156.702 Y110.229 E11.02175 F600.000
G1 X156.485 Y110.011 E11.03701 F600.000
G1 X156.129 Y110.229 E11.05767 F600.000
G1 X155.911 Y110.011 E11.07292 F600.000
G1 X155.556 Y110.229 E11.09359 F600.000
G1 X155.338 Y110.011 E11.10884 F600.000
G1 X154.982 Y110.229 E11.12951 F600.000
G1 X154.765 Y110.011 E11.14476 F600.000
G1 X154.409 Y110.229 E11.16542 F600.000
G1 X154.191 Y110.011 E11.18068 F600.000
G1 X153.836 Y110.229 E11.20134 F600.000
G1 X153.618 Y110.011 E11.21660 F600.000
G1 X153.262 Y110.229 E11.23726 F600.000
G1 X153.045 Y110.011 E11.25251 F600.000
G1 X152.689 Y110.229 E11.27318 F600.000
G1 X152.471 Y110.011 E11.28843 F600.000
G1 X152.116 Y110.229 E11.30910 F600.000
G1 X151.898 Y110.011 E11.32435 F600.000
G1 X151.542 Y110.229 E11.34501 F600.000
G1 X151.325 Y110.011 E11.36027 F600.000
G1 X150.969 Y110.229 E11.38093 F600.000
G1 X150.751 Y110.011 E11.39618 F600.000
G1 X150.395 Y110.229 E11.41685 F600.000
G1 X150.178 Y110.011 E11.43210 F600.000
G1 X149.822 Y110.229 E11.45277 F600.000
G1 X149.605 Y110.011 E11.46802 F600.000
G1 X149.249 Y110.229 E11.48868 F600.000
G1 X149.031 Y110.011 E11.50394 F600.000
G1 X148.675 Y110.229 E11.52460 F600.000
G1 X148.458 Y110.011 E11.53985 F600.000
G1 X148.102 Y110.229 E11.56052 F600.000
G1 X147.884 Y110.011 E11.57577 F600.000
G1 X147.529 Y110.229 E11.59644 F600.000
G1 X147.311 Y110.011 E11.61169 F600.000
G1 X146.955 Y110.229 E11.63235 F600.000
G1 X146.738 Y110.011 E11.64761 F600.000
G1 X146.382 Y110.229 E11.66827 F600.000
G1 X146.164 Y110.011 E11.68353 F600.000
G1 X145.809 Y110.229 E11.70419 F600.000
G1 X145.591 Y110.011 E11.71944 F600.000
G1 X145.235 Y110.229 E11.74011 F600.000
G1 X145.018 Y110.011 E11.75536 F600.000
G1 X144.662 Y110.229 E11.77603 F600.000
G1 X144.444 Y110.011 E11.79128 F600.000
G1 X144.089 Y110.229 E11.81194 F600.000
G1 X143.871 Y110.011 E11.82720 F600.000
G1 X143.515 Y110.229 E11.84786 F600.000
