; generated by Slic3r 1.0.0RC2 on 2014-05-22 at 19:09:37

; layer_height = 0.3
; perimeters = 3
; top_solid_layers = 3
; bottom_solid_layers = 3
; fill_density = 0.30
; perimeter_speed = 60
; infill_speed = 60
; travel_speed = 120
; nozzle_diameter = 0.4
; filament_diameter = 1.75
; extrusion_multiplier = 0.98
; perimeters extrusion width = 0.40mm
; infill extrusion width = 0.42mm
; solid infill extrusion width = 0.42mm
; top infill extrusion width = 0.42mm
; first layer extrusion width = 0.80mm

G21 ; set units to millimeters
M107
M104 S220 ; set temperature
G28 ; home all axes
M106 S255;
G1 Z200 F1200 ; lift nozzle
M109 S220 ; wait for temperature to be reached
G90 ; use absolute coordinates
G92 E0
M82 ; use absolute distances for extrusion
G1 F1800.000 E-1.00000
G92 E0
G1 Z0.400 F7200.000
G1 X103.432 Y93.807 F7200.000
G1 E1.00000 F1800.000
G1 X104.432 Y92.977 E1.15126 F1080.000
G1 X105.562 Y92.357 E1.30127
G1 X106.792 Y91.957 E1.45181
G1 X108.082 Y91.807 E1.60297
G1 X145.622 Y91.027 E5.97319
G1 X159.342 Y91.037 E7.57006
G1 X193.852 Y93.347 E11.59566
G1 X195.262 Y93.597 E11.76233
G1 X196.582 Y94.137 E11.92832
G1 X197.762 Y94.947 E12.09491
G1 X198.742 Y95.987 E12.26122
G1 X199.482 Y97.207 E12.42730
G1 X199.882 Y98.197 E12.55158
G1 X200.092 Y99.077 E12.65687
G1 X200.952 Y104.167 E13.25770
G1 X201.042 Y105.527 E13.41633
G1 X200.852 Y106.877 E13.57501
G1 X199.542 Y112.267 E14.22061
G1 X199.082 Y113.567 E14.38111
G1 X198.362 Y114.737 E14.54101
G1 X197.422 Y115.747 E14.70159
G1 X195.602 Y117.327 E14.98211
G1 X194.282 Y118.227 E15.16806
G1 X192.782 Y118.777 E15.35401
G1 X191.202 Y118.967 E15.53923
G1 X145.762 Y118.967 E20.82798
G1 X145.072 Y118.937 E20.90837
G1 X108.252 Y115.117 E25.21685
G1 X106.622 Y114.737 E25.41165
G1 X105.142 Y113.977 E25.60529
G1 X103.902 Y112.867 E25.79899
G1 X100.632 Y109.147 E26.37546
G1 X99.772 Y107.927 E26.54919
G1 X99.212 Y106.547 E26.72253
G1 X98.972 Y105.077 E26.89589
G1 X99.052 Y103.597 E27.06839
G1 X99.462 Y102.167 E27.24154
G1 X102.012 Y95.967 E28.02181
G1 X102.622 Y94.817 E28.17332
G1 X103.365 Y93.891 E28.31154
G1 F1800.000 E27.31154
G92 E0
G1 X188.817 Y103.369 F7200.000
G1 E1.00000 F1800.000
G1 X189.042 Y102.629 E1.09001 F540.000
G1 X189.231 Y102.281 E1.13619
G1 X189.482 Y101.980 E1.18176
G1 X189.786 Y101.737 E1.22711
G1 X190.127 Y101.558 E1.27189
G1 X190.501 Y101.448 E1.31722
G1 X190.878 Y101.410 E1.36136
G1 X191.268 Y101.449 E1.40702
G1 X191.631 Y101.554 E1.45102
G1 X191.974 Y101.731 E1.49585
G1 X192.273 Y101.966 E1.54018
G1 X192.524 Y102.257 E1.58486
G1 X192.714 Y102.593 E1.62977
G1 X192.834 Y102.963 E1.67509
G1 X192.879 Y103.352 E1.72060
G1 X192.844 Y103.743 E1.76634
G1 X192.730 Y104.121 E1.81232
G1 X192.542 Y104.468 E1.85826
G1 X192.291 Y104.769 E1.90394
G1 X191.987 Y105.013 E1.94929
G1 X191.647 Y105.192 E1.99396
G1 X191.273 Y105.303 E2.03936
G1 X190.891 Y105.340 E2.08399
G1 X190.507 Y105.303 E2.12898
G1 X190.140 Y105.196 E2.17341
G1 X189.798 Y105.019 E2.21828
G1 X189.499 Y104.784 E2.26253
G1 X189.248 Y104.493 E2.30721
G1 X189.058 Y104.157 E2.35214
G1 X188.848 Y103.472 E2.43553
G1 X188.236 Y102.954 F7200.000
G1 X188.305 Y102.894 F7200.000
G1 X188.505 Y103.220 E2.48009 F540.000
G1 X188.226 Y104.129 E2.59077
G1 X188.060 Y104.438 E2.63162
G1 X187.805 Y104.754 E2.67884
G1 X187.508 Y104.997 E2.72350
G1 X187.165 Y105.181 E2.76885
G1 X186.800 Y105.294 E2.81329
G1 X186.369 Y105.340 E2.86371
G1 X185.989 Y105.305 E2.90821
G1 X185.625 Y105.202 E2.95218
G1 X185.284 Y105.033 E2.99645
G1 X184.977 Y104.797 E3.04152
G1 X184.724 Y104.514 E3.08580
G1 X184.565 Y104.220 E3.12462
G1 X184.527 Y104.181 E3.13096
G1 X184.400 Y103.809 E3.17676
G1 X184.351 Y103.411 E3.22340
G1 X184.387 Y103.006 E3.27073
G1 X184.509 Y102.614 E3.31855
G1 X184.678 Y102.301 E3.35991
G1 X184.930 Y101.992 E3.40627
G1 X185.232 Y101.746 E3.45170
G1 X185.577 Y101.564 E3.49705
G1 X185.932 Y101.457 E3.54025
G1 X186.365 Y101.411 E3.59089
G1 X186.744 Y101.446 E3.63514
G1 X187.108 Y101.549 E3.67926
G1 X187.449 Y101.718 E3.72358
G1 X187.752 Y101.948 E3.76778
G1 X187.963 Y102.202 E3.80620
G1 X188.008 Y102.234 E3.81263
G1 X188.166 Y102.527 E3.85147
G1 X188.204 Y102.566 E3.85777
G1 X188.274 Y102.791 E3.88521
G1 X188.687 Y102.916 F7200.000
G1 F1800.000 E2.88521
G92 E0
G1 X115.737 Y104.670 F7200.000
G1 E1.00000 F1800.000
G1 X115.701 Y105.076 E1.04733 F540.000
G1 X115.579 Y105.468 E1.09515
G1 X115.410 Y105.780 E1.13651
G1 X115.158 Y106.089 E1.18286
G1 X114.855 Y106.335 E1.22830
G1 X114.511 Y106.517 E1.27364
G1 X114.102 Y106.635 E1.32322
G1 X113.723 Y106.670 E1.36749
G1 X113.344 Y106.636 E1.41174
G1 X112.979 Y106.533 E1.45586
G1 X112.638 Y106.363 E1.50018
G1 X112.336 Y106.134 E1.54439
G1 X112.125 Y105.879 E1.58280
G1 X112.080 Y105.848 E1.58923
G1 X111.921 Y105.554 E1.62808
G1 X111.883 Y105.515 E1.63437
G1 X111.783 Y105.188 E1.67429
G1 X111.583 Y104.861 E1.71886
G1 X111.862 Y103.952 E1.82953
G1 X112.056 Y103.600 E1.87633
G1 X112.283 Y103.327 E1.91761
G1 X112.580 Y103.084 E1.96227
G1 X112.923 Y102.900 E2.00762
G1 X113.288 Y102.788 E2.05206
G1 X113.719 Y102.742 E2.10249
G1 X114.099 Y102.777 E2.14699
G1 X114.463 Y102.879 E2.19095
G1 X114.803 Y103.049 E2.23522
G1 X115.111 Y103.284 E2.28029
G1 X115.364 Y103.568 E2.32458
G1 X115.523 Y103.861 E2.36339
G1 X115.560 Y103.900 E2.36973
G1 X115.688 Y104.273 E2.41553
G1 X115.717 Y104.566 E2.44979
G1 X116.086 Y104.880 F7200.000
G1 X117.129 Y105.107 F7200.000
G1 X117.186 Y104.538 E2.51632 F1080.000
G1 X117.131 Y104.350 E2.53918
G1 X117.077 Y103.809 E2.60242
G1 X116.974 Y103.638 E2.62562
G1 X116.826 Y103.156 E2.68434
G1 X116.687 Y103.012 E2.70768
G1 X116.466 Y102.601 E2.76193
G1 X116.303 Y102.484 E2.78532
G1 X116.027 Y102.151 E2.83564
G1 X115.850 Y102.058 E2.85891
G1 X115.497 Y101.772 E2.91182
G1 X115.308 Y101.711 E2.93493
G1 X114.936 Y101.514 E2.98395
G1 X114.742 Y101.478 E3.00690
G1 X114.354 Y101.362 E3.05404
G1 X113.736 Y101.308 E3.12626
G1 X113.133 Y101.362 E3.19663
G1 X112.943 Y101.400 E3.21922
G1 X112.346 Y101.589 E3.29207
G1 X111.761 Y101.909 E3.36972
G1 X111.438 Y102.172 E3.41817
G1 X111.020 Y101.832 E3.48083
G1 X110.437 Y101.540 E3.55672
G1 X109.828 Y101.367 E3.63043
G1 X109.084 Y101.298 E3.71744
G1 X109.489 Y100.323 E3.84025
G1 X143.940 Y99.604 E7.85087
G1 X143.940 Y104.064 E8.37000
G1 X160.722 Y104.064 E10.32329
G1 X160.722 Y99.696 E10.83170
G1 X183.633 Y101.230 E13.50422
G1 X183.198 Y102.035 E13.61061
G1 X182.962 Y102.781 E13.70173
G1 X182.902 Y103.543 E13.79070
G1 X182.957 Y103.732 E13.81357
G1 X183.010 Y104.272 E13.87680
G1 X183.114 Y104.443 E13.90000
G1 X183.262 Y104.925 E13.95873
G1 X183.401 Y105.070 E13.98208
G1 X183.622 Y105.480 E14.03634
G1 X183.785 Y105.598 E14.05972
G1 X184.061 Y105.930 E14.11003
G1 X184.238 Y106.023 E14.13330
G1 X184.591 Y106.310 E14.18623
G1 X184.780 Y106.371 E14.20933
G1 X185.152 Y106.568 E14.25835
G1 X185.346 Y106.603 E14.28131
G1 X185.734 Y106.719 E14.32844
G1 X186.352 Y106.773 E14.40067
G1 X186.546 Y106.759 E14.42331
G1 X186.955 Y106.719 E14.47103
G1 X187.145 Y106.682 E14.49363
G1 X187.741 Y106.492 E14.56647
G1 X188.327 Y106.172 E14.64411
G1 X188.639 Y105.918 E14.69100
G1 X189.047 Y106.249 E14.75208
G1 X189.629 Y106.542 E14.82797
G1 X190.239 Y106.714 E14.90169
G1 X190.891 Y106.775 E14.97788
G1 X191.529 Y106.713 E15.05249
G1 X192.155 Y106.545 E15.12799
G1 X191.401 Y109.674 E15.50262
G1 X190.522 Y110.434 E15.63789
G1 X145.863 Y110.434 E20.83583
G1 X115.982 Y107.333 E24.33231
G1 X116.621 Y106.545 E24.45037
G1 X116.889 Y106.047 E24.51624
G1 X117.126 Y105.301 E24.60736
G1 X117.127 Y105.214 E24.61741
G1 X116.414 Y105.188 F7200.000
G1 X116.462 Y104.604 E24.68558 F1080.000
G1 X116.427 Y104.485 E24.70001
G1 X116.383 Y104.041 E24.75199
G1 X116.317 Y103.933 E24.76670
G1 X116.193 Y103.528 E24.81593
G1 X116.105 Y103.436 E24.83077
G1 X115.915 Y103.085 E24.87730
G1 X115.811 Y103.010 E24.89223
G1 X115.569 Y102.717 E24.93639
G1 X115.455 Y102.658 E24.95130
G1 X115.150 Y102.410 E24.99707
G1 X115.029 Y102.371 E25.01189
G1 X114.699 Y102.197 E25.05532
G1 X114.227 Y102.069 E25.11229
G1 X113.727 Y102.025 E25.17065
G1 X113.238 Y102.070 E25.22786
G1 X112.751 Y102.203 E25.28655
G1 X112.635 Y102.245 E25.30096
G1 X112.170 Y102.497 E25.36246
G1 X111.772 Y102.824 E25.42242
G1 X111.438 Y103.227 E25.48343
G1 X111.046 Y102.755 E25.55486
G1 X110.645 Y102.447 E25.61372
G1 X110.182 Y102.213 E25.67410
G1 X109.694 Y102.073 E25.73317
G1 X109.176 Y102.024 E25.79376
G1 X108.666 Y102.074 E25.85337
G1 X107.903 Y102.278 E25.94538
G1 X109.008 Y99.619 E26.28055
G1 X144.654 Y98.875 E30.43027
G1 X144.654 Y103.351 E30.95122
G1 X160.008 Y103.351 E32.73827
G1 X160.008 Y98.933 E33.25250
G1 X185.465 Y100.637 E36.22205
G1 X184.424 Y101.484 E36.37822
G1 X184.144 Y101.821 E36.42916
G1 X184.073 Y101.919 E36.44331
G1 X183.854 Y102.324 E36.49692
G1 X183.674 Y102.893 E36.56640
G1 X183.626 Y103.477 E36.63454
G1 X183.661 Y103.596 E36.64898
G1 X183.705 Y104.041 E36.70096
G1 X183.771 Y104.149 E36.71566
G1 X183.895 Y104.553 E36.76490
G1 X183.983 Y104.645 E36.77975
G1 X184.173 Y104.997 E36.82628
G1 X184.277 Y105.072 E36.84121
G1 X184.519 Y105.364 E36.88536
G1 X184.633 Y105.423 E36.90027
G1 X184.938 Y105.671 E36.94605
G1 X185.059 Y105.710 E36.96087
G1 X185.389 Y105.885 E37.00429
G1 X185.861 Y106.012 E37.06126
G1 X186.361 Y106.057 E37.11963
G1 X186.973 Y105.988 E37.19127
G1 X187.453 Y105.837 E37.24991
G1 X187.917 Y105.585 E37.31140
G1 X188.316 Y105.258 E37.37137
G1 X188.640 Y104.867 E37.43047
G1 X189.021 Y105.326 E37.49998
G1 X189.422 Y105.634 E37.55884
G1 X189.885 Y105.869 E37.61922
G1 X190.373 Y106.008 E37.67830
G1 X190.891 Y106.057 E37.73889
G1 X191.401 Y106.008 E37.79850
G1 X191.911 Y105.858 E37.86040
G1 X192.368 Y105.619 E37.92044
G1 X193.069 Y105.057 E38.02497
G1 X193.225 Y105.155 E38.04640
G1 X192.042 Y110.064 E38.63408
G1 X190.788 Y111.148 E38.82700
G1 X145.826 Y111.148 E44.06019
G1 X113.840 Y107.829 E47.80305
G1 X113.806 Y107.475 E47.84444
G1 X114.783 Y107.181 E47.96316
G1 X115.250 Y106.935 E48.02467
G1 X115.664 Y106.598 E48.08679
G1 X116.015 Y106.163 E48.15184
G1 X116.234 Y105.757 E48.20545
G1 X116.382 Y105.290 E48.26245
G1 X112.922 Y107.513 F7200.000
G1 X112.834 Y107.724 E48.28905 F540.000
G1 X110.008 Y107.431 E48.61980
G1 X110.758 Y106.880 E48.72816
G1 X111.079 Y106.619 E48.77627
G1 X111.448 Y106.182 E48.84291
G1 X111.885 Y106.709 E48.92258
G1 X112.000 Y106.764 E48.93747
G1 X112.839 Y107.446 E49.06322
G1 X187.718 Y100.788 F7200.000
G1 X189.485 Y100.906 E49.26931 F540.000
G1 X188.629 Y101.887 E49.42080
G1 X187.787 Y100.871 E49.57449
G1 X193.113 Y100.434 F7200.000
G1 X193.929 Y105.280 E50.14652 F756.000
G1 X192.683 Y110.454 E50.76600
G1 X191.054 Y111.863 E51.01656
G1 X145.789 Y111.863 E56.28501
G1 X109.144 Y108.059 E60.57295
G1 X107.849 Y106.592 E60.80082
G1 X107.980 Y106.387 E60.82913
G1 X108.799 Y106.633 E60.92865
G1 X109.189 Y106.671 E60.97431
G1 X109.616 Y106.620 E61.02435
G1 X109.940 Y106.523 E61.06371
G1 X110.281 Y106.345 E61.10850
G1 X110.585 Y106.101 E61.15384
G1 X110.836 Y105.801 E61.19941
G1 X111.025 Y105.452 E61.24559
G1 X111.250 Y104.712 E61.33560
G1 X111.009 Y103.925 E61.43146
G1 X110.819 Y103.588 E61.47639
G1 X110.568 Y103.298 E61.52107
G1 X110.269 Y103.063 E61.56532
G1 X109.927 Y102.886 E61.61019
G1 X109.560 Y102.778 E61.65462
G1 X109.176 Y102.742 E61.69961
G1 X108.744 Y102.792 E61.75013
G1 X108.420 Y102.890 E61.78957
G1 X108.080 Y103.068 E61.83425
G1 X107.743 Y103.350 E61.88538
G1 X107.525 Y103.613 E61.92519
G1 X107.337 Y103.960 E61.97114
G1 X107.223 Y104.338 E62.01712
G1 X107.188 Y104.730 E62.06285
G1 X107.287 Y105.668 E62.17261
G1 X107.103 Y105.748 E62.19596
G1 X106.140 Y104.657 E62.36531
G1 X108.527 Y98.915 E63.08912
G1 X145.368 Y98.146 E67.37793
G1 X145.368 Y102.637 E67.90070
G1 X159.294 Y102.637 E69.52151
G1 X159.294 Y98.167 E70.04182
G1 X193.006 Y100.426 E73.97442
G1 X192.812 Y101.081 F7200.000
G1 X192.573 Y108.329 F7200.000
G1 X191.485 Y107.270 F7200.000
G1 X191.423 Y107.207 E73.98478 F1080.000
G1 X190.414 Y107.214 E74.10279
G1 X191.288 Y108.088 E74.24741
G1 X191.091 Y108.906 E74.34590
G1 X188.898 Y106.714 E74.70878
G1 X188.045 Y106.876 E74.81043
G1 X190.749 Y109.580 E75.25790
G1 X190.106 Y109.952 E75.34484
G1 X187.294 Y107.140 E75.81029
G1 X186.392 Y107.254 E75.91666
G1 X189.091 Y109.952 E76.36331
G1 X188.075 Y109.952 E76.48213
G1 X185.186 Y107.064 E76.96020
G1 X182.571 Y102.418 F7200.000
G1 X181.740 Y101.586 E77.09778 F1080.000
G1 X180.652 Y101.514 E77.22542
G1 X182.438 Y103.300 E77.52100
G1 X182.541 Y104.418 E77.65242
G1 X179.563 Y101.441 E78.14514
G1 X178.475 Y101.368 E78.27278
G1 X187.060 Y109.952 E79.69345
G1 X186.044 Y109.952 E79.81228
G1 X177.387 Y101.295 E81.24501
G1 X176.299 Y101.222 E81.37264
G1 X185.029 Y109.952 E82.81743
G1 X184.013 Y109.952 E82.93626
G1 X175.210 Y101.149 E84.39311
G1 X174.122 Y101.076 E84.52075
G1 X182.998 Y109.952 E85.98965
G1 X181.983 Y109.952 E86.10848
G1 X173.034 Y101.004 E87.58944
G1 X171.945 Y100.931 E87.71708
G1 X180.967 Y109.952 E89.21010
G1 X179.952 Y109.952 E89.32893
G1 X170.857 Y100.858 E90.83401
G1 X169.769 Y100.785 E90.96165
G1 X178.936 Y109.952 E92.47879
G1 X177.921 Y109.952 E92.59762
G1 X168.680 Y100.712 E94.12682
G1 X167.592 Y100.639 E94.25446
G1 X176.905 Y109.952 E95.79572
G1 X175.890 Y109.952 E95.91454
G1 X166.504 Y100.566 E97.46786
G1 X165.415 Y100.493 E97.59550
G1 X174.874 Y109.952 E99.16087
G1 X173.859 Y109.952 E99.27970
G1 X164.327 Y100.421 E100.85713
G1 X163.239 Y100.348 E100.98477
G1 X172.844 Y109.952 E102.57427
G1 X171.828 Y109.952 E102.69309
G1 X162.151 Y100.275 E104.29464
G1 X161.204 Y100.344 E104.40570
G1 X170.813 Y109.952 E105.99586
G1 X169.797 Y109.952 E106.11469
G1 X161.204 Y101.359 E107.53680
G1 X161.204 Y102.375 E107.65562
G1 X168.782 Y109.952 E108.90968
G1 X167.766 Y109.952 E109.02851
G1 X161.204 Y103.390 E110.11453
G1 X161.204 Y104.406 E110.23335
G1 X166.751 Y109.952 E111.15132
G1 X165.735 Y109.952 E111.27015
G1 X160.329 Y104.546 E112.16482
G1 X159.314 Y104.546 E112.28364
G1 X164.720 Y109.952 E113.17831
G1 X163.705 Y109.952 E113.29714
G1 X158.298 Y104.546 E114.19181
G1 X157.283 Y104.546 E114.31063
G1 X162.689 Y109.952 E115.20530
G1 X161.674 Y109.952 E115.32413
G1 X156.268 Y104.546 E116.21880
G1 X155.252 Y104.546 E116.33762
G1 X160.658 Y109.952 E117.23229
G1 X159.643 Y109.952 E117.35112
G1 X154.237 Y104.546 E118.24579
G1 X153.221 Y104.546 E118.36461
G1 X158.627 Y109.952 E119.25928
G1 X157.612 Y109.952 E119.37811
G1 X152.206 Y104.546 E120.27278
G1 X151.190 Y104.546 E120.39160
G1 X156.596 Y109.952 E121.28627
G1 X155.581 Y109.952 E121.40510
G1 X150.175 Y104.546 E122.29977
G1 X149.159 Y104.546 E122.41859
G1 X154.566 Y109.952 E123.31326
G1 X153.550 Y109.952 E123.43209
G1 X148.144 Y104.546 E124.32676
G1 X147.129 Y104.546 E124.44558
G1 X152.535 Y109.952 E125.34025
G1 X151.519 Y109.952 E125.45908
G1 X146.113 Y104.546 E126.35375
G1 X145.098 Y104.546 E126.47257
G1 X150.504 Y109.952 E127.36724
G1 X149.488 Y109.952 E127.48607
G1 X140.060 Y100.524 E129.04634
G1 X139.066 Y100.545 E129.16276
G1 X148.473 Y109.952 E130.71959
G1 X147.457 Y109.952 E130.83842
G1 X138.071 Y100.566 E132.39182
G1 X137.076 Y100.587 E132.50824
G1 X146.442 Y109.952 E134.05821
G1 X145.373 Y109.899 E134.18344
G1 X136.082 Y100.607 E135.72113
G1 X135.087 Y100.628 E135.83755
G1 X144.240 Y109.781 E137.35235
G1 X143.107 Y109.664 E137.48565
G1 X134.092 Y100.649 E138.97754
G1 X133.097 Y100.670 E139.09397
G1 X141.974 Y109.546 E140.56297
G1 X140.841 Y109.429 E140.69627
G1 X132.103 Y100.690 E142.14237
G1 X131.108 Y100.711 E142.25879
G1 X139.708 Y109.311 E143.68200
G1 X138.575 Y109.193 E143.81530
G1 X130.113 Y100.732 E145.21561
G1 X129.119 Y100.753 E145.33203
G1 X137.442 Y109.076 E146.70945
G1 X136.309 Y108.958 E146.84275
G1 X128.124 Y100.773 E148.19727
G1 X127.129 Y100.794 E148.31369
G1 X135.176 Y108.841 E149.64531
G1 X134.043 Y108.723 E149.77861
G1 X126.135 Y100.815 E151.08733
G1 X125.140 Y100.836 E151.20375
G1 X132.910 Y108.606 E152.48958
G1 X131.777 Y108.488 E152.62288
G1 X124.145 Y100.857 E153.88581
G1 X123.151 Y100.877 E154.00223
G1 X130.644 Y108.370 E155.24227
G1 X129.511 Y108.253 E155.37557
G1 X122.156 Y100.898 E156.59270
G1 X121.161 Y100.919 E156.70912
