; generated by Slic3r 1.0.0RC2 on 2014-05-22 at 19:11:00

; layer_height = 0.3
; perimeters = 3
; top_solid_layers = 3
; bottom_solid_layers = 3
; fill_density = 0.30
; perimeter_speed = 60
; infill_speed = 60
; travel_speed = 120
; nozzle_diameter = 0.4
; filament_diameter = 1.75
; extrusion_multiplier = 0.98
; perimeters extrusion width = 0.40mm
; infill extrusion width = 0.42mm
; solid infill extrusion width = 0.42mm
; top infill extrusion width = 0.42mm
; first layer extrusion width = 0.80mm

G21 ; set units to millimeters
M107
M104 S220 ; set temperature
G28 ; home all axes
M106 S255;
G1 Z200 F1200 ; lift nozzle
M109 S220 ; wait for temperature to be reached
G90 ; use absolute coordinates
G92 E0
M82 ; use absolute distances for extrusion
G1 F1800.000 E-1.00000
G92 E0
G1 Z0.400 F7200.000
G1 X105.317 Y106.768 F7200.000
G1 E1.00000 F1800.000
G1 X126.997 Y82.028 E4.82866 F1080.000
G1 X128.047 Y81.068 E4.99425
G1 X129.277 Y80.338 E5.16072
G1 X130.627 Y79.898 E5.32598
G1 X132.047 Y79.748 E5.49218
G1 X161.177 Y79.748 E8.88261
G1 X162.767 Y79.938 E9.06899
G1 X164.257 Y80.498 E9.25426
G1 X165.587 Y81.388 E9.44052
G1 X194.037 Y106.128 E13.82869
G1 X195.007 Y107.178 E13.99507
G1 X195.737 Y108.418 E14.16254
G1 X196.187 Y109.778 E14.32927
G1 X196.337 Y111.198 E14.49547
G1 X196.337 Y116.658 E15.13096
G1 X196.217 Y117.918 E15.27827
G1 X195.867 Y119.138 E15.42599
G1 X195.287 Y120.268 E15.57383
G1 X194.507 Y121.268 E15.72144
G1 X191.007 Y124.968 E16.31423
G1 X190.377 Y125.558 E16.41469
G1 X189.667 Y126.058 E16.51576
G1 X184.547 Y129.238 E17.21726
G1 X182.847 Y129.998 E17.43399
G1 X181.007 Y130.248 E17.65012
G1 X119.037 Y130.248 E24.86280
G1 X117.607 Y130.098 E25.03015
G1 X116.237 Y129.638 E25.19835
G1 X114.997 Y128.898 E25.36642
G1 X111.137 Y125.988 E25.92905
G1 X110.717 Y125.648 E25.99195
G1 X107.307 Y122.618 E26.52288
G1 X106.527 Y121.798 E26.65460
G1 X105.897 Y120.858 E26.78631
G1 X104.497 Y118.338 E27.12183
G1 X103.867 Y116.758 E27.31981
G1 X103.657 Y115.078 E27.51687
G1 X103.657 Y111.198 E27.96846
G1 X103.847 Y109.598 E28.15599
G1 X104.407 Y108.098 E28.34235
G1 X105.257 Y106.856 E28.51744
G1 F1800.000 E27.51744
G92 E0
G1 X142.420 Y95.544 F7200.000
G1 E1.00000 F1800.000
G1 X142.169 Y94.704 E1.10213 F540.000
G1 X142.082 Y93.830 E1.20427
G1 X142.170 Y92.958 E1.30634
G1 X142.420 Y92.118 E1.40829
G1 X142.831 Y91.341 E1.51061
G1 X143.385 Y90.660 E1.61279
G1 X144.060 Y90.098 E1.71503
G1 X144.824 Y89.687 E1.81604
G1 X145.680 Y89.423 E1.92021
G1 X146.543 Y89.339 E2.02114
G1 X147.426 Y89.425 E2.12450
G1 X148.254 Y89.680 E2.22523
G1 X149.041 Y90.104 E2.32937
G1 X149.711 Y90.661 E2.43072
G1 X150.263 Y91.341 E2.53271
G1 X150.674 Y92.117 E2.63483
G1 X150.925 Y92.958 E2.73700
G1 X151.012 Y93.829 E2.83883
G1 X150.924 Y94.705 E2.94129
G1 X150.675 Y95.540 E3.04282
G1 X150.262 Y96.322 E3.14575
G1 X149.709 Y97.000 E3.24752
G1 X149.036 Y97.560 E3.34942
G1 X148.261 Y97.978 E3.45190
G1 X147.424 Y98.235 E3.55385
G1 X146.548 Y98.323 E3.65632
G1 X145.671 Y98.235 E3.75894
G1 X144.832 Y97.978 E3.86106
G1 X144.057 Y97.559 E3.96355
G1 X143.385 Y97.000 E4.06532
G1 X142.830 Y96.319 E4.16758
G1 X142.471 Y95.639 E4.25711
G1 X143.084 Y95.272 F7200.000
G1 X142.873 Y94.565 E4.34296 F540.000
G1 X142.800 Y93.830 E4.42889
G1 X142.873 Y93.097 E4.51470
G1 X143.084 Y92.390 E4.60051
G1 X143.429 Y91.738 E4.68641
G1 X143.895 Y91.165 E4.77233
G1 X144.461 Y90.694 E4.85809
G1 X145.105 Y90.347 E4.94314
G1 X145.818 Y90.127 E5.03003
G1 X146.544 Y90.057 E5.11496
G1 X147.283 Y90.129 E5.20137
G1 X147.979 Y90.343 E5.28617
G1 X148.637 Y90.697 E5.37313
G1 X149.200 Y91.166 E5.45834
G1 X149.665 Y91.738 E5.54415
G1 X150.010 Y92.389 E5.62992
G1 X150.221 Y93.097 E5.71587
G1 X150.294 Y93.829 E5.80153
G1 X150.221 Y94.566 E5.88766
G1 X150.010 Y95.269 E5.97314
G1 X149.664 Y95.925 E6.05948
G1 X149.199 Y96.495 E6.14509
G1 X148.634 Y96.965 E6.23064
G1 X147.984 Y97.316 E6.31662
G1 X147.282 Y97.532 E6.40214
G1 X146.548 Y97.606 E6.48802
G1 X145.813 Y97.532 E6.57398
G1 X145.109 Y97.316 E6.65961
G1 X144.459 Y96.965 E6.74559
G1 X143.895 Y96.495 E6.83106
G1 X143.428 Y95.923 E6.91697
G1 X143.135 Y95.366 E6.99027
G1 X143.779 Y95.057 F7200.000
G1 X143.577 Y94.426 E7.06739 F540.000
G1 X143.518 Y93.830 E7.13712
G1 X143.577 Y93.236 E7.20666
G1 X143.748 Y92.662 E7.27634
G1 X144.027 Y92.134 E7.34582
G1 X144.405 Y91.670 E7.41548
G1 X144.862 Y91.289 E7.48475
G1 X145.385 Y91.008 E7.55384
G1 X145.957 Y90.832 E7.62346
G1 X146.546 Y90.774 E7.69239
G1 X147.140 Y90.832 E7.76185
G1 X147.705 Y91.007 E7.83071
G1 X148.233 Y91.290 E7.90049
G1 X148.690 Y91.670 E7.96957
G1 X149.067 Y92.134 E8.03919
G1 X149.346 Y92.661 E8.10862
G1 X149.517 Y93.236 E8.17835
G1 X149.576 Y93.830 E8.24783
G1 X149.517 Y94.426 E8.31763
G1 X149.346 Y94.998 E8.38707
G1 X149.066 Y95.528 E8.45682
G1 X148.689 Y95.991 E8.52627
G1 X148.232 Y96.371 E8.59546
G1 X147.707 Y96.654 E8.66495
G1 X147.139 Y96.828 E8.73403
G1 X146.547 Y96.888 E8.80332
G1 X145.955 Y96.828 E8.87263
G1 X145.387 Y96.654 E8.94175
G1 X144.861 Y96.371 E9.01124
G1 X144.405 Y95.991 E9.08041
G1 X144.027 Y95.527 E9.14996
G1 X143.829 Y95.152 E9.19935
G1 X143.125 Y94.955 F7200.000
G1 X119.977 Y111.878 F7200.000
G1 X120.143 Y112.228 E9.24447 F540.000
G1 X120.246 Y112.605 E9.28993
G1 X120.280 Y112.994 E9.33535
G1 X120.246 Y113.383 E9.38081
G1 X120.143 Y113.758 E9.42605
G1 X119.977 Y114.107 E9.47103
G1 X119.746 Y114.418 E9.51605
G1 X119.466 Y114.673 E9.56017
G1 X119.141 Y114.867 E9.60430
G1 X118.785 Y114.987 E9.64794
G1 X118.413 Y115.028 E9.69159
G1 X118.038 Y114.987 E9.73550
G1 X117.683 Y114.868 E9.77910
G1 X117.357 Y114.673 E9.82328
G1 X117.076 Y114.417 E9.86752
G1 X116.848 Y114.107 E9.91227
G1 X116.680 Y113.759 E9.95724
G1 X116.471 Y112.995 E10.04943
G1 X116.680 Y112.227 E10.14207
G1 X116.849 Y111.878 E10.18716
G1 X117.076 Y111.571 E10.23161
G1 X117.357 Y111.313 E10.27605
G1 X117.682 Y111.121 E10.32002
G1 X118.038 Y110.999 E10.36384
G1 X118.412 Y110.960 E10.40763
G1 X118.785 Y110.999 E10.45127
G1 X119.141 Y111.121 E10.49500
G1 X119.466 Y111.313 E10.53898
G1 X119.747 Y111.571 E10.58330
G1 X119.912 Y111.793 E10.61555
G1 X120.364 Y111.884 F7200.000
G1 F1800.000 E9.61555
G92 E0
G1 X116.212 Y112.995 F7200.000
G1 E1.00000 F1800.000
G1 X116.003 Y113.758 E1.09203 F540.000
G1 X115.837 Y114.107 E1.13702
G1 X115.606 Y114.418 E1.18204
G1 X115.326 Y114.673 E1.22616
G1 X115.001 Y114.867 E1.27029
G1 X114.645 Y114.987 E1.31393
G1 X114.272 Y115.028 E1.35760
G1 X113.900 Y114.987 E1.40122
G1 X113.543 Y114.868 E1.44508
G1 X113.217 Y114.673 E1.48926
G1 X112.936 Y114.417 E1.53350
G1 X112.708 Y114.107 E1.57825
G1 X112.540 Y113.759 E1.62321
G1 X112.437 Y113.383 E1.66859
G1 X112.403 Y112.994 E1.71405
G1 X112.437 Y112.605 E1.75947
G1 X112.540 Y112.227 E1.80506
G1 X112.709 Y111.878 E1.85016
G1 X112.936 Y111.571 E1.89460
G1 X113.217 Y111.313 E1.93904
G1 X113.543 Y111.121 E1.98307
G1 X113.900 Y110.999 E2.02703
G1 X114.272 Y110.960 E2.07061
G1 X114.645 Y110.999 E2.11425
G1 X115.001 Y111.121 E2.15799
G1 X115.326 Y111.313 E2.20196
G1 X115.607 Y111.571 E2.24628
G1 X115.837 Y111.878 E2.29100
G1 X116.003 Y112.228 E2.33612
G1 X116.184 Y112.892 E2.41617
G1 X116.796 Y113.406 F7200.000
G1 X114.272 Y110.357 F7200.000
G1 X181.829 Y110.357 F7200.000
G1 X184.031 Y112.990 F7200.000
G1 X184.239 Y112.227 E2.50821 F540.000
G1 X184.405 Y111.879 E2.55307
G1 X184.636 Y111.570 E2.59801
G1 X184.915 Y111.313 E2.64215
G1 X185.242 Y111.121 E2.68625
G1 X185.597 Y110.999 E2.72994
G1 X185.970 Y110.960 E2.77358
G1 X186.342 Y110.999 E2.81717
G1 X186.699 Y111.121 E2.86113
G1 X187.025 Y111.313 E2.90515
G1 X187.306 Y111.571 E2.94960
G1 X187.533 Y111.878 E2.99404
G1 X187.702 Y112.227 E3.03913
G1 X187.805 Y112.605 E3.08473
G1 X187.839 Y112.994 E3.13015
G1 X187.805 Y113.383 E3.17561
G1 X187.702 Y113.759 E3.22098
G1 X187.534 Y114.107 E3.26595
G1 X187.306 Y114.417 E3.31070
G1 X187.025 Y114.673 E3.35494
G1 X186.699 Y114.868 E3.39912
G1 X186.342 Y114.987 E3.44298
G1 X185.970 Y115.028 E3.48660
G1 X185.597 Y114.987 E3.53022
G1 X185.240 Y114.867 E3.57399
G1 X184.917 Y114.673 E3.61793
G1 X184.635 Y114.417 E3.66228
G1 X184.406 Y114.108 E3.70704
G1 X184.239 Y113.757 E3.75231
G1 X184.060 Y113.092 E3.83242
G1 X183.447 Y112.579 F7200.000
G1 X183.562 Y112.227 F7200.000
G1 X183.771 Y112.995 E3.92508 F540.000
G1 X183.562 Y113.759 E4.01725
G1 X183.394 Y114.107 E4.06221
G1 X183.166 Y114.417 E4.10696
G1 X182.885 Y114.673 E4.15120
G1 X182.559 Y114.868 E4.19538
G1 X182.202 Y114.987 E4.23924
G1 X181.830 Y115.028 E4.28286
G1 X181.457 Y114.987 E4.32653
G1 X181.101 Y114.867 E4.37017
G1 X180.776 Y114.673 E4.41430
G1 X180.496 Y114.418 E4.45842
G1 X180.265 Y114.107 E4.50344
G1 X180.099 Y113.758 E4.54843
G1 X179.996 Y113.383 E4.59366
G1 X179.962 Y112.994 E4.63912
G1 X179.996 Y112.605 E4.68454
G1 X180.099 Y112.228 E4.73000
G1 X180.265 Y111.878 E4.77512
G1 X180.495 Y111.571 E4.81984
G1 X180.776 Y111.313 E4.86416
G1 X181.101 Y111.121 E4.90813
G1 X181.457 Y110.999 E4.95187
G1 X181.830 Y110.960 E4.99551
G1 X182.202 Y110.999 E5.03909
G1 X182.559 Y111.121 E5.08305
G1 X182.885 Y111.313 E5.12707
G1 X183.166 Y111.571 E5.17152
G1 X183.393 Y111.878 E5.21596
G1 X183.515 Y112.131 E5.24859
G1 X184.262 Y112.367 F7200.000
G1 X181.829 Y110.357 F7200.000
G1 X125.161 Y119.543 F7200.000
G1 X125.198 Y119.949 E5.29611 F540.000
G1 X125.160 Y120.363 E5.34445
G1 X125.061 Y120.709 E5.38640
G1 X124.885 Y121.072 E5.43336
G1 X124.646 Y121.388 E5.47947
G1 X124.357 Y121.645 E5.52452
G1 X123.977 Y121.860 E5.57531
G1 X123.614 Y121.973 E5.61955
G1 X123.240 Y122.009 E5.66322
G1 X122.864 Y121.973 E5.70719
G1 X122.502 Y121.860 E5.75135
G1 X122.171 Y121.675 E5.79541
G1 X121.874 Y121.425 E5.84071
G1 X121.630 Y121.119 E5.88624
G1 X121.446 Y120.765 E5.93262
G1 X121.330 Y120.375 E5.98003
G1 X121.294 Y119.955 E6.02900
G1 X121.330 Y119.555 E6.07575
G1 X121.429 Y119.207 E6.11797
G1 X121.605 Y118.844 E6.16484
G1 X121.843 Y118.529 E6.21078
G1 X122.136 Y118.271 E6.25628
G1 X122.513 Y118.059 E6.30664
G1 X122.877 Y117.945 E6.35095
G1 X123.252 Y117.907 E6.39483
G1 X123.627 Y117.945 E6.43868
G1 X123.988 Y118.058 E6.48273
G1 X124.320 Y118.243 E6.52700
G1 X124.614 Y118.490 E6.57165
G1 X124.861 Y118.797 E6.61754
G1 X125.045 Y119.152 E6.66406
G1 X125.127 Y119.441 E6.69904
G1 X125.542 Y119.689 F7200.000
G1 X175.896 Y100.581 F7200.000
G1 X175.180 Y119.960 F7200.000
G1 X175.219 Y119.541 E6.74793 F540.000
G1 X175.332 Y119.153 E6.79501
G1 X175.517 Y118.797 E6.84167
G1 X175.764 Y118.490 E6.88756
G1 X176.057 Y118.243 E6.93221
G1 X176.392 Y118.058 E6.97675
G1 X176.753 Y117.945 E7.02073
G1 X177.125 Y117.907 E7.06433
G1 X177.501 Y117.945 E7.10823
G1 X177.914 Y118.079 E7.15878
G1 X178.244 Y118.271 E7.20323
G1 X178.535 Y118.529 E7.24847
G1 X178.772 Y118.844 E7.29441
G1 X178.948 Y119.207 E7.34127
G1 X179.047 Y119.556 E7.38349
G1 X179.087 Y119.965 E7.43143
G1 X179.047 Y120.376 E7.47943
G1 X178.931 Y120.765 E7.52668
G1 X178.747 Y121.119 E7.57307
G1 X178.504 Y121.425 E7.61859
G1 X178.209 Y121.675 E7.66362
G1 X177.875 Y121.860 E7.70805
G1 X177.513 Y121.973 E7.75215
G1 X177.137 Y122.009 E7.79612
G1 X176.766 Y121.973 E7.83958
G1 X176.353 Y121.840 E7.89004
G1 X176.021 Y121.645 E7.93483
G1 X175.732 Y121.388 E7.97987
G1 X175.492 Y121.072 E8.02598
G1 X175.333 Y120.752 E8.06757
G1 X175.219 Y120.362 E8.11496
G1 X175.190 Y120.066 E8.14948
G1 X174.822 Y119.739 F7200.000
G1 X174.496 Y119.601 F7200.000
G1 X174.529 Y119.956 E8.19092 F540.000
G1 X174.491 Y120.376 E8.24001
G1 X174.377 Y120.763 E8.28695
G1 X174.193 Y121.119 E8.33359
G1 X173.946 Y121.425 E8.37937
G1 X173.652 Y121.675 E8.42433
G1 X173.318 Y121.860 E8.46869
G1 X172.957 Y121.973 E8.51281
G1 X172.583 Y122.009 E8.55654
G1 X172.209 Y121.973 E8.60025
G1 X171.797 Y121.840 E8.65066
G1 X171.464 Y121.645 E8.69549
G1 X171.175 Y121.387 E8.74066
G1 X170.937 Y121.071 E8.78662
G1 X170.761 Y120.709 E8.83347
G1 X170.662 Y120.363 E8.87542
G1 X170.622 Y119.950 E8.92364
G1 X170.662 Y119.541 E8.97146
G1 X170.778 Y119.153 E9.01862
G1 X170.962 Y118.797 E9.06525
G1 X171.206 Y118.491 E9.11088
G1 X171.501 Y118.243 E9.15570
G1 X171.835 Y118.058 E9.20018
G1 X172.196 Y117.945 E9.24417
G1 X172.571 Y117.907 E9.28801
G1 X172.944 Y117.945 E9.33172
G1 X173.357 Y118.079 E9.38219
G1 X173.687 Y118.271 E9.42668
G1 X173.977 Y118.528 E9.47180
G1 X174.218 Y118.845 E9.51810
G1 X174.394 Y119.208 E9.56499
G1 X174.474 Y119.497 E9.59993
G1 X174.828 Y119.732 F7200.000
G1 X181.829 Y110.357 F7200.000
G1 X137.216 Y119.951 F7200.000
G1 X137.172 Y120.389 E9.65118 F540.000
G1 X137.062 Y120.763 E9.69651
G1 X136.868 Y121.148 E9.74669
G1 X136.607 Y121.482 E9.79606
G1 X136.286 Y121.756 E9.84512
G1 X135.927 Y121.959 E9.89321
G1 X135.481 Y122.098 E9.94750
G1 X135.073 Y122.137 E9.99519
G1 X134.666 Y122.098 E10.04278
G1 X134.271 Y121.980 E10.09079
G1 X133.906 Y121.784 E10.13902
G1 X133.586 Y121.522 E10.18719
G1 X133.315 Y121.195 E10.23654
G1 X133.113 Y120.821 E10.28607
G1 X132.985 Y120.403 E10.33693
G1 X132.943 Y119.966 E10.38803
G1 X132.985 Y119.529 E10.43914
G1 X133.095 Y119.155 E10.48446
G1 X133.289 Y118.769 E10.53473
G1 X133.552 Y118.435 E10.58426
G1 X133.868 Y118.162 E10.63289
G1 X134.232 Y117.958 E10.68135
G1 X134.678 Y117.820 E10.73570
G1 X135.085 Y117.781 E10.78336
G1 X135.493 Y117.820 E10.83099
G1 X135.885 Y117.938 E10.87863
G1 X136.250 Y118.132 E10.92674
G1 X136.574 Y118.397 E10.97555
G1 X136.841 Y118.723 E11.02456
G1 X137.044 Y119.098 E11.07419
G1 X137.171 Y119.514 E11.12481
G1 X137.204 Y119.845 E11.16347
G1 X137.590 Y120.184 F7200.000
G1 X156.358 Y119.964 F7200.000
G1 X156.397 Y119.537 E11.21337 F540.000
G1 X156.511 Y119.125 E11.26306
G1 X156.670 Y118.786 E11.30670
G1 X156.908 Y118.450 E11.35456
G1 X157.201 Y118.174 E11.40151
G1 X157.536 Y117.965 E11.44734
G1 X157.961 Y117.819 E11.49966
G1 X158.345 Y117.778 E11.54466
G1 X158.731 Y117.819 E11.58984
G1 X159.101 Y117.941 E11.63517
G1 X159.441 Y118.142 E11.68115
G1 X159.741 Y118.409 E11.72793
G1 X159.987 Y118.739 E11.77579
G1 X160.170 Y119.115 E11.82444
G1 X160.283 Y119.526 E11.87400
G1 X160.321 Y119.952 E11.92384
G1 X160.283 Y120.380 E11.97385
G1 X160.170 Y120.793 E12.02363
G1 X160.011 Y121.132 E12.06726
G1 X159.772 Y121.467 E12.11511
G1 X159.478 Y121.744 E12.16210
G1 X159.142 Y121.952 E12.20815
G1 X158.721 Y122.098 E12.26001
G1 X158.334 Y122.140 E12.30536
G1 X157.949 Y122.099 E12.35038
G1 X157.559 Y121.963 E12.39837
G1 X157.237 Y121.776 E12.44180
G1 X156.940 Y121.506 E12.48849
G1 X156.694 Y121.180 E12.53605
G1 X156.511 Y120.804 E12.58466
G1 X156.397 Y120.392 E12.63442
G1 X156.369 Y120.070 E12.67204
G1 X155.994 Y119.738 F7200.000
G1 X154.970 Y119.439 F7200.000
G1 X154.923 Y119.984 E12.73571 F1080.000
G1 X154.989 Y120.700 E12.81946
G1 X155.147 Y121.138 E12.87357
G1 X153.475 Y121.138 E13.06814
G1 X152.679 Y121.714 E13.18251
G1 X138.271 Y121.714 E14.85940
G1 X138.573 Y120.685 E14.98412
G1 X138.654 Y119.926 E15.07301
G1 X138.572 Y119.164 E15.16221
G1 X138.502 Y118.994 E15.18367
G1 X138.344 Y118.456 E15.24885
G1 X138.232 Y118.303 E15.27089
G1 X137.990 Y117.834 E15.33242
G1 X137.849 Y117.708 E15.35436
G1 X137.536 Y117.310 E15.41332
G1 X137.367 Y117.207 E15.43636
G1 X136.993 Y116.888 E15.49355
G1 X136.806 Y116.816 E15.51685
G1 X136.395 Y116.588 E15.57159
G1 X135.760 Y116.408 E15.64838
G1 X135.107 Y116.347 E15.72478
G1 X134.452 Y116.408 E15.80135
G1 X134.259 Y116.450 E15.82428
G1 X133.623 Y116.662 E15.90235
G1 X133.028 Y117.001 E15.98204
G1 X132.648 Y117.327 E16.04034
G1 X132.509 Y117.452 E16.06205
G1 X132.073 Y118.013 E16.14478
G1 X131.746 Y118.680 E16.23126
G1 X131.584 Y119.232 E16.29820
G1 X131.506 Y119.994 E16.38737
G1 X131.622 Y121.182 E16.52626
G1 X129.916 Y121.182 E16.72486
G1 X129.908 Y120.940 E16.75304
G1 X126.525 Y120.940 E17.14672
G1 X126.635 Y119.918 E17.26633
G1 X126.566 Y119.207 E17.34940
G1 X126.497 Y119.036 E17.37095
G1 X126.352 Y118.528 E17.43242
G1 X126.248 Y118.379 E17.45353
G1 X126.023 Y117.926 E17.51241
G1 X125.882 Y117.796 E17.53471
G1 X125.587 Y117.412 E17.59105
G1 X125.423 Y117.311 E17.61346
G1 X125.082 Y117.011 E17.66630
G1 X124.905 Y116.939 E17.68855
G1 X124.517 Y116.713 E17.74084
G1 X124.314 Y116.667 E17.76514
G1 X123.905 Y116.534 E17.81516
