; generated by Slic3r 1.0.0RC2 on 2014-05-22 at 20:41:46

; layer_height = 0.3
; perimeters = 3
; top_solid_layers = 3
; bottom_solid_layers = 3
; fill_density = 0.30
; perimeter_speed = 60
; infill_speed = 60
; travel_speed = 120
; nozzle_diameter = 0.4
; filament_diameter = 1.75
; extrusion_multiplier = 0.98
; perimeters extrusion width = 0.40mm
; infill extrusion width = 0.42mm
; solid infill extrusion width = 0.42mm
; top infill extrusion width = 0.42mm
; first layer extrusion width = 0.80mm

G21 ; set units to millimeters
M107
M104 S220 ; set temperature
G28 ; home all axes
M106 S255;
G1 Z200 F1200 ; lift nozzle
M109 S220 ; wait for temperature to be reached
G90 ; use absolute coordinates
G92 E0
M82 ; use absolute distances for extrusion
G1 F1800.000 E-1.00000
G92 E0
G1 Z0.400 F7200.000
G1 X116.743 Y66.382 F7200.000
G1 E1.00000 F1800.000
G1 X117.173 Y65.652 E1.09861 F1080.000
G1 X117.953 Y64.512 E1.25938
G1 X118.913 Y63.272 E1.44190
G1 X119.463 Y62.642 E1.53924
G1 X120.383 Y61.702 E1.69232
G1 X121.303 Y60.872 E1.83654
G1 X121.693 Y60.552 E1.89526
G1 X122.623 Y59.852 E2.03073
G1 X123.333 Y59.362 E2.13114
G1 X124.863 Y58.452 E2.33833
G1 X125.623 Y58.072 E2.43723
G1 X126.723 Y57.592 E2.57692
G1 X127.143 Y57.422 E2.62965
G1 X128.193 Y57.052 E2.75923
G1 X129.103 Y56.782 E2.86971
G1 X130.423 Y56.482 E3.02726
G1 X131.553 Y56.282 E3.16082
G1 X132.043 Y56.222 E3.21828
G1 X133.333 Y56.112 E3.36897
G1 X134.043 Y56.092 E3.45164
G1 X165.783 Y56.092 E7.14585
G1 X167.113 Y56.142 E7.30076
G1 X168.413 Y56.282 E7.45294
G1 X169.573 Y56.482 E7.58995
G1 X170.403 Y56.662 E7.68880
G1 X171.623 Y56.992 E7.83589
G1 X172.883 Y57.432 E7.99123
G1 X174.053 Y57.932 E8.13932
G1 X175.153 Y58.472 E8.28194
G1 X176.233 Y59.082 E8.42631
G1 X176.713 Y59.392 E8.49281
G1 X177.413 Y59.882 E8.59227
G1 X178.333 Y60.582 E8.72682
G1 X179.653 Y61.742 E8.93134
G1 X180.483 Y62.602 E9.07045
G1 X181.323 Y63.572 E9.21980
G1 X182.083 Y64.562 E9.36506
G1 X182.563 Y65.262 E9.46385
G1 X183.243 Y66.382 E9.61635
G1 X183.783 Y67.422 E9.75274
G1 X184.483 Y69.042 E9.95814
G1 X184.923 Y70.302 E10.11348
G1 X185.233 Y71.422 E10.24874
G1 X185.523 Y72.732 E10.40490
G1 X185.653 Y73.572 E10.50383
G1 X185.783 Y74.742 E10.64084
G1 X185.813 Y75.292 E10.70495
G1 X185.833 Y76.132 E10.80275
G1 X185.833 Y105.442 E14.21414
G1 X185.813 Y106.292 E14.31310
G1 X185.783 Y106.812 E14.37372
G1 X185.693 Y107.692 E14.47668
G1 X185.493 Y108.952 E14.62516
G1 X185.233 Y110.142 E14.76693
G1 X184.923 Y111.262 E14.90219
G1 X184.773 Y111.742 E14.96072
G1 X184.353 Y112.872 E15.10103
G1 X183.803 Y114.132 E15.26105
G1 X183.413 Y114.882 E15.35944
G1 X167.853 Y144.162 E19.21866
G1 X167.253 Y145.192 E19.35739
G1 X166.553 Y146.242 E19.50427
G1 X165.793 Y147.232 E19.64954
G1 X164.683 Y148.502 E19.84585
G1 X164.083 Y149.102 E19.94461
G1 X163.753 Y149.402 E19.99652
G1 X162.853 Y150.182 E20.13514
G1 X161.793 Y150.992 E20.29041
G1 X160.733 Y151.702 E20.43890
G1 X160.003 Y152.132 E20.53751
G1 X158.873 Y152.712 E20.68534
G1 X157.743 Y153.212 E20.82916
G1 X156.923 Y153.522 E20.93119
G1 X155.823 Y153.812 E21.06360
G1 X154.693 Y153.902 E21.19553
G1 X145.493 Y153.902 E22.26632
G1 X144.363 Y153.812 E22.39826
G1 X143.263 Y153.522 E22.53066
G1 X142.443 Y153.212 E22.63269
G1 X141.343 Y152.732 E22.77238
G1 X140.583 Y152.352 E22.87128
G1 X140.133 Y152.102 E22.93119
G1 X139.033 Y151.432 E23.08110
G1 X138.363 Y150.972 E23.17569
G1 X137.403 Y150.242 E23.31606
G1 X137.023 Y149.932 E23.37314
G1 X136.393 Y149.372 E23.47125
G1 X135.503 Y148.502 E23.61610
G1 X134.393 Y147.232 E23.81242
G1 X133.633 Y146.242 E23.95768
G1 X133.153 Y145.542 E24.05647
G1 X132.473 Y144.422 E24.20897
G1 X116.483 Y114.132 E28.19550
G1 X115.933 Y112.872 E28.35551
G1 X115.513 Y111.742 E28.49582
G1 X115.053 Y110.152 E28.68847
G1 X114.773 Y108.862 E28.84211
G1 X114.573 Y107.522 E28.99980
G1 X114.503 Y106.722 E29.09327
G1 X114.453 Y105.522 E29.23306
G1 X114.163 Y76.142 E32.65276
G1 X114.213 Y74.822 E32.80650
G1 X114.333 Y73.572 E32.95266
G1 X114.463 Y72.732 E33.05159
G1 X114.833 Y71.112 E33.24500
G1 X115.063 Y70.302 E33.34300
G1 X115.503 Y69.042 E33.49834
G1 X116.143 Y67.552 E33.68708
G1 X116.692 Y66.476 E33.82765
G1 F1800.000 E32.82765
G92 E0
G1 X149.494 Y126.164 F7200.000
G1 E1.00000 F1800.000
G1 X150.705 Y126.164 E1.14099 F540.000
G1 X151.307 Y127.212 E1.28163
G1 X150.705 Y128.260 E1.42228
G1 X149.494 Y128.260 E1.56327
G1 X148.883 Y127.212 E1.70448
G1 X149.440 Y126.257 E1.83323
G1 X149.619 Y125.461 F7200.000
G1 X143.848 Y133.904 F7200.000
G1 X143.848 Y135.117 E1.97446 F540.000
G1 X142.793 Y135.727 E2.11628
G1 X141.746 Y135.116 E2.25737
G1 X141.746 Y133.905 E2.39836
G1 X142.793 Y133.303 E2.53888
G1 X143.755 Y133.851 E2.66767
G1 X144.551 Y134.026 F7200.000
G1 F1800.000 E1.66767
G92 E0
G1 X156.350 Y133.905 F7200.000
G1 E1.00000 F1800.000
G1 X157.398 Y133.303 E1.14065 F540.000
G1 X158.446 Y133.905 E1.28129
G1 X158.446 Y135.116 E1.42228
G1 X157.398 Y135.727 E1.56349
G1 X156.350 Y135.116 E1.70471
G1 X156.350 Y134.012 E1.83323
G1 X156.107 Y133.233 F7200.000
G1 X154.857 Y133.578 F7200.000
G1 X154.909 Y133.909 E1.87220 F540.000
G1 X154.948 Y134.514 E1.94284
G1 X154.909 Y135.119 E2.01339
G1 X154.863 Y135.422 E2.04900
G1 X154.712 Y136.012 E2.11993
G1 X154.607 Y136.302 E2.15576
G1 X154.346 Y136.850 E2.22653
G1 X154.022 Y137.362 E2.29699
G1 X153.837 Y137.606 E2.33258
G1 X153.416 Y138.054 E2.40419
G1 X152.948 Y138.437 E2.47453
G1 X152.698 Y138.608 E2.50983
G1 X152.160 Y138.903 E2.58120
G1 X151.879 Y139.021 E2.61666
G1 X151.305 Y139.210 E2.68704
G1 X151.007 Y139.275 E2.72259
G1 X150.705 Y139.327 E2.75816
G1 X150.096 Y139.367 E2.82929
G1 X149.486 Y139.327 E2.90034
G1 X148.893 Y139.210 E2.97077
G1 X148.598 Y139.125 E3.00651
G1 X148.031 Y138.903 E3.07732
G1 X147.760 Y138.764 E3.11284
G1 X147.245 Y138.438 E3.18370
G1 X146.773 Y138.052 E3.25468
G1 X146.562 Y137.834 E3.28998
G1 X146.171 Y137.365 E3.36106
G1 X146.002 Y137.110 E3.39669
G1 X145.707 Y136.579 E3.46742
G1 X145.589 Y136.298 E3.50287
G1 X145.485 Y136.012 E3.53825
G1 X145.335 Y135.426 E3.60869
G1 X145.283 Y135.123 E3.64441
G1 X145.243 Y134.514 E3.71545
G1 X145.283 Y133.904 E3.78659
G1 X145.400 Y133.305 E3.85770
G1 X145.486 Y133.015 E3.89287
G1 X145.707 Y132.450 E3.96355
G1 X145.846 Y132.178 E3.99907
G1 X146.171 Y131.664 E4.06992
G1 X146.362 Y131.420 E4.10594
G1 X146.771 Y130.979 E4.17594
G1 X147.004 Y130.773 E4.21215
G1 X147.500 Y130.420 E4.28294
G1 X147.760 Y130.264 E4.31819
G1 X148.312 Y130.001 E4.38943
G1 X148.602 Y129.903 E4.42503
G1 X149.184 Y129.747 E4.49517
G1 X149.491 Y129.701 E4.53128
G1 X150.182 Y129.656 E4.61194
G1 X151.007 Y129.747 E4.70847
G1 X151.309 Y129.820 E4.74467
G1 X151.879 Y130.001 E4.81434
G1 X152.164 Y130.127 E4.85054
G1 X152.698 Y130.420 E4.92146
G1 X153.187 Y130.773 E4.99165
G1 X153.418 Y130.977 E5.02750
G1 X153.837 Y131.423 E5.09874
G1 X154.022 Y131.666 E5.13433
G1 X154.346 Y132.178 E5.20479
G1 X154.483 Y132.446 E5.23985
G1 X154.712 Y133.015 E5.31123
G1 X154.834 Y133.473 E5.36643
G1 X155.173 Y133.688 F7200.000
G1 X151.977 Y142.758 F7200.000
G1 X150.706 Y140.762 F7200.000
G1 X151.306 Y141.817 E5.50769 F540.000
G1 X150.705 Y142.864 E5.64821
G1 X149.494 Y142.864 E5.78920
G1 X148.883 Y141.817 E5.93029
G1 X149.493 Y140.762 E6.07210
G1 X150.599 Y140.762 E6.20087
G1 X151.379 Y140.521 F7200.000
G1 X152.171 Y140.447 F7200.000
G1 X152.763 Y140.200 E6.27557 F1080.000
G1 X153.463 Y139.816 E6.36854
G1 X153.793 Y139.590 E6.41508
G1 X154.387 Y139.103 E6.50447
G1 X154.943 Y138.512 E6.59893
G1 X155.397 Y137.874 E6.69002
G1 X155.595 Y137.544 E6.73481
G1 X155.773 Y137.197 E6.78020
G1 X156.041 Y136.590 E6.85751
G1 X157.398 Y137.381 E7.04028
G1 X159.874 Y135.936 E7.37395
G1 X159.874 Y133.078 E7.70667
G1 X157.398 Y131.656 E8.03901
G1 X156.040 Y132.436 E8.22124
G1 X155.773 Y131.831 E8.29813
G1 X155.595 Y131.484 E8.34352
G1 X155.397 Y131.154 E8.38830
G1 X154.943 Y130.517 E8.47939
G1 X154.397 Y129.936 E8.57213
G1 X154.093 Y129.667 E8.61942
G1 X153.463 Y129.213 E8.70981
G1 X152.779 Y128.837 E8.80070
G1 X152.174 Y128.570 E8.87758
G1 X152.954 Y127.212 E9.05981
G1 X151.532 Y124.736 E9.39215
G1 X148.674 Y124.736 E9.72487
G1 X147.229 Y127.212 E10.05854
G1 X148.020 Y128.569 E10.24132
G1 X147.413 Y128.837 E10.31860
G1 X147.066 Y129.015 E10.36401
G1 X146.736 Y129.213 E10.40879
G1 X146.098 Y129.667 E10.49988
G1 X145.784 Y129.946 E10.54882
G1 X145.265 Y130.505 E10.63763
G1 X145.014 Y130.826 E10.68503
G1 X144.794 Y131.154 E10.73100
G1 X144.596 Y131.484 E10.77578
G1 X144.410 Y131.847 E10.82327
G1 X144.163 Y132.439 E10.89798
G1 X142.790 Y131.658 E11.08182
G1 X140.317 Y133.078 E11.41360
G1 X140.317 Y135.936 E11.74632
G1 X142.790 Y137.378 E12.07942
G1 X144.161 Y136.586 E12.26381
G1 X144.410 Y137.181 E12.33895
G1 X144.596 Y137.544 E12.38644
G1 X144.794 Y137.874 E12.43122
G1 X145.014 Y138.203 E12.47719
G1 X145.265 Y138.523 E12.52459
G1 X145.794 Y139.093 E12.61513
G1 X146.407 Y139.596 E12.70744
G1 X146.736 Y139.816 E12.75341
G1 X147.066 Y140.014 E12.79819
G1 X147.429 Y140.200 E12.84569
G1 X148.024 Y140.449 E12.92082
G1 X147.347 Y141.620 E13.07828
G1 X145.807 Y141.001 E13.27151
G1 X145.155 Y142.777 E13.49177
G1 X145.095 Y142.896 E13.50718
G1 X145.036 Y143.104 E13.53240
G1 X144.446 Y144.727 E13.73340
G1 X143.844 Y144.369 E13.81497
G1 X143.237 Y143.953 E13.90059
G1 X142.658 Y143.508 E13.98563
G1 X142.110 Y143.023 E14.07082
G1 X141.588 Y142.501 E14.15665
G1 X141.104 Y141.949 E14.24216
G1 X140.654 Y141.369 E14.32752
G1 X140.240 Y140.769 E14.41242
G1 X139.869 Y140.141 E14.49727
G1 X139.536 Y139.487 E14.58276
G1 X139.243 Y138.806 E14.66903
G1 X138.998 Y138.125 E14.75331
G1 X138.794 Y137.416 E14.83910
G1 X138.632 Y136.702 E14.92434
G1 X138.518 Y135.975 E15.00997
G1 X138.450 Y135.236 E15.09639
G1 X138.425 Y134.514 E15.18041
G1 X138.451 Y133.788 E15.26502
G1 X138.519 Y133.048 E15.35145
G1 X138.633 Y132.325 E15.43668
G1 X138.794 Y131.609 E15.52211
G1 X138.996 Y130.909 E15.60690
G1 X139.245 Y130.219 E15.69228
G1 X139.536 Y129.543 E15.77790
G1 X139.868 Y128.890 E15.86321
G1 X140.244 Y128.253 E15.94931
G1 X140.655 Y127.653 E16.03397
G1 X141.106 Y127.078 E16.11896
G1 X141.591 Y126.525 E16.20460
G1 X142.110 Y126.006 E16.29004
G1 X142.656 Y125.522 E16.37495
G1 X143.238 Y125.075 E16.46034
G1 X143.850 Y124.656 E16.54672
G1 X144.474 Y124.285 E16.63124
G1 X145.126 Y123.954 E16.71634
G1 X145.800 Y123.663 E16.80178
G1 X146.486 Y123.416 E16.88660
G1 X147.195 Y123.212 E16.97242
G1 X147.886 Y123.056 E17.05496
G1 X148.637 Y122.936 E17.14346
G1 X149.364 Y122.864 E17.22849
G1 X150.096 Y122.843 E17.31368
G1 X150.825 Y122.864 E17.39855
G1 X151.555 Y122.936 E17.48401
G1 X152.285 Y123.051 E17.56999
G1 X153.001 Y123.212 E17.65542
G1 X153.701 Y123.414 E17.74021
G1 X154.391 Y123.663 E17.82559
G1 X155.067 Y123.954 E17.91121
G1 X155.720 Y124.286 E17.99652
G1 X156.351 Y124.658 E18.08173
G1 X156.956 Y125.072 E18.16704
G1 X157.532 Y125.518 E18.25188
G1 X158.082 Y126.006 E18.33738
G1 X158.604 Y126.528 E18.42339
G1 X159.091 Y127.077 E18.50876
G1 X159.535 Y127.650 E18.59313
G1 X159.952 Y128.260 E18.67913
G1 X160.324 Y128.890 E18.76425
G1 X160.655 Y129.541 E18.84927
G1 X160.947 Y130.219 E18.93518
G1 X161.195 Y130.906 E19.02021
G1 X161.398 Y131.609 E19.10535
G1 X161.558 Y132.319 E19.19009
G1 X161.674 Y133.055 E19.27676
G1 X161.746 Y133.782 E19.36181
G1 X161.767 Y134.515 E19.44717
G1 X161.746 Y135.241 E19.53177
G1 X161.673 Y135.983 E19.61850
G1 X161.559 Y136.704 E19.70341
G1 X161.396 Y137.421 E19.78904
G1 X161.195 Y138.121 E19.87381
G1 X160.946 Y138.810 E19.95910
G1 X160.657 Y139.483 E20.04438
G1 X160.324 Y140.138 E20.12979
G1 X159.953 Y140.768 E20.21494
G1 X159.537 Y141.370 E20.30012
G1 X159.090 Y141.952 E20.38558
G1 X158.604 Y142.500 E20.47077
G1 X158.081 Y143.024 E20.55696
G1 X157.529 Y143.513 E20.64275
G1 X156.959 Y143.954 E20.72669
G1 X156.354 Y144.368 E20.81200
G1 X155.748 Y144.726 E20.89392
G1 X154.401 Y141.004 E21.35464
G1 X152.840 Y141.625 E21.55016
G1 X152.224 Y140.540 E21.69535
G1 X151.791 Y141.224 F7200.000
G1 X151.103 Y140.014 E21.85737 F1080.000
G1 X151.818 Y139.803 E21.94422
G1 X152.139 Y139.686 E21.98400
G1 X152.462 Y139.551 E22.02463
G1 X152.774 Y139.392 E22.06544
G1 X153.371 Y139.013 E22.14770
G1 X153.901 Y138.578 E22.22757
G1 X154.153 Y138.326 E22.26907
G1 X154.390 Y138.059 E22.31064
G1 X154.604 Y137.776 E22.35192
G1 X154.970 Y137.197 E22.43161
G1 X155.270 Y136.568 E22.51272
G1 X155.392 Y136.234 E22.55416
G1 X155.602 Y135.506 E22.64226
G1 X157.398 Y136.554 E22.88426
G1 X159.160 Y135.526 E23.12170
G1 X159.160 Y133.491 E23.35856
G1 X157.398 Y132.479 E23.59505
G1 X155.603 Y133.510 E23.83595
G1 X155.391 Y132.792 E23.92312
G1 X155.270 Y132.460 E23.96418
G1 X154.970 Y131.831 E24.04528
G1 X154.604 Y131.252 E24.12497
G1 X154.390 Y130.970 E24.16625
G1 X153.908 Y130.456 E24.24823
G1 X153.640 Y130.220 E24.28981
G1 X153.363 Y130.010 E24.33031
G1 X152.774 Y129.637 E24.41147
G1 X152.139 Y129.335 E24.49320
G1 X151.097 Y129.012 E24.62021
G1 X152.131 Y127.212 E24.86179
G1 X151.119 Y125.450 E25.09828
G1 X149.084 Y125.450 E25.33514
G1 X148.056 Y127.212 E25.57258
G1 X149.107 Y129.013 E25.81527
G1 X148.052 Y129.335 E25.94359
G1 X147.677 Y129.504 E25.99154
G1 X147.413 Y129.640 E26.02605
G1 X146.834 Y130.006 E26.10573
G1 X146.551 Y130.220 E26.14701
G1 X146.277 Y130.462 E26.18959
G1 X145.814 Y130.962 E26.26900
G1 X145.593 Y131.245 E26.31071
G1 X145.221 Y131.831 E26.39149
G1 X145.059 Y132.148 E26.43300
G1 X144.924 Y132.470 E26.47363
G1 X144.807 Y132.792 E26.51341
G1 X144.596 Y133.507 E26.60026
G1 X142.791 Y132.481 E26.84186
G1 X141.032 Y133.491 E27.07801
G1 X141.032 Y135.526 E27.31487
G1 X142.791 Y136.553 E27.55196
G1 X144.597 Y135.509 E27.79466
G1 X144.806 Y136.234 E27.88243
G1 X144.924 Y136.558 E27.92259
G1 X145.059 Y136.880 E27.96323
G1 X145.221 Y137.197 E28.00473
G1 X145.593 Y137.784 E28.08552
G1 X145.814 Y138.066 E28.12723
G1 X146.284 Y138.573 E28.20769
G1 X146.826 Y139.017 E28.28934
G1 X147.413 Y139.389 E28.37013
G1 X147.730 Y139.551 E28.41164
G1 X148.376 Y139.804 E28.49242
G1 X149.101 Y140.013 E28.58019
G1 X148.057 Y141.819 E28.82289
G1 X148.571 Y142.699 E28.94146
G1 X148.454 Y142.834 E28.96233
G1 X146.224 Y141.938 E29.24204
G1 X144.841 Y145.731 E29.71193
G1 X144.142 Y145.376 E29.80322
G1 X143.457 Y144.970 E29.89589
G1 X142.818 Y144.531 E29.98614
G1 X142.203 Y144.060 E30.07634
G1 X141.620 Y143.543 E30.16701
G1 X141.066 Y142.989 E30.25817
G1 X140.552 Y142.402 E30.34897
G1 X140.079 Y141.792 E30.43882
G1 X139.639 Y141.155 E30.52897
G1 X139.195 Y140.391 E30.63176
G1 X138.890 Y139.790 E30.71025
G1 X138.578 Y139.067 E30.80182
G1 X138.318 Y138.346 E30.89114
G1 X138.102 Y137.594 E30.98215
G1 X137.931 Y136.836 E31.07259
G1 X137.809 Y136.062 E31.16383
G1 X137.737 Y135.279 E31.25534
G1 X137.711 Y134.514 E31.34438
G1 X137.738 Y133.741 E31.43443
G1 X137.810 Y132.960 E31.52572
G1 X137.931 Y132.191 E31.61632
G1 X138.102 Y131.431 E31.70696
G1 X138.316 Y130.688 E31.79696
G1 X138.580 Y129.956 E31.88756
G1 X138.889 Y129.240 E31.97835
G1 X139.241 Y128.546 E32.06888
G1 X139.579 Y127.974 E32.14621
G1 X140.077 Y127.232 E32.25022
G1 X140.556 Y126.622 E32.34049
G1 X141.069 Y126.036 E32.43114
G1 X141.620 Y125.486 E32.52178
G1 X142.201 Y124.970 E32.61217
G1 X142.818 Y124.496 E32.70272
G1 X143.466 Y124.054 E32.79403
G1 X144.130 Y123.659 E32.88394
G1 X144.822 Y123.307 E32.97435
G1 X145.538 Y122.999 E33.06503
G1 X146.213 Y122.755 E33.14859
G1 X147.018 Y122.520 E33.24616
G1 X147.774 Y122.350 E33.33645
G1 X148.546 Y122.228 E33.42737
G1 X149.320 Y122.151 E33.51783
G1 X150.096 Y122.129 E33.60822
G1 X150.870 Y122.151 E33.69842
G1 X151.646 Y122.228 E33.78915
G1 X152.419 Y122.349 E33.88020
G1 X153.179 Y122.520 E33.97084
G1 X153.922 Y122.735 E34.06084
G1 X154.654 Y122.999 E34.15144
G1 X155.370 Y123.307 E34.24223
G1 X156.064 Y123.660 E34.33277
G1 X156.734 Y124.055 E34.42334
G1 X157.377 Y124.495 E34.51398
G1 X157.988 Y124.968 E34.60399
G1 X158.572 Y125.486 E34.69474
G1 X159.124 Y126.038 E34.78573
G1 X159.641 Y126.621 E34.87640
G1 X160.113 Y127.231 E34.96612
G1 X160.555 Y127.876 E35.05718
G1 X160.950 Y128.546 E35.14770
G1 X161.302 Y129.238 E35.23806
G1 X161.611 Y129.956 E35.32902
