; generated by Slic3r 1.0.0RC2 on 2014-05-23 at 10:52:52

; layer_height = 0.3
; perimeters = 3
; top_solid_layers = 3
; bottom_solid_layers = 3
; fill_density = 0.30
; perimeter_speed = 60
; infill_speed = 60
; travel_speed = 120
; nozzle_diameter = 0.4
; filament_diameter = 1.75
; extrusion_multiplier = 0.98
; perimeters extrusion width = 0.40mm
; infill extrusion width = 0.42mm
; solid infill extrusion width = 0.42mm
; top infill extrusion width = 0.42mm
; first layer extrusion width = 0.80mm

G21 ; set units to millimeters
M107
M104 S220 ; set temperature
G28 ; home all axes
M106 S255;
G1 Z200 F1200 ; lift nozzle
M109 S220 ; wait for temperature to be reached
G90 ; use absolute coordinates
G92 E0
M82 ; use absolute distances for extrusion
G1 F1800.000 E-1.00000
G92 E0
G1 Z0.400 F7200.000
G1 X99.360 Y52.532 F7200.000
G1 E1.00000 F1800.000
G1 X99.970 Y51.382 E1.15151 F1080.000
G1 X100.780 Y50.372 E1.30220
G1 X101.780 Y49.542 E1.45346
G1 X102.910 Y48.922 E1.60347
G1 X104.140 Y48.522 E1.75401
G1 X105.430 Y48.372 E1.90517
G1 X142.970 Y47.592 E6.27539
G1 X156.240 Y47.592 E7.81988
G1 X156.690 Y47.602 E7.87227
G1 X191.200 Y49.912 E11.89787
G1 X192.610 Y50.162 E12.06454
G1 X193.930 Y50.702 E12.23053
G1 X195.110 Y51.512 E12.39712
G1 X196.090 Y52.552 E12.56344
G1 X196.830 Y53.772 E12.72951
G1 X196.900 Y53.922 E12.74878
G1 X197.200 Y54.662 E12.84172
G1 X197.400 Y55.422 E12.93318
G1 X204.580 Y90.642 E17.11675
G1 X204.680 Y91.312 E17.19559
G1 X204.710 Y91.982 E17.27365
G1 X204.710 Y121.112 E20.66409
G1 X204.520 Y122.702 E20.85047
G1 X203.960 Y124.192 E21.03573
G1 X203.070 Y125.522 E21.22199
G1 X178.320 Y153.972 E25.61093
G1 X177.170 Y155.012 E25.79140
G1 X175.820 Y155.762 E25.97114
G1 X174.340 Y156.192 E26.15052
G1 X136.910 Y162.322 E30.56503
G1 X135.820 Y162.402 E30.69224
G1 X126.620 Y162.402 E31.76302
G1 X125.490 Y162.312 E31.89496
G1 X124.390 Y162.022 E32.02736
G1 X124.020 Y161.892 E32.07301
G1 X122.470 Y161.232 E32.26909
G1 X121.710 Y160.852 E32.36798
G1 X121.260 Y160.602 E32.42790
G1 X120.160 Y159.932 E32.57781
G1 X119.210 Y159.262 E32.71311
G1 X118.150 Y158.432 E32.86981
G1 X117.230 Y157.602 E33.01402
G1 X116.630 Y157.002 E33.11278
G1 X116.330 Y156.672 E33.16469
G1 X115.520 Y155.732 E33.30911
G1 X115.000 Y155.062 E33.40782
G1 X114.280 Y154.042 E33.55314
G1 X113.600 Y152.922 E33.70564
G1 X97.610 Y122.632 E37.69217
G1 X97.390 Y122.152 E37.75362
G1 X96.930 Y121.042 E37.89347
G1 X96.640 Y120.242 E37.99251
G1 X96.490 Y119.762 E38.05104
G1 X96.180 Y118.652 E38.18518
G1 X95.990 Y117.832 E38.28315
G1 X95.760 Y116.482 E38.44254
G1 X95.630 Y115.222 E38.58997
G1 X95.580 Y114.022 E38.72975
G1 X95.290 Y84.642 E42.14946
G1 X95.310 Y83.652 E42.26470
G1 X96.310 Y60.982 E44.90583
G1 X96.460 Y59.832 E45.04081
G1 X96.810 Y58.732 E45.17516
G1 X99.319 Y52.631 E45.94296
G1 F1800.000 E44.94296
G92 E0
G1 X186.165 Y59.934 F7200.000
G1 E1.00000 F1800.000
G1 X186.390 Y59.194 E1.09001 F540.000
G1 X186.579 Y58.845 E1.13619
G1 X186.830 Y58.545 E1.18176
G1 X187.134 Y58.301 E1.22711
G1 X187.475 Y58.123 E1.27189
G1 X187.849 Y58.012 E1.31722
G1 X188.226 Y57.975 E1.36136
G1 X188.617 Y58.013 E1.40702
G1 X188.979 Y58.119 E1.45102
G1 X189.322 Y58.295 E1.49585
G1 X189.621 Y58.531 E1.54018
G1 X189.872 Y58.821 E1.58486
G1 X190.062 Y59.157 E1.62977
G1 X190.183 Y59.527 E1.67509
G1 X190.227 Y59.916 E1.72060
G1 X190.192 Y60.307 E1.76634
G1 X190.078 Y60.686 E1.81232
G1 X189.891 Y61.033 E1.85826
G1 X189.639 Y61.334 E1.90394
G1 X189.335 Y61.578 E1.94929
G1 X188.995 Y61.756 E1.99396
G1 X188.621 Y61.867 E2.03936
G1 X188.240 Y61.904 E2.08399
G1 X187.855 Y61.867 E2.12898
G1 X187.488 Y61.760 E2.17341
G1 X187.146 Y61.583 E2.21828
G1 X186.847 Y61.348 E2.26253
G1 X186.597 Y61.057 E2.30721
G1 X186.407 Y60.721 E2.35214
G1 X186.197 Y60.036 E2.43553
G1 X185.584 Y59.518 F7200.000
G1 X185.653 Y59.458 F7200.000
G1 X185.854 Y59.784 E2.48009 F540.000
G1 X185.575 Y60.694 E2.59077
G1 X185.408 Y61.002 E2.63162
G1 X185.154 Y61.318 E2.67884
G1 X184.856 Y61.561 E2.72350
G1 X184.513 Y61.746 E2.76885
G1 X184.148 Y61.858 E2.81329
G1 X183.718 Y61.904 E2.86371
G1 X183.337 Y61.869 E2.90821
G1 X182.973 Y61.766 E2.95218
G1 X182.633 Y61.597 E2.99645
G1 X182.325 Y61.362 E3.04152
G1 X182.072 Y61.078 E3.08580
G1 X181.913 Y60.785 E3.12462
G1 X181.876 Y60.745 E3.13096
G1 X181.748 Y60.373 E3.17676
G1 X181.699 Y59.975 E3.22340
G1 X181.735 Y59.570 E3.27073
G1 X181.857 Y59.178 E3.31855
G1 X182.026 Y58.865 E3.35991
G1 X182.278 Y58.557 E3.40627
G1 X182.581 Y58.310 E3.45170
G1 X182.925 Y58.128 E3.49705
G1 X183.281 Y58.022 E3.54025
G1 X183.713 Y57.975 E3.59089
G1 X184.092 Y58.010 E3.63514
G1 X184.457 Y58.113 E3.67926
G1 X184.798 Y58.283 E3.72358
G1 X185.100 Y58.512 E3.76778
G1 X185.311 Y58.766 E3.80620
G1 X185.356 Y58.798 E3.81263
G1 X185.515 Y59.092 E3.85147
G1 X185.553 Y59.130 E3.85777
G1 X185.622 Y59.356 E3.88521
G1 X186.035 Y59.480 F7200.000
G1 F1800.000 E2.88521
G92 E0
G1 X113.085 Y61.235 F7200.000
G1 E1.00000 F1800.000
G1 X113.049 Y61.640 E1.04733 F540.000
G1 X112.927 Y62.032 E1.09515
G1 X112.758 Y62.345 E1.13651
G1 X112.506 Y62.653 E1.18286
G1 X112.204 Y62.900 E1.22830
G1 X111.859 Y63.082 E1.27364
G1 X111.450 Y63.199 E1.32322
G1 X111.071 Y63.235 E1.36749
G1 X110.692 Y63.200 E1.41174
G1 X110.328 Y63.097 E1.45586
G1 X109.987 Y62.927 E1.50018
G1 X109.684 Y62.698 E1.54439
G1 X109.473 Y62.444 E1.58280
G1 X109.428 Y62.412 E1.58923
G1 X109.270 Y62.118 E1.62808
G1 X109.232 Y62.080 E1.63437
G1 X109.131 Y61.752 E1.67429
G1 X108.931 Y61.426 E1.71886
G1 X109.210 Y60.517 E1.82953
G1 X109.404 Y60.165 E1.87633
G1 X109.631 Y59.892 E1.91761
G1 X109.928 Y59.649 E1.96227
G1 X110.271 Y59.464 E2.00762
G1 X110.636 Y59.352 E2.05206
G1 X111.067 Y59.306 E2.10249
G1 X111.447 Y59.341 E2.14699
G1 X111.811 Y59.444 E2.19095
G1 X112.152 Y59.613 E2.23522
G1 X112.459 Y59.848 E2.28029
G1 X112.713 Y60.132 E2.32458
G1 X112.871 Y60.426 E2.36339
G1 X112.909 Y60.465 E2.36973
G1 X113.036 Y60.837 E2.41553
G1 X113.066 Y61.130 E2.44979
G1 X113.434 Y61.445 F7200.000
G1 X114.477 Y61.671 F7200.000
G1 X114.534 Y61.103 E2.51632 F1080.000
G1 X114.479 Y60.914 E2.53918
G1 X114.426 Y60.373 E2.60242
G1 X114.322 Y60.203 E2.62562
G1 X114.174 Y59.721 E2.68434
G1 X114.035 Y59.576 E2.70768
G1 X113.814 Y59.166 E2.76193
G1 X113.651 Y59.048 E2.78532
G1 X113.375 Y58.715 E2.83564
G1 X113.198 Y58.623 E2.85891
G1 X112.845 Y58.336 E2.91182
G1 X112.656 Y58.275 E2.93493
G1 X112.284 Y58.078 E2.98395
G1 X112.090 Y58.043 E3.00690
G1 X111.702 Y57.926 E3.05404
G1 X111.084 Y57.873 E3.12626
G1 X110.482 Y57.927 E3.19663
G1 X110.291 Y57.964 E3.21922
G1 X109.695 Y58.154 E3.29207
G1 X109.109 Y58.474 E3.36972
G1 X108.786 Y58.736 E3.41817
G1 X108.368 Y58.397 E3.48083
G1 X107.786 Y58.104 E3.55672
G1 X107.176 Y57.932 E3.63043
G1 X106.432 Y57.862 E3.71744
G1 X106.837 Y56.888 E3.84025
G1 X141.288 Y56.169 E7.85087
G1 X141.288 Y60.629 E8.37000
G1 X158.070 Y60.629 E10.32329
G1 X158.070 Y56.261 E10.83170
G1 X180.981 Y57.795 E13.50422
G1 X180.547 Y58.599 E13.61061
G1 X180.310 Y59.345 E13.70173
G1 X180.250 Y60.107 E13.79070
G1 X180.305 Y60.296 E13.81357
G1 X180.359 Y60.837 E13.87680
G1 X180.462 Y61.007 E13.90000
G1 X180.610 Y61.490 E13.95873
G1 X180.749 Y61.634 E13.98208
G1 X180.970 Y62.045 E14.03634
G1 X181.133 Y62.162 E14.05972
G1 X181.409 Y62.495 E14.11003
G1 X181.586 Y62.587 E14.13330
G1 X181.939 Y62.874 E14.18623
G1 X182.128 Y62.935 E14.20933
G1 X182.500 Y63.132 E14.25835
G1 X182.695 Y63.167 E14.28131
G1 X183.082 Y63.284 E14.32844
G1 X183.701 Y63.338 E14.40067
G1 X183.895 Y63.323 E14.42331
G1 X184.303 Y63.284 E14.47103
G1 X184.493 Y63.246 E14.49363
G1 X185.090 Y63.057 E14.56647
G1 X185.675 Y62.737 E14.64411
G1 X185.988 Y62.483 E14.69100
G1 X186.395 Y62.814 E14.75208
G1 X186.978 Y63.106 E14.82797
G1 X187.587 Y63.278 E14.90169
G1 X188.239 Y63.339 E14.97788
G1 X188.877 Y63.277 E15.05249
G1 X189.504 Y63.109 E15.12799
G1 X188.750 Y66.238 E15.50262
G1 X187.871 Y66.999 E15.63789
G1 X143.211 Y66.999 E20.83583
G1 X113.330 Y63.897 E24.33231
G1 X113.969 Y63.109 E24.45037
G1 X114.238 Y62.611 E24.51624
G1 X114.474 Y61.865 E24.60736
G1 X114.476 Y61.779 E24.61741
G1 X113.762 Y61.752 F7200.000
G1 X113.810 Y61.169 E24.68558 F1080.000
G1 X113.775 Y61.050 E24.70001
G1 X113.731 Y60.605 E24.75199
G1 X113.665 Y60.497 E24.76670
G1 X113.542 Y60.093 E24.81593
G1 X113.453 Y60.001 E24.83077
G1 X113.263 Y59.649 E24.87730
G1 X113.159 Y59.574 E24.89223
G1 X112.917 Y59.282 E24.93639
G1 X112.804 Y59.223 E24.95130
G1 X112.498 Y58.975 E24.99707
G1 X112.377 Y58.935 E25.01189
G1 X112.047 Y58.761 E25.05532
G1 X111.575 Y58.634 E25.11229
G1 X111.075 Y58.589 E25.17065
G1 X110.586 Y58.634 E25.22786
G1 X110.099 Y58.767 E25.28655
G1 X109.983 Y58.809 E25.30096
G1 X109.519 Y59.061 E25.36246
G1 X109.121 Y59.388 E25.42242
G1 X108.786 Y59.792 E25.48343
G1 X108.394 Y59.320 E25.55486
G1 X107.993 Y59.012 E25.61372
G1 X107.530 Y58.777 E25.67410
G1 X107.042 Y58.637 E25.73317
G1 X106.524 Y58.589 E25.79376
G1 X106.014 Y58.638 E25.85337
G1 X105.251 Y58.843 E25.94538
G1 X106.356 Y56.183 E26.28055
G1 X142.002 Y55.439 E30.43027
G1 X142.002 Y59.915 E30.95122
G1 X157.356 Y59.915 E32.73827
G1 X157.356 Y55.497 E33.25250
G1 X182.813 Y57.202 E36.22205
G1 X181.772 Y58.048 E36.37822
G1 X181.493 Y58.385 E36.42916
G1 X181.421 Y58.483 E36.44331
G1 X181.202 Y58.889 E36.49692
G1 X181.022 Y59.458 E36.56640
G1 X180.975 Y60.041 E36.63454
G1 X181.009 Y60.161 E36.64898
G1 X181.053 Y60.605 E36.70096
G1 X181.119 Y60.713 E36.71566
G1 X181.243 Y61.118 E36.76490
G1 X181.331 Y61.209 E36.77975
G1 X181.521 Y61.561 E36.82628
G1 X181.625 Y61.636 E36.84121
G1 X181.867 Y61.928 E36.88536
G1 X181.981 Y61.988 E36.90027
G1 X182.286 Y62.236 E36.94605
G1 X182.407 Y62.275 E36.96087
G1 X182.737 Y62.449 E37.00429
G1 X183.210 Y62.576 E37.06126
G1 X183.709 Y62.621 E37.11963
G1 X184.321 Y62.552 E37.19127
G1 X184.801 Y62.401 E37.24991
G1 X185.266 Y62.149 E37.31140
G1 X185.664 Y61.822 E37.37137
G1 X185.988 Y61.431 E37.43047
G1 X186.369 Y61.891 E37.49998
G1 X186.770 Y62.198 E37.55884
G1 X187.233 Y62.433 E37.61922
G1 X187.721 Y62.573 E37.67830
G1 X188.239 Y62.622 E37.73889
G1 X188.749 Y62.572 E37.79850
G1 X189.259 Y62.423 E37.86040
G1 X189.717 Y62.184 E37.92044
G1 X190.417 Y61.622 E38.02497
G1 X190.573 Y61.720 E38.04640
G1 X189.390 Y66.629 E38.63408
G1 X188.137 Y67.713 E38.82700
G1 X143.174 Y67.713 E44.06019
G1 X111.188 Y64.393 E47.80305
G1 X111.154 Y64.039 E47.84444
G1 X112.131 Y63.746 E47.96316
G1 X112.599 Y63.499 E48.02467
G1 X113.012 Y63.162 E48.08679
G1 X113.364 Y62.727 E48.15184
G1 X113.582 Y62.322 E48.20545
G1 X113.730 Y61.855 E48.26245
G1 X110.270 Y64.078 F7200.000
G1 X110.182 Y64.289 E48.28905 F540.000
G1 X107.356 Y63.995 E48.61980
G1 X108.107 Y63.444 E48.72816
G1 X108.427 Y63.184 E48.77627
G1 X108.796 Y62.746 E48.84291
G1 X109.233 Y63.273 E48.92258
G1 X109.348 Y63.329 E48.93747
G1 X110.187 Y64.010 E49.06322
G1 X185.066 Y57.353 F7200.000
G1 X186.833 Y57.471 E49.26931 F540.000
G1 X185.978 Y58.452 E49.42080
G1 X185.135 Y57.435 E49.57449
G1 X190.461 Y56.998 F7200.000
G1 X191.278 Y61.844 E50.14652 F756.000
G1 X190.031 Y67.019 E50.76600
G1 X188.403 Y68.427 E51.01656
G1 X143.137 Y68.427 E56.28501
G1 X106.493 Y64.624 E60.57295
G1 X105.197 Y63.156 E60.80082
G1 X105.328 Y62.951 E60.82913
G1 X106.147 Y63.197 E60.92865
G1 X106.537 Y63.235 E60.97431
G1 X106.964 Y63.185 E61.02435
G1 X107.288 Y63.088 E61.06371
G1 X107.629 Y62.909 E61.10850
G1 X107.933 Y62.665 E61.15384
G1 X108.184 Y62.365 E61.19941
G1 X108.373 Y62.016 E61.24559
G1 X108.598 Y61.276 E61.33560
G1 X108.357 Y60.489 E61.43146
G1 X108.167 Y60.153 E61.47639
G1 X107.916 Y59.862 E61.52107
G1 X107.617 Y59.627 E61.56532
G1 X107.275 Y59.450 E61.61019
G1 X106.909 Y59.343 E61.65462
G1 X106.524 Y59.306 E61.69961
G1 X106.093 Y59.357 E61.75013
G1 X105.768 Y59.454 E61.78957
G1 X105.428 Y59.632 E61.83425
G1 X105.091 Y59.914 E61.88538
G1 X104.873 Y60.177 E61.92519
G1 X104.685 Y60.525 E61.97114
G1 X104.571 Y60.903 E62.01712
G1 X104.536 Y61.294 E62.06285
G1 X104.635 Y62.232 E62.17261
G1 X104.451 Y62.312 E62.19596
G1 X103.488 Y61.222 E62.36531
G1 X105.876 Y55.479 E63.08912
G1 X142.716 Y54.710 E67.37793
G1 X142.716 Y59.202 E67.90070
G1 X156.642 Y59.202 E69.52151
G1 X156.642 Y54.731 E70.04182
G1 X190.355 Y56.991 E73.97442
G1 X190.161 Y57.646 F7200.000
G1 X189.921 Y64.894 F7200.000
G1 X188.833 Y63.834 F7200.000
G1 X188.771 Y63.772 E73.98478 F1080.000
G1 X187.762 Y63.779 E74.10279
G1 X188.636 Y64.652 E74.24741
G1 X188.439 Y65.471 E74.34590
G1 X186.246 Y63.278 E74.70878
G1 X185.393 Y63.440 E74.81043
G1 X188.097 Y66.144 E75.25790
G1 X187.454 Y66.517 E75.34484
G1 X184.642 Y63.704 E75.81029
G1 X183.740 Y63.818 E75.91666
G1 X186.439 Y66.517 E76.36331
G1 X185.423 Y66.517 E76.48213
G1 X182.535 Y63.628 E76.96020
G1 X179.920 Y58.982 F7200.000
G1 X179.088 Y58.151 E77.09778 F1080.000
G1 X178.000 Y58.078 E77.22542
G1 X179.786 Y59.864 E77.52100
G1 X179.889 Y60.982 E77.65242
G1 X176.912 Y58.005 E78.14514
G1 X175.823 Y57.932 E78.27278
G1 X184.408 Y66.517 E79.69345
G1 X183.392 Y66.517 E79.81228
G1 X174.735 Y57.859 E81.24501
G1 X173.647 Y57.787 E81.37264
G1 X182.377 Y66.517 E82.81743
G1 X181.362 Y66.517 E82.93626
G1 X172.558 Y57.714 E84.39311
G1 X171.470 Y57.641 E84.52075
G1 X180.346 Y66.517 E85.98965
G1 X179.331 Y66.517 E86.10848
G1 X170.382 Y57.568 E87.58944
G1 X169.294 Y57.495 E87.71708
G1 X178.315 Y66.517 E89.21010
G1 X177.300 Y66.517 E89.32893
G1 X168.205 Y57.422 E90.83401
G1 X167.117 Y57.349 E90.96165
G1 X176.284 Y66.517 E92.47879
G1 X175.269 Y66.517 E92.59762
G1 X166.029 Y57.277 E94.12682
G1 X164.940 Y57.204 E94.25446
G1 X174.254 Y66.517 E95.79572
G1 X173.238 Y66.517 E95.91454
G1 X163.852 Y57.131 E97.46786
G1 X162.764 Y57.058 E97.59550
G1 X172.223 Y66.517 E99.16087
G1 X171.207 Y66.517 E99.27970
G1 X161.675 Y56.985 E100.85713
G1 X160.587 Y56.912 E100.98477
G1 X170.192 Y66.517 E102.57427
G1 X169.176 Y66.517 E102.69309
G1 X159.499 Y56.839 E104.29464
G1 X158.552 Y56.908 E104.40570
G1 X168.161 Y66.517 E105.99586
G1 X167.145 Y66.517 E106.11469
G1 X158.552 Y57.924 E107.53680
G1 X158.552 Y58.939 E107.65562
G1 X166.130 Y66.517 E108.90968
G1 X165.115 Y66.517 E109.02851
G1 X158.552 Y59.955 E110.11453
G1 X158.552 Y60.970 E110.23335
G1 X164.099 Y66.517 E111.15132
G1 X163.084 Y66.517 E111.27015
G1 X157.678 Y61.111 E112.16482
G1 X156.662 Y61.111 E112.28364
G1 X162.068 Y66.517 E113.17831
G1 X161.053 Y66.517 E113.29714
G1 X155.647 Y61.111 E114.19181
G1 X154.631 Y61.111 E114.31063
G1 X160.037 Y66.517 E115.20530
G1 X159.022 Y66.517 E115.32413
G1 X153.616 Y61.111 E116.21880
G1 X152.600 Y61.111 E116.33762
G1 X158.006 Y66.517 E117.23229
G1 X156.991 Y66.517 E117.35112
G1 X151.585 Y61.111 E118.24579
G1 X150.569 Y61.111 E118.36461
G1 X155.976 Y66.517 E119.25928
G1 X154.960 Y66.517 E119.37811
G1 X149.554 Y61.111 E120.27278
G1 X148.539 Y61.111 E120.39160
G1 X153.945 Y66.517 E121.28627
G1 X152.929 Y66.517 E121.40510
G1 X147.523 Y61.111 E122.29977
G1 X146.508 Y61.111 E122.41859
G1 X151.914 Y66.517 E123.31326
G1 X150.898 Y66.517 E123.43209
G1 X145.492 Y61.111 E124.32676
G1 X144.477 Y61.111 E124.44558
G1 X149.883 Y66.517 E125.34025
G1 X148.867 Y66.517 E125.45908
G1 X143.461 Y61.111 E126.35375
G1 X142.446 Y61.111 E126.47257
G1 X147.852 Y66.517 E127.36724
G1 X146.837 Y66.517 E127.48607
G1 X137.408 Y57.089 E129.04634
G1 X136.414 Y57.110 E129.16276
G1 X145.821 Y66.517 E130.71959
G1 X144.806 Y66.517 E130.83842
G1 X135.419 Y57.130 E132.39182
G1 X134.424 Y57.151 E132.50824
G1 X143.790 Y66.517 E134.05821
G1 X142.721 Y66.463 E134.18344
G1 X133.430 Y57.172 E135.72113
G1 X132.435 Y57.193 E135.83755
G1 X141.588 Y66.346 E137.35235
G1 X140.455 Y66.228 E137.48565
G1 X131.440 Y57.213 E138.97754
G1 X130.446 Y57.234 E139.09397
G1 X139.322 Y66.111 E140.56297
G1 X138.189 Y65.993 E140.69627
G1 X129.451 Y57.255 E142.14237
G1 X128.456 Y57.276 E142.25879
G1 X137.056 Y65.876 E143.68200
G1 X135.923 Y65.758 E143.81530
G1 X127.462 Y57.296 E145.21561
G1 X126.467 Y57.317 E145.33203
G1 X134.790 Y65.640 E146.70945
G1 X133.657 Y65.523 E146.84275
G1 X125.472 Y57.338 E148.19727
G1 X124.478 Y57.359 E148.31369
G1 X132.524 Y65.405 E149.64531
G1 X131.391 Y65.288 E149.77861
G1 X123.483 Y57.379 E151.08733
