; generated by Slic3r 1.0.0RC3 on 2014-03-07 at 11:29:54

; layer_height = 0.3
; perimeters = 2
; top_solid_layers = 3
; bottom_solid_layers = 3
; fill_density = 0.1
; perimeter_speed = 60
; infill_speed = 60
; travel_speed = 120
; nozzle_diameter = 0.4
; filament_diameter = 1.75
; extrusion_multiplier = 0.98
; perimeters extrusion width = 0.40mm
; infill extrusion width = 0.42mm
; solid infill extrusion width = 0.42mm
; top infill extrusion width = 0.42mm
; first layer extrusion width = 0.60mm

G21 ; set units to millimeters
M107
M104 S220 ; set temperature
G28 ; home all axes
M106 S255;
G1 Z200 F1200 ; lift nozzle
M109 S220 ; wait for temperature to be reached
G90 ; use absolute coordinates
G92 E0
M82 ; use absolute distances for extrusion
G1 F1800.000 E-1.00000
G92 E0
G1 Z0.300 F7200.000
G1 X124.585 Y54.954 F7200.000
G1 E1.00000 F1800.000
G1 X125.435 Y53.724 E1.10181 F1080.000
G1 X126.545 Y52.714 E1.20400
G1 X127.845 Y51.984 E1.30552
G1 X129.285 Y51.564 E1.40766
G1 X130.775 Y51.494 E1.50923
G1 X140.185 Y52.074 E2.15119
G1 X140.915 Y52.154 E2.20120
G1 X150.985 Y53.914 E2.89728
G1 X151.535 Y54.034 E2.93561
G1 X162.535 Y56.954 E3.71057
G1 X163.435 Y57.264 E3.77539
G1 X174.145 Y61.844 E4.56854
G1 X174.755 Y62.124 E4.61424
G1 X175.345 Y62.434 E4.65963
G1 X175.915 Y62.814 E4.70627
G1 X185.895 Y70.194 E5.55145
G1 X186.575 Y70.774 E5.61231
G1 X187.175 Y71.434 E5.67305
G1 X195.485 Y82.114 E6.59448
G1 X196.015 Y82.924 E6.66040
G1 X196.435 Y83.804 E6.72679
G1 X202.035 Y98.474 E7.79601
G1 X202.305 Y99.394 E7.86130
G1 X204.905 Y111.084 E8.67675
G1 X205.065 Y112.494 E8.77338
G1 X204.915 Y113.904 E8.86993
G1 X204.455 Y115.254 E8.96704
G1 X203.725 Y116.464 E9.06327
G1 X202.755 Y117.504 E9.16011
G1 X201.575 Y118.294 E9.25680
G1 X145.815 Y147.864 E13.55448
G1 X145.045 Y148.214 E13.61208
G1 X134.505 Y152.734 E14.39298
G1 X133.605 Y153.044 E14.45780
G1 X122.595 Y155.964 E15.23341
G1 X122.035 Y156.084 E15.27241
G1 X111.975 Y157.834 E15.96771
G1 X111.255 Y157.914 E16.01704
G1 X101.845 Y158.494 E16.65900
G1 X100.515 Y158.444 E16.74963
G1 X99.215 Y158.124 E16.84079
G1 X98.015 Y157.544 E16.93155
G1 X96.955 Y156.734 E17.02238
G1 X96.075 Y155.724 E17.11360
G1 X95.425 Y154.554 E17.20474
G1 X95.025 Y153.284 E17.29540
G1 X94.885 Y151.954 E17.38647
G1 X94.885 Y116.694 E19.78740
G1 X94.945 Y115.834 E19.84611
G1 X95.115 Y114.984 E19.90513
G1 X97.445 Y106.354 E20.51381
G1 X97.675 Y105.654 E20.56398
G1 X97.985 Y104.984 E20.61425
G1 X124.546 Y55.028 E24.46680
G1 F1800.000 E23.46680
G92 E0
G1 X126.204 Y56.231 F7200.000
G1 E1.00000 F1800.000
G1 X128.837 Y53.756 E1.24608 F1080.000
G1 X140.166 Y54.459 E2.01898
G1 X140.395 Y54.486 E2.03470
G1 X150.839 Y56.313 E2.75662
G1 X162.080 Y59.296 E3.54855
G1 X162.367 Y59.395 E3.56922
G1 X173.080 Y63.982 E4.36273
G1 X173.959 Y64.384 E4.42860
G1 X174.333 Y64.605 E4.45813
G1 X184.710 Y72.284 E5.33718
G1 X185.117 Y72.681 E5.37590
G1 X193.800 Y83.825 E6.33784
G1 X194.106 Y84.368 E6.38027
G1 X199.866 Y99.476 E7.48129
G1 X199.953 Y99.767 E7.50194
G1 X203.024 Y113.558 E8.46399
G1 X200.515 Y116.687 E8.73708
G1 X190.776 Y116.687 E9.40025
G1 X190.574 Y116.768 E9.41506
G1 X188.313 Y118.965 E9.62969
G1 X182.365 Y118.965 E10.03474
G1 X179.944 Y116.657 E10.26250
G1 X179.618 Y109.785 E10.73096
G1 X179.618 Y99.128 E11.45660
G1 X179.561 Y98.958 E11.46881
G1 X179.501 Y98.877 E11.47567
G1 X179.472 Y93.683 E11.82933
G1 X179.475 Y89.697 E12.10077
G1 X179.460 Y89.606 E12.10699
G1 X176.686 Y81.414 E12.69597
G1 X176.583 Y81.275 E12.70772
G1 X168.296 Y75.242 E13.40570
G1 X158.572 Y71.010 E14.12784
G1 X149.257 Y69.265 E14.77312
G1 X148.855 Y69.599 E14.80872
G1 X148.855 Y103.664 E17.12830
G1 X146.408 Y106.111 E17.36398
G1 X130.986 Y106.111 E18.41405
G1 X128.539 Y103.664 E18.64974
G1 X128.539 Y97.484 E19.07055
G1 X128.454 Y97.279 E19.08564
G1 X126.204 Y95.029 E19.30233
G1 X126.204 Y56.315 E21.93847
G1 X126.761 Y56.472 F7200.000
G1 X129.043 Y54.327 E22.15174 F1080.000
G1 X140.116 Y55.014 E22.90719
G1 X150.708 Y56.855 E23.63918
G1 X161.918 Y59.829 E24.42891
G1 X162.166 Y59.915 E24.44682
G1 X172.857 Y64.493 E25.23872
G1 X173.701 Y64.879 E25.30191
G1 X174.025 Y65.070 E25.32751
G1 X184.348 Y72.710 E26.20200
G1 X184.701 Y73.054 E26.23556
G1 X193.335 Y84.134 E27.19209
G1 X193.601 Y84.605 E27.22886
G1 X199.338 Y99.656 E28.32567
G1 X199.414 Y99.908 E28.34357
G1 X202.422 Y113.418 E29.28605
G1 X200.248 Y116.130 E29.52272
G1 X190.550 Y116.130 E30.18308
G1 X190.348 Y116.211 E30.19788
G1 X188.087 Y118.408 E30.41251
G1 X182.588 Y118.408 E30.78699
G1 X180.490 Y116.407 E30.98438
G1 X180.175 Y109.778 E31.43630
G1 X180.175 Y98.944 E32.17402
G1 X180.118 Y98.773 E32.18623
G1 X180.057 Y98.691 E32.19321
G1 X180.029 Y93.681 E32.53440
G1 X180.032 Y89.605 E32.81191
G1 X180.017 Y89.515 E32.81813
G1 X177.156 Y81.068 E33.42542
G1 X177.054 Y80.929 E33.43716
G1 X168.575 Y74.756 E34.15135
G1 X158.736 Y70.474 E34.88198
G1 X148.700 Y68.594 E35.57722
G1 X148.298 Y68.928 E35.61283
G1 X148.298 Y103.433 E37.96236
G1 X146.177 Y105.554 E38.16662
G1 X131.217 Y105.554 E39.18526
G1 X129.096 Y103.433 E39.38952
G1 X129.096 Y97.253 E39.81033
G1 X129.011 Y97.048 E39.82542
G1 X126.761 Y94.798 E40.04212
G1 X126.761 Y56.556 E42.64614
G1 X127.318 Y56.713 F7200.000
G1 X129.249 Y54.898 E42.82660 F1080.000
G1 X140.066 Y55.570 E43.56459
G1 X150.577 Y57.396 E44.29098
G1 X161.755 Y60.362 E45.07850
G1 X161.966 Y60.435 E45.09366
G1 X172.635 Y65.004 E45.88394
G1 X173.443 Y65.373 E45.94445
G1 X173.717 Y65.535 E45.96611
G1 X183.986 Y73.135 E46.83605
G1 X184.285 Y73.426 E46.86444
G1 X192.870 Y84.444 E47.81557
G1 X193.095 Y84.842 E47.84668
G1 X198.810 Y99.835 E48.93929
G1 X198.874 Y100.049 E48.95443
G1 X201.820 Y113.278 E49.87733
G1 X199.980 Y115.573 E50.07759
G1 X189.976 Y115.573 E50.75884
G1 X189.651 Y115.887 E50.78962
G1 X189.645 Y116.118 E50.80534
G1 X187.861 Y117.850 E50.97463
G1 X182.811 Y117.850 E51.31853
G1 X181.035 Y116.158 E51.48555
G1 X180.732 Y109.771 E51.92093
G1 X180.732 Y98.760 E52.67073
G1 X180.676 Y98.589 E52.68294
G1 X180.614 Y98.506 E52.69004
G1 X180.586 Y93.678 E53.01875
G1 X180.589 Y89.514 E53.30234
G1 X180.574 Y89.423 E53.30856
G1 X177.627 Y80.722 E53.93414
G1 X177.525 Y80.583 E53.94589
G1 X168.906 Y74.300 E54.67215
G1 X158.900 Y69.938 E55.41540
G1 X148.143 Y67.923 E56.16062
G1 X147.741 Y68.258 E56.19622
G1 X147.741 Y103.202 E58.57571
G1 X145.946 Y104.997 E58.74855
G1 X131.448 Y104.997 E59.73576
G1 X129.653 Y103.202 E59.90860
G1 X129.653 Y96.689 E60.35214
G1 X129.327 Y96.362 E60.38357
G1 X129.113 Y96.362 E60.39814
G1 X127.318 Y94.567 E60.57097
G1 X127.318 Y56.797 E63.14287
G1 X127.875 Y56.954 F7200.000
G1 X129.455 Y55.469 E63.29052 F1080.000
G1 X140.017 Y56.125 E64.01106
G1 X150.445 Y57.938 E64.73184
G1 X161.593 Y60.896 E65.51716
G1 X161.765 Y60.955 E65.52956
G1 X172.412 Y65.514 E66.31823
G1 X173.184 Y65.868 E66.37605
G1 X173.409 Y66.000 E66.39377
G1 X183.625 Y73.560 E67.25917
G1 X183.869 Y73.798 E67.28240
G1 X192.406 Y84.754 E68.22811
G1 X192.589 Y85.079 E68.25357
G1 X198.283 Y100.015 E69.34197
G1 X198.335 Y100.189 E69.35436
G1 X201.218 Y113.138 E70.25767
G1 X199.713 Y115.015 E70.42152
G1 X189.435 Y115.015 E71.12141
G1 X189.110 Y115.330 E71.15219
G1 X189.094 Y115.876 E71.18936
G1 X187.635 Y117.293 E71.32787
G1 X183.034 Y117.293 E71.64120
G1 X181.581 Y115.909 E71.77785
G1 X181.289 Y109.765 E72.19669
G1 X181.289 Y98.576 E72.95858
G1 X181.233 Y98.405 E72.97079
G1 X181.170 Y98.320 E72.97800
G1 X181.143 Y93.676 E73.29424
G1 X181.146 Y89.422 E73.58391
G1 X181.131 Y89.332 E73.59013
G1 X178.098 Y80.375 E74.23401
G1 X177.996 Y80.236 E74.24575
G1 X169.185 Y73.814 E74.98823
G1 X159.065 Y69.402 E75.73996
G1 X147.586 Y67.253 E76.53515
G1 X147.184 Y67.587 E76.57075
G1 X147.184 Y102.972 E78.98019
G1 X145.715 Y104.440 E79.12160
G1 X131.679 Y104.440 E80.07740
G1 X130.210 Y102.972 E80.21881
G1 X130.210 Y96.132 E80.68457
G1 X129.884 Y95.805 E80.71600
G1 X129.344 Y95.805 E80.75279
G1 X127.875 Y94.337 E80.89420
G1 X127.875 Y57.038 E83.43398
G1 X128.432 Y57.195 F7200.000
G1 X129.661 Y56.040 E83.54882 F1080.000
G1 X140.074 Y56.692 E84.25923
G1 X150.314 Y58.479 E84.96707
G1 X161.430 Y61.429 E85.75019
G1 X172.190 Y66.025 E86.54686
G1 X172.926 Y66.362 E86.60201
G1 X173.100 Y66.465 E86.61579
G1 X183.263 Y73.985 E87.47663
G1 X183.453 Y74.171 E87.49470
G1 X191.941 Y85.063 E88.43500
G1 X192.083 Y85.317 E88.45480
G1 X197.755 Y100.195 E89.53900
G1 X200.616 Y112.998 E90.43234
G1 X199.446 Y114.458 E90.55978
G1 X188.893 Y114.458 E91.27831
G1 X188.569 Y114.773 E91.30909
G1 X188.544 Y115.634 E91.36772
G1 X187.409 Y116.736 E91.47545
G1 X183.257 Y116.736 E91.75820
G1 X182.127 Y115.659 E91.86448
G1 X181.846 Y109.758 E92.26678
G1 X181.846 Y98.391 E93.04074
G1 X181.790 Y98.221 E93.05295
G1 X181.726 Y98.135 E93.06029
G1 X181.700 Y93.667 E93.36448
G1 X181.703 Y89.330 E93.65980
G1 X181.689 Y89.240 E93.66602
G1 X178.569 Y80.029 E94.32820
G1 X178.467 Y79.890 E94.33994
G1 X169.463 Y73.327 E95.09863
G1 X159.229 Y68.866 E95.85884
G1 X147.029 Y66.582 E96.70400
G1 X146.627 Y66.916 E96.73961
G1 X146.627 Y102.741 E99.17900
G1 X145.485 Y103.883 E99.28899
G1 X131.909 Y103.883 E100.21336
G1 X130.767 Y102.741 E100.32334
G1 X130.767 Y95.574 E100.81133
G1 X130.441 Y95.248 E100.84275
G1 X129.574 Y95.248 E100.90176
G1 X128.432 Y94.106 E101.01175
G1 X128.432 Y57.279 E103.51941
G1 X128.989 Y57.436 F7200.000
G1 X129.867 Y56.611 E103.60144 F1080.000
G1 X139.993 Y57.244 E104.29231
G1 X150.183 Y59.021 E104.99663
G1 X161.268 Y61.962 E105.77755
G1 X171.967 Y66.536 E106.56985
G1 X172.668 Y66.856 E106.62232
G1 X172.792 Y66.930 E106.63216
G1 X182.901 Y74.411 E107.48845
G1 X183.036 Y74.543 E107.50136
G1 X191.476 Y85.373 E108.43625
G1 X191.578 Y85.554 E108.45040
G1 X197.227 Y100.374 E109.53039
G1 X200.015 Y112.858 E110.40140
G1 X199.178 Y113.901 E110.49242
G1 X188.352 Y113.901 E111.22959
G1 X188.028 Y114.216 E111.26037
G1 X187.994 Y115.392 E111.34046
G1 X187.183 Y116.179 E111.41741
G1 X183.480 Y116.179 E111.66958
G1 X182.673 Y115.410 E111.74550
G1 X182.404 Y109.785 E112.12899
G1 X182.403 Y98.207 E112.91730
G1 X182.347 Y98.037 E112.92951
G1 X182.282 Y97.949 E112.93696
G1 X182.257 Y93.667 E113.22856
G1 X182.261 Y89.239 E113.53008
G1 X182.246 Y89.149 E113.53630
G1 X179.040 Y79.683 E114.21678
G1 X178.938 Y79.544 E114.22852
G1 X169.742 Y72.841 E115.00342
G1 X159.393 Y68.330 E115.77211
G1 X146.472 Y65.911 E116.66724
G1 X146.070 Y66.246 E116.70285
G1 X146.070 Y102.510 E119.17220
G1 X145.254 Y103.326 E119.25076
G1 X132.140 Y103.326 E120.14371
G1 X131.324 Y102.510 E120.22227
G1 X131.324 Y95.017 E120.73247
G1 X130.998 Y94.691 E120.76390
G1 X129.805 Y94.691 E120.84513
G1 X128.989 Y93.875 E120.92369
G1 X128.989 Y57.520 E123.39924
G1 X129.546 Y57.677 F7200.000
G1 X130.073 Y57.182 E123.44845 F1080.000
G1 X139.913 Y57.795 E124.11977
G1 X150.052 Y59.562 E124.82057
G1 X161.106 Y62.495 E125.59929
G1 X171.745 Y67.046 E126.38723
G1 X172.409 Y67.351 E126.43701
G1 X182.539 Y74.836 E127.29463
G1 X182.620 Y74.915 E127.30238
G1 X191.011 Y85.682 E128.23186
G1 X191.072 Y85.791 E128.24035
G1 X196.699 Y100.554 E129.31613
G1 X199.413 Y112.718 E130.16481
G1 X198.911 Y113.344 E130.21943
G1 X187.811 Y113.344 E130.97524
G1 X187.487 Y113.659 E131.00602
G1 X187.444 Y115.150 E131.10756
G1 X186.957 Y115.622 E131.15373
G1 X183.703 Y115.622 E131.37533
G1 X183.219 Y115.161 E131.42088
G1 X182.961 Y109.765 E131.78873
G1 X182.960 Y98.023 E132.58822
G1 X182.904 Y97.853 E132.60043
G1 X182.838 Y97.764 E132.60800
G1 X182.814 Y93.667 E132.88699
G1 X182.818 Y89.147 E133.19472
G1 X182.803 Y89.057 E133.20094
G1 X179.511 Y79.337 E133.89971
G1 X179.409 Y79.198 E133.91146
G1 X170.021 Y72.355 E134.70257
G1 X159.558 Y67.794 E135.47974
G1 X145.915 Y65.241 E136.42485
G1 X145.513 Y65.575 E136.46045
G1 X145.513 Y102.279 E138.95976
G1 X145.023 Y102.769 E139.00689
G1 X132.371 Y102.769 E139.86841
G1 X131.881 Y102.279 E139.91555
G1 X131.881 Y94.460 E140.44798
G1 X131.555 Y94.134 E140.47940
G1 X130.036 Y94.134 E140.58285
G1 X129.546 Y93.644 E140.62999
G1 X129.546 Y57.760 E143.07342
G1 X130.103 Y57.918 F7200.000
G1 X130.279 Y57.753 E143.08982 F1080.000
G1 X139.832 Y58.347 E143.74160
G1 X149.921 Y60.104 E144.43888
G1 X160.943 Y63.029 E145.21539
G1 X171.522 Y67.557 E145.99897
G1 X172.151 Y67.845 E146.04607
G1 X182.177 Y75.261 E146.89522
G1 X190.566 Y86.028 E147.82465
G1 X196.172 Y100.733 E148.89623
G1 X198.811 Y112.579 E149.72258
G1 X198.644 Y112.787 E149.74079
G1 X187.270 Y112.787 E150.51523
G1 X186.946 Y113.102 E150.54602
G1 X186.893 Y114.908 E150.66901
G1 X186.731 Y115.065 E150.68440
G1 X183.926 Y115.065 E150.87543
G1 X183.764 Y114.911 E150.89061
G1 X183.517 Y109.738 E151.24327
G1 X183.517 Y97.839 E152.05349
G1 X183.461 Y97.669 E152.06570
G1 X183.394 Y97.578 E152.07339
G1 X183.371 Y93.666 E152.33979
G1 X183.375 Y89.327 E152.63524
G1 X183.399 Y89.246 E152.64100
G1 X183.396 Y89.072 E152.65284
G1 X179.982 Y78.991 E153.37757
G1 X179.880 Y78.852 E153.38932
G1 X170.299 Y71.868 E154.19664
G1 X159.722 Y67.258 E154.98230
G1 X145.358 Y64.570 E155.97737
G1 X144.956 Y64.904 E156.01298
G1 X144.956 Y102.049 E158.54224
G1 X144.792 Y102.212 E158.55795
G1 X132.602 Y102.212 E159.38804
G1 X132.438 Y102.049 E159.40376
G1 X132.438 Y93.903 E159.95840
G1 X132.112 Y93.577 E159.98983
G1 X130.267 Y93.577 E160.11550
G1 X130.103 Y93.414 E160.13121
G1 X130.103 Y58.001 E162.54252
G1 F1800.000 E161.54252
G92 E0
G1 X153.428 Y91.035 F7200.000
G1 E1.00000 F1800.000
G1 X159.377 Y91.035 E1.40506 F1080.000
G1 X161.638 Y93.232 E1.61969
G1 X161.839 Y93.313 E1.63449
G1 X171.578 Y93.313 E2.29767
G1 X174.087 Y96.442 E2.57076
G1 X171.016 Y110.233 E3.53281
G1 X170.929 Y110.524 E3.55346
G1 X165.169 Y125.632 E4.65448
G1 X164.864 Y126.175 E4.69691
G1 X156.180 Y137.319 E5.65885
G1 X155.773 Y137.716 E5.69757
G1 X145.396 Y145.395 E6.57661
G1 X145.023 Y145.616 E6.60615
G1 X144.143 Y146.018 E6.67202
G1 X133.430 Y150.605 E7.46553
G1 X133.143 Y150.704 E7.48620
G1 X121.902 Y153.687 E8.27813
G1 X111.458 Y155.513 E9.00006
G1 X99.901 Y156.244 E9.78864
G1 X97.267 Y153.769 E10.03472
G1 X97.267 Y114.971 E12.67655
G1 X99.517 Y112.721 E12.89324
G1 X99.602 Y112.516 E12.90833
G1 X99.602 Y106.336 E13.32914
G1 X102.050 Y103.889 E13.56483
G1 X117.471 Y103.889 E14.61489
G1 X119.918 Y106.336 E14.85058
G1 X119.918 Y140.401 E17.17015
G1 X120.321 Y140.735 E17.20576
G1 X129.575 Y139.008 E17.84677
G1 X139.412 Y134.727 E18.57731
G1 X147.647 Y128.725 E19.27115
G1 X147.749 Y128.586 E19.28290
G1 X150.523 Y120.394 E19.87189
G1 X150.538 Y120.303 E19.87811
G1 X150.535 Y116.317 E20.14954
G1 X150.565 Y111.123 E20.50321
G1 X150.625 Y111.042 E20.51006
G1 X150.681 Y110.872 E20.52227
G1 X150.681 Y100.215 E21.24791
G1 X151.007 Y93.343 E21.71637
G1 X153.368 Y91.093 E21.93845
G1 X153.651 Y91.592 F7200.000
G1 X159.151 Y91.592 E22.31293 F1080.000
G1 X161.412 Y93.789 E22.52756
G1 X161.613 Y93.870 E22.54237
G1 X171.311 Y93.870 E23.20273
G1 X173.485 Y96.582 E23.43940
G1 X170.477 Y110.092 E24.38188
G1 X170.401 Y110.344 E24.39977
G1 X164.664 Y125.395 E25.49658
G1 X164.399 Y125.866 E25.53336
G1 X155.764 Y136.946 E26.48989
G1 X155.411 Y137.290 E26.52344
G1 X145.088 Y144.930 E27.39794
G1 X144.764 Y145.121 E27.42353
G1 X143.920 Y145.507 E27.48673
G1 X133.230 Y150.085 E28.27862
G1 X132.981 Y150.171 E28.29653
G1 X121.771 Y153.145 E29.08626
G1 X111.378 Y154.962 E29.80467
G1 X100.106 Y155.673 E30.57370
G1 X97.824 Y153.528 E30.78698
G1 X97.824 Y115.202 E33.39668
G1 X100.074 Y112.952 E33.61338
G1 X100.159 Y112.747 E33.62847
G1 X100.159 Y106.567 E34.04928
G1 X102.280 Y104.446 E34.25354
G1 X117.240 Y104.446 E35.27218
G1 X119.361 Y106.567 E35.47644
G1 X119.361 Y141.072 E37.82597
G1 X119.763 Y141.406 E37.86158
G1 X129.739 Y139.544 E38.55255
G1 X139.691 Y135.214 E39.29159
G1 X148.118 Y129.071 E40.00164
G1 X148.220 Y128.932 E40.01338
G1 X151.080 Y120.485 E40.62067
G1 X151.095 Y120.395 E40.62689
G1 X151.092 Y116.319 E40.90440
G1 X151.121 Y111.309 E41.24559
G1 X151.182 Y111.227 E41.25256
G1 X151.238 Y111.056 E41.26477
G1 X151.238 Y100.222 E42.00250
G1 X151.553 Y93.593 E42.45442
G1 X153.590 Y91.650 E42.64612
G1 X153.874 Y92.150 F7200.000
G1 X158.925 Y92.150 E42.99003 F1080.000
G1 X160.708 Y93.882 E43.15932
