; generated by Slic3r 1.0.0RC2 on 2014-05-19 at 16:30:05

; layer_height = 0.3
; perimeters = 2
; top_solid_layers = 3
; bottom_solid_layers = 3
; fill_density = 0.1
; perimeter_speed = 60
; infill_speed = 60
; travel_speed = 120
; nozzle_diameter = 0.4
; filament_diameter = 1.75
; extrusion_multiplier = 0.98
; perimeters extrusion width = 0.40mm
; infill extrusion width = 0.42mm
; solid infill extrusion width = 0.42mm
; top infill extrusion width = 0.42mm
; first layer extrusion width = 0.80mm

G21 ; set units to millimeters
M107
M104 S220 ; set temperature
G28 ; home all axes
M106 S255;
G1 Z200 F1200 ; lift nozzle
M109 S220 ; wait for temperature to be reached
G90 ; use absolute coordinates
G92 E0
M82 ; use absolute distances for extrusion
G1 F1800.000 E-1.00000
G92 E0
G1 Z0.400 F7200.000
G1 X105.563 Y88.429 F7200.000
G1 E1.00000 F1800.000
G1 X130.403 Y57.799 E5.58999 F1080.000
G1 X131.463 Y56.759 E5.76282
G1 X132.723 Y55.969 E5.93592
G1 X134.133 Y55.479 E6.10965
G1 X135.613 Y55.319 E6.28291
G1 X164.373 Y55.319 E9.63029
G1 X165.853 Y55.479 E9.80355
G1 X167.263 Y55.969 E9.97729
G1 X168.523 Y56.749 E10.14976
G1 X169.583 Y57.799 E10.32342
G1 X194.433 Y88.429 E14.91414
G1 X195.183 Y89.569 E15.07296
G1 X195.683 Y90.839 E15.23182
G1 X195.923 Y92.189 E15.39141
G1 X195.873 Y93.559 E15.55097
G1 X195.553 Y94.889 E15.71019
G1 X194.973 Y96.119 E15.86846
G1 X173.323 Y132.089 E20.75485
G1 X172.553 Y133.139 E20.90640
G1 X171.583 Y134.009 E21.05805
G1 X170.473 Y134.689 E21.20956
G1 X168.343 Y135.709 E21.48443
G1 X166.933 Y136.199 E21.65817
G1 X165.443 Y136.359 E21.83258
G1 X134.543 Y136.359 E25.42903
G1 X133.053 Y136.199 E25.60345
G1 X131.643 Y135.709 E25.77719
G1 X129.513 Y134.689 E26.05206
G1 X128.403 Y134.009 E26.20356
G1 X127.433 Y133.139 E26.35522
G1 X126.663 Y132.089 E26.50677
G1 X105.023 Y96.119 E31.39255
G1 X104.443 Y94.879 E31.55188
G1 X104.123 Y93.559 E31.70997
G1 X104.073 Y92.189 E31.86953
G1 X104.313 Y90.849 E32.02797
G1 X104.813 Y89.569 E32.18791
G1 X105.504 Y88.519 E32.33427
G1 F1800.000 E31.33427
G92 E0
G1 X180.012 Y88.278 F7200.000
G1 E1.00000 F1800.000
G1 X183.544 Y85.949 E1.49243 F1080.000
G1 X192.737 Y89.894 E2.65675
G1 X193.457 Y94.105 E3.15400
G1 X192.046 Y95.411 E3.37786
G1 X184.973 Y104.665 E4.73348
G1 X179.041 Y101.375 E5.52304
G1 X179.989 Y98.858 E5.83609
G1 X180.012 Y98.731 E5.85110
G1 X180.012 Y88.385 E7.05529
G1 X180.726 Y88.662 F7200.000
G1 X183.616 Y86.757 E7.45818 F1080.000
G1 X192.099 Y90.397 E8.53254
G1 X192.688 Y93.842 E8.93938
G1 X191.516 Y94.928 E9.12529
G1 X184.780 Y103.741 E10.41640
G1 X179.926 Y101.049 E11.06241
G1 X180.703 Y98.988 E11.31881
G1 X180.726 Y98.861 E11.33382
G1 X180.726 Y88.769 E12.50838
G1 X181.440 Y89.047 F7200.000
G1 X183.688 Y87.565 E12.82174 F1080.000
G1 X191.460 Y90.900 E13.80612
G1 X191.919 Y93.580 E14.12255
G1 X190.987 Y94.445 E14.27053
G1 X184.587 Y102.818 E15.49712
G1 X180.812 Y100.724 E15.99957
G1 X181.417 Y99.118 E16.19932
G1 X181.440 Y98.991 E16.21434
G1 X181.440 Y89.154 E17.35927
G1 X182.154 Y89.431 F7200.000
G1 X183.760 Y88.373 E17.58310 F1080.000
G1 X190.822 Y91.403 E18.47751
G1 X191.149 Y93.317 E18.70353
G1 X190.457 Y93.961 E18.81356
G1 X184.394 Y101.894 E19.97564
G1 X181.698 Y100.399 E20.33454
G1 X182.131 Y99.248 E20.47764
G1 X182.154 Y99.121 E20.49265
G1 X182.154 Y89.539 E21.60795
G1 X182.868 Y89.816 F7200.000
G1 X183.832 Y89.181 E21.74225 F1080.000
G1 X190.183 Y91.906 E22.54669
G1 X190.380 Y93.055 E22.68231
G1 X189.928 Y93.478 E22.75440
G1 X184.201 Y100.971 E23.85196
G1 X182.583 Y100.073 E24.06730
G1 X182.845 Y99.378 E24.15376
G1 X182.868 Y99.251 E24.16877
G1 X182.868 Y89.923 E25.25444
G1 X183.583 Y90.201 F7200.000
G1 X183.904 Y89.989 E25.29921 F1080.000
G1 X189.545 Y92.409 E26.01368
G1 X189.610 Y92.792 E26.05888
G1 X189.398 Y92.995 E26.09304
G1 X184.008 Y100.047 E27.12608
G1 X183.469 Y99.748 E27.19786
G1 X183.559 Y99.508 E27.22768
G1 X183.583 Y99.381 E27.24269
G1 X183.583 Y90.308 E28.29873
G1 F1800.000 E27.29873
G92 E0
G1 X120.960 Y101.374 F7200.000
G1 E1.00000 F1800.000
G1 X115.027 Y104.665 E1.78962 F1080.000
G1 X107.955 Y95.412 E3.14510
G1 X106.543 Y94.107 E3.36898
G1 X107.262 Y89.893 E3.86655
G1 X114.357 Y86.852 E4.76491
G1 X116.249 Y85.897 E5.01158
G1 X119.988 Y88.198 E5.52259
G1 X119.988 Y98.731 E6.74851
G1 X120.011 Y98.858 E6.76353
G1 X120.922 Y101.274 E7.06409
G1 X120.074 Y101.049 F7200.000
G1 X115.220 Y103.742 E7.71014 F1080.000
G1 X108.485 Y94.929 E9.00113
G1 X107.312 Y93.844 E9.18707
G1 X107.901 Y90.396 E9.59417
G1 X114.659 Y87.500 E10.44992
G1 X116.215 Y86.715 E10.65274
G1 X119.274 Y88.597 E11.07085
G1 X119.274 Y98.861 E12.26545
G1 X119.297 Y98.988 E12.28047
G1 X120.036 Y100.949 E12.52439
G1 X119.188 Y100.724 F7200.000
G1 X115.413 Y102.818 E13.02687 F1080.000
G1 X109.014 Y94.445 E14.25337
G1 X108.081 Y93.581 E14.40137
G1 X108.539 Y90.899 E14.71800
G1 X114.961 Y88.147 E15.53113
G1 X116.180 Y87.532 E15.69011
G1 X118.560 Y88.996 E16.01530
G1 X118.560 Y98.991 E17.17859
G1 X118.583 Y99.118 E17.19361
G1 X119.150 Y100.623 E17.38089
G1 X118.302 Y100.398 F7200.000
G1 X115.606 Y101.894 E17.73980 F1080.000
G1 X109.543 Y93.962 E18.90181
G1 X108.851 Y93.318 E19.01187
G1 X109.178 Y91.403 E19.23803
G1 X115.263 Y88.795 E20.00854
G1 X116.146 Y88.349 E20.12368
G1 X117.846 Y89.395 E20.35596
G1 X117.846 Y99.121 E21.48794
G1 X117.869 Y99.248 E21.50295
G1 X118.265 Y100.298 E21.63359
G1 X117.417 Y100.073 F7200.000
G1 X115.799 Y100.971 E21.84894 F1080.000
G1 X110.073 Y93.479 E22.94645
G1 X109.620 Y93.055 E23.01857
G1 X109.816 Y91.906 E23.15427
G1 X115.565 Y89.442 E23.88216
G1 X116.112 Y89.167 E23.95346
G1 X117.132 Y89.794 E24.09283
G1 X117.132 Y99.251 E25.19348
G1 X117.155 Y99.378 E25.20850
G1 X117.379 Y99.973 E25.28249
G1 X116.531 Y99.748 F7200.000
G1 X115.992 Y100.047 E25.35428 F1080.000
G1 X110.602 Y92.995 E26.38730
G1 X110.390 Y92.792 E26.42148
G1 X110.455 Y92.409 E26.46671
G1 X115.867 Y90.090 E27.15198
G1 X116.078 Y89.984 E27.17944
G1 X116.418 Y90.193 E27.22590
G1 X116.418 Y99.381 E28.29524
G1 X116.493 Y99.647 E28.32747
G1 F1800.000 E27.32747
G92 E0
G1 X129.707 Y100.976 F7200.000
G1 E1.00000 F1800.000
G1 X129.733 Y100.748 E1.02670 F1080.000
G1 X129.850 Y94.783 E1.72112
G1 X129.916 Y87.146 E2.61002
G1 X129.950 Y86.775 E2.65339
G1 X130.198 Y78.494 E3.61763
G1 X129.966 Y69.969 E4.61025
G1 X129.906 Y69.460 E4.66981
G1 X130.030 Y68.491 E4.78351
G1 X130.177 Y68.107 E4.83137
G1 X132.536 Y57.922 E6.04826
G1 X139.153 Y58.309 E6.81974
G1 X141.250 Y77.200 E9.03193
G1 X141.288 Y77.820 E9.10430
G1 X141.133 Y86.463 E10.11039
G1 X141.142 Y86.792 E10.14864
G1 X140.857 Y94.619 E11.06028
G1 X140.771 Y101.207 E11.82707
G1 X140.804 Y111.375 E13.01056
G1 X140.536 Y115.139 E13.44974
G1 X140.459 Y122.154 E14.26631
G1 X140.411 Y122.530 E14.31039
G1 X140.221 Y125.713 E14.68148
G1 X140.175 Y126.034 E14.71925
G1 X139.550 Y128.764 E15.04526
G1 X139.320 Y129.338 E15.11719
G1 X137.138 Y132.986 E15.61198
G1 X134.203 Y133.858 E15.96827
G1 X131.277 Y132.428 E16.34729
G1 X130.102 Y132.191 E16.48678
G1 X128.273 Y129.548 E16.86085
G1 X128.908 Y125.882 E17.29385
G1 X129.404 Y123.801 E17.54290
G1 X129.681 Y120.966 E17.87438
G1 X129.772 Y118.735 E18.13434
G1 X129.703 Y114.476 E18.63008
G1 X129.703 Y110.923 E19.04362
G1 X129.620 Y105.869 E19.63194
G1 X129.705 Y101.083 E20.18906
G1 X130.420 Y101.026 F7200.000
G1 X130.447 Y100.799 E20.21570 F1080.000
G1 X130.564 Y94.793 E20.91488
G1 X130.629 Y87.180 E21.80101
G1 X130.662 Y86.843 E21.84031
G1 X130.913 Y78.515 E22.81009
G1 X130.679 Y69.916 E23.81131
G1 X130.626 Y69.463 E23.86439
G1 X130.727 Y68.670 E23.95742
G1 X130.861 Y68.320 E24.00108
G1 X133.096 Y58.670 E25.15397
G1 X138.510 Y58.987 E25.78518
G1 X140.539 Y77.269 E27.92609
G1 X140.574 Y77.847 E27.99348
G1 X140.419 Y86.475 E28.99791
G1 X140.428 Y86.782 E29.03358
G1 X140.143 Y94.601 E29.94434
G1 X140.057 Y101.203 E30.71278
G1 X140.090 Y111.364 E31.89537
G1 X139.822 Y115.109 E32.33238
G1 X139.745 Y122.105 E33.14667
G1 X139.700 Y122.463 E33.18871
G1 X139.510 Y125.640 E33.55919
G1 X139.472 Y125.903 E33.59009
G1 X138.866 Y128.550 E33.90612
G1 X138.678 Y129.019 E33.96498
G1 X136.668 Y132.381 E34.42084
G1 X134.267 Y133.094 E34.71235
G1 X131.505 Y131.744 E35.07009
G1 X130.523 Y131.544 E35.18669
G1 X129.027 Y129.382 E35.49275
G1 X129.609 Y126.016 E35.89035
G1 X130.110 Y123.920 E36.14109
G1 X130.394 Y121.016 E36.48077
G1 X130.486 Y118.743 E36.74547
G1 X130.417 Y114.467 E37.24324
G1 X130.417 Y110.917 E37.65644
G1 X130.334 Y105.863 E38.24473
G1 X130.418 Y101.133 E38.79533
G1 X131.134 Y101.077 F7200.000
G1 X131.160 Y100.850 E38.82190 F1080.000
G1 X131.278 Y94.803 E39.52586
G1 X131.343 Y87.213 E40.40923
G1 X131.375 Y86.912 E40.44446
G1 X131.628 Y78.536 E41.41977
G1 X131.392 Y69.863 E42.42959
G1 X131.345 Y69.466 E42.47619
G1 X131.424 Y68.849 E42.54855
G1 X131.545 Y68.532 E42.58800
G1 X133.656 Y59.418 E43.67690
G1 X137.866 Y59.665 E44.16784
G1 X139.829 Y77.338 E46.23746
G1 X139.860 Y77.873 E46.29987
G1 X139.704 Y86.487 E47.30265
G1 X139.713 Y86.771 E47.33573
G1 X139.429 Y94.584 E48.24562
G1 X139.343 Y101.200 E49.01570
G1 X139.375 Y111.352 E50.19739
G1 X139.108 Y115.079 E50.63224
G1 X139.031 Y122.055 E51.44424
G1 X138.988 Y122.396 E51.48426
G1 X138.799 Y125.568 E51.85411
G1 X138.769 Y125.773 E51.87815
G1 X138.183 Y128.336 E52.18421
G1 X138.036 Y128.701 E52.22999
G1 X136.198 Y131.775 E52.64691
G1 X134.330 Y132.330 E52.87364
G1 X131.733 Y131.061 E53.21011
G1 X130.944 Y130.897 E53.30381
G1 X129.780 Y129.216 E53.54186
G1 X130.311 Y126.149 E53.90407
G1 X130.816 Y124.040 E54.15650
G1 X131.107 Y121.065 E54.50438
G1 X131.200 Y118.752 E54.77382
G1 X131.131 Y114.459 E55.27361
G1 X131.131 Y110.911 E55.68649
G1 X131.049 Y105.858 E56.27474
G1 X131.132 Y101.184 E56.81882
G1 X131.847 Y101.127 F7200.000
G1 X131.873 Y100.901 E56.84533 F1080.000
G1 X131.992 Y94.813 E57.55406
G1 X132.057 Y87.247 E58.43466
G1 X132.087 Y86.981 E58.46582
G1 X132.344 Y78.584 E59.44362
G1 X132.105 Y69.811 E60.46509
G1 X132.065 Y69.468 E60.50522
G1 X132.121 Y69.028 E60.55690
G1 X132.229 Y68.745 E60.59215
G1 X134.215 Y60.166 E61.61705
G1 X137.223 Y60.342 E61.96772
G1 X139.118 Y77.407 E63.96606
G1 X139.147 Y77.965 E64.03116
G1 X138.990 Y86.499 E65.02461
G1 X138.999 Y86.761 E65.05511
G1 X138.715 Y94.566 E65.96412
G1 X138.628 Y101.196 E66.73585
G1 X138.661 Y111.341 E67.91664
G1 X138.394 Y115.049 E68.34932
G1 X138.318 Y122.006 E69.15904
G1 X138.280 Y122.283 E69.19165
G1 X138.067 Y125.642 E69.58339
G1 X137.499 Y128.122 E69.87948
G1 X137.394 Y128.383 E69.91218
G1 X135.727 Y131.170 E70.29017
G1 X134.394 Y131.566 E70.45212
G1 X131.960 Y130.377 E70.76731
G1 X131.365 Y130.251 E70.83812
G1 X130.534 Y129.049 E71.00816
G1 X131.013 Y126.283 E71.33498
G1 X131.522 Y124.159 E71.58909
G1 X131.820 Y121.115 E71.94517
G1 X131.915 Y118.761 E72.21935
G1 X131.845 Y114.450 E72.72117
G1 X131.845 Y110.905 E73.13371
G1 X131.763 Y105.852 E73.72193
G1 X131.845 Y101.234 E74.25950
G1 X132.560 Y101.178 F7200.000
G1 X132.586 Y100.981 E74.28253 F1080.000
G1 X132.706 Y94.823 E74.99945
G1 X132.771 Y87.281 E75.87729
G1 X132.799 Y87.050 E75.90439
G1 X133.038 Y78.830 E76.86146
G1 X133.059 Y78.626 E76.88537
G1 X132.818 Y69.758 E77.91786
G1 X132.785 Y69.471 E77.95150
G1 X132.818 Y69.207 E77.98251
G1 X132.913 Y68.957 E78.01357
G1 X134.775 Y60.914 E78.97446
G1 X136.580 Y61.020 E79.18487
G1 X138.407 Y77.476 E81.11192
G1 X138.432 Y77.926 E81.16438
G1 X138.275 Y86.511 E82.16384
G1 X138.285 Y86.751 E82.19176
G1 X138.001 Y94.548 E83.09989
G1 X137.914 Y101.193 E83.87327
G1 X137.947 Y111.330 E85.05316
G1 X137.681 Y115.019 E85.48367
G1 X137.604 Y121.956 E86.29111
G1 X137.571 Y122.175 E86.31684
G1 X137.364 Y125.512 E86.70598
G1 X136.816 Y127.908 E86.99209
G1 X136.753 Y128.064 E87.01171
G1 X135.257 Y130.565 E87.35078
G1 X134.457 Y130.802 E87.44794
G1 X132.188 Y129.694 E87.74185
G1 X131.786 Y129.604 E87.78978
G1 X131.287 Y128.883 E87.89180
G1 X131.714 Y126.416 E88.18324
G1 X132.227 Y124.279 E88.43903
G1 X132.532 Y121.164 E88.80332
G1 X132.629 Y118.770 E89.08223
G1 X132.559 Y114.441 E89.58607
G1 X132.559 Y110.900 E89.99829
G1 X132.477 Y105.847 E90.58647
G1 X132.558 Y101.285 E91.11753
G1 X133.274 Y101.228 F7200.000
G1 X133.298 Y101.070 E91.13611 F1080.000
G1 X133.420 Y94.833 E91.86222
G1 X133.485 Y87.315 E92.73729
G1 X133.512 Y87.119 E92.76033
G1 X133.752 Y78.872 E93.72059
G1 X133.775 Y78.668 E93.74446
G1 X133.531 Y69.706 E94.78796
G1 X133.504 Y69.474 E94.81512
G1 X133.516 Y69.386 E94.82546
G1 X133.596 Y69.170 E94.85231
G1 X135.335 Y61.662 E95.74921
G1 X135.937 Y61.698 E95.81934
G1 X137.696 Y77.545 E97.67512
G1 X137.719 Y77.952 E97.72260
G1 X137.561 Y86.524 E98.72040
G1 X137.571 Y86.741 E98.74573
G1 X137.287 Y94.531 E99.65299
G1 X137.200 Y101.189 E100.42801
G1 X137.233 Y111.319 E101.60700
G1 X136.967 Y114.989 E102.03535
G1 X136.890 Y121.907 E102.84050
G1 X136.862 Y122.066 E102.85937
G1 X136.661 Y125.381 E103.24591
G1 X136.111 Y127.746 E103.52851
G1 X134.787 Y129.959 E103.82864
G1 X134.521 Y130.038 E103.86103
G1 X132.416 Y129.010 E104.13366
G1 X132.207 Y128.957 E104.15872
G1 X132.041 Y128.717 E104.19272
G1 X132.416 Y126.549 E104.44877
G1 X132.933 Y124.399 E104.70625
G1 X133.245 Y121.213 E105.07874
G1 X133.344 Y118.778 E105.36238
G1 X133.273 Y114.433 E105.86826
G1 X133.273 Y110.894 E106.28014
G1 X133.191 Y105.841 E106.86829
G1 X133.272 Y101.335 E107.39283
G1 F1800.000 E106.39283
G92 E0
G1 X131.611 Y102.334 F7200.000
G1 X134.685 Y99.566 F7200.000
G1 X135.886 Y97.902 F7200.000
G1 X138.902 Y96.671 F7200.000
G1 X159.229 Y101.201 F7200.000
G1 E1.00000 F1800.000
G1 X159.137 Y94.619 E1.76616 F1080.000
G1 X158.858 Y86.789 E2.67810
G1 X158.866 Y86.463 E2.71604
G1 X158.706 Y77.823 E3.72179
G1 X158.743 Y77.200 E3.79441
G1 X160.841 Y58.310 E6.00653
G1 X167.455 Y57.920 E6.77771
G1 X169.822 Y68.104 E7.99457
G1 X169.969 Y68.489 E8.04251
G1 X170.094 Y69.459 E8.15642
G1 X170.034 Y69.970 E8.21622
G1 X169.796 Y78.496 E9.20893
G1 X170.050 Y86.772 E10.17265
G1 X170.085 Y87.150 E10.21682
G1 X170.138 Y94.782 E11.10515
G1 X170.380 Y105.790 E12.38669
G1 X170.297 Y110.926 E12.98460
G1 X170.291 Y114.474 E13.39746
G1 X170.228 Y118.752 E13.89548
G1 X170.320 Y120.987 E14.15579
G1 X170.596 Y123.801 E14.48489
G1 X171.093 Y125.882 E14.73397
G1 X171.726 Y129.548 E15.16692
G1 X169.898 Y132.190 E15.54090
G1 X168.723 Y132.428 E15.68039
G1 X165.797 Y133.858 E16.05949
G1 X162.862 Y132.986 E16.41578
G1 X160.680 Y129.338 E16.91056
G1 X160.450 Y128.764 E16.98250
G1 X159.825 Y126.034 E17.30851
G1 X159.779 Y125.713 E17.34628
G1 X159.589 Y122.530 E17.71737
G1 X159.541 Y122.154 E17.76144
G1 X159.464 Y115.142 E18.57761
G1 X159.190 Y111.375 E19.01727
G1 X159.229 Y101.308 E20.18891
G1 X159.943 Y101.204 F7200.000
G1 X159.851 Y94.601 E20.95745 F1080.000
G1 X159.572 Y86.779 E21.86846
G1 X159.581 Y86.475 E21.90388
G1 X159.420 Y77.849 E22.90803
G1 X159.454 Y77.269 E22.97562
G1 X161.484 Y58.988 E25.11647
G1 X166.896 Y58.669 E25.74744
G1 X169.138 Y68.317 E26.90033
G1 X169.272 Y68.668 E26.94405
G1 X169.374 Y69.462 E27.03725
G1 X169.321 Y69.917 E27.09053
G1 X169.081 Y78.517 E28.09185
G1 X169.338 Y86.841 E29.06118
G1 X169.371 Y87.183 E29.10113
G1 X169.424 Y94.792 E29.98682
G1 X169.665 Y105.799 E31.26818
G1 X169.583 Y110.920 E31.86432
G1 X169.577 Y114.465 E32.27696
G1 X169.514 Y118.761 E32.77702
G1 X169.607 Y121.036 E33.04201
G1 X169.890 Y123.920 E33.37932
G1 X170.391 Y126.016 E33.63007
G1 X170.973 Y129.382 E34.02764
G1 X169.477 Y131.544 E34.33362
G1 X168.496 Y131.744 E34.45022
G1 X165.733 Y133.094 E34.80803
G1 X163.332 Y132.381 E35.09954
G1 X161.322 Y129.019 E35.55539
G1 X161.134 Y128.550 E35.61425
G1 X160.528 Y125.903 E35.93028
G1 X160.490 Y125.640 E35.96119
G1 X160.300 Y122.463 E36.33167
G1 X160.255 Y122.105 E36.37370
G1 X160.177 Y115.089 E37.19029
G1 X159.904 Y111.364 E37.62508
G1 X159.943 Y101.311 E38.79509
G1 X160.658 Y101.200 F7200.000
G1 X160.565 Y94.584 E39.56527 F1080.000
G1 X160.286 Y86.770 E40.47533
G1 X160.296 Y86.487 E40.50823
G1 X160.134 Y77.875 E41.51078
G1 X160.165 Y77.338 E41.57335
G1 X162.127 Y59.665 E43.64294
G1 X166.336 Y59.417 E44.13369
G1 X168.454 Y68.530 E45.22261
G1 X168.575 Y68.847 E45.26212
G1 X168.655 Y69.465 E45.33461
