; generated by Slic3r 1.0.0RC3 on 2014-03-12 at 08:34:02

; layer_height = 0.3
; perimeters = 2
; top_solid_layers = 3
; bottom_solid_layers = 3
; fill_density = 0.1
; perimeter_speed = 60
; infill_speed = 60
; travel_speed = 120
; nozzle_diameter = 0.4
; filament_diameter = 1.75
; extrusion_multiplier = 0.98
; perimeters extrusion width = 0.40mm
; infill extrusion width = 0.42mm
; solid infill extrusion width = 0.42mm
; top infill extrusion width = 0.42mm
; first layer extrusion width = 0.60mm

G21 ; set units to millimeters
M107
M104 S220 ; set temperature
G28 ; home all axes
M106 S255;
G1 Z200 F1200 ; lift nozzle
M109 S220 ; wait for temperature to be reached
G90 ; use absolute coordinates
G92 E0
M82 ; use absolute distances for extrusion
G1 F1800.000 E-1.00000
G92 E0
G1 Z0.300 F7200.000
G1 X104.095 Y72.242 F7200.000
G1 E1.00000 F1800.000
G1 X104.905 Y71.252 E1.08710 F1080.000
G1 X105.895 Y70.442 E1.17420
G1 X106.915 Y69.762 E1.25767
G1 X107.935 Y69.212 E1.33658
G1 X109.035 Y68.842 E1.41561
G1 X176.285 Y52.762 E6.12390
G1 X177.035 Y52.632 E6.17573
G1 X177.805 Y52.582 E6.22828
G1 X181.165 Y52.582 E6.45707
G1 X182.545 Y52.732 E6.55159
G1 X183.875 Y53.172 E6.64698
G1 X185.065 Y53.872 E6.74099
G1 X186.095 Y54.822 E6.83640
G1 X186.895 Y55.952 E6.93067
G1 X195.755 Y71.882 E8.17187
G1 X196.375 Y73.422 E8.28491
G1 X196.585 Y75.072 E8.39817
G1 X196.585 Y80.162 E8.74476
G1 X196.515 Y135.792 E12.53274
G1 X196.285 Y137.502 E12.65023
G1 X195.615 Y139.082 E12.76709
G1 X186.825 Y154.152 E13.95504
G1 X186.035 Y155.242 E14.04671
G1 X185.045 Y156.132 E14.13735
G1 X183.895 Y156.812 E14.22833
G1 X182.625 Y157.242 E14.31963
G1 X181.295 Y157.412 E14.41093
G1 X179.955 Y157.292 E14.50253
G1 X121.615 Y146.362 E18.54416
G1 X120.925 Y146.202 E18.59239
G1 X119.865 Y145.882 E18.66779
G1 X119.245 Y145.652 E18.71282
G1 X118.645 Y145.372 E18.75790
G1 X117.665 Y144.842 E18.83376
G1 X117.135 Y144.522 E18.87592
G1 X116.645 Y144.162 E18.91732
G1 X115.785 Y143.462 E18.99283
G1 X115.305 Y143.022 E19.03717
G1 X114.865 Y142.542 E19.08151
G1 X114.155 Y141.682 E19.15744
G1 X113.755 Y141.142 E19.20320
G1 X113.405 Y140.562 E19.24933
G1 X112.885 Y139.572 E19.32548
G1 X112.635 Y139.032 E19.36599
G1 X112.435 Y138.472 E19.40649
G1 X112.105 Y137.412 E19.48208
G1 X111.905 Y136.562 E19.54154
G1 X102.165 Y79.212 E23.50256
G1 X102.065 Y78.042 E23.58252
G1 X102.185 Y76.882 E23.66192
G1 X102.415 Y75.682 E23.74512
G1 X102.795 Y74.412 E23.83539
G1 X103.415 Y73.252 E23.92495
G1 X104.048 Y72.311 E24.00217
G1 F1800.000 E23.00217
G92 E0
G1 X110.161 Y76.520 F7200.000
G1 E1.00000 F1800.000
G1 X110.895 Y76.029 E1.06009 F1080.000
G1 X111.845 Y75.840 E1.12605
G1 X178.668 Y75.840 E5.67616
G1 X178.668 Y59.999 E6.75481
G1 X180.314 Y59.999 E6.86692
G1 X180.314 Y75.840 E7.94557
G1 X189.173 Y75.840 E8.54878
G1 X189.173 Y79.393 E8.79075
G1 X180.314 Y79.393 E9.39396
G1 X180.314 Y131.524 E12.94368
G1 X189.103 Y131.524 E13.54214
G1 X189.103 Y135.024 E13.78047
G1 X180.314 Y135.024 E14.37893
G1 X180.314 Y149.825 E15.38678
G1 X126.259 Y139.657 E19.13205
G1 X123.034 Y139.091 E19.35501
G1 X122.099 Y138.808 E19.42153
G1 X121.266 Y138.363 E19.48584
G1 X120.536 Y137.764 E19.55014
G1 X119.937 Y137.034 E19.61444
G1 X119.492 Y136.201 E19.67874
G1 X119.218 Y135.297 E19.74305
G1 X119.121 Y134.311 E19.81048
G1 X119.089 Y130.663 E20.05892
G1 X119.089 Y105.311 E21.78520
G1 X110.099 Y79.980 E23.61545
G1 X109.508 Y78.073 E23.75141
G1 X109.671 Y77.253 E23.80830
G1 X110.115 Y76.589 E23.86270
G1 X109.760 Y76.118 F7200.000
G1 X110.678 Y75.505 E23.93787 F540.000
G1 X111.790 Y75.283 E24.01510
G1 X178.110 Y75.283 E28.53103
G1 X178.110 Y59.442 E29.60968
G1 X180.871 Y59.442 E29.79766
G1 X180.871 Y75.283 E30.87631
G1 X189.730 Y75.283 E31.47952
G1 X189.730 Y79.950 E31.79735
G1 X180.871 Y79.950 E32.40056
G1 X180.871 Y130.967 E35.87441
G1 X189.660 Y130.967 E36.47288
G1 X189.660 Y135.581 E36.78707
G1 X180.871 Y135.581 E37.38553
G1 X180.871 Y150.497 E38.40118
G1 X126.160 Y140.205 E42.19196
G1 X122.905 Y139.634 E42.41698
G1 X121.885 Y139.325 E42.48953
G1 X120.955 Y138.828 E42.56131
G1 X120.141 Y138.159 E42.63308
G1 X119.472 Y137.345 E42.70485
G1 X118.975 Y136.415 E42.77662
G1 X118.669 Y135.406 E42.84840
G1 X118.564 Y134.341 E42.92127
G1 X118.532 Y130.666 E43.17157
G1 X118.532 Y105.407 E44.89149
G1 X109.570 Y80.156 E46.71598
G1 X108.934 Y78.103 E46.86233
G1 X109.146 Y77.036 E46.93639
G1 X109.713 Y76.187 E47.00587
G1 X110.287 Y76.297 F7200.000
G1 F1800.000 E46.00587
G92 E0
G1 X110.755 Y80.650 F7200.000
G1 E1.00000 F1800.000
G1 X179.347 Y149.243 E7.64447 F1080.000
G1 X179.920 Y149.023 E7.68650
G1 X110.347 Y79.450 E14.42596
G1 X109.991 Y78.301 E14.50832
G1 X179.920 Y148.230 E21.28226
G1 X179.920 Y147.438 E21.33655
G1 X110.017 Y77.534 E28.10804
G1 X110.298 Y77.023 E28.14800
G1 X179.920 Y146.645 E34.89220
G1 X179.920 Y145.853 E34.94649
G1 X110.700 Y76.633 E41.65175
G1 X111.225 Y76.365 E41.69210
G1 X179.920 Y145.060 E48.34653
G1 X179.920 Y144.268 E48.40081
G1 X111.886 Y76.234 E54.99117
G1 X112.679 Y76.234 E55.04545
G1 X179.920 Y143.475 E61.55903
G1 X179.920 Y142.683 E61.61332
G1 X113.471 Y76.234 E68.05013
G1 X114.264 Y76.234 E68.10442
G1 X179.920 Y141.890 E74.46447
G1 X179.920 Y141.098 E74.51875
G1 X115.056 Y76.234 E80.80203
G1 X115.849 Y76.234 E80.85631
G1 X179.920 Y140.305 E87.06282
G1 X179.920 Y139.513 E87.11711
G1 X116.641 Y76.234 E93.24685
G1 X117.434 Y76.234 E93.30113
G1 X179.920 Y138.720 E99.35410
G1 X179.920 Y137.928 E99.40839
G1 X118.226 Y76.234 E105.38459
G1 X119.019 Y76.234 E105.43888
G1 X179.920 Y137.135 E111.33831
G1 X179.920 Y136.343 E111.39260
G1 X119.811 Y76.234 E117.21526
G1 X120.604 Y76.234 E117.26955
G1 X179.920 Y135.550 E123.01545
G1 X179.920 Y134.758 E123.06973
G1 X121.396 Y76.234 E128.73886
G1 X122.189 Y76.234 E128.79314
G1 X180.585 Y134.630 E134.44991
G1 X181.378 Y134.630 E134.50420
G1 X122.981 Y76.234 E140.16096
G1 X123.774 Y76.234 E140.21525
G1 X182.170 Y134.630 E145.87202
G1 X182.963 Y134.630 E145.92630
G1 X124.566 Y76.234 E151.58307
G1 X125.359 Y76.234 E151.63736
G1 X179.920 Y130.795 E156.92264
G1 X179.920 Y130.003 E156.97693
G1 X126.151 Y76.234 E162.18545
G1 X126.944 Y76.234 E162.23973
G1 X179.920 Y129.210 E167.37148
G1 X179.920 Y128.418 E167.42576
G1 X127.736 Y76.234 E172.48074
G1 X128.529 Y76.234 E172.53503
G1 X179.920 Y127.625 E177.51324
G1 X179.920 Y126.833 E177.56752
G1 X129.321 Y76.234 E182.46897
G1 X130.114 Y76.234 E182.52325
G1 X179.920 Y126.040 E187.34793
G1 X179.920 Y125.248 E187.40221
G1 X130.906 Y76.234 E192.15012
G1 X131.699 Y76.234 E192.20440
G1 X179.920 Y124.455 E196.87554
G1 X179.920 Y123.663 E196.92982
G1 X132.491 Y76.234 E201.52419
G1 X133.284 Y76.234 E201.57848
G1 X179.920 Y122.870 E206.09608
G1 X179.920 Y122.078 E206.15036
G1 X134.076 Y76.234 E210.59120
G1 X134.869 Y76.234 E210.64548
G1 X179.920 Y121.285 E215.00954
G1 X179.920 Y120.493 E215.06383
G1 X135.661 Y76.234 E219.35112
G1 X136.454 Y76.234 E219.40541
G1 X179.920 Y119.700 E223.61593
G1 X179.920 Y118.908 E223.67022
G1 X137.246 Y76.234 E227.80398
G1 X138.039 Y76.234 E227.85826
G1 X179.920 Y118.115 E231.91525
G1 X179.920 Y117.323 E231.96953
G1 X138.831 Y76.234 E235.94975
G1 X139.624 Y76.234 E236.00404
G1 X179.920 Y116.530 E239.90749
G1 X179.920 Y115.738 E239.96177
G1 X140.416 Y76.234 E243.78846
G1 X141.209 Y76.234 E243.84274
G1 X179.920 Y114.945 E247.59266
G1 X179.920 Y114.153 E247.64694
G1 X142.001 Y76.234 E251.32009
G1 X142.794 Y76.234 E251.37437
G1 X179.920 Y113.360 E254.97075
G1 X179.920 Y112.568 E255.02503
G1 X143.586 Y76.234 E258.54464
G1 X144.379 Y76.234 E258.59893
G1 X179.920 Y111.775 E262.04177
G1 X179.920 Y110.983 E262.09605
G1 X145.171 Y76.234 E265.46212
G1 X145.964 Y76.234 E265.51641
G1 X179.920 Y110.190 E268.80571
G1 X179.920 Y109.398 E268.85999
G1 X146.756 Y76.234 E272.07253
G1 X147.549 Y76.234 E272.12681
G1 X179.920 Y108.605 E275.26258
G1 X179.920 Y107.812 E275.31686
G1 X148.341 Y76.234 E278.37586
G1 X149.134 Y76.234 E278.43014
G1 X179.920 Y107.020 E281.41237
G1 X179.920 Y106.227 E281.46666
G1 X149.926 Y76.234 E284.37212
G1 X150.719 Y76.234 E284.42640
G1 X179.920 Y105.435 E287.25509
G1 X179.920 Y104.642 E287.30938
G1 X151.511 Y76.234 E290.06130
G1 X152.304 Y76.234 E290.11558
G1 X179.920 Y103.850 E292.79074
G1 X179.920 Y103.057 E292.84502
G1 X153.096 Y76.234 E295.44341
G1 X153.889 Y76.234 E295.49769
G1 X179.920 Y102.265 E298.01931
G1 X179.920 Y101.472 E298.07359
G1 X154.681 Y76.234 E300.51844
G1 X155.474 Y76.234 E300.57273
G1 X179.920 Y100.680 E302.94081
G1 X179.920 Y99.887 E302.99509
G1 X156.266 Y76.234 E305.28640
G1 X157.059 Y76.234 E305.34069
G1 X179.920 Y99.095 E307.55523
G1 X179.920 Y98.302 E307.60951
G1 X157.851 Y76.234 E309.74729
G1 X158.644 Y76.234 E309.80157
G1 X179.920 Y97.510 E311.86258
G1 X179.920 Y96.717 E311.91686
G1 X159.436 Y76.234 E313.90110
G1 X160.229 Y76.234 E313.95538
G1 X179.920 Y95.925 E315.86285
G1 X179.920 Y95.132 E315.91714
G1 X161.021 Y76.234 E317.74784
G1 X161.814 Y76.234 E317.80212
G1 X179.920 Y94.340 E319.55605
G1 X179.920 Y93.547 E319.61033
G1 X162.606 Y76.234 E321.28750
G1 X163.399 Y76.234 E321.34178
G1 X179.920 Y92.755 E322.94218
G1 X179.920 Y91.962 E322.99646
G1 X164.191 Y76.234 E324.52009
G1 X164.984 Y76.234 E324.57437
G1 X179.920 Y91.170 E326.02123
G1 X179.920 Y90.377 E326.07551
G1 X165.776 Y76.234 E327.44560
G1 X166.569 Y76.234 E327.49988
G1 X179.920 Y89.585 E328.79320
G1 X179.920 Y88.792 E328.84749
G1 X167.361 Y76.234 E330.06404
G1 X168.154 Y76.234 E330.11832
G1 X179.920 Y88.000 E331.25810
G1 X179.920 Y87.207 E331.31239
G1 X168.946 Y76.234 E332.37540
G1 X169.739 Y76.234 E332.42969
G1 X179.920 Y86.415 E333.41593
G1 X179.920 Y85.622 E333.47022
G1 X170.531 Y76.234 E334.37969
G1 X171.324 Y76.234 E334.43398
G1 X179.920 Y84.830 E335.26669
G1 X179.920 Y84.037 E335.32097
G1 X172.116 Y76.234 E336.07691
G1 X172.909 Y76.234 E336.13119
G1 X179.920 Y83.245 E336.81036
G1 X179.920 Y82.452 E336.86465
G1 X173.701 Y76.234 E337.46705
G1 X174.494 Y76.233 E337.52133
G1 X179.920 Y81.660 E338.04697
G1 X179.920 Y80.867 E338.10125
G1 X175.286 Y76.233 E338.55012
G1 X176.079 Y76.233 E338.60440
G1 X179.920 Y80.075 E338.97650
G1 X179.920 Y79.282 E339.03078
G1 X176.871 Y76.233 E339.32611
G1 X177.664 Y76.233 E339.38039
G1 X180.430 Y78.999 E339.64831
G1 X181.222 Y78.999 E339.70259
G1 X178.456 Y76.233 E339.97051
G1 X179.527 Y76.512 E340.04631
G1 X182.015 Y78.999 E340.28725
G1 X182.807 Y78.999 E340.34153
G1 X180.320 Y76.512 E340.58247
G1 X180.834 Y76.233 E340.62251
G1 X183.600 Y78.999 E340.89042
G1 X184.392 Y78.999 E340.94471
G1 X181.626 Y76.233 E341.21263
G1 X182.419 Y76.233 E341.26691
G1 X185.185 Y78.999 E341.53483
G1 X185.977 Y78.999 E341.58911
G1 X183.211 Y76.233 E341.85703
G1 X184.004 Y76.233 E341.91131
G1 X186.770 Y78.999 E342.17923
G1 X187.562 Y78.999 E342.23351
G1 X184.796 Y76.233 E342.50143
G1 X185.589 Y76.233 E342.55571
G1 X188.355 Y78.999 E342.82363
G1 X188.779 Y78.631 E342.86211
G1 X186.381 Y76.233 E343.09434
G1 X187.174 Y76.233 E343.14862
G1 X188.779 Y77.838 E343.30408
G1 X188.779 Y77.046 E343.35837
G1 X187.966 Y76.233 E343.43706
G1 F1800.000 E342.43706
G92 E0
G1 X188.175 Y131.918 F7200.000
G1 E1.00000 F1800.000
G1 X188.709 Y132.452 E1.05171 F1080.000
G1 X188.709 Y133.244 E1.10600
G1 X187.383 Y131.918 E1.23448
G1 X186.590 Y131.918 E1.28876
G1 X188.709 Y134.037 E1.49402
G1 X188.510 Y134.630 E1.53689
G1 X185.798 Y131.918 E1.79963
G1 X185.005 Y131.918 E1.85391
G1 X187.718 Y134.630 E2.11665
G1 X186.925 Y134.630 E2.17094
G1 X184.213 Y131.918 E2.43367
G1 X183.420 Y131.918 E2.48796
G1 X186.133 Y134.630 E2.75070
G1 X185.340 Y134.630 E2.80498
G1 X182.628 Y131.918 E3.06772
G1 X181.835 Y131.918 E3.12200
G1 X184.548 Y134.630 E3.38474
G1 X183.755 Y134.630 E3.43903
G1 X181.043 Y131.918 E3.70177
G1 F1800.000 E2.70177
G92 E0
G1 X120.896 Y137.549 F7200.000
G1 E1.00000 F1800.000
G1 X120.751 Y137.404 E1.01398 F1080.000
G1 F1800.000 E0.01398
G92 E0
G1 X119.714 Y135.575 F7200.000
G1 E1.00000 F1800.000
G1 X122.725 Y138.586 E1.29173 F1080.000
G1 X123.749 Y138.817 E1.36358
G1 X119.547 Y134.615 E1.77062
G1 X119.510 Y133.786 E1.82746
G1 X124.710 Y138.986 E2.33114
G1 X125.671 Y139.154 E2.39798
G1 X119.503 Y132.986 E2.99546
G1 X119.496 Y132.187 E3.05023
G1 X126.637 Y139.328 E3.74196
G1 X127.613 Y139.511 E3.80999
G1 X119.489 Y131.387 E4.59697
G1 X119.482 Y130.588 E4.65170
G1 X128.589 Y139.695 E5.53385
G1 X129.565 Y139.878 E5.60189
G1 X119.482 Y129.796 E6.57860
G1 X119.482 Y129.003 E6.63288
G1 X130.541 Y140.062 E7.70415
G1 X131.517 Y140.246 E7.77218
G1 X119.482 Y128.211 E8.93800
G1 X119.482 Y127.418 E8.99229
G1 X132.494 Y140.429 E10.25267
G1 X133.470 Y140.613 E10.32070
G1 X119.482 Y126.626 E11.67563
G1 X119.482 Y125.833 E11.72992
G1 X134.446 Y140.796 E13.17941
G1 X135.422 Y140.980 E13.24744
G1 X119.482 Y125.041 E14.79148
G1 X119.482 Y124.248 E14.84577
G1 X136.398 Y141.164 E16.48437
G1 X137.374 Y141.347 E16.55240
G1 X119.482 Y123.456 E18.28556
G1 X119.482 Y122.663 E18.33984
G1 X138.350 Y141.531 E20.16755
G1 X139.326 Y141.715 E20.23559
G1 X119.482 Y121.871 E22.15785
G1 X119.482 Y121.078 E22.21214
G1 X140.303 Y141.898 E24.22896
G1 X141.279 Y142.082 E24.29699
G1 X119.482 Y120.286 E26.40837
G1 X119.482 Y119.493 E26.46266
G1 X142.255 Y142.265 E28.66859
G1 X143.231 Y142.449 E28.73662
G1 X119.482 Y118.701 E31.03711
G1 X119.482 Y117.908 E31.09140
G1 X144.207 Y142.633 E33.48644
G1 X145.183 Y142.816 E33.55448
G1 X119.482 Y117.115 E36.04408
G1 X119.482 Y116.323 E36.09836
G1 X146.159 Y143.000 E38.68252
G1 X147.135 Y143.183 E38.75055
G1 X119.482 Y115.530 E41.42926
G1 X119.482 Y114.738 E41.48355
G1 X148.111 Y143.367 E44.25682
G1 X149.088 Y143.551 E44.32485
G1 X119.482 Y113.945 E47.19267
G1 X119.482 Y113.153 E47.24696
G1 X150.064 Y143.734 E50.20934
G1 X151.040 Y143.918 E50.27737
G1 X119.482 Y112.360 E53.33430
G1 X119.482 Y111.568 E53.38859
G1 X152.016 Y144.101 E56.54008
G1 X152.992 Y144.285 E56.60811
G1 X119.482 Y110.775 E59.85416
G1 X119.482 Y109.983 E59.90844
G1 X153.968 Y144.469 E63.24904
G1 X154.944 Y144.652 E63.31708
G1 X119.482 Y109.190 E66.75223
G1 X119.482 Y108.398 E66.80652
G1 X155.920 Y144.836 E70.33623
G1 X156.897 Y145.020 E70.40426
G1 X119.482 Y107.605 E74.02853
G1 X119.482 Y106.813 E74.08282
G1 X157.873 Y145.203 E77.80164
G1 X158.849 Y145.387 E77.86967
G1 X119.482 Y106.020 E81.68305
G1 X119.474 Y105.219 E81.73792
G1 X159.825 Y145.570 E85.64667
G1 X160.801 Y145.754 E85.71470
G1 X119.038 Y103.991 E89.76023
G1 X118.602 Y102.763 F7200.000
G1 X161.777 Y145.938 E93.94256 F1080.000
G1 X162.753 Y146.121 E94.01059
G1 X118.166 Y101.534 E98.32970
G1 X117.730 Y100.306 F7200.000
G1 X163.729 Y146.305 E102.78559 F1080.000
G1 X164.706 Y146.488 E102.85362
G1 X117.294 Y99.077 E107.44630
G1 X116.858 Y97.849 F7200.000
G1 X165.682 Y146.672 E112.17577 F1080.000
G1 X166.658 Y146.856 E112.24380
G1 X116.422 Y96.620 E117.11006
G1 X115.986 Y95.392 F7200.000
G1 X167.634 Y147.039 E122.11310 F1080.000
G1 X168.610 Y147.223 E122.18113
G1 X115.550 Y94.163 E127.32095
G1 X115.114 Y92.935 F7200.000
G1 X169.586 Y147.406 E132.59757 F1080.000
G1 X170.562 Y147.590 E132.66560
G1 X114.679 Y91.706 E138.07900
G1 X114.243 Y90.478 F7200.000
G1 X171.538 Y147.774 E143.62918 F1080.000
G1 X172.514 Y147.957 E143.69721
G1 X113.807 Y89.249 E149.38418
G1 X113.371 Y88.021 F7200.000
G1 X173.491 Y148.141 E155.20794 F1080.000
G1 X174.467 Y148.324 E155.27597
G1 X112.935 Y86.793 E161.23652
G1 X112.499 Y85.564 F7200.000
G1 X175.443 Y148.508 E167.33385 F1080.000
G1 X176.419 Y148.692 E167.40188
G1 X112.063 Y84.336 E173.63599
G1 X111.627 Y83.107 F7200.000
G1 X177.395 Y148.875 E180.00690 F1080.000
G1 X178.371 Y149.059 E180.07493
G1 X111.191 Y81.879 E186.58262
G1 F1800.000 E185.58262
G92 E0
G1 X179.236 Y75.808 F7200.000
G1 E1.00000 F1800.000
G1 X179.745 Y75.490 E1.04299 F360.000
G1 X179.236 Y74.980 E1.09454 F360.000
G1 X179.745 Y74.662 E1.13752 F360.000
G1 X179.236 Y74.152 E1.18907 F360.000
G1 X179.745 Y73.834 E1.23206 F360.000
G1 X179.236 Y73.324 E1.28361 F360.000
G1 X179.745 Y73.006 E1.32660 F360.000
G1 X179.236 Y72.496 E1.37814 F360.000
G1 X179.745 Y72.178 E1.42113 F360.000
G1 X179.236 Y71.669 E1.47268 F360.000
G1 X179.745 Y71.350 E1.51567 F360.000
