; generated by Slic3r 1.0.0RC2 on 2014-05-19 at 21:06:32

; layer_height = 0.3
; perimeters = 2
; top_solid_layers = 3
; bottom_solid_layers = 3
; fill_density = 0.1
; perimeter_speed = 60
; infill_speed = 60
; travel_speed = 120
; nozzle_diameter = 0.4
; filament_diameter = 1.75
; extrusion_multiplier = 0.98
; perimeters extrusion width = 0.40mm
; infill extrusion width = 0.42mm
; solid infill extrusion width = 0.42mm
; top infill extrusion width = 0.42mm
; first layer extrusion width = 0.80mm

G21 ; set units to millimeters
M107
M104 S220 ; set temperature
G28 ; home all axes
M106 S255;
G1 Z200 F1200 ; lift nozzle
M109 S220 ; wait for temperature to be reached
G90 ; use absolute coordinates
G92 E0
M82 ; use absolute distances for extrusion
G1 F1800.000 E-1.00000
G92 E0
G1 Z0.400 F7200.000
G1 X68.295 Y75.142 F7200.000
G1 E1.00000 F1800.000
G1 X69.315 Y74.312 E1.15306 F1080.000
G1 X70.335 Y73.632 E1.29574
G1 X71.205 Y73.142 E1.41195
G1 X72.145 Y72.782 E1.52911
G1 X153.415 Y48.702 E11.39459
G1 X154.365 Y48.502 E11.50758
G1 X155.325 Y48.432 E11.61961
G1 X158.685 Y48.432 E12.01068
G1 X159.475 Y48.472 E12.10275
G1 X160.245 Y48.612 E12.19384
G1 X227.495 Y64.692 E20.24170
G1 X228.615 Y65.072 E20.37935
G1 X229.655 Y65.632 E20.51683
G1 X230.675 Y66.312 E20.65951
G1 X231.695 Y67.142 E20.81257
G1 X232.525 Y68.152 E20.96472
G1 X233.205 Y69.162 E21.10644
G1 X233.835 Y70.332 E21.26110
G1 X234.215 Y71.592 E21.41428
G1 X234.455 Y72.792 E21.55671
G1 X234.585 Y74.012 E21.69951
G1 X234.495 Y75.242 E21.84305
G1 X224.745 Y132.592 E28.61379
G1 X224.535 Y133.462 E28.71795
G1 X224.205 Y134.522 E28.84717
G1 X223.995 Y135.092 E28.91787
G1 X223.735 Y135.642 E28.98867
G1 X223.215 Y136.632 E29.11883
G1 X222.865 Y137.232 E29.19968
G1 X222.455 Y137.782 E29.27952
G1 X221.745 Y138.642 E29.40932
G1 X221.295 Y139.132 E29.48675
G1 X220.805 Y139.582 E29.56418
G1 X219.945 Y140.282 E29.69324
G1 X219.435 Y140.652 E29.76658
G1 X218.895 Y140.982 E29.84024
G1 X217.915 Y141.512 E29.96991
G1 X217.305 Y141.802 E30.04852
G1 X216.665 Y142.032 E30.12768
G1 X215.605 Y142.352 E30.25655
G1 X146.445 Y161.322 E38.60339
G1 X144.945 Y161.562 E38.78019
G1 X143.425 Y161.452 E38.95757
G1 X85.085 Y150.522 E45.86589
G1 X84.385 Y150.352 E45.94974
G1 X83.325 Y150.032 E46.07861
G1 X82.685 Y149.802 E46.15776
G1 X82.075 Y149.512 E46.23637
G1 X81.095 Y148.982 E46.36605
G1 X80.555 Y148.652 E46.43971
G1 X80.045 Y148.282 E46.51304
G1 X79.185 Y147.582 E46.64210
G1 X78.685 Y147.122 E46.72118
G1 X78.225 Y146.622 E46.80026
G1 X77.515 Y145.752 E46.93095
G1 X77.125 Y145.212 E47.00848
G1 X76.785 Y144.652 E47.08473
G1 X76.265 Y143.672 E47.21386
G1 X75.995 Y143.102 E47.28727
G1 X75.785 Y142.522 E47.35906
G1 X75.455 Y141.462 E47.48828
G1 X75.245 Y140.582 E47.59357
G1 X65.505 Y83.232 E54.36411
G1 X65.415 Y82.042 E54.50301
G1 X65.535 Y80.852 E54.64222
G1 X65.765 Y79.652 E54.78443
G1 X66.145 Y78.352 E54.94207
G1 X66.785 Y77.162 E55.09933
G1 X67.465 Y76.152 E55.24105
G1 X68.227 Y75.224 E55.38073
G1 F1800.000 E54.38073
G92 E0
G1 X147.472 Y75.136 F7200.000
G1 E1.00000 F1800.000
G1 X147.472 Y72.097 E1.35375 F1080.000
G1 X156.443 Y72.097 E2.39788
G1 X156.443 Y56.256 E4.24161
G1 X157.575 Y56.256 E4.37340
G1 X157.575 Y72.097 E6.21713
G1 X224.630 Y72.097 E14.02157
G1 X225.505 Y72.271 E14.12543
G1 X226.153 Y72.705 E14.21623
G1 X226.587 Y73.354 E14.30703
G1 X226.727 Y74.059 E14.39072
G1 X226.157 Y75.899 E14.61493
G1 X217.154 Y101.267 E17.74790
G1 X217.154 Y126.662 E20.70364
G1 X217.122 Y130.298 E21.12683
G1 X217.029 Y131.247 E21.23781
G1 X216.769 Y132.102 E21.34184
G1 X216.348 Y132.890 E21.44585
G1 X215.781 Y133.581 E21.54987
G1 X215.090 Y134.148 E21.65388
G1 X214.302 Y134.569 E21.75791
G1 X213.406 Y134.841 E21.86685
G1 X210.195 Y135.404 E22.24633
G1 X156.443 Y145.515 E28.61221
G1 X156.443 Y130.767 E30.32877
G1 X147.565 Y130.767 E31.36209
G1 X147.565 Y127.781 E31.70962
G1 X156.443 Y127.781 E32.74294
G1 X156.443 Y75.136 E38.87028
G1 X147.579 Y75.136 E39.90195
G1 X146.758 Y75.850 F7200.000
G1 X146.758 Y71.383 E40.42194 F756.000
G1 X155.729 Y71.383 E41.46608
G1 X155.729 Y55.542 E43.30981
G1 X158.290 Y55.542 E43.60784
G1 X158.290 Y71.383 E45.45157
G1 X224.700 Y71.383 E53.18109
G1 X225.783 Y71.599 E53.30965
G1 X226.668 Y72.190 E53.43351
G1 X227.260 Y73.075 E53.55738
G1 X227.463 Y74.097 E53.67870
G1 X226.835 Y76.124 E53.92567
G1 X217.868 Y101.390 E57.04602
G1 X217.868 Y126.665 E59.98782
G1 X217.836 Y130.336 E60.41508
G1 X217.732 Y131.387 E60.53797
G1 X217.432 Y132.376 E60.65837
G1 X216.945 Y133.289 E60.77875
G1 X216.288 Y134.088 E60.89914
G1 X215.489 Y134.744 E61.01953
G1 X214.576 Y135.232 E61.13993
G1 X213.572 Y135.537 E61.26209
G1 X210.323 Y136.107 E61.64608
G1 X155.729 Y146.376 E68.11167
G1 X155.729 Y131.481 E69.84533
G1 X146.851 Y131.481 E70.87865
G1 X146.851 Y127.067 E71.39241
G1 X155.729 Y127.067 E72.42573
G1 X155.729 Y75.850 E78.38684
G1 X146.865 Y75.850 E79.41851
G1 X147.115 Y75.232 F7200.000
G1 X148.440 Y74.654 F7200.000
G1 X147.954 Y74.168 E79.49866 F1080.000
G1 X147.954 Y73.156 E79.61663
G1 X149.452 Y74.654 E79.86361
G1 X150.464 Y74.654 E79.98157
G1 X148.388 Y72.579 E80.32377
G1 X149.400 Y72.579 E80.44174
G1 X151.475 Y74.654 E80.78394
G1 X152.487 Y74.654 E80.90190
G1 X150.412 Y72.579 E81.24411
G1 X151.423 Y72.579 E81.36207
G1 X153.499 Y74.654 E81.70428
G1 X154.511 Y74.654 E81.82224
G1 X152.435 Y72.579 E82.16444
G1 X153.447 Y72.579 E82.28241
G1 X155.522 Y74.654 E82.62461
G1 X156.521 Y128.263 F7200.000
G1 X170.616 Y142.359 E84.94885 F1080.000
G1 X171.468 Y142.199 E85.04988
G1 X156.925 Y127.656 E87.44784
G1 X156.925 Y126.644 E87.56580
G1 X172.320 Y142.038 E90.10418
G1 X173.171 Y141.878 E90.20521
G1 X156.925 Y125.632 E92.88400
G1 X156.925 Y124.620 E93.00196
G1 X174.023 Y141.718 E95.82116
G1 X174.874 Y141.558 E95.92219
G1 X156.925 Y123.609 E98.88180
G1 X156.925 Y122.597 E98.99977
G1 X175.726 Y141.398 E102.09980
G1 X176.577 Y141.237 E102.20082
G1 X156.925 Y121.585 E105.44126
G1 X156.925 Y120.573 E105.55923
G1 X177.429 Y141.077 E108.94008
G1 X178.280 Y140.917 E109.04111
G1 X156.925 Y119.562 E112.56237
G1 X156.925 Y118.550 E112.68034
G1 X179.132 Y140.757 E116.34201
G1 X179.984 Y140.597 E116.44304
G1 X156.925 Y117.538 E120.24513
G1 X156.925 Y116.526 E120.36309
G1 X180.835 Y140.437 E124.30560
G1 X181.687 Y140.276 E124.40663
G1 X156.925 Y115.515 E128.48954
G1 X156.925 Y114.503 E128.60750
G1 X182.538 Y140.116 E132.83083
G1 X183.390 Y139.956 E132.93186
G1 X156.925 Y113.491 E137.29560
G1 X156.925 Y112.479 E137.41356
G1 X184.241 Y139.796 E141.91772
G1 X185.093 Y139.636 E142.01875
G1 X156.925 Y111.468 E146.66331
G1 X156.925 Y110.456 E146.78127
G1 X185.945 Y139.475 E151.56625
G1 X186.796 Y139.315 E151.66728
G1 X156.925 Y109.444 E156.59267
G1 X156.925 Y108.433 E156.71064
G1 X187.648 Y139.155 E161.77644
G1 X188.499 Y138.995 E161.87747
G1 X156.925 Y107.421 E167.08368
G1 X156.925 Y106.409 E167.20165
G1 X189.351 Y138.835 E172.54828
G1 X190.202 Y138.675 E172.64930
G1 X156.925 Y105.397 E178.13635
G1 X156.925 Y104.386 E178.25431
G1 X191.054 Y138.514 E183.88176
G1 X191.905 Y138.354 E183.98279
G1 X156.925 Y103.374 E189.75066
G1 X156.925 Y102.362 E189.86862
G1 X192.757 Y138.194 E195.77690
G1 X193.609 Y138.034 E195.87793
G1 X156.925 Y101.350 E201.92662
G1 X156.925 Y100.339 E202.04459
G1 X194.460 Y137.874 E208.23369
G1 X195.312 Y137.713 E208.33472
G1 X156.925 Y99.327 E214.66424
G1 X156.925 Y98.315 E214.78220
G1 X196.163 Y137.553 E221.25213
G1 X197.015 Y137.393 E221.35316
G1 X156.925 Y97.303 E227.96350
G1 X156.925 Y96.292 E228.08146
G1 X197.866 Y137.233 E234.83222
G1 X198.718 Y137.073 E234.93325
G1 X156.925 Y95.280 E241.82441
G1 X156.925 Y94.268 E241.94238
G1 X199.569 Y136.913 E248.97396
G1 X200.421 Y136.752 E249.07499
G1 X156.925 Y93.256 E256.24698
G1 X156.925 Y92.245 E256.36494
G1 X201.273 Y136.592 E263.67735
G1 X202.124 Y136.432 E263.77838
G1 X156.925 Y91.233 E271.23119
G1 X156.925 Y90.221 E271.34916
G1 X202.976 Y136.272 E278.94239
G1 X203.827 Y136.112 E279.04342
G1 X156.925 Y89.209 E286.77706
G1 X156.925 Y88.198 E286.89502
G1 X204.679 Y135.951 E294.76908
G1 X205.530 Y135.791 E294.87011
G1 X156.925 Y87.186 E302.88458
G1 X156.925 Y86.174 E303.00254
G1 X206.382 Y135.631 E311.15742
G1 X207.234 Y135.471 E311.25845
G1 X156.925 Y85.162 E319.55374
G1 X156.925 Y84.151 E319.67171
G1 X208.085 Y135.311 E328.10741
G1 X208.937 Y135.151 E328.20844
G1 X156.925 Y83.139 E336.78456
G1 X156.925 Y82.127 E336.90252
G1 X209.788 Y134.990 E345.61905
G1 X210.645 Y134.836 E345.72062
G1 X156.925 Y81.115 E354.57850
G1 X156.925 Y80.104 E354.69647
G1 X211.506 Y134.685 E363.69627
G1 X212.367 Y134.534 E363.79816
G1 X156.925 Y79.092 E372.93989
G1 X156.925 Y78.080 E373.05785
G1 X213.228 Y134.383 E382.34150
G1 X214.010 Y134.154 E382.43659
G1 X156.925 Y77.068 E391.84932
G1 X156.925 Y76.057 E391.96728
G1 X214.686 Y133.817 E401.49135
G1 X215.253 Y133.373 E401.57538
G1 X154.459 Y72.579 E411.59967
G1 X155.470 Y72.579 E411.71763
G1 X215.750 Y132.858 E421.65708
G1 X216.147 Y132.243 E421.74241
G1 X156.839 Y72.936 E431.52157
G1 X157.700 Y72.785 E431.62348
G1 X216.440 Y131.525 E441.30906
G1 X216.601 Y130.674 E441.41008
G1 X158.506 Y72.579 E450.98928
G1 X159.517 Y72.579 E451.10724
G1 X216.645 Y129.706 E460.52696
G1 X216.654 Y128.704 E460.64389
G1 X160.529 Y72.579 E469.89825
G1 X161.541 Y72.579 E470.01622
G1 X216.663 Y127.701 E479.10523
G1 X216.672 Y126.698 E479.22215
G1 X162.553 Y72.579 E488.14581
G1 X163.564 Y72.579 E488.26377
G1 X216.672 Y125.687 E497.02065
G1 X216.672 Y124.675 E497.13862
G1 X164.576 Y72.579 E505.72867
G1 X165.588 Y72.579 E505.84664
G1 X216.672 Y123.663 E514.26987
G1 X216.672 Y122.651 E514.38783
G1 X166.600 Y72.579 E522.64423
G1 X167.611 Y72.579 E522.76220
G1 X216.672 Y121.640 E530.85178
G1 X216.672 Y120.628 E530.96974
G1 X168.623 Y72.579 E538.89249
G1 X169.635 Y72.579 E539.01045
G1 X216.672 Y119.616 E546.76638
G1 X216.672 Y118.604 E546.88434
G1 X170.647 Y72.579 E554.47344
G1 X171.658 Y72.579 E554.59140
G1 X216.672 Y117.593 E562.01367
G1 X216.672 Y116.581 E562.13163
G1 X172.670 Y72.579 E569.38708
G1 X173.682 Y72.579 E569.50504
G1 X216.672 Y115.569 E576.59366
G1 X216.672 Y114.557 E576.71162
G1 X174.694 Y72.579 E583.63341
G1 X175.706 Y72.579 E583.75138
G1 X216.672 Y113.546 E590.50634
G1 X216.672 Y112.534 E590.62431
G1 X176.717 Y72.579 E597.21244
G1 X177.729 Y72.579 E597.33041
G1 X216.672 Y111.522 E603.75172
G1 X216.672 Y110.510 E603.86968
G1 X178.741 Y72.579 E610.12417
G1 X179.753 Y72.579 E610.24213
G1 X216.672 Y109.499 E616.32979
G1 X216.672 Y108.487 E616.44775
G1 X180.764 Y72.579 E622.36858
G1 X181.776 Y72.579 E622.48655
G1 X216.672 Y107.475 E628.24055
G1 X216.672 Y106.463 E628.35851
G1 X182.788 Y72.579 E633.94569
G1 X183.800 Y72.579 E634.06366
G1 X216.672 Y105.452 E639.48401
G1 X216.672 Y104.440 E639.60197
G1 X184.811 Y72.579 E644.85549
G1 X185.823 Y72.579 E644.97346
G1 X216.672 Y103.428 E650.06016
G1 X216.672 Y102.416 E650.17812
G1 X186.835 Y72.579 E655.09799
G1 X187.847 Y72.579 E655.21596
G1 X216.672 Y101.405 E659.96900
G1 X216.879 Y100.600 E660.06588
G1 X188.858 Y72.579 E664.68624
G1 X189.870 Y72.579 E664.80420
G1 X217.144 Y99.853 E669.30144
G1 X217.409 Y99.107 E669.39382
G1 X190.882 Y72.579 E673.76793
G1 X191.894 Y72.579 E673.88589
G1 X217.674 Y98.360 E678.13687
G1 X217.939 Y97.613 E678.22925
G1 X192.905 Y72.579 E682.35709
G1 X193.917 Y72.579 E682.47506
G1 X218.204 Y96.866 E686.47977
G1 X218.469 Y96.120 E686.57215
G1 X194.929 Y72.579 E690.45374
G1 X195.941 Y72.579 E690.57170
G1 X218.734 Y95.373 E694.33015
G1 X218.999 Y94.626 E694.42254
G1 X196.952 Y72.579 E698.05786
G1 X197.964 Y72.579 E698.17582
G1 X219.264 Y93.879 E701.68801
G1 X219.529 Y93.133 E701.78040
G1 X198.976 Y72.579 E705.16946
G1 X199.988 Y72.579 E705.28742
G1 X219.794 Y92.386 E708.55335
G1 X220.059 Y91.639 E708.64573
G1 X200.999 Y72.579 E711.78853
G1 X202.011 Y72.579 E711.90650
G1 X220.324 Y90.892 E714.92616
G1 X220.589 Y90.146 E715.01855
G1 X203.023 Y72.579 E717.91508
G1 X204.035 Y72.579 E718.03305
G1 X220.854 Y89.399 E720.80645
G1 X221.119 Y88.652 E720.89884
G1 X205.046 Y72.579 E723.54911
G1 X206.058 Y72.579 E723.66708
G1 X221.384 Y87.906 E726.19422
G1 X221.650 Y87.159 E726.28661
G1 X207.070 Y72.579 E728.69062
G1 X208.082 Y72.579 E728.80859
G1 X221.915 Y86.412 E731.08947
G1 X222.180 Y85.665 E731.18186
G1 X209.093 Y72.579 E733.33961
G1 X210.105 Y72.579 E733.45757
G1 X222.445 Y84.919 E735.49220
G1 X222.710 Y84.172 E735.58458
G1 X211.117 Y72.579 E737.49607
G1 X212.129 Y72.579 E737.61404
G1 X222.975 Y83.425 E739.40240
G1 X223.240 Y82.678 E739.49478
G1 X213.140 Y72.579 E741.16001
G1 X214.152 Y72.579 E741.27798
G1 X223.505 Y81.932 E742.82008
G1 X223.770 Y81.185 E742.91246
G1 X215.164 Y72.579 E744.33143
G1 X216.176 Y72.579 E744.44940
G1 X224.035 Y80.438 E745.74524
G1 X224.300 Y79.691 E745.83762
G1 X217.187 Y72.579 E747.01033
G1 X218.199 Y72.579 E747.12829
G1 X224.565 Y78.945 E748.17787
G1 X224.830 Y78.198 E748.27026
G1 X219.211 Y72.579 E749.19670
G1 X220.223 Y72.579 E749.31467
G1 X225.095 Y77.451 E750.11798
G1 X225.360 Y76.704 E750.21037
G1 X221.234 Y72.579 E750.89055
G1 X222.246 Y72.579 E751.00852
G1 X225.625 Y75.958 E751.56557
G1 X225.871 Y75.193 E751.65930
G1 X223.258 Y72.579 E752.09020
G1 X224.270 Y72.579 E752.20816
G1 X226.111 Y74.420 E752.51170
G1 X225.910 Y73.208 E752.65500
G1 X225.651 Y72.949 E752.69771
G1 F1800.000 E751.69771
G92 E0
G1 X148.425 Y130.285 F7200.000
G1 E1.00000 F1800.000
G1 X148.047 Y129.907 E1.06235 F1080.000
G1 X148.047 Y128.895 E1.18032
G1 X149.437 Y130.285 E1.40950
G1 X150.449 Y130.285 E1.52746
G1 X148.427 Y128.263 E1.86085
G1 X149.438 Y128.263 E1.97881
G1 X151.460 Y130.285 E2.31220
G1 X152.472 Y130.285 E2.43016
G1 X150.450 Y128.263 E2.76355
G1 X151.462 Y128.263 E2.88152
G1 X153.484 Y130.285 E3.21491
G1 X154.496 Y130.285 E3.33287
G1 X152.474 Y128.263 E3.66626
G1 X153.485 Y128.263 E3.78422
G1 X155.507 Y130.285 E4.11761
G1 X156.519 Y130.285 E4.23557
G1 X154.497 Y128.263 E4.56896
G1 X155.509 Y128.263 E4.68692
G1 X169.765 Y142.519 E7.03757
G1 X168.913 Y142.679 E7.13860
G1 X156.925 Y130.691 E9.11533
G1 X156.925 Y131.703 E9.23329
G1 X168.062 Y142.839 E11.06960
G1 X167.210 Y142.999 E11.17063
G1 X156.925 Y132.714 E12.86653
G1 X156.925 Y133.726 E12.98449
G1 X166.359 Y143.160 E14.53998
G1 X165.507 Y143.320 E14.64101
G1 X156.925 Y134.738 E16.05609
G1 X156.925 Y135.750 E16.17405
G1 X164.656 Y143.480 E17.44871
G1 X163.804 Y143.640 E17.54974
G1 X156.925 Y136.761 E18.68399
G1 X156.925 Y137.773 E18.80195
G1 X162.952 Y143.800 E19.79579
G1 X162.101 Y143.961 E19.89682
G1 X156.925 Y138.785 E20.75025
G1 X156.925 Y139.797 E20.86821
G1 X161.249 Y144.121 E21.58122
G1 X160.398 Y144.281 E21.68225
G1 X156.925 Y140.808 E22.25485
G1 X156.925 Y141.820 E22.37281
G1 X159.546 Y144.441 E22.80500
G1 X158.695 Y144.601 E22.90603
G1 X156.925 Y142.832 E23.19780
G1 X156.925 Y143.844 E23.31577
G1 X157.843 Y144.762 E23.46713
G1 X156.925 Y144.855 E23.57471
G1 X156.991 Y144.922 E23.58566
G1 X156.977 Y72.311 F7200.000
G1 X156.943 Y72.276 E23.58841 F360.000
G1 X157.076 Y71.921 E23.60975 F360.000
G1 X156.943 Y71.788 E23.62030 F360.000
G1 X157.076 Y71.433 E23.64164 F360.000
G1 X156.943 Y71.300 E23.65219 F360.000
G1 X157.076 Y70.945 E23.67353 F360.000
G1 X156.943 Y70.812 E23.68408 F360.000
G1 X157.076 Y70.457 E23.70542 F360.000
G1 X156.943 Y70.324 E23.71598 F360.000
G1 X157.076 Y69.969 E23.73732 F360.000
G1 X156.943 Y69.836 E23.74787 F360.000
G1 X157.076 Y69.481 E23.76921 F360.000
G1 X156.943 Y69.348 E23.77976 F360.000
G1 X157.076 Y68.992 E23.80110 F360.000
G1 X156.943 Y68.860 E23.81165 F360.000
G1 X157.076 Y68.504 E23.83299 F360.000
G1 X156.943 Y68.372 E23.84354 F360.000
G1 X157.076 Y68.016 E23.86488 F360.000
G1 X156.943 Y67.884 E23.87543 F360.000
G1 X157.076 Y67.528 E23.89677 F360.000
G1 X156.943 Y67.396 E23.90732 F360.000
G1 X157.076 Y67.040 E23.92867 F360.000
G1 X156.943 Y66.907 E23.93922 F360.000
G1 X157.076 Y66.552 E23.96056 F360.000
G1 X156.943 Y66.419 E23.97111 F360.000
G1 X157.076 Y66.064 E23.99245 F360.000
G1 X156.943 Y65.931 E24.00300 F360.000
G1 X157.076 Y65.576 E24.02434 F360.000
G1 X156.943 Y65.443 E24.03489 F360.000
G1 X157.076 Y65.088 E24.05623 F360.000
