; generated by Slic3r 1.0.0RC2 on 2014-05-17 at 11:42:34

; layer_height = 0.3
; perimeters = 4
; top_solid_layers = 3
; bottom_solid_layers = 3
; fill_density = 0.1
; perimeter_speed = 60
; infill_speed = 60
; travel_speed = 120
; nozzle_diameter = 0.4
; filament_diameter = 1.75
; extrusion_multiplier = 0.98
; perimeters extrusion width = 0.40mm
; infill extrusion width = 0.42mm
; solid infill extrusion width = 0.42mm
; top infill extrusion width = 0.42mm
; first layer extrusion width = 0.80mm

G21 ; set units to millimeters
M107
M104 S220 ; set temperature
G28 ; home all axes
M106 S255;
G1 Z200 F1200 ; lift nozzle
M109 S220 ; wait for temperature to be reached
G90 ; use absolute coordinates
G92 E0
M82 ; use absolute distances for extrusion
G1 F1800.000 E-1.00000
G92 E0
G1 Z0.400 F7200.000
G1 X106.107 Y80.937 F7200.000
G1 E1.00000 F1800.000
G1 X106.947 Y79.917 E1.15379 F1080.000
G1 X116.927 Y69.957 E2.79486
G1 X117.937 Y69.127 E2.94701
G1 X119.087 Y68.507 E3.09907
G1 X120.327 Y68.127 E3.25002
G1 X121.627 Y67.997 E3.40208
G1 X143.327 Y67.877 E5.92778
G1 X156.007 Y67.877 E7.40361
G1 X178.357 Y67.997 E10.00496
G1 X180.007 Y68.207 E10.19855
G1 X181.547 Y68.827 E10.39177
G1 X182.897 Y69.797 E10.58525
G1 X192.887 Y79.117 E12.17542
G1 X193.787 Y80.157 E12.33550
G1 X194.467 Y81.347 E12.49502
G1 X194.877 Y82.657 E12.65478
G1 X195.017 Y84.027 E12.81507
G1 X195.017 Y131.617 E18.35406
G1 X194.887 Y132.957 E18.51076
G1 X194.487 Y134.247 E18.66795
G1 X193.827 Y135.437 E18.82633
G1 X192.957 Y136.457 E18.98237
G1 X191.887 Y137.297 E19.14070
G1 X190.687 Y137.897 E19.29685
G1 X180.697 Y141.677 E20.54004
G1 X179.527 Y141.997 E20.68121
G1 X178.317 Y142.107 E20.82263
G1 X121.667 Y142.117 E27.41611
G1 X120.477 Y142.017 E27.55511
G1 X119.337 Y141.707 E27.69261
G1 X109.357 Y138.007 E28.93144
G1 X108.137 Y137.407 E29.08968
G1 X107.057 Y136.577 E29.24821
G1 X106.177 Y135.537 E29.40677
G1 X105.517 Y134.357 E29.56414
G1 X105.107 Y133.057 E29.72279
G1 X104.977 Y131.707 E29.88064
G1 X104.977 Y84.667 E35.35562
G1 X105.107 Y83.357 E35.50884
G1 X105.487 Y82.097 E35.66202
G1 X106.057 Y81.032 E35.80264
G1 F1800.000 E34.80264
G92 E0
G1 X114.230 Y87.211 F7200.000
G1 E1.00000 F1800.000
G1 X124.216 Y87.211 E2.16232 F1080.000
G1 X124.216 Y77.237 E3.32313
G1 X140.830 Y77.144 E5.25687
G1 X140.830 Y78.451 E5.40898
G1 X136.510 Y85.944 E6.41567
G1 X163.667 Y85.943 E9.57656
G1 X158.516 Y78.350 E10.64452
G1 X158.516 Y77.143 E10.78498
G1 X175.784 Y77.237 E12.79480
G1 X175.784 Y86.578 E13.88193
G1 X185.770 Y86.578 E15.04425
G1 X185.770 Y93.302 E15.82681
G1 X175.784 Y93.302 E16.98913
G1 X175.784 Y122.332 E20.36802
G1 X185.770 Y122.332 E21.53033
G1 X185.770 Y129.081 E22.31579
G1 X175.784 Y129.081 E23.47811
G1 X175.784 Y132.859 E23.91783
G1 X168.254 Y132.859 E24.79417
G1 X168.254 Y107.762 E27.71523
G1 X131.242 Y107.635 E32.02309
G1 X131.242 Y132.870 E34.96018
G1 X124.216 Y132.870 E35.77791
G1 X124.216 Y129.169 E36.20875
G1 X114.230 Y129.169 E37.37107
G1 X114.230 Y122.402 E38.15862
G1 X124.216 Y122.402 E39.32094
G1 X124.216 Y93.376 E42.69930
G1 X114.230 Y93.376 E43.86161
G1 X114.230 Y87.318 E44.56673
G1 X113.516 Y86.496 F7200.000
G1 X123.502 Y86.496 E45.72904 F1080.000
G1 X123.502 Y76.527 E46.88939
G1 X141.545 Y76.426 E48.98937
G1 X141.545 Y78.642 E49.24733
G1 X137.746 Y85.229 E50.13237
G1 X162.320 Y85.229 E52.99254
G1 X157.802 Y78.570 E53.92920
G1 X157.802 Y76.425 E54.17878
G1 X176.498 Y76.527 E56.35484
G1 X176.498 Y85.864 E57.44152
G1 X186.484 Y85.864 E58.60384
G1 X186.484 Y94.016 E59.55264
G1 X176.498 Y94.016 E60.71496
G1 X176.498 Y121.618 E63.92760
G1 X186.484 Y121.618 E65.08992
G1 X186.484 Y129.795 E66.04162
G1 X176.498 Y129.795 E67.20394
G1 X176.498 Y133.573 E67.64366
G1 X167.540 Y133.573 E68.68624
G1 X167.540 Y108.473 E71.60758
G1 X131.956 Y108.352 E75.74920
G1 X131.956 Y133.585 E78.68601
G1 X123.502 Y133.585 E79.66997
G1 X123.502 Y129.883 E80.10082
G1 X113.516 Y129.883 E81.26314
G1 X113.516 Y121.688 E82.21693
G1 X123.502 Y121.688 E83.37925
G1 X123.502 Y94.090 E86.59137
G1 X113.516 Y94.090 E87.75368
G1 X113.516 Y86.604 E88.62504
G1 X112.802 Y85.782 F7200.000
G1 X122.788 Y85.782 E89.78735 F1080.000
G1 X122.788 Y75.817 E90.94724
G1 X142.259 Y75.708 E93.21346
G1 X142.259 Y78.833 E93.57725
G1 X138.982 Y84.515 E94.34067
G1 X160.972 Y84.515 E96.90011
G1 X157.088 Y78.789 E97.70547
G1 X157.088 Y75.707 E98.06415
G1 X177.212 Y75.817 E100.40646
G1 X177.212 Y85.150 E101.49269
G1 X187.198 Y85.150 E102.65501
G1 X187.198 Y94.730 E103.77005
G1 X177.212 Y94.730 E104.93237
G1 X177.212 Y120.904 E107.97877
G1 X187.198 Y120.904 E109.14109
G1 X187.198 Y130.509 E110.25903
G1 X177.212 Y130.509 E111.42135
G1 X177.212 Y134.287 E111.86107
G1 X166.826 Y134.287 E113.06990
G1 X166.826 Y109.185 E115.99152
G1 X132.670 Y109.069 E119.96689
G1 X132.670 Y134.299 E122.90342
G1 X122.788 Y134.299 E124.05363
G1 X122.788 Y130.597 E124.48448
G1 X112.802 Y130.597 E125.64679
G1 X112.802 Y120.974 E126.76683
G1 X122.788 Y120.974 E127.92914
G1 X122.788 Y94.804 E130.97502
G1 X112.802 Y94.804 E132.13734
G1 X112.802 Y85.889 E133.17493
G1 X112.087 Y85.068 F7200.000
G1 X122.074 Y85.068 E134.33725 F756.000
G1 X122.074 Y75.107 E135.49667
G1 X142.973 Y74.989 E137.92914
G1 X142.973 Y79.024 E138.39877
G1 X140.218 Y83.801 E139.04054
G1 X159.625 Y83.801 E141.29927
G1 X156.373 Y79.009 E141.97332
G1 X156.373 Y74.989 E142.44112
G1 X177.926 Y75.107 E144.94967
G1 X177.926 Y84.435 E146.03544
G1 X187.913 Y84.435 E147.19776
G1 X187.913 Y95.444 E148.47905
G1 X177.926 Y95.444 E149.64137
G1 X177.926 Y120.190 E152.52153
G1 X187.913 Y120.190 E153.68384
G1 X187.913 Y131.223 E154.96803
G1 X177.926 Y131.223 E156.13034
G1 X177.926 Y135.001 E156.57007
G1 X166.112 Y135.001 E157.94513
G1 X166.112 Y109.897 E160.86704
G1 X133.385 Y109.785 E164.67617
G1 X133.385 Y135.013 E167.61241
G1 X122.074 Y135.013 E168.92886
G1 X122.074 Y131.311 E169.35971
G1 X112.087 Y131.311 E170.52203
G1 X112.087 Y120.260 E171.80830
G1 X122.074 Y120.260 E172.97062
G1 X122.074 Y95.518 E175.85026
G1 X112.087 Y95.518 E177.01257
G1 X112.087 Y85.175 E178.21641
G1 X112.706 Y85.425 F7200.000
G1 X115.665 Y92.894 F7200.000
G1 X114.712 Y91.941 E178.37471 F1080.000
G1 X114.712 Y90.922 E178.49430
G1 X116.684 Y92.894 E178.82174
G1 X117.703 Y92.894 E178.94134
G1 X114.712 Y89.903 E179.43790
G1 X114.712 Y88.885 E179.55750
G1 X118.721 Y92.894 E180.22321
G1 X119.740 Y92.894 E180.34280
G1 X114.712 Y87.866 E181.17764
G1 X115.557 Y87.692 E181.27894
G1 X120.759 Y92.894 E182.14259
G1 X121.777 Y92.894 E182.26218
G1 X116.576 Y87.692 E183.12583
G1 X117.594 Y87.692 E183.24543
G1 X122.796 Y92.894 E184.10908
G1 X123.815 Y92.894 F7200.000
G1 X118.613 Y87.692 E184.97273 F1080.000
G1 X119.632 Y87.692 E185.09232
G1 X139.120 Y107.181 E188.32789
G1 X140.142 Y107.184 E188.44790
G1 X120.651 Y87.692 E191.68405
G1 X121.669 Y87.692 E191.80365
G1 X141.165 Y107.188 E195.04038
G1 X142.187 Y107.191 E195.16038
G1 X122.688 Y87.692 E198.39769
G1 X123.707 Y87.692 E198.51729
G1 X143.209 Y107.194 E201.75517
G1 X144.231 Y107.198 E201.87518
G1 X124.698 Y87.665 E205.11818
G1 X124.698 Y86.646 E205.23778
G1 X145.253 Y107.201 E208.65050
G1 X146.276 Y107.205 E208.77050
G1 X124.698 Y85.627 E212.35293
G1 X124.698 Y84.609 E212.47253
G1 X147.298 Y107.208 E216.22468
G1 X148.320 Y107.212 E216.34468
G1 X124.698 Y83.590 E220.26654
G1 X124.698 Y82.571 E220.38614
G1 X149.342 Y107.215 E224.47771
G1 X150.364 Y107.219 E224.59772
G1 X124.698 Y81.553 E228.85901
G1 X124.698 Y80.534 E228.97861
G1 X151.387 Y107.222 E233.40961
G1 X152.409 Y107.226 E233.52961
G1 X124.698 Y79.515 E238.13033
G1 X124.698 Y78.496 E238.24993
G1 X153.431 Y107.229 E243.02036
G1 X154.453 Y107.233 E243.14037
G1 X124.935 Y77.715 E248.04115
G1 X125.948 Y77.709 E248.16008
G1 X155.475 Y107.236 E253.06239
G1 X156.498 Y107.240 E253.18240
G1 X126.961 Y77.703 E258.08622
G1 X127.974 Y77.698 E258.20516
G1 X136.051 Y85.774 E259.54610
G1 X136.424 Y85.128 E259.63367
G1 X128.987 Y77.692 E260.86828
G1 X130.000 Y77.686 E260.98721
G1 X136.796 Y84.482 E262.11550
G1 X137.169 Y83.836 E262.20306
G1 X131.013 Y77.681 E263.22502
G1 X132.026 Y77.675 E263.34395
G1 X137.541 Y83.190 E264.25957
G1 X137.914 Y82.544 E264.34713
G1 X133.040 Y77.669 E265.15643
G1 X134.053 Y77.664 E265.27536
G1 X138.287 Y81.898 E265.97832
G1 X138.659 Y81.252 E266.06588
G1 X135.066 Y77.658 E266.66251
G1 X136.079 Y77.652 E266.78144
G1 X139.032 Y80.605 E267.27174
G1 X139.404 Y79.959 E267.35930
G1 X137.092 Y77.647 E267.74327
G1 X138.105 Y77.641 E267.86220
G1 X139.777 Y79.313 E268.13984
G1 X140.150 Y78.667 E268.22740
G1 X139.118 Y77.635 E268.39871
G1 X140.131 Y77.630 E268.51764
G1 X140.349 Y77.847 E268.55380
G1 X140.777 Y86.425 F7200.000
G1 X161.609 Y107.257 E272.01245 F1080.000
G1 X162.631 Y107.261 E272.13246
G1 X141.795 Y86.425 E275.59170
G1 X142.814 Y86.425 E275.71129
G1 X163.653 Y107.264 E279.17111
G1 X164.675 Y107.268 E279.29111
G1 X143.833 Y86.425 E282.75151
G1 X144.852 Y86.425 E282.87110
G1 X165.698 Y107.271 E286.33208
G1 X166.720 Y107.275 E286.45208
G1 X145.870 Y86.425 E289.91363
G1 X146.889 Y86.425 E290.03323
G1 X167.742 Y107.278 E293.49536
G1 X168.736 Y108.272 F7200.000
G1 X175.302 Y114.838 E294.58548 F1080.000
G1 X175.302 Y113.819 E294.70507
G1 X147.908 Y86.425 E299.25322
G1 X148.927 Y86.425 E299.37281
G1 X175.302 Y112.801 E303.75182
G1 X175.302 Y111.782 E303.87141
G1 X149.945 Y86.425 E308.08128
G1 X150.964 Y86.425 E308.20088
G1 X175.302 Y110.763 E312.24162
G1 X175.302 Y109.744 E312.36121
G1 X151.983 Y86.425 E316.23281
G1 X153.001 Y86.425 E316.35241
G1 X175.302 Y108.726 E320.05487
G1 X175.302 Y107.707 E320.17447
G1 X154.020 Y86.425 E323.70780
G1 X155.039 Y86.425 E323.82740
G1 X175.302 Y106.688 E327.19159
G1 X175.302 Y105.669 E327.31119
G1 X156.058 Y86.425 E330.50624
G1 X157.076 Y86.425 E330.62584
G1 X175.302 Y104.651 E333.65176
G1 X175.302 Y103.632 E333.77136
G1 X158.095 Y86.425 E336.62815
G1 X159.114 Y86.425 E336.74774
G1 X175.302 Y102.613 E339.43540
G1 X175.302 Y101.595 E339.55499
G1 X160.133 Y86.425 E342.07351
G1 X161.151 Y86.425 E342.19311
G1 X175.302 Y100.576 E344.54249
G1 X175.302 Y99.557 E344.66208
G1 X162.170 Y86.425 E346.84233
G1 X163.189 Y86.425 E346.96193
G1 X175.302 Y98.538 E348.97304
G1 X175.302 Y97.520 E349.09263
G1 X164.207 Y86.425 E350.93461
G1 X163.205 Y84.404 F7200.000
G1 X175.302 Y96.501 E352.94297 F1080.000
G1 X175.302 Y95.482 E353.06256
G1 X161.056 Y81.236 E355.42776
G1 X161.536 Y77.642 F7200.000
G1 X176.714 Y92.820 E357.94773 F1080.000
G1 X177.733 Y92.820 E358.06733
G1 X162.561 Y77.647 E360.58638
G1 X163.585 Y77.653 E360.70663
G1 X178.752 Y92.820 E363.22475
G1 X179.771 Y92.820 E363.34435
G1 X164.609 Y77.658 E365.86154
G1 X165.633 Y77.664 E365.98179
G1 X180.789 Y92.820 E368.49806
G1 X181.808 Y92.820 E368.61766
G1 X176.048 Y87.060 E369.57401
G1 X177.066 Y87.060 E369.69360
G1 X182.827 Y92.820 E370.64995
G1 X183.845 Y92.820 E370.76955
G1 X178.085 Y87.060 E371.72589
G1 X179.104 Y87.060 E371.84549
G1 X184.864 Y92.820 E372.80183
G1 X185.288 Y92.225 E372.88758
G1 X180.123 Y87.060 E373.74521
G1 X181.141 Y87.060 E373.86480
G1 X185.288 Y91.206 E374.55330
G1 X185.288 Y90.188 E374.67290
G1 X182.160 Y87.060 E375.19226
G1 X183.179 Y87.060 E375.31185
G1 X185.288 Y89.169 E375.66208
G1 X185.288 Y88.150 E375.78167
G1 X184.198 Y87.060 E375.96276
G1 X185.216 Y87.060 E376.08236
G1 X185.288 Y87.132 E376.09431
G1 X175.302 Y86.314 F7200.000
G1 X166.658 Y77.670 E377.52947 F1080.000
G1 X167.682 Y77.675 E377.64973
G1 X175.302 Y85.295 E378.91483
G1 X175.302 Y84.276 E379.03443
G1 X168.706 Y77.681 E380.12947
G1 X169.731 Y77.686 E380.24972
G1 X175.302 Y83.258 E381.17470
G1 X175.302 Y82.239 E381.29430
G1 X170.755 Y77.692 E382.04922
G1 X171.779 Y77.697 E382.16947
G1 X175.302 Y81.220 E382.75433
G1 X175.302 Y80.201 E382.87393
G1 X172.803 Y77.703 E383.28873
G1 X173.828 Y77.709 E383.40898
G1 X175.302 Y79.183 E383.65372
G1 X175.302 Y78.164 E383.77332
G1 X174.852 Y77.714 E383.84800
G1 X160.512 Y77.636 F7200.000
G1 X175.696 Y92.820 E386.36889 F1080.000
G1 X175.302 Y93.445 E386.45561
G1 X159.488 Y77.631 E389.08120
G1 X158.998 Y78.159 E389.16583
G1 X175.302 Y94.464 E391.87277
G1 X168.736 Y109.291 F7200.000
G1 X175.302 Y115.857 E392.96289 F1080.000
G1 X175.302 Y116.875 E393.08249
G1 X168.736 Y110.310 E394.17260
G1 X168.736 Y111.328 E394.29220
G1 X175.302 Y117.894 E395.38232
G1 X175.302 Y118.913 E395.50192
G1 X168.736 Y112.347 E396.59203
G1 X168.736 Y113.366 E396.71163
G1 X175.302 Y119.932 E397.80175
G1 X175.302 Y120.950 E397.92134
G1 X168.736 Y114.384 E399.01146
G1 X168.736 Y115.403 E399.13106
G1 X175.302 Y121.969 E400.22118
G1 X176.147 Y122.814 F7200.000
G1 X181.932 Y128.599 E401.18165 F1080.000
G1 X182.951 Y128.599 E401.30125
G1 X177.165 Y122.814 E402.26172
G1 X178.184 Y122.814 E402.38132
G1 X183.969 Y128.599 E403.34179
G1 X184.988 Y128.599 E403.46138
G1 X179.203 Y122.814 E404.42186
G1 X180.222 Y122.814 E404.54145
G1 X185.288 Y127.881 E405.38265
G1 X185.288 Y126.862 E405.50225
G1 X181.240 Y122.814 E406.17431
G1 X182.259 Y122.814 E406.29390
G1 X185.288 Y125.843 E406.79683
G1 X185.288 Y124.824 E406.91642
G1 X183.278 Y122.814 E407.25021
G1 X184.297 Y122.814 E407.36981
G1 X185.288 Y123.806 E407.53446
G1 X180.913 Y128.599 F7200.000
G1 X168.736 Y116.422 E409.55619 F1080.000
G1 X168.736 Y117.441 E409.67579
G1 X179.894 Y128.599 E411.52838
G1 X178.876 Y128.599 E411.64797
G1 X168.736 Y118.459 E413.33143
G1 X168.736 Y119.478 E413.45103
G1 X177.857 Y128.599 E414.96535
G1 X176.838 Y128.599 E415.08494
G1 X168.736 Y120.497 E416.43013
G1 X168.736 Y121.516 E416.54972
G1 X175.819 Y128.599 E417.72577
G1 X175.302 Y129.100 E417.81035
G1 X168.736 Y122.534 E418.90047
G1 X168.736 Y123.553 E419.02007
G1 X175.302 Y130.119 E420.11018
G1 X175.302 Y131.138 E420.22978
G1 X168.736 Y124.572 E421.31990
G1 X168.736 Y125.590 E421.43950
G1 X175.302 Y132.156 E422.52961
G1 X174.504 Y132.377 E422.62682
G1 X168.736 Y126.609 E423.58444
G1 X168.736 Y127.628 E423.70404
G1 X173.485 Y132.377 E424.49252
G1 X172.466 Y132.377 E424.61212
G1 X168.736 Y128.647 E425.23146
G1 X168.736 Y129.665 E425.35106
G1 X171.448 Y132.377 E425.80127
G1 X170.429 Y132.377 E425.92087
G1 X168.736 Y130.684 E426.20195
G1 X168.736 Y131.703 E426.32154
G1 X169.410 Y132.377 E426.43348
G1 F1800.000 E425.43348
G92 E0
G1 X160.587 Y107.254 F7200.000
G1 E1.00000 F1800.000
G1 X139.758 Y86.425 E4.45808 F1080.000
G1 X138.739 Y86.425 E4.57768
G1 X159.564 Y107.250 E8.03518
G1 X158.542 Y107.247 E8.15518
G1 X137.721 Y86.425 E11.61210
G1 X136.702 Y86.425 E11.73170
G1 X157.520 Y107.243 E15.18804
G1 X124.698 Y93.777 F7200.000
G1 X138.098 Y107.177 E17.41276 F1080.000
G1 X137.076 Y107.174 E17.53277
G1 X124.698 Y94.796 E19.58777
G1 X124.698 Y95.815 E19.70737
G1 X136.053 Y107.170 E21.59266
G1 X135.031 Y107.167 E21.71266
G1 X124.698 Y96.833 E23.42824
G1 X124.698 Y97.852 E23.54784
G1 X134.009 Y107.163 E25.09370
G1 X132.987 Y107.160 E25.21371
G1 X124.698 Y98.871 E26.58985
G1 X124.698 Y99.890 E26.70945
G1 X131.965 Y107.156 E27.91588
G1 X130.942 Y107.153 E28.03589
G1 X124.698 Y100.908 E29.07261
G1 X124.698 Y101.927 E29.19221
G1 X130.760 Y107.989 E30.19871
G1 X130.760 Y109.008 E30.31831
G1 X124.698 Y102.946 E31.32481
G1 X124.698 Y103.965 E31.44441
G1 X130.760 Y110.027 E32.45091
G1 X130.760 Y111.046 E32.57051
G1 X124.698 Y104.983 E33.57701
G1 X124.698 Y106.002 E33.69661
G1 X130.760 Y112.064 E34.70311
G1 X130.760 Y113.083 E34.82271
G1 X124.698 Y107.021 E35.82921
G1 X124.698 Y108.039 E35.94881
G1 X130.760 Y114.102 E36.95531
G1 X130.760 Y115.120 E37.07491
G1 X124.698 Y109.058 E38.08141
G1 X124.698 Y110.077 E38.20101
G1 X130.760 Y116.139 E39.20751
G1 X130.760 Y117.158 E39.32710
G1 X124.698 Y111.096 E40.33361
G1 X124.698 Y112.114 E40.45320
G1 X130.760 Y118.177 E41.45971
G1 X130.760 Y119.195 E41.57930
G1 X124.698 Y113.133 E42.58581
G1 X124.698 Y114.152 E42.70540
G1 X130.760 Y120.214 E43.71191
G1 X130.760 Y121.233 E43.83150
G1 X124.698 Y115.171 E44.83800
G1 X124.698 Y116.189 E44.95760
G1 X130.760 Y122.252 E45.96410
G1 X130.760 Y123.270 E46.08370
G1 X124.698 Y117.208 E47.09020
G1 X124.698 Y118.227 E47.20980
G1 X130.760 Y124.289 E48.21630
G1 X130.760 Y125.308 E48.33590
G1 X124.698 Y119.245 E49.34240
