; generated by Slic3r 1.0.0RC2 on 2014-05-15 at 11:59:08

; layer_height = 0.3
; perimeters = 4
; top_solid_layers = 3
; bottom_solid_layers = 3
; fill_density = 0.1
; perimeter_speed = 60
; infill_speed = 60
; travel_speed = 120
; nozzle_diameter = 0.4
; filament_diameter = 1.75
; extrusion_multiplier = 0.98
; perimeters extrusion width = 0.40mm
; infill extrusion width = 0.42mm
; solid infill extrusion width = 0.42mm
; top infill extrusion width = 0.42mm
; first layer extrusion width = 0.80mm

G21 ; set units to millimeters
M107
M104 S220 ; set temperature
G28 ; home all axes
M106 S255;
G1 Z200 F1200 ; lift nozzle
M109 S220 ; wait for temperature to be reached
G90 ; use absolute coordinates
G92 E0
M82 ; use absolute distances for extrusion
G1 F1800.000 E-1.00000
G92 E0
G1 Z0.400 F7200.000
G1 X75.416 Y43.880 F7200.000
G1 E1.00000 F1800.000
G1 X76.466 Y42.880 E1.16877 F1080.000
G1 X77.716 Y42.130 E1.33843
G1 X79.086 Y41.670 E1.50663
G1 X80.526 Y41.520 E1.67514
G1 X234.586 Y41.520 E19.60616
G1 X235.866 Y41.640 E19.75580
G1 X237.096 Y42.000 E19.90496
G1 X253.176 Y48.490 E21.92320
G1 X254.356 Y49.110 E22.07834
G1 X255.386 Y49.940 E22.23230
G1 X256.236 Y50.960 E22.38684
G1 X256.866 Y52.130 E22.54150
G1 X257.246 Y53.400 E22.69579
G1 X257.376 Y54.720 E22.85017
G1 X257.376 Y135.210 E32.21839
G1 X257.206 Y136.720 E32.39525
G1 X256.706 Y138.150 E32.57157
G1 X255.886 Y139.430 E32.74850
G1 X254.806 Y140.500 E32.92544
G1 X253.506 Y141.290 E33.10250
G1 X210.616 Y161.310 E38.61150
G1 X195.456 Y167.920 E40.53640
G1 X194.146 Y168.340 E40.69652
G1 X192.776 Y168.480 E40.85680
G1 X89.776 Y168.480 E52.84496
G1 X88.316 Y168.320 E53.01590
G1 X86.916 Y167.850 E53.18779
G1 X85.666 Y167.080 E53.35866
G1 X77.756 Y160.950 E54.52341
G1 X76.606 Y159.820 E54.71106
G1 X75.766 Y158.450 E54.89810
G1 X43.216 Y87.680 E63.96448
G1 X42.796 Y86.480 E64.11246
G1 X42.606 Y85.220 E64.26077
G1 X42.666 Y83.950 E64.40875
G1 X42.956 Y82.720 E64.55583
G1 X43.476 Y81.560 E64.70379
G1 X44.206 Y80.520 E64.85168
G1 X75.346 Y43.962 E70.44112
G1 F1800.000 E69.44112
G92 E0
G1 X118.845 Y58.057 F7200.000
G1 E1.00000 F1800.000
G1 X128.751 Y58.097 E2.15287 F1080.000
G1 X128.736 Y72.243 E3.79937
G1 X118.831 Y72.217 E4.95223
G1 X118.845 Y58.164 E6.58785
G1 X119.559 Y58.774 F7200.000
G1 X128.036 Y58.808 E7.57447 F756.000
G1 X128.023 Y71.527 E9.05484
G1 X119.546 Y71.505 E10.04147
G1 X119.559 Y58.881 E11.51073
G1 X119.561 Y58.060 F7200.000
G1 F1800.000 E10.51073
G92 E0
G1 X132.202 Y65.300 F7200.000
G1 E1.00000 F1800.000
G1 X138.211 Y66.392 E1.71080 F540.000
G1 X136.420 Y76.229 E2.87453
G1 X130.250 Y74.948 E3.60791
G1 X132.181 Y65.405 E4.74107
G1 X132.763 Y66.128 F7200.000
G1 X137.380 Y66.967 E5.28724 F540.000
G1 X135.848 Y75.381 E6.28262
G1 X131.091 Y74.393 E6.84811
G1 X132.742 Y66.233 E7.81709
G1 X132.896 Y65.426 F7200.000
G1 X132.292 Y65.432 F7200.000
G1 X126.163 Y94.046 F7200.000
G1 X130.180 Y92.520 F7200.000
G1 X130.163 Y109.521 E9.79585 F1080.000
G1 X118.909 Y109.491 E11.10575
G1 X119.992 Y113.061 E11.53987
G1 X120.383 Y117.040 E12.00527
G1 X119.992 Y121.019 E12.47068
G1 X119.223 Y123.552 E12.77870
G1 X119.522 Y123.552 E12.81351
G1 X116.946 Y128.372 E13.44968
G1 X114.409 Y131.463 E13.91508
G1 X111.318 Y134.000 E14.38048
G1 X107.792 Y135.885 E14.84589
G1 X103.965 Y137.046 E15.31129
G1 X99.986 Y137.438 E15.77669
G1 X96.006 Y137.046 E16.24209
G1 X92.180 Y135.885 E16.70749
G1 X88.653 Y134.000 E17.17289
G1 X85.562 Y131.463 E17.63829
G1 X83.026 Y128.372 E18.10370
G1 X81.141 Y124.846 E18.56910
G1 X79.980 Y121.019 E19.03450
G1 X79.588 Y117.040 E19.49990
G1 X79.980 Y113.061 E19.96525
G1 X81.141 Y109.234 E20.43070
G1 X83.026 Y105.708 E20.89610
G1 X85.562 Y102.617 E21.36151
G1 X88.653 Y100.080 E21.82691
G1 X92.180 Y98.195 E22.29232
G1 X96.006 Y97.034 E22.75772
G1 X99.986 Y96.642 E23.22312
G1 X104.260 Y97.063 E23.72295
G1 X104.260 Y96.307 E23.81095
G1 X111.318 Y100.080 E24.74249
G1 X114.409 Y102.617 E25.20790
G1 X117.405 Y106.267 E25.75746
G1 X117.419 Y92.469 E27.36341
G1 X130.073 Y92.520 E28.83629
G1 X129.466 Y93.231 F7200.000
G1 X129.450 Y108.805 E30.64892 F1080.000
G1 X118.116 Y108.775 E31.96803
G1 X118.132 Y93.186 E33.78247
G1 X129.358 Y93.231 E35.08911
G1 X128.751 Y93.943 F7200.000
G1 X128.736 Y108.089 E36.73561 F1080.000
G1 X118.831 Y108.063 E37.88848
G1 X118.845 Y93.903 E39.53656
G1 X128.644 Y93.942 E40.67696
G1 X128.036 Y94.654 F7200.000
G1 X128.023 Y107.373 E42.15733 F756.000
G1 X119.546 Y107.351 E43.14396
G1 X119.559 Y94.620 E44.62569
G1 X127.929 Y94.653 E45.59984
G1 X128.750 Y94.655 F7200.000
G1 X139.646 Y107.719 F7200.000
G1 X118.704 Y115.722 F7200.000
G1 X118.949 Y104.017 F7200.000
G1 X116.349 Y106.106 F7200.000
G1 X118.168 Y109.509 E46.04887 F1080.000
G1 X119.288 Y113.201 E46.49789
G1 X119.666 Y117.040 E46.94693
G1 X119.288 Y120.879 E47.39596
G1 X118.260 Y124.266 E47.80787
G1 X118.331 Y124.266 E47.81608
G1 X116.349 Y127.974 E48.30538
G1 X113.902 Y130.956 E48.75441
G1 X110.919 Y133.403 E49.20344
G1 X107.517 Y135.222 E49.65247
G1 X103.825 Y136.342 E50.10150
G1 X99.986 Y136.720 E50.55053
G1 X96.146 Y136.342 E50.99955
G1 X92.454 Y135.222 E51.44858
G1 X89.052 Y133.403 E51.89761
G1 X86.070 Y130.956 E52.34664
G1 X83.622 Y127.974 E52.79567
G1 X81.804 Y124.571 E53.24470
G1 X80.684 Y120.879 E53.69373
G1 X80.306 Y117.040 E54.14275
G1 X80.684 Y113.201 E54.59174
G1 X81.804 Y109.509 E55.04081
G1 X83.622 Y106.106 E55.48983
G1 X86.070 Y103.124 E55.93887
G1 X89.052 Y100.677 E56.38790
G1 X92.455 Y98.858 E56.83692
G1 X96.146 Y97.738 E57.28595
G1 X99.986 Y97.360 E57.73498
G1 X103.825 Y97.738 E58.18401
G1 X104.974 Y98.087 E58.32371
G1 X104.974 Y97.499 E58.39213
G1 X110.919 Y100.677 E59.17680
G1 X113.902 Y103.124 E59.62583
G1 X116.281 Y106.024 E60.06239
G1 X115.752 Y106.505 F7200.000
G1 X117.505 Y109.783 E60.49505 F1080.000
G1 X118.584 Y113.341 E60.92770
G1 X118.948 Y117.040 E61.36036
G1 X118.584 Y120.739 E61.79301
G1 X117.505 Y124.297 E62.22567
G1 X115.752 Y127.575 E62.65833
G1 X113.394 Y130.449 E63.09098
G1 X110.521 Y132.807 E63.52364
G1 X107.242 Y134.559 E63.95629
G1 X103.685 Y135.638 E64.38895
G1 X99.986 Y136.003 E64.82161
G1 X96.286 Y135.638 E65.25426
G1 X92.729 Y134.559 E65.68691
G1 X89.451 Y132.807 E66.11956
G1 X86.577 Y130.449 E66.55222
G1 X84.219 Y127.575 E66.98488
G1 X82.467 Y124.297 E67.41754
G1 X81.388 Y120.739 E67.85019
G1 X81.023 Y117.040 E68.28284
G1 X81.388 Y113.341 E68.71548
G1 X82.467 Y109.783 E69.14815
G1 X84.219 Y106.505 E69.58080
G1 X86.577 Y103.632 E70.01347
G1 X89.451 Y101.273 E70.44612
G1 X92.729 Y99.521 E70.87878
G1 X96.286 Y98.442 E71.31143
G1 X99.986 Y98.078 E71.74409
G1 X103.685 Y98.442 E72.17674
G1 X105.688 Y99.049 E72.42033
G1 X105.688 Y98.690 E72.46215
G1 X110.521 Y101.273 E73.09995
G1 X113.394 Y103.632 E73.53261
G1 X115.685 Y106.422 E73.95280
G1 X115.156 Y106.904 F7200.000
G1 X116.842 Y110.058 E74.36908 F756.000
G1 X117.880 Y113.481 E74.78536
G1 X118.231 Y117.040 E75.20165
G1 X117.880 Y120.599 E75.61793
G1 X116.842 Y124.022 E76.03421
G1 X115.156 Y127.176 E76.45050
G1 X112.887 Y129.941 E76.86678
G1 X110.122 Y132.210 E77.28306
G1 X106.968 Y133.896 E77.69934
G1 X103.545 Y134.934 E78.11562
G1 X99.986 Y135.285 E78.53191
G1 X96.426 Y134.934 E78.94819
G1 X93.004 Y133.896 E79.36447
G1 X89.849 Y132.210 E79.78075
G1 X87.085 Y129.941 E80.19703
G1 X84.816 Y127.176 E80.61332
G1 X83.130 Y124.022 E81.02960
G1 X82.091 Y120.599 E81.44588
G1 X81.741 Y117.040 E81.86216
G1 X82.091 Y113.481 E82.27843
G1 X83.130 Y110.058 E82.69472
G1 X84.816 Y106.904 E83.11100
G1 X87.085 Y104.139 E83.52729
G1 X89.849 Y101.870 E83.94357
G1 X93.004 Y100.184 E84.35985
G1 X96.426 Y99.146 E84.77613
G1 X99.986 Y98.795 E85.19242
G1 X103.545 Y99.146 E85.60870
G1 X106.402 Y100.012 E85.95617
G1 X106.402 Y99.882 E85.97139
G1 X110.122 Y101.870 E86.46233
G1 X112.887 Y104.139 E86.87862
G1 X115.088 Y106.821 E87.28243
G1 X115.870 Y106.880 F7200.000
G1 X118.949 Y104.017 F7200.000
G1 X118.704 Y115.722 F7200.000
G1 X123.997 Y130.127 F7200.000
G1 X120.331 Y128.935 F7200.000
G1 X124.617 Y134.280 E88.07978 F1080.000
G1 X124.685 Y135.309 E88.19981
G1 X118.390 Y136.670 E88.94935
G1 X118.390 Y138.165 E89.12346
G1 X116.239 Y146.227 E90.09458
G1 X103.675 Y152.944 E91.75275
G1 X90.146 Y158.838 E93.47031
G1 X84.327 Y154.336 E94.32668
G1 X83.693 Y145.208 E95.39167
G1 X64.298 Y107.980 E100.27737
G1 X65.422 Y107.351 E100.42722
G1 X72.252 Y108.021 E101.22599
G1 X61.455 Y87.463 E103.92861
G1 X58.250 Y94.128 E104.78937
G1 X57.301 Y94.657 E104.91576
G1 X53.517 Y87.420 E105.86620
G1 X83.069 Y87.420 E109.30586
G1 X83.069 Y50.772 E113.57132
G1 X131.096 Y50.772 E119.16117
G1 X145.126 Y56.427 E120.92172
G1 X145.126 Y61.856 E121.55361
G1 X143.839 Y61.891 E121.70346
G1 X138.103 Y58.122 E122.50223
G1 X138.103 Y64.921 E123.29350
G1 X131.080 Y63.645 E124.12434
G1 X130.687 Y65.587 E124.35495
G1 X130.171 Y65.535 E124.41528
G1 X130.180 Y56.674 E125.44652
G1 X117.419 Y56.623 E126.93188
G1 X117.401 Y73.642 E128.91267
G1 X129.051 Y73.673 E130.26858
G1 X128.568 Y76.057 E130.55176
G1 X138.104 Y78.037 E131.68527
G1 X138.104 Y81.342 E132.06998
G1 X144.040 Y76.932 E132.93073
G1 X145.126 Y76.905 E133.05712
G1 X145.126 Y97.075 E135.40465
G1 X143.839 Y97.109 E135.55450
G1 X138.103 Y93.341 E136.35327
G1 X138.104 Y116.561 E139.05589
G1 X144.040 Y112.150 E139.91664
G1 X145.126 Y112.124 E140.04303
G1 X145.131 Y132.932 E142.46485
G1 X139.655 Y133.517 E143.10585
G1 X139.619 Y132.995 E143.16674
G1 X143.401 Y126.684 E144.02314
G1 X120.438 Y128.925 E146.70859
G1 X121.714 Y129.518 F7200.000
G1 X125.314 Y134.008 E147.37852 F1080.000
G1 X125.438 Y135.876 E147.59644
G1 X119.104 Y137.246 E148.35063
G1 X119.104 Y138.259 E148.46858
G1 X116.849 Y146.711 E149.48667
G1 X103.987 Y153.588 E151.18426
G1 X90.044 Y159.661 E152.95437
G1 X83.636 Y154.705 E153.89724
G1 X82.991 Y145.406 E154.98218
G1 X65.339 Y111.498 E159.43136
G1 X63.342 Y107.696 E159.93122
G1 X65.268 Y106.619 E160.18809
G1 X71.004 Y107.181 E160.85885
G1 X61.483 Y89.053 E163.24210
G1 X58.795 Y94.642 E163.96392
G1 X57.009 Y95.637 E164.20187
G1 X52.339 Y86.706 E165.37483
G1 X82.355 Y86.706 E168.86843
G1 X82.355 Y50.058 E173.13389
G1 X131.235 Y50.058 E178.82298
G1 X145.840 Y55.945 E180.65577
G1 X145.840 Y62.552 E181.42472
G1 X143.634 Y62.610 E181.68159
G1 X138.817 Y59.446 E182.35235
G1 X138.818 Y65.776 E183.08913
G1 X131.641 Y64.472 E183.93807
G1 X129.966 Y72.753 E184.92138
G1 X129.450 Y72.701 E184.98171
G1 X129.466 Y57.386 E186.76426
G1 X118.132 Y57.340 E188.08337
G1 X118.116 Y72.930 E189.89781
G1 X129.924 Y72.961 E191.27208
G1 X129.409 Y75.502 E191.57392
G1 X136.991 Y77.077 E192.47519
G1 X138.285 Y69.973 E193.31561
G1 X138.818 Y70.021 E193.37790
G1 X138.818 Y79.922 E194.53032
G1 X143.796 Y76.224 E195.25214
G1 X145.840 Y76.173 E195.49009
G1 X145.840 Y97.770 E198.00376
G1 X143.634 Y97.829 E198.26063
G1 X138.817 Y94.664 E198.93139
G1 X138.818 Y115.141 E201.31463
G1 X143.796 Y111.442 E202.03645
G1 X145.840 Y111.392 E202.27440
G1 X145.846 Y133.573 E204.85611
G1 X138.992 Y134.306 E205.65831
G1 X138.892 Y132.820 E205.83167
G1 X142.060 Y127.532 E206.54921
G1 X121.820 Y129.507 E208.91615
G1 X123.096 Y130.100 F7200.000
G1 X126.012 Y133.737 E209.45868 F1080.000
G1 X126.191 Y136.444 E209.77448
G1 X119.819 Y137.822 E210.53333
G1 X119.819 Y138.353 E210.59510
G1 X117.459 Y147.194 E211.66017
G1 X104.298 Y154.231 E213.39718
G1 X89.942 Y160.485 E215.21983
G1 X82.946 Y155.074 E216.24920
G1 X82.289 Y145.603 E217.35410
G1 X64.706 Y111.829 E221.78582
G1 X62.387 Y107.413 E222.36647
G1 X65.115 Y105.886 E222.73035
G1 X69.756 Y106.341 E223.27311
G1 X61.511 Y90.642 E225.33698
G1 X59.341 Y95.155 E225.91987
G1 X56.717 Y96.617 E226.26938
G1 X51.161 Y85.992 E227.66485
G1 X81.641 Y85.992 E231.21240
G1 X81.641 Y49.344 E235.47786
G1 X131.374 Y49.344 E241.26620
G1 X146.554 Y55.463 E243.17122
G1 X146.554 Y63.247 E244.07723
G1 X143.429 Y63.330 E244.44111
G1 X139.532 Y60.770 E244.98387
G1 X139.532 Y78.502 E247.04773
G1 X143.552 Y75.515 E247.63062
G1 X146.554 Y75.441 E247.98013
G1 X146.554 Y98.466 E250.65994
G1 X143.429 Y98.549 E251.02382
G1 X139.532 Y95.988 E251.56658
G1 X139.532 Y113.720 E253.63045
G1 X143.552 Y110.734 E254.21333
G1 X146.554 Y110.660 E254.56284
G1 X146.561 Y134.215 E257.30444
G1 X138.330 Y135.096 E258.26784
G1 X138.164 Y132.645 E258.55367
G1 X140.719 Y128.381 E259.13234
G1 X123.203 Y130.090 E261.18078
G1 X124.479 Y130.683 F7200.000
G1 X126.710 Y133.465 E261.59590 F756.000
G1 X126.944 Y137.012 E262.00959
G1 X120.533 Y138.398 E262.77309
G1 X118.070 Y147.678 E263.89055
G1 X104.610 Y154.874 E265.66697
G1 X89.839 Y161.309 E267.54218
G1 X82.256 Y155.443 E268.65803
G1 X81.586 Y145.801 E269.78290
G1 X64.073 Y112.160 E274.19716
G1 X61.431 Y107.129 E274.85861
G1 X64.962 Y105.153 E275.32950
G1 X68.508 Y105.501 E275.74426
G1 X61.539 Y92.232 E277.48875
G1 X59.886 Y95.669 E277.93270
G1 X56.425 Y97.597 E278.39378
G1 X49.984 Y85.278 E280.01176
G1 X80.927 Y85.278 E283.61326
G1 X80.927 Y48.630 E287.87871
G1 X131.512 Y48.630 E293.76629
G1 X147.268 Y54.981 E295.74355
G1 X147.268 Y63.943 E296.78662
G1 X143.224 Y64.050 E297.25752
G1 X140.246 Y62.093 E297.67227
G1 X140.246 Y77.082 E299.41676
G1 X143.308 Y74.807 E299.86071
G1 X147.268 Y74.709 E300.32179
G1 X147.268 Y99.161 E303.16774
G1 X143.224 Y99.269 E303.63863
G1 X140.246 Y97.312 E304.05338
G1 X140.246 Y112.300 E305.79788
G1 X143.308 Y110.025 E306.24183
G1 X147.268 Y109.928 E306.70290
G1 X147.276 Y134.857 E309.60439
G1 X137.668 Y135.885 E310.72898
G1 X137.436 Y132.470 E311.12728
G1 X139.379 Y129.229 E311.56709
G1 X124.585 Y130.672 E313.29703
G1 X123.846 Y131.015 F7200.000
G1 X120.647 Y130.099 F7200.000
G1 X117.990 Y127.442 E313.73589 F1080.000
G1 X117.637 Y128.102 E313.82333
G1 X124.156 Y134.622 E314.90008
G1 X123.576 Y135.055 E314.98464
G1 X117.265 Y128.744 E316.02702
G1 X116.808 Y129.300 E316.11110
G1 X122.743 Y135.235 E317.09131
G1 X121.910 Y135.416 E317.19086
G1 X116.351 Y129.857 E318.10889
G1 X115.894 Y130.413 E318.19298
G1 X121.076 Y135.596 E319.04885
G1 X120.243 Y135.776 E319.14840
G1 X115.437 Y130.970 E319.94209
G1 X114.981 Y131.527 E320.02618
G1 X119.410 Y135.956 E320.75770
G1 X118.577 Y136.136 E320.85726
G1 X114.474 Y132.033 E321.53482
G1 X113.918 Y132.490 E321.61891
G1 X117.908 Y136.481 E322.27799
G1 X117.908 Y137.494 E322.39634
G1 X113.361 Y132.947 E323.14734
G1 X112.804 Y133.404 E323.23143
G1 X117.823 Y138.422 E324.06026
G1 X117.609 Y139.222 E324.15694
G1 X112.248 Y133.861 E325.04244
G1 X111.691 Y134.317 E325.12653
G1 X117.396 Y140.022 E326.06871
G1 X117.183 Y140.822 E326.16539
G1 X111.050 Y134.690 E327.17818
G1 X110.390 Y135.043 E327.26562
G1 X116.969 Y141.622 E328.35222
G1 X116.756 Y142.422 E328.44891
G1 X109.729 Y135.396 E329.60932
G1 X109.069 Y135.749 E329.69677
G1 X116.542 Y143.222 E330.93100
G1 X116.329 Y144.022 E331.02769
G1 X108.409 Y136.102 E332.33573
G1 X107.708 Y136.414 E332.42535
G1 X116.115 Y144.822 E333.81391
G1 X115.902 Y145.622 E333.91060
G1 X106.930 Y136.650 E335.39232
G1 X106.153 Y136.886 E335.48720
G1 X115.397 Y146.131 E337.01402
G1 X114.737 Y146.484 E337.10146
G1 X105.375 Y137.122 E338.64763
G1 X104.598 Y137.358 E338.74252
G1 X114.077 Y146.837 E340.30804
G1 X113.416 Y147.190 E340.39548
G1 X103.775 Y137.549 E341.98774
G1 X102.853 Y137.640 E342.09599
G1 X112.756 Y147.543 E343.73154
G1 X112.096 Y147.896 E343.81899
G1 X101.930 Y137.730 E345.49784
G1 X101.008 Y137.821 E345.60610
G1 X111.435 Y148.249 E347.32825
G1 X110.775 Y148.602 E347.41570
G1 X100.085 Y137.912 E349.18115
G1 X98.983 Y137.823 E349.31030
G1 X110.115 Y148.955 E351.14875
G1 X109.455 Y149.308 E351.23619
G1 X97.859 Y137.713 E353.15123
G1 X96.735 Y137.602 E353.28314
G1 X108.794 Y149.661 E355.27477
G1 X108.134 Y150.014 E355.36222
G1 X95.522 Y137.403 E357.44506
G1 X94.068 Y136.961 E357.62258
G1 X107.474 Y150.367 E359.83661
G1 X106.813 Y150.720 E359.92405
G1 X92.613 Y136.520 E362.26926
G1 X90.743 Y135.664 F7200.000
G1 X106.153 Y151.073 E364.81423 F1080.000
G1 X105.493 Y151.426 E364.90168
G1 X88.566 Y134.500 E367.69712
G1 X82.526 Y128.460 F7200.000
G1 X67.882 Y113.815 E370.11567 F1080.000
G1 X68.984 Y115.931 F7200.000
G1 X104.832 Y151.779 E376.03619 F1080.000
G1 X104.172 Y152.132 E376.12364
