; generated by Slic3r 1.0.0RC2 on 2014-05-15 at 11:53:40

; layer_height = 0.3
; perimeters = 4
; top_solid_layers = 3
; bottom_solid_layers = 3
; fill_density = 0.1
; perimeter_speed = 60
; infill_speed = 60
; travel_speed = 120
; nozzle_diameter = 0.4
; filament_diameter = 1.75
; extrusion_multiplier = 0.98
; perimeters extrusion width = 0.40mm
; infill extrusion width = 0.42mm
; solid infill extrusion width = 0.42mm
; top infill extrusion width = 0.42mm
; first layer extrusion width = 0.80mm

G21 ; set units to millimeters
M107
M104 S220 ; set temperature
G28 ; home all axes
M106 S255;
G1 Z200 F1200 ; lift nozzle
M109 S220 ; wait for temperature to be reached
G90 ; use absolute coordinates
G92 E0
M82 ; use absolute distances for extrusion
G1 F1800.000 E-1.00000
G92 E0
G1 Z0.400 F7200.000
G1 X94.100 Y52.134 F7200.000
G1 E1.00000 F1800.000
G1 X94.930 Y51.104 E1.15396 F1080.000
G1 X95.950 Y50.264 E1.30775
G1 X97.120 Y49.634 E1.46242
G1 X98.390 Y49.244 E1.61704
G1 X99.710 Y49.114 E1.77142
G1 X180.210 Y49.114 E11.14081
G1 X181.720 Y49.284 E11.31767
G1 X183.150 Y49.784 E11.49398
G1 X184.430 Y50.604 E11.67091
G1 X185.500 Y51.684 E11.84786
G1 X186.290 Y52.984 E12.02491
G1 X206.310 Y95.874 E17.53392
G1 X212.920 Y111.034 E19.45882
G1 X213.350 Y112.404 E19.62594
G1 X213.480 Y113.824 E19.79191
G1 X213.310 Y115.254 E19.95952
G1 X212.830 Y116.604 E20.12628
G1 X212.080 Y117.824 E20.29296
G1 X205.950 Y125.734 E21.45770
G1 X204.820 Y126.884 E21.64535
G1 X203.450 Y127.724 E21.83239
G1 X132.680 Y160.274 E30.89878
G1 X131.480 Y160.694 E31.04676
G1 X130.220 Y160.884 E31.19507
G1 X128.950 Y160.824 E31.34305
G1 X127.720 Y160.534 E31.49013
G1 X126.560 Y160.014 E31.63809
G1 X125.520 Y159.284 E31.78598
G1 X88.880 Y128.074 E37.38789
G1 X87.880 Y127.024 E37.55665
G1 X87.130 Y125.774 E37.72632
G1 X86.670 Y124.404 E37.89452
G1 X86.520 Y122.964 E38.06303
G1 X86.520 Y71.904 E44.00590
G1 X86.640 Y70.624 E44.15553
G1 X87.000 Y69.394 E44.30469
G1 X93.480 Y53.314 E46.32250
G1 X94.050 Y52.229 E46.46517
G1 F1800.000 E45.46517
G92 E0
G1 X111.392 Y65.289 F7200.000
G1 E1.00000 F1800.000
G1 X121.229 Y67.080 E2.16373 F540.000
G1 X119.948 Y73.250 E2.89711
G1 X110.300 Y71.298 E4.04274
G1 X111.373 Y65.394 E4.74107
G1 X111.967 Y66.120 F7200.000
G1 X120.381 Y67.652 E5.73646 F540.000
G1 X119.393 Y72.409 E6.30195
G1 X111.128 Y70.737 E7.28340
G1 X111.948 Y66.225 E7.81709
G1 X112.095 Y65.417 F7200.000
G1 F1800.000 E6.81709
G92 E0
G1 X117.243 Y74.764 F7200.000
G1 E1.00000 F1800.000
G1 X117.217 Y84.669 E2.15287 F1080.000
G1 X103.057 Y84.655 E3.80095
G1 X103.097 Y74.749 E4.95382
G1 X117.136 Y74.764 E6.58785
G1 X116.527 Y75.477 F7200.000
G1 X116.505 Y83.954 E7.57448 F756.000
G1 X103.774 Y83.941 E9.05620
G1 X103.808 Y75.464 E10.04283
G1 X116.420 Y75.477 E11.51073
G1 X117.241 Y75.479 F7200.000
G1 X137.509 Y76.002 F7200.000
G1 X137.520 Y73.320 E11.82292 F1080.000
G1 X154.521 Y73.337 E13.80168
G1 X154.491 Y84.591 E15.11157
G1 X158.061 Y83.508 E15.54569
G1 X162.040 Y83.117 E16.01110
G1 X166.019 Y83.508 E16.47650
G1 X169.846 Y84.669 E16.94190
G1 X173.372 Y86.554 E17.40731
G1 X176.463 Y89.091 E17.87271
G1 X179.000 Y92.182 E18.33812
G1 X180.885 Y95.708 E18.80352
G1 X182.046 Y99.535 E19.26892
G1 X182.438 Y103.514 E19.73432
G1 X182.046 Y107.494 E20.19972
G1 X180.885 Y111.320 E20.66513
G1 X179.000 Y114.847 E21.13052
G1 X176.463 Y117.938 E21.59593
G1 X173.372 Y120.474 E22.06133
G1 X169.846 Y122.359 E22.52674
G1 X166.019 Y123.520 E22.99214
G1 X162.040 Y123.912 E23.45754
G1 X158.061 Y123.520 E23.92294
G1 X154.234 Y122.359 E24.38834
G1 X150.708 Y120.474 E24.85374
G1 X147.617 Y117.938 E25.31914
G1 X145.080 Y114.847 E25.78455
G1 X144.929 Y114.564 E25.82181
G1 X143.195 Y111.320 E26.24995
G1 X142.034 Y107.494 E26.71535
G1 X141.642 Y103.514 E27.18075
G1 X142.034 Y99.535 E27.64616
G1 X143.195 Y95.708 E28.11155
G1 X145.080 Y92.182 E28.57696
G1 X147.617 Y89.091 E29.04236
G1 X151.267 Y86.095 E29.59194
G1 X137.469 Y86.081 E31.19788
G1 X137.509 Y76.109 E32.35856
G1 X138.223 Y76.005 F7200.000
G1 X138.231 Y74.035 E32.58789 F1080.000
G1 X153.805 Y74.050 E34.40051
G1 X153.775 Y85.384 E35.71963
G1 X138.186 Y85.368 E37.53407
G1 X138.223 Y76.112 E38.61138
G1 X138.938 Y76.008 F7200.000
G1 X138.943 Y74.749 E38.75783 F1080.000
G1 X153.089 Y74.764 E40.40433
G1 X153.063 Y84.669 E41.55720
G1 X138.903 Y84.655 E43.20528
G1 X138.937 Y76.115 E44.19923
G1 X139.652 Y76.011 F7200.000
G1 X139.654 Y75.464 E44.26281 F756.000
G1 X152.373 Y75.477 E45.74318
G1 X152.351 Y83.954 E46.72981
G1 X139.620 Y83.941 E48.21153
G1 X139.651 Y76.118 E49.12211
G1 X139.180 Y75.735 F7200.000
G1 X139.341 Y84.541 F7200.000
G1 X152.525 Y87.332 F7200.000
G1 X148.317 Y89.440 F7200.000
G1 X151.106 Y87.151 E49.54207 F1080.000
G1 X154.509 Y85.332 E49.99109
G1 X158.201 Y84.212 E50.44012
G1 X162.040 Y83.834 E50.88915
G1 X165.879 Y84.212 E51.33818
G1 X169.571 Y85.332 E51.78720
G1 X172.974 Y87.151 E52.23624
G1 X175.956 Y89.598 E52.68527
G1 X178.403 Y92.581 E53.13430
G1 X180.222 Y95.983 E53.58333
G1 X181.342 Y99.675 E54.03235
G1 X181.720 Y103.514 E54.48139
G1 X181.342 Y107.354 E54.93041
G1 X180.222 Y111.046 E55.37944
G1 X178.403 Y114.448 E55.82847
G1 X175.956 Y117.430 E56.27750
G1 X172.974 Y119.878 E56.72653
G1 X169.571 Y121.696 E57.17556
G1 X165.879 Y122.816 E57.62459
G1 X162.040 Y123.194 E58.07361
G1 X158.201 Y122.816 E58.52265
G1 X154.509 Y121.696 E58.97167
G1 X151.106 Y119.878 E59.42069
G1 X148.124 Y117.430 E59.86973
G1 X145.677 Y114.448 E60.31876
G1 X143.858 Y111.045 E60.76778
G1 X142.738 Y107.354 E61.21681
G1 X142.360 Y103.514 E61.66584
G1 X142.738 Y99.675 E62.11487
G1 X143.858 Y95.983 E62.56390
G1 X145.677 Y92.581 E63.01293
G1 X148.124 Y89.598 E63.46196
G1 X148.234 Y89.508 E63.47857
G1 X148.632 Y90.106 F7200.000
G1 X151.505 Y87.748 E63.91123 F1080.000
G1 X154.783 Y85.995 E64.34388
G1 X158.341 Y84.916 E64.77653
G1 X162.040 Y84.552 E65.20919
G1 X165.739 Y84.916 E65.64185
G1 X169.297 Y85.995 E66.07450
G1 X172.575 Y87.748 E66.50716
G1 X175.449 Y90.106 E66.93982
G1 X177.807 Y92.979 E67.37247
G1 X179.559 Y96.258 E67.80513
G1 X180.638 Y99.815 E68.23778
G1 X181.003 Y103.514 E68.67044
G1 X180.638 Y107.214 E69.10309
G1 X179.559 Y110.771 E69.53575
G1 X177.807 Y114.049 E69.96840
G1 X175.449 Y116.923 E70.40106
G1 X172.575 Y119.281 E70.83372
G1 X169.297 Y121.033 E71.26637
G1 X165.739 Y122.112 E71.69903
G1 X162.040 Y122.477 E72.13168
G1 X158.341 Y122.112 E72.56434
G1 X154.783 Y121.033 E72.99699
G1 X151.505 Y119.281 E73.42964
G1 X148.632 Y116.923 E73.86230
G1 X146.273 Y114.049 E74.29496
G1 X144.521 Y110.771 E74.72761
G1 X143.442 Y107.214 E75.16026
G1 X143.078 Y103.514 E75.59292
G1 X143.442 Y99.815 E76.02558
G1 X144.521 Y96.258 E76.45823
G1 X146.273 Y92.979 E76.89089
G1 X148.564 Y90.189 E77.31108
G1 X149.139 Y90.613 F7200.000
G1 X151.904 Y88.344 E77.72736 F756.000
G1 X155.058 Y86.658 E78.14364
G1 X158.481 Y85.620 E78.55992
G1 X162.040 Y85.269 E78.97621
G1 X165.599 Y85.620 E79.39249
G1 X169.022 Y86.658 E79.80877
G1 X172.176 Y88.344 E80.22506
G1 X174.941 Y90.613 E80.64134
G1 X177.210 Y93.378 E81.05762
G1 X178.896 Y96.532 E81.47390
G1 X179.934 Y99.955 E81.89018
G1 X180.285 Y103.514 E82.30647
G1 X179.934 Y107.074 E82.72275
G1 X178.896 Y110.496 E83.13903
G1 X177.210 Y113.651 E83.55531
G1 X174.941 Y116.415 E83.97159
G1 X172.176 Y118.684 E84.38788
G1 X169.022 Y120.370 E84.80416
G1 X165.599 Y121.409 E85.22044
G1 X162.040 Y121.759 E85.63672
G1 X158.481 Y121.409 E86.05301
G1 X155.058 Y120.370 E86.46928
G1 X151.904 Y118.684 E86.88556
G1 X149.139 Y116.415 E87.30185
G1 X146.870 Y113.651 E87.71813
G1 X145.184 Y110.496 E88.13441
G1 X144.146 Y107.074 E88.55069
G1 X143.795 Y103.514 E88.96698
G1 X144.146 Y99.955 E89.38326
G1 X145.184 Y96.532 E89.79954
G1 X146.870 Y93.378 E90.21582
G1 X149.071 Y90.696 E90.61964
G1 X148.977 Y89.918 F7200.000
G1 X149.341 Y84.551 F7200.000
G1 X152.525 Y87.332 F7200.000
G1 X156.246 Y65.396 F7200.000
G1 X161.561 Y65.396 E91.23819 F1080.000
G1 X157.150 Y59.460 E92.09895
G1 X157.124 Y58.374 E92.22534
G1 X177.932 Y58.369 E94.64716
G1 X178.517 Y63.845 E95.28816
G1 X177.995 Y63.881 E95.34905
G1 X171.684 Y60.099 E96.20545
G1 X173.935 Y83.169 E98.90337
G1 X179.280 Y78.883 E99.70071
G1 X180.309 Y78.815 E99.82074
G1 X181.670 Y85.110 E100.57028
G1 X183.165 Y85.110 E100.74440
G1 X191.227 Y87.261 E101.71551
G1 X197.944 Y99.825 E103.37369
G1 X203.838 Y113.354 E105.09124
G1 X199.336 Y119.173 E105.94762
G1 X190.208 Y119.807 E107.01260
G1 X152.980 Y139.202 E111.89830
G1 X152.351 Y138.078 E112.04815
G1 X153.021 Y131.248 E112.84693
G1 X132.463 Y142.045 E115.54955
G1 X139.128 Y145.250 E116.41030
G1 X139.657 Y146.199 E116.53669
G1 X132.420 Y149.983 E117.48713
G1 X132.420 Y120.431 E120.92679
G1 X95.772 Y120.431 E125.19224
G1 X95.772 Y72.404 E130.78210
G1 X101.427 Y58.374 E132.54265
G1 X106.856 Y58.374 E133.17454
G1 X106.891 Y59.661 E133.32439
G1 X103.122 Y65.397 E134.12316
G1 X109.921 Y65.397 E134.91443
G1 X108.645 Y72.420 E135.74527
G1 X110.587 Y72.813 E135.97588
G1 X110.535 Y73.329 E136.03621
G1 X101.674 Y73.320 E137.06746
G1 X101.623 Y86.081 E138.55281
G1 X118.642 Y86.099 E140.53360
G1 X118.673 Y74.449 E141.88951
G1 X121.057 Y74.932 E142.17270
G1 X123.037 Y65.396 E143.30620
G1 X126.342 Y65.396 E143.69091
G1 X121.932 Y59.460 E144.55166
G1 X121.905 Y58.374 E144.67805
G1 X142.075 Y58.374 E147.02558
G1 X142.109 Y59.661 E147.17544
G1 X138.341 Y65.397 E147.97420
G1 X156.139 Y65.396 E150.04580
G1 X156.246 Y64.682 F7200.000
G1 X160.141 Y64.682 E150.49905 F1080.000
G1 X156.442 Y59.704 E151.22087
G1 X156.392 Y57.660 E151.45883
G1 X178.573 Y57.654 E154.04053
G1 X179.306 Y64.508 E154.84273
G1 X177.820 Y64.608 E155.01609
G1 X172.532 Y61.440 E155.73363
G1 X174.518 Y81.786 E158.11304
G1 X179.008 Y78.186 E158.78298
G1 X180.876 Y78.062 E159.00090
G1 X182.246 Y84.396 E159.75509
G1 X183.259 Y84.396 E159.87303
G1 X191.711 Y86.651 E160.89113
G1 X198.588 Y99.513 E162.58872
G1 X204.661 Y113.456 E164.35882
G1 X199.705 Y119.864 E165.30169
G1 X190.406 Y120.509 E166.38664
G1 X156.498 Y138.161 E170.83582
G1 X152.696 Y140.158 E171.33567
G1 X151.619 Y138.232 E171.59254
G1 X152.181 Y132.496 E172.26331
G1 X134.053 Y142.017 E174.64655
G1 X139.642 Y144.705 E175.36837
G1 X140.637 Y146.491 E175.60632
G1 X131.706 Y151.161 E176.77928
G1 X131.706 Y121.145 E180.27288
G1 X95.058 Y121.145 E184.53834
G1 X95.058 Y72.265 E190.22744
G1 X100.945 Y57.660 E192.06022
G1 X107.552 Y57.660 E192.82917
G1 X107.610 Y59.866 E193.08604
G1 X104.446 Y64.683 E193.75680
G1 X110.776 Y64.682 E194.49358
G1 X109.472 Y71.859 E195.34252
G1 X117.753 Y73.534 E196.32583
G1 X117.701 Y74.050 E196.38616
G1 X102.386 Y74.034 E198.16871
G1 X102.340 Y85.368 E199.48782
G1 X117.930 Y85.384 E201.30226
G1 X117.961 Y73.576 E202.67654
G1 X120.502 Y74.091 E202.97837
G1 X122.077 Y66.509 E203.87964
G1 X114.973 Y65.215 E204.72006
G1 X115.021 Y64.682 E204.78235
G1 X124.922 Y64.682 E205.93477
G1 X121.224 Y59.704 E206.65658
G1 X121.173 Y57.660 E206.89454
G1 X142.770 Y57.660 E209.40821
G1 X142.829 Y59.866 E209.66507
G1 X139.664 Y64.683 E210.33584
G1 X156.139 Y64.682 E212.25336
G1 X156.246 Y63.968 F7200.000
G1 X158.720 Y63.968 E212.54131 F1080.000
G1 X155.734 Y59.948 E213.12420
G1 X155.660 Y56.946 E213.47371
G1 X179.215 Y56.939 E216.21531
G1 X180.096 Y65.170 E217.17871
G1 X177.645 Y65.336 E217.46453
G1 X173.381 Y62.781 E218.04321
G1 X175.100 Y80.404 E220.10412
G1 X178.737 Y77.488 E220.64664
G1 X181.444 Y77.309 E220.96245
G1 X182.822 Y83.681 E221.72129
G1 X183.353 Y83.681 E221.78307
G1 X192.194 Y86.041 E222.84814
G1 X199.231 Y99.202 E224.58514
G1 X205.485 Y113.558 E226.40780
G1 X200.074 Y120.554 E227.43716
G1 X190.603 Y121.211 E228.54207
G1 X156.829 Y138.794 E232.97379
G1 X152.413 Y141.113 E233.55444
G1 X150.886 Y138.385 E233.91832
G1 X151.341 Y133.744 E234.46108
G1 X135.642 Y141.989 E236.52495
G1 X140.155 Y144.159 E237.10784
G1 X141.617 Y146.783 E237.45735
G1 X130.992 Y152.339 E238.85282
G1 X130.992 Y121.859 E242.40037
G1 X94.344 Y121.859 E246.66582
G1 X94.344 Y72.126 E252.45416
G1 X100.463 Y56.946 E254.35918
G1 X108.247 Y56.946 E255.26520
G1 X108.330 Y60.071 E255.62908
G1 X105.770 Y63.968 E256.17183
G1 X123.502 Y63.968 E258.23570
G1 X120.515 Y59.948 E258.81858
G1 X120.441 Y56.946 E259.16810
G1 X143.466 Y56.946 E261.84791
G1 X143.549 Y60.071 E262.21179
G1 X140.988 Y63.968 E262.75455
G1 X156.139 Y63.968 E264.51799
G1 X156.246 Y63.254 F7200.000
G1 X157.300 Y63.254 E264.64065 F756.000
G1 X155.025 Y60.192 E265.08460
G1 X154.928 Y56.232 E265.54567
G1 X179.857 Y56.224 E268.44716
G1 X180.885 Y65.832 E269.57175
G1 X177.470 Y66.064 E269.97005
G1 X174.229 Y64.121 E270.40986
G1 X175.683 Y79.021 E272.15227
G1 X178.465 Y76.790 E272.56738
G1 X182.012 Y76.556 E272.98108
G1 X183.398 Y82.967 E273.74458
G1 X192.678 Y85.430 E274.86204
G1 X199.874 Y98.890 E276.63846
G1 X206.309 Y113.661 E278.51367
G1 X200.443 Y121.244 E279.62952
G1 X190.801 Y121.914 E280.75439
G1 X157.160 Y139.427 E285.16865
G1 X152.129 Y142.069 E285.83010
G1 X150.153 Y138.538 E286.30099
G1 X150.501 Y134.992 E286.71574
G1 X137.232 Y141.961 E288.46024
G1 X140.669 Y143.614 E288.90419
G1 X142.597 Y147.075 E289.36527
G1 X130.278 Y153.516 E290.98325
G1 X130.278 Y122.573 E294.58474
G1 X93.630 Y122.573 E298.85020
G1 X93.630 Y71.988 E304.73778
G1 X99.981 Y56.232 E306.71504
G1 X108.943 Y56.232 E307.75811
G1 X109.050 Y60.276 E308.22901
G1 X107.093 Y63.254 E308.64376
G1 X122.082 Y63.254 E310.38825
G1 X119.807 Y60.192 E310.83220
G1 X119.709 Y56.232 E311.29328
G1 X144.161 Y56.232 E314.13922
G1 X144.269 Y60.276 E314.61012
G1 X142.312 Y63.254 E315.02487
G1 X156.139 Y63.254 E316.63424
G1 X156.603 Y63.872 F7200.000
G1 X139.056 Y74.864 F7200.000
G1 X134.696 Y143.653 F7200.000
G1 X137.715 Y146.671 E317.14258 F1080.000
G1 X137.036 Y147.026 E317.23376
G1 X132.902 Y142.892 E317.93008
G1 X132.902 Y143.925 E318.05314
G1 X136.358 Y147.381 E318.63519
G1 X135.679 Y147.736 E318.72638
G1 X132.902 Y144.958 E319.19416
G1 X132.902 Y145.992 E319.31722
G1 X135.001 Y148.091 E319.67074
G1 X134.322 Y148.446 E319.76192
G1 X132.902 Y147.025 E320.00117
G1 X132.902 Y148.058 E320.12423
G1 X133.644 Y148.801 E320.24921
G1 X132.902 Y149.092 E320.34414
G1 X132.965 Y149.155 E320.35485
G1 X136.687 Y144.610 F7200.000
G1 X138.393 Y146.317 E320.64221 F1080.000
G1 X138.850 Y145.740 E320.72981
G1 X138.678 Y145.568 E320.75886
G1 X132.902 Y140.273 F7200.000
G1 X133.556 Y140.927 E320.86707 F1080.000
G1 X134.222 Y140.577 E320.95512
G1 X132.902 Y139.258 E321.17358
G1 X132.902 Y138.242 E321.29247
G1 X134.888 Y140.227 E321.62117
G1 X135.554 Y139.878 E321.70922
G1 X132.902 Y137.226 E322.14815
G1 X132.902 Y136.210 E322.26705
G1 X136.220 Y139.528 E322.81623
G1 X136.886 Y139.178 E322.90427
G1 X132.902 Y135.195 E323.56369
G1 X132.902 Y134.179 E323.68259
G1 X137.552 Y138.828 E324.45225
G1 X138.218 Y138.479 E324.54030
G1 X132.902 Y133.163 E325.42020
G1 X132.902 Y132.147 E325.53909
G1 X138.884 Y138.129 E326.52923
G1 X139.550 Y137.779 E326.61728
G1 X132.902 Y131.132 E327.71766
G1 X132.902 Y130.116 E327.83656
G1 X140.216 Y137.429 E329.04718
G1 X140.882 Y137.080 E329.13523
G1 X132.902 Y129.100 E330.45610
G1 X132.902 Y128.085 E330.57499
G1 X141.548 Y136.730 E332.00609
G1 X142.213 Y136.380 E332.09414
G1 X132.902 Y127.069 E333.63549
G1 X132.902 Y126.053 E333.75438
G1 X142.879 Y136.030 E335.40597
G1 X143.545 Y135.680 E335.49402
G1 X132.902 Y125.037 E337.25585
G1 X132.902 Y124.022 E337.37474
G1 X144.211 Y135.331 E339.24681
G1 X144.877 Y134.981 E339.33486
G1 X132.902 Y123.006 E341.31717
G1 X132.902 Y121.990 E341.43607
G1 X145.543 Y134.631 E343.52862
G1 X146.209 Y134.281 E343.61667
G1 X132.902 Y120.975 E345.81946
G1 X132.902 Y119.959 E345.93835
G1 X146.875 Y133.932 E348.25139
G1 X148.873 Y132.882 F7200.000
G1 X102.555 Y86.564 E355.91878 F1080.000
G1 X103.572 Y86.565 E356.03779
G1 X149.539 Y132.533 E363.64712
G1 X150.205 Y132.183 E363.73516
G1 X104.588 Y86.566 E371.28642
G1 X105.605 Y86.567 E371.40543
G1 X150.871 Y131.833 E378.89861
G1 X151.537 Y131.483 E378.98666
G1 X106.622 Y86.568 E386.42177
G1 X107.639 Y86.569 E386.54078
G1 X152.203 Y131.134 E393.91782
G1 X152.869 Y130.784 E394.00587
G1 X108.655 Y86.570 E401.32484
G1 X109.672 Y86.571 E401.44386
