; generated by Slic3r 1.0.0RC2 on 2014-05-15 at 11:10:20

; layer_height = 0.3
; perimeters = 4
; top_solid_layers = 3
; bottom_solid_layers = 3
; fill_density = 0.1
; perimeter_speed = 60
; infill_speed = 60
; travel_speed = 120
; nozzle_diameter = 0.4
; filament_diameter = 1.75
; extrusion_multiplier = 0.98
; perimeters extrusion width = 0.40mm
; infill extrusion width = 0.42mm
; solid infill extrusion width = 0.42mm
; top infill extrusion width = 0.42mm
; first layer extrusion width = 0.80mm

G21 ; set units to millimeters
M107
M104 S220 ; set temperature
G28 ; home all axes
M106 S255;
G1 Z200 F1200 ; lift nozzle
M109 S220 ; wait for temperature to be reached
G90 ; use absolute coordinates
G92 E0
M82 ; use absolute distances for extrusion
G1 F1800.000 E-1.00000
G92 E0
G1 Z0.400 F7200.000
G1 X128.958 Y55.716 F7200.000
G1 E1.00000 F1800.000
G1 X129.668 Y54.336 E1.18063 F1080.000
G1 X130.668 Y53.156 E1.36065
G1 X137.738 Y46.566 E2.48557
G1 X139.098 Y45.586 E2.68067
G1 X140.658 Y44.966 E2.87605
G1 X142.318 Y44.766 E3.07066
G1 X155.568 Y44.766 E4.61282
G1 X157.078 Y44.936 E4.78968
G1 X158.518 Y45.446 E4.96749
G1 X159.798 Y46.266 E5.14441
G1 X160.868 Y47.356 E5.32219
G1 X168.508 Y57.196 E6.77214
G1 X188.188 Y84.726 E10.71088
G1 X188.488 Y85.186 E10.77480
G1 X195.248 Y96.496 E12.30838
G1 X195.958 Y98.146 E12.51745
G1 X196.198 Y99.936 E12.72765
G1 X196.198 Y148.776 E18.41213
G1 X196.068 Y150.126 E18.56998
G1 X195.658 Y151.426 E18.72864
G1 X194.998 Y152.606 E18.88600
G1 X188.228 Y162.346 E20.26658
G1 X187.388 Y163.336 E20.41770
G1 X186.378 Y164.146 E20.56839
G1 X185.228 Y164.746 E20.71936
G1 X183.978 Y165.106 E20.87076
G1 X182.688 Y165.226 E21.02155
G1 X165.118 Y165.146 E23.06654
G1 X164.118 Y165.066 E23.18330
G1 X163.148 Y164.846 E23.29907
G1 X114.038 Y149.496 E29.28768
G1 X112.568 Y148.836 E29.47522
G1 X111.298 Y147.846 E29.66264
G1 X110.308 Y146.586 E29.84915
G1 X104.778 Y137.516 E31.08555
G1 X104.158 Y136.206 E31.25423
G1 X103.838 Y134.806 E31.42138
G1 X103.828 Y133.366 E31.58898
G1 X105.138 Y119.976 E33.15488
G1 X105.278 Y119.106 E33.25745
G1 X105.528 Y118.276 E33.35834
G1 X128.920 Y55.816 E41.12113
G1 F1800.000 E40.12113
G92 E0
G1 X146.019 Y62.695 F7200.000
G1 E1.00000 F1800.000
G1 X154.664 Y65.373 E2.05338 F1080.000
G1 X150.829 Y77.696 E3.55551
G1 X142.204 Y75.025 E4.60646
G1 X145.987 Y62.797 E6.09618
G1 X146.490 Y63.589 F7200.000
G1 X153.770 Y65.843 E6.98318 F540.000
G1 X150.359 Y76.803 E8.31908
G1 X143.097 Y74.554 E9.20392
G1 X146.458 Y63.691 E10.52740
G1 X146.961 Y64.482 F7200.000
G1 X152.875 Y66.314 E11.24802 F540.000
G1 X149.889 Y75.909 E12.41768
G1 X143.990 Y74.083 E13.13642
G1 X146.929 Y64.584 E14.29365
G1 X147.432 Y65.376 F7200.000
G1 X151.981 Y66.784 E14.84790 F540.000
G1 X149.419 Y75.016 E15.85132
G1 X144.884 Y73.612 E16.40395
G1 X147.400 Y65.478 E17.39494
G1 X147.643 Y64.693 F7200.000
G1 F1800.000 E16.39494
G92 E0
G1 X152.784 Y94.355 F7200.000
G1 E1.00000 F1800.000
G1 X165.549 Y94.408 E2.48573 F1080.000
G1 X165.532 Y111.410 E4.46462
G1 X152.767 Y111.371 E5.95034
G1 X152.784 Y94.462 E7.91832
G1 X153.498 Y95.072 F7200.000
G1 X164.834 Y95.119 E9.23780 F1080.000
G1 X164.818 Y110.694 E11.05054
G1 X153.482 Y110.659 E12.37002
G1 X153.497 Y95.179 E14.17167
G1 X154.211 Y95.789 F7200.000
G1 X164.119 Y95.830 E15.32491 F1080.000
G1 X164.105 Y109.978 E16.97149
G1 X154.197 Y109.947 E18.12472
G1 X154.211 Y95.896 E19.76005
G1 X154.924 Y96.506 F7200.000
G1 X163.404 Y96.542 E20.74704 F756.000
G1 X163.392 Y109.261 E22.22747
G1 X154.912 Y109.235 E23.21446
G1 X154.924 Y96.613 E24.68345
G1 X154.927 Y95.792 F7200.000
G1 X148.628 Y125.217 F7200.000
G1 X144.793 Y137.534 E26.18486 F1080.000
G1 X136.171 Y134.870 E27.23518
G1 X139.987 Y122.538 E28.73767
G1 X148.526 Y125.186 E29.77818
G1 X147.734 Y125.688 F7200.000
G1 X144.323 Y136.641 E31.11343 F540.000
G1 X137.065 Y134.399 E31.99766
G1 X140.458 Y123.432 E33.33382
G1 X147.632 Y125.656 E34.20794
G1 X146.839 Y126.158 F7200.000
G1 X143.853 Y135.749 E35.37703 F540.000
G1 X137.958 Y133.928 E36.09516
G1 X140.929 Y124.326 E37.26499
G1 X146.737 Y126.126 E37.97272
G1 X145.945 Y126.629 F7200.000
G1 X143.383 Y134.856 E38.97566 F540.000
G1 X138.852 Y133.456 E39.52769
G1 X141.400 Y125.219 E40.53120
G1 X145.843 Y126.597 E41.07254
G1 X146.627 Y126.841 F7200.000
G1 X152.846 Y130.174 F7200.000
G1 X165.490 Y130.174 E42.54428 F1080.000
G1 X165.490 Y146.528 E44.44775
G1 X152.846 Y146.621 E45.91953
G1 X152.846 Y130.281 E47.82143
G1 X153.560 Y130.888 F7200.000
G1 X164.776 Y130.888 E49.12693 F1080.000
G1 X164.776 Y145.819 E50.86477
G1 X153.560 Y145.902 E52.17031
G1 X153.560 Y130.995 E53.90534
G1 X154.274 Y131.602 F7200.000
G1 X164.062 Y131.602 E55.04460 F1080.000
G1 X164.062 Y145.110 E56.61681
G1 X154.274 Y145.182 E57.75610
G1 X154.274 Y131.709 E59.32428
G1 X154.988 Y132.316 F7200.000
G1 X163.348 Y132.316 E60.29730 F756.000
G1 X163.348 Y144.401 E61.70387
G1 X154.988 Y144.463 E62.67692
G1 X154.988 Y132.423 E64.07823
G1 X154.988 Y131.602 F7200.000
G1 X181.720 Y129.615 F7200.000
G1 X180.178 Y139.302 F7200.000
G1 X186.950 Y139.493 E64.86674 F1080.000
G1 X186.950 Y144.364 E65.43366
G1 X180.178 Y144.186 E66.22212
G1 X180.178 Y155.970 E67.59370
G1 X165.546 Y155.903 E69.29669
G1 X118.790 Y141.283 E74.99848
G1 X119.939 Y130.321 E76.28128
G1 X113.469 Y129.874 E77.03612
G1 X113.945 Y125.025 E77.60318
G1 X120.160 Y125.445 E78.32823
G1 X121.704 Y118.317 E79.17702
G1 X130.467 Y115.985 E80.23249
G1 X138.248 Y101.481 E82.14828
G1 X145.545 Y84.817 E84.26553
G1 X139.265 Y76.665 E85.46321
G1 X140.517 Y69.685 E86.28848
G1 X134.747 Y67.612 E87.00205
G1 X136.283 Y63.016 E87.56607
G1 X142.821 Y65.393 E88.37574
G1 X144.512 Y54.018 E89.71419
G1 X153.034 Y54.018 E90.70596
G1 X153.034 Y63.646 E91.82657
G1 X160.510 Y63.646 E92.69670
G1 X160.510 Y91.174 E95.90068
G1 X180.183 Y91.174 E98.19041
G1 X180.178 Y103.906 E99.67228
G1 X186.950 Y104.101 E100.46079
G1 X186.950 Y108.972 E101.02771
G1 X180.178 Y108.794 E101.81618
G1 X180.178 Y139.195 E105.35461
G1 X180.892 Y138.608 F7200.000
G1 X187.664 Y138.799 E106.14312 F1080.000
G1 X187.664 Y145.097 E106.87621
G1 X180.892 Y144.919 E107.66468
G1 X180.892 Y156.687 E109.03441
G1 X165.435 Y156.617 E110.83340
G1 X118.018 Y141.790 E116.61576
G1 X119.152 Y130.983 E117.88049
G1 X112.687 Y130.536 E118.63475
G1 X113.301 Y124.266 E119.36798
G1 X119.593 Y124.691 E120.10188
G1 X121.098 Y117.739 E120.92968
G1 X129.984 Y115.375 E121.99992
G1 X137.606 Y101.168 E123.87636
G1 X144.721 Y84.918 E125.94109
G1 X138.507 Y76.850 E127.12637
G1 X139.708 Y70.154 E127.91819
G1 X133.848 Y68.048 E128.64283
G1 X135.838 Y62.095 E129.37346
G1 X142.243 Y64.423 E130.16668
G1 X143.897 Y53.304 E131.47503
G1 X153.748 Y53.304 E132.62160
G1 X153.748 Y62.932 E133.74220
G1 X161.224 Y62.932 E134.61233
G1 X161.224 Y90.460 E137.81631
G1 X180.898 Y90.460 E140.10615
G1 X180.892 Y103.212 E141.59037
G1 X187.664 Y103.407 E142.37889
G1 X187.664 Y109.705 E143.11191
G1 X180.892 Y109.527 E143.90037
G1 X180.892 Y138.501 E147.27271
G1 X181.606 Y137.914 F7200.000
G1 X187.347 Y138.075 E147.94121 F1080.000
G1 X188.378 Y137.398 E148.08476
G1 X188.378 Y146.568 E149.15203
G1 X187.350 Y145.804 E149.30112
G1 X181.606 Y145.652 E149.96988
G1 X181.606 Y157.405 E151.33778
G1 X165.325 Y157.331 E153.23277
G1 X117.247 Y142.297 E159.09568
G1 X118.364 Y131.644 E160.34236
G1 X112.931 Y131.268 E160.97628
G1 X111.833 Y131.928 E161.12537
G1 X112.727 Y122.802 E162.19270
G1 X113.686 Y123.576 E162.33610
G1 X119.025 Y123.936 E162.95898
G1 X120.493 Y117.162 E163.76580
G1 X129.501 Y114.764 E164.85081
G1 X136.963 Y100.856 E166.68789
G1 X143.897 Y85.019 E168.70009
G1 X137.748 Y77.035 E169.87299
G1 X138.898 Y70.622 E170.63136
G1 X133.834 Y68.802 E171.25769
G1 X132.747 Y69.090 E171.38854
G1 X135.619 Y60.496 E172.44314
G1 X136.350 Y61.521 E172.58960
G1 X141.665 Y63.453 E173.24788
G1 X143.281 Y52.590 E174.52614
G1 X154.462 Y52.590 E175.82750
G1 X154.462 Y62.218 E176.94811
G1 X161.938 Y62.218 E177.81824
G1 X161.938 Y89.746 E181.02222
G1 X181.613 Y89.746 E183.31215
G1 X181.606 Y102.519 E184.79873
G1 X187.347 Y102.684 E185.46720
G1 X188.378 Y102.006 E185.61081
G1 X188.378 Y111.176 E186.67807
G1 X187.350 Y110.412 E186.82717
G1 X181.606 Y110.260 E187.49593
G1 X181.606 Y137.807 E190.70216
G1 X182.320 Y137.221 F7200.000
G1 X187.143 Y137.355 E191.26368 F756.000
G1 X189.092 Y136.074 E191.53521
G1 X189.092 Y147.988 E192.92195
G1 X187.105 Y146.511 E193.21010
G1 X182.320 Y146.385 E193.76722
G1 X182.320 Y158.122 E195.13327
G1 X165.214 Y158.044 E197.12426
G1 X116.476 Y142.804 E203.06774
G1 X117.577 Y132.306 E204.29635
G1 X113.106 Y131.996 E204.81798
G1 X110.984 Y133.272 E205.10616
G1 X112.146 Y121.413 E206.49293
G1 X113.959 Y122.879 E206.76426
G1 X118.458 Y123.182 E207.28907
G1 X119.887 Y116.584 E208.07490
G1 X129.018 Y114.154 E209.17468
G1 X136.320 Y100.543 E210.97240
G1 X143.073 Y85.120 E212.93208
G1 X136.989 Y77.220 E214.09259
G1 X138.089 Y71.090 E214.81751
G1 X133.802 Y69.549 E215.34774
G1 X131.650 Y70.119 E215.60680
G1 X135.386 Y58.940 E216.97873
G1 X136.803 Y60.925 E217.26259
G1 X141.088 Y62.483 E217.79327
G1 X142.665 Y51.876 E219.04142
G1 X155.176 Y51.876 E220.49759
G1 X155.176 Y61.504 E221.61819
G1 X162.652 Y61.504 E222.48832
G1 X162.652 Y89.032 E225.69230
G1 X182.328 Y89.032 E227.98233
G1 X182.320 Y101.825 E229.47127
G1 X187.142 Y101.963 E230.03279
G1 X189.092 Y100.682 E230.30434
G1 X189.092 Y112.596 E231.69108
G1 X187.105 Y111.119 E231.97922
G1 X182.320 Y110.993 E232.53635
G1 X182.320 Y137.113 E235.57647
G1 X182.307 Y137.935 F7200.000
G1 X186.467 Y140.359 F7200.000
G1 X186.059 Y139.950 E235.64369 F1080.000
G1 X185.020 Y139.921 E235.76472
G1 X186.467 Y141.369 E236.00304
G1 X186.467 Y142.379 E236.12061
G1 X183.980 Y139.892 E236.53003
G1 X182.941 Y139.862 E236.65106
G1 X186.467 Y143.389 E237.23158
G1 X185.923 Y143.855 E237.31496
G1 X181.902 Y139.833 E237.97701
G1 X180.862 Y139.804 E238.09804
G1 X184.886 Y143.828 E238.76041
G1 X183.849 Y143.800 E238.88121
G1 X139.613 Y99.565 E246.16304
G1 X139.921 Y98.863 E246.25231
G1 X152.285 Y111.227 E248.28765
G1 X152.286 Y110.218 E248.40511
G1 X140.229 Y98.160 E250.38998
G1 X140.536 Y97.458 E250.47925
G1 X152.287 Y109.209 E252.41366
G1 X152.288 Y108.200 E252.53111
G1 X140.844 Y96.755 E254.41505
G1 X141.151 Y96.053 E254.50432
G1 X152.289 Y107.190 E256.33779
G1 X152.290 Y106.181 E256.45525
G1 X141.459 Y95.350 E258.23825
G1 X141.766 Y94.648 E258.32752
G1 X152.291 Y105.172 E260.06006
G1 X152.292 Y104.163 E260.17751
G1 X142.074 Y93.945 E261.85958
G1 X142.382 Y93.243 E261.94885
G1 X152.293 Y103.154 E263.58045
G1 X152.294 Y102.145 E263.69791
G1 X142.689 Y92.540 E265.27904
G1 X142.997 Y91.838 E265.36831
G1 X152.295 Y101.136 E266.89898
G1 X152.296 Y100.127 E267.01643
G1 X143.304 Y91.135 E268.49664
G1 X143.612 Y90.433 E268.58590
G1 X152.297 Y99.118 E270.01563
G1 X152.298 Y98.109 E270.13309
G1 X143.920 Y89.730 E271.51236
G1 X144.227 Y89.028 E271.60162
G1 X152.299 Y97.100 E272.93042
G1 X152.300 Y96.091 E273.04788
G1 X144.535 Y88.325 E274.32621
G1 X144.842 Y87.623 E274.41547
G1 X152.301 Y95.082 E275.64334
G1 X152.302 Y94.073 E275.76079
G1 X145.150 Y86.920 E276.93819
G1 X145.458 Y86.218 E277.02745
G1 X153.114 Y93.874 E278.28782
G1 X154.128 Y93.878 E278.40589
G1 X145.765 Y85.515 E279.78260
G1 X146.073 Y84.813 E279.87186
G1 X155.143 Y93.883 E281.36491
G1 X158.185 Y93.895 F7200.000
G1 X139.938 Y75.647 E284.36881 F1080.000
G1 X139.784 Y76.504 E284.47010
G1 X157.171 Y93.891 E287.33231
G1 X156.157 Y93.887 E287.45038
G1 X143.023 Y80.753 E289.61248
G1 X145.144 Y76.814 F7200.000
G1 X162.243 Y93.912 E292.42719 F1080.000
G1 X161.228 Y93.908 E292.54526
G1 X143.681 Y76.361 E295.43385
G1 X142.218 Y75.908 E295.61214
G1 X160.214 Y93.904 E298.57462
G1 X159.200 Y93.900 E298.69268
G1 X140.091 Y74.791 E301.83828
G1 X140.245 Y73.934 E301.93957
G1 X141.328 Y75.017 E302.11784
G1 X141.566 Y74.246 E302.21183
G1 X140.398 Y73.078 E302.40412
G1 X140.552 Y72.221 E302.50540
G1 X141.805 Y73.475 E302.71170
G1 X142.044 Y72.703 E302.80569
G1 X140.705 Y71.365 E303.02600
G1 X140.859 Y70.508 E303.12729
G1 X142.282 Y71.932 E303.36160
G1 X142.521 Y71.161 E303.45559
G1 X136.187 Y64.826 E304.49836
G1 X136.440 Y64.069 E304.59128
G1 X142.760 Y70.389 E305.63169
G1 X142.998 Y69.618 E305.72569
G1 X137.268 Y63.887 E306.66902
G1 X138.855 Y64.464 F7200.000
G1 X143.237 Y68.846 E307.39039 F1080.000
G1 X143.476 Y68.075 E307.48438
G1 X140.442 Y65.041 E307.98380
G1 X142.029 Y65.618 F7200.000
G1 X143.715 Y67.304 E308.26125 F1080.000
G1 X143.953 Y66.532 E308.35524
G1 X143.244 Y65.823 E308.47194
G1 X143.375 Y64.944 E308.57542
G1 X144.192 Y65.761 E308.70988
G1 X144.431 Y64.989 E308.80387
G1 X143.506 Y64.065 E308.95610
G1 X143.637 Y63.185 E309.05958
G1 X144.669 Y64.218 E309.22957
G1 X144.908 Y63.447 E309.32356
G1 X143.767 Y62.306 E309.51132
G1 X143.898 Y61.427 E309.61480
G1 X145.147 Y62.675 E309.82033
G1 X145.385 Y61.904 E309.91432
G1 X144.029 Y60.547 E310.13762
G1 X144.160 Y59.668 E310.24110
G1 X146.438 Y61.946 E310.61614
G1 X147.901 Y62.400 E310.79445
G1 X144.290 Y58.789 E311.38884
G1 X144.421 Y57.909 E311.49232
G1 X149.364 Y62.853 E312.30607
G1 X150.828 Y63.306 E312.48438
G1 X144.552 Y57.030 E313.51749
G1 X152.194 Y54.572 F7200.000
G1 X152.123 Y54.501 E313.52924 F1080.000
G1 X151.113 Y54.501 E313.64681
G1 X152.194 Y55.582 E313.82484
G1 X152.194 Y56.592 E313.94241
G1 X150.103 Y54.501 E314.28671
G1 X149.093 Y54.501 E314.40429
G1 X152.194 Y57.602 E314.91486
G1 X152.194 Y58.612 E315.03243
G1 X148.083 Y54.501 E315.70928
G1 X147.073 Y54.501 E315.82686
G1 X152.194 Y59.622 E316.66998
G1 X152.194 Y60.632 E316.78755
G1 X146.063 Y54.501 E317.79695
G1 X145.053 Y54.501 E317.91453
G1 X152.194 Y61.642 E319.09020
G1 X152.194 Y62.652 E319.20777
G1 X144.813 Y55.271 E320.42281
G1 X144.683 Y56.151 E320.52629
G1 X152.194 Y63.663 E321.76285
G1 X159.731 Y64.129 F7200.000
G1 X160.027 Y64.425 E321.81168 F1080.000
G1 X160.027 Y65.435 E321.92925
G1 X158.721 Y64.129 E322.14435
G1 X157.711 Y64.129 E322.26192
G1 X160.027 Y66.445 E322.64329
G1 X160.027 Y67.455 E322.76087
G1 X156.701 Y64.129 E323.30852
G1 X155.873 Y64.311 E323.40715
G1 X160.027 Y68.465 E324.09101
G1 X160.027 Y69.475 E324.20858
G1 X155.634 Y65.082 E324.93190
G1 X155.216 Y65.674 E325.01629
G1 X160.027 Y70.486 E325.80828
G1 X160.027 Y71.496 E325.92585
G1 X154.869 Y66.337 E326.77505
G1 X154.629 Y67.107 E326.86896
G1 X160.027 Y72.506 E327.75762
G1 X160.027 Y73.516 E327.87519
G1 X154.389 Y67.878 E328.80332
G1 X154.150 Y68.648 E328.89723
G1 X160.027 Y74.526 E329.86481
G1 X160.027 Y75.536 E329.98239
G1 X153.910 Y69.418 E330.98944
G1 X153.670 Y70.189 E331.08335
G1 X160.027 Y76.546 E332.12986
G1 X160.027 Y77.556 E332.24743
G1 X153.430 Y70.959 E333.33341
G1 X153.191 Y71.729 E333.42732
G1 X160.027 Y78.566 E334.55276
G1 X160.027 Y79.576 E334.67033
G1 X152.951 Y72.500 E335.83523
G1 X152.711 Y73.270 E335.92914
G1 X160.027 Y80.586 E337.13351
G1 X160.027 Y81.596 E337.25108
G1 X152.472 Y74.040 E338.49491
G1 X152.232 Y74.811 E338.58882
G1 X160.027 Y82.606 E339.87211
G1 X160.027 Y83.617 E339.98968
G1 X151.992 Y75.581 E341.31243
G1 X151.752 Y76.352 E341.40634
G1 X160.027 Y84.627 E342.76856
G1 X160.027 Y85.637 E342.88613
G1 X151.513 Y77.122 E344.28781
G1 X151.273 Y77.892 E344.38172
G1 X160.027 Y86.647 E345.82286
G1 X160.027 Y87.657 E345.94043
G1 X150.455 Y78.085 E347.51619
G1 X149.533 Y78.173 E347.62397
G1 X160.027 Y88.667 E349.35145
G1 X160.027 Y89.677 E349.46903
G1 X148.070 Y77.720 E351.43737
G1 X146.607 Y77.267 E351.61566
G1 X160.027 Y90.687 E353.82485
G1 X160.997 Y91.657 F7200.000
G1 X163.257 Y93.917 E354.19689 F1080.000
G1 X164.271 Y93.921 E354.31495
G1 X162.007 Y91.657 E354.68769
G1 X163.017 Y91.657 E354.80526
G1 X165.286 Y93.925 E355.17869
G1 X179.700 Y92.178 F7200.000
G1 X179.178 Y91.657 E355.26458 F1080.000
G1 X178.168 Y91.657 E355.38216
G1 X179.700 Y93.188 E355.63426
G1 X179.699 Y94.198 E355.75179
G1 X177.158 Y91.657 E356.17010
G1 X176.148 Y91.657 E356.28767
G1 X179.699 Y95.207 E356.87220
G1 X179.698 Y96.217 E356.98973
G1 X175.138 Y91.657 E357.74046
G1 X174.128 Y91.657 E357.85803
G1 X179.698 Y97.227 E358.77498
G1 X179.698 Y98.236 E358.89250
