; generated by Slic3r 1.0.0RC2 on 2014-05-15 at 11:15:20

; layer_height = 0.3
; perimeters = 4
; top_solid_layers = 3
; bottom_solid_layers = 3
; fill_density = 0.1
; perimeter_speed = 60
; infill_speed = 60
; travel_speed = 120
; nozzle_diameter = 0.4
; filament_diameter = 1.75
; extrusion_multiplier = 0.98
; perimeters extrusion width = 0.40mm
; infill extrusion width = 0.42mm
; solid infill extrusion width = 0.42mm
; top infill extrusion width = 0.42mm
; first layer extrusion width = 0.80mm

G21 ; set units to millimeters
M107
M104 S220 ; set temperature
G28 ; home all axes
M106 S255;
G1 Z200 F1200 ; lift nozzle
M109 S220 ; wait for temperature to be reached
G90 ; use absolute coordinates
G92 E0
M82 ; use absolute distances for extrusion
G1 F1800.000 E-1.00000
G92 E0
G1 Z0.400 F7200.000
G1 X107.661 Y48.896 F7200.000
G1 E1.00000 F1800.000
G1 X108.281 Y47.736 E1.15309 F1080.000
G1 X109.121 Y46.716 E1.30688
G1 X110.151 Y45.886 E1.46084
G1 X111.311 Y45.266 E1.61393
G1 X112.581 Y44.886 E1.76822
G1 X113.891 Y44.766 E1.92133
G1 X131.521 Y44.846 E3.97330
G1 X132.521 Y44.926 E4.09006
G1 X133.491 Y45.146 E4.20583
G1 X182.601 Y60.496 E10.19444
G1 X184.071 Y61.156 E10.38199
G1 X185.341 Y62.146 E10.56941
G1 X186.331 Y63.406 E10.75591
G1 X191.861 Y72.476 E11.99231
G1 X192.481 Y73.786 E12.16099
G1 X192.801 Y75.186 E12.32814
G1 X192.811 Y76.626 E12.49575
G1 X191.501 Y90.006 E14.06049
G1 X191.361 Y90.876 E14.16305
G1 X191.111 Y91.706 E14.26394
G1 X167.681 Y154.276 E22.04029
G1 X166.971 Y155.656 E22.22092
G1 X165.971 Y156.836 E22.40094
G1 X158.901 Y163.426 E23.52586
G1 X157.541 Y164.406 E23.72096
G1 X155.981 Y165.026 E23.91635
G1 X154.321 Y165.226 E24.11095
G1 X133.591 Y165.226 E26.52371
G1 X132.171 Y165.076 E26.68990
G1 X130.821 Y164.636 E26.85517
G1 X129.601 Y163.916 E27.02005
G1 X128.551 Y162.946 E27.18642
G1 X127.731 Y161.786 E27.35176
G1 X127.171 Y160.476 E27.51758
G1 X107.441 Y95.846 E35.38256
G1 X107.221 Y94.876 E35.49833
G1 X107.151 Y93.886 E35.61384
G1 X107.151 Y51.476 E40.54994
G1 X107.281 Y50.166 E40.70316
G1 X107.630 Y48.999 E40.84498
G1 F1800.000 E39.84498
G92 E0
G1 X131.051 Y63.472 F7200.000
G1 E1.00000 F1800.000
G1 X143.711 Y63.381 E2.47364 F1080.000
G1 X143.711 Y79.829 E4.38800
G1 X131.051 Y79.826 E5.86161
G1 X131.051 Y63.579 E7.75260
G1 X131.765 Y64.181 F7200.000
G1 X142.997 Y64.101 E9.06000 F1080.000
G1 X142.997 Y79.115 E10.80750
G1 X131.765 Y79.112 E12.11487
G1 X131.765 Y64.288 E13.84024
G1 X132.479 Y64.890 F7200.000
G1 X142.283 Y64.820 E14.98139 F1080.000
G1 X142.283 Y78.400 E16.56203
G1 X132.479 Y78.398 E17.70315
G1 X132.479 Y64.997 E19.26289
G1 X133.193 Y65.599 F7200.000
G1 X141.569 Y65.539 E20.23780 F756.000
G1 X141.569 Y77.686 E21.65158
G1 X133.193 Y77.684 E22.62646
G1 X133.193 Y65.706 E24.02057
G1 X133.190 Y64.885 F7200.000
G1 F1800.000 E23.02057
G92 E0
G1 X151.852 Y72.465 F7200.000
G1 E1.00000 F1800.000
G1 X160.476 Y75.132 E2.05066 F1080.000
G1 X156.660 Y87.460 E3.55264
G1 X148.016 Y84.786 E4.60572
G1 X151.820 Y72.567 E6.09516
G1 X152.322 Y73.358 F7200.000
G1 X159.582 Y75.604 E6.97971 F540.000
G1 X156.189 Y86.567 E8.31544
G1 X148.911 Y84.315 E9.20215
G1 X152.290 Y73.460 E10.52536
G1 X152.792 Y74.251 F7200.000
G1 X158.689 Y76.075 E11.24380 F540.000
G1 X155.718 Y85.674 E12.41328
G1 X149.805 Y83.845 E13.13362
G1 X152.760 Y74.353 E14.29058
G1 X153.262 Y75.144 F7200.000
G1 X157.795 Y76.546 E14.84292 F540.000
G1 X155.247 Y84.780 E15.84616
G1 X150.700 Y83.374 E16.40011
G1 X153.230 Y75.246 E17.39084
G1 X153.473 Y74.462 F7200.000
G1 X142.169 Y70.719 F7200.000
G1 X146.704 Y134.093 F7200.000
G1 X152.598 Y135.917 E18.10903 F540.000
G1 X149.630 Y145.518 E19.27865
G1 X143.718 Y143.689 E19.99902
G1 X146.672 Y134.195 E21.15623
G1 X147.174 Y134.986 F7200.000
G1 X151.705 Y136.388 E21.70833 F540.000
G1 X149.159 Y144.624 E22.71171
G1 X144.612 Y143.218 E23.26568
G1 X147.142 Y135.088 E24.25664
G1 X147.385 Y134.304 F7200.000
G1 X148.264 Y133.080 F7200.000
G1 X145.764 Y132.307 E24.56123 F1080.000
G1 X144.136 Y137.537 E25.19880
G1 X143.711 Y137.473 E25.24877
G1 X143.711 Y134.342 E25.61320
G1 X136.135 Y134.342 E26.49497
G1 X136.135 Y115.615 E28.67452
G1 X143.711 Y115.647 E29.55630
G1 X143.711 Y98.629 E31.53706
G1 X136.135 Y98.607 E32.41884
G1 X136.135 Y91.381 E33.25987
G1 X116.403 Y91.355 E35.55648
G1 X116.403 Y75.643 E37.38513
G1 X117.443 Y75.614 E37.50618
G1 X123.175 Y79.381 E38.30455
G1 X123.175 Y56.160 E41.00722
G1 X117.238 Y60.573 E41.86820
G1 X116.403 Y60.595 E41.96541
G1 X116.403 Y54.030 E42.72949
G1 X131.101 Y54.097 E44.44016
G1 X177.857 Y68.719 E50.14197
G1 X176.705 Y79.677 E51.42443
G1 X183.178 Y80.128 E52.17957
G1 X182.702 Y84.977 E52.74665
G1 X176.485 Y84.554 E53.47193
G1 X174.941 Y91.685 E54.32109
G1 X166.180 Y94.017 E55.37629
G1 X158.397 Y108.519 E57.29201
G1 X151.105 Y125.183 E59.40900
G1 X157.380 Y133.337 E60.60658
G1 X156.129 Y140.317 E61.43191
G1 X161.902 Y142.389 E62.14576
G1 X160.366 Y146.986 E62.70992
G1 X153.823 Y144.609 E63.52008
G1 X152.134 Y155.982 E64.85821
G1 X136.135 Y155.978 E66.72031
G1 X136.135 Y151.438 E67.24861
G1 X143.711 Y151.438 E68.13038
G1 X143.711 Y145.182 E68.85860
G1 X150.573 Y147.304 E69.69455
G1 X154.385 Y134.975 E71.19663
G1 X148.366 Y133.112 E71.92994
G1 X148.053 Y133.763 F7200.000
G1 X146.234 Y133.200 E72.15154 F1080.000
G1 X143.422 Y142.236 E73.25296
G1 X142.997 Y142.171 E73.30293
G1 X142.997 Y135.056 E74.13109
G1 X135.421 Y135.056 E75.01286
G1 X135.421 Y114.898 E77.35900
G1 X142.997 Y114.930 E78.24078
G1 X142.997 Y99.341 E80.05519
G1 X135.421 Y99.319 E80.93696
G1 X135.421 Y92.094 E81.77787
G1 X115.689 Y92.068 E84.07447
G1 X115.689 Y74.949 E86.06693
G1 X117.648 Y74.894 E86.29495
G1 X122.461 Y78.057 E86.96537
G1 X122.461 Y57.581 E89.34861
G1 X117.483 Y61.281 E90.07056
G1 X115.689 Y61.328 E90.27939
G1 X115.689 Y53.313 E91.21227
G1 X131.212 Y53.383 E93.01894
G1 X178.628 Y68.212 E98.80133
G1 X177.493 Y79.016 E100.06576
G1 X183.960 Y79.467 E100.82030
G1 X183.345 Y85.737 E101.55356
G1 X177.053 Y85.309 E102.28768
G1 X175.547 Y92.263 E103.11582
G1 X166.663 Y94.627 E104.18580
G1 X159.039 Y108.832 E106.06216
G1 X151.928 Y125.082 E108.12664
G1 X158.139 Y133.152 E109.31183
G1 X156.939 Y139.849 E110.10369
G1 X162.801 Y141.953 E110.82858
G1 X160.811 Y147.908 E111.55940
G1 X154.401 Y145.579 E112.35309
G1 X152.750 Y156.696 E113.66115
G1 X135.421 Y156.691 E115.67805
G1 X135.421 Y150.724 E116.37253
G1 X142.997 Y150.724 E117.25430
G1 X142.997 Y144.213 E118.01211
G1 X150.102 Y146.411 E118.87765
G1 X153.492 Y135.446 E120.21350
G1 X148.155 Y133.794 E120.86370
G1 X142.283 Y135.770 F7200.000
G1 X134.707 Y135.770 E121.74547 F1080.000
G1 X134.707 Y114.181 E124.25821
G1 X142.283 Y114.213 E125.13999
G1 X142.283 Y100.053 E126.78805
G1 X134.707 Y100.031 E127.66982
G1 X134.707 Y92.807 E128.51059
G1 X114.975 Y92.781 E130.80720
G1 X114.975 Y74.255 E132.96347
G1 X117.852 Y74.174 E133.29844
G1 X121.747 Y76.733 E133.84094
G1 X121.747 Y59.002 E135.90473
G1 X117.727 Y61.989 E136.48766
G1 X114.975 Y62.061 E136.80811
G1 X114.975 Y52.595 E137.90978
G1 X131.322 Y52.669 E139.81245
G1 X179.400 Y67.705 E145.67542
G1 X178.280 Y78.355 E146.92183
G1 X183.716 Y78.734 E147.55600
G1 X184.814 Y78.074 E147.70512
G1 X183.920 Y87.201 E148.77249
G1 X182.959 Y86.426 E148.91610
G1 X177.620 Y86.063 E149.53896
G1 X176.152 Y92.840 E150.34607
G1 X167.146 Y95.238 E151.43083
G1 X159.682 Y109.144 E153.26782
G1 X152.752 Y124.981 E155.27981
G1 X158.897 Y132.967 E156.45261
G1 X157.748 Y139.380 E157.21098
G1 X162.810 Y141.198 E157.83699
G1 X163.902 Y140.910 E157.96843
G1 X161.029 Y149.507 E159.02349
G1 X160.297 Y148.481 E159.17020
G1 X154.979 Y146.549 E159.82870
G1 X153.366 Y157.410 E161.10667
G1 X134.707 Y157.405 E163.27838
G1 X134.707 Y150.010 E164.13903
G1 X142.283 Y150.010 E165.02080
G1 X142.283 Y135.877 E166.66576
G1 X141.569 Y136.484 F7200.000
G1 X133.993 Y136.484 E167.54753 F756.000
G1 X133.993 Y113.464 E170.22686
G1 X141.569 Y113.496 E171.10864
G1 X141.569 Y100.765 E172.59035
G1 X133.993 Y100.743 E173.47212
G1 X133.993 Y93.521 E174.31276
G1 X114.261 Y93.495 E176.60937
G1 X114.261 Y73.561 E178.92945
G1 X118.056 Y73.453 E179.37138
G1 X121.033 Y75.410 E179.78594
G1 X121.033 Y60.422 E181.53030
G1 X117.972 Y62.697 E181.97420
G1 X114.261 Y62.794 E182.40627
G1 X114.261 Y51.878 E183.67674
G1 X131.433 Y51.956 E185.67541
G1 X180.171 Y67.198 E191.61895
G1 X179.068 Y77.694 E192.84734
G1 X183.541 Y78.006 E193.36922
G1 X185.663 Y76.730 E193.65741
G1 X184.501 Y88.587 E195.04404
G1 X182.686 Y87.123 E195.31546
G1 X178.187 Y86.817 E195.84028
G1 X176.758 Y93.418 E196.62636
G1 X167.629 Y95.848 E197.72590
G1 X160.325 Y109.457 E199.52353
G1 X153.576 Y124.880 E201.48302
G1 X159.656 Y132.782 E202.64343
G1 X158.558 Y138.912 E203.36832
G1 X162.843 Y140.450 E203.89824
G1 X164.999 Y139.882 E204.15776
G1 X161.262 Y151.063 E205.52986
G1 X159.844 Y149.077 E205.81390
G1 X155.557 Y147.519 E206.34480
G1 X153.982 Y158.124 E207.59268
G1 X133.993 Y158.118 E209.91920
G1 X133.993 Y149.296 E210.94603
G1 X141.569 Y149.296 E211.82780
G1 X141.569 Y136.591 E213.30652
G1 X141.569 Y135.770 F7200.000
G1 X146.779 Y134.236 F7200.000
G1 X159.001 Y133.037 F7200.000
G1 X155.680 Y140.092 F7200.000
G1 X153.868 Y138.280 E213.60534 F1080.000
G1 X154.106 Y137.507 E213.69963
G1 X155.834 Y139.234 E213.98440
G1 X155.987 Y138.376 E214.08601
G1 X154.345 Y136.734 E214.35674
G1 X154.584 Y135.961 E214.45103
G1 X156.141 Y137.518 E214.70772
G1 X156.295 Y136.661 E214.80932
G1 X154.899 Y135.264 E215.03951
G1 X156.364 Y135.718 E215.21828
G1 X156.449 Y135.803 E215.23229
G1 X156.578 Y140.990 F7200.000
G1 X160.538 Y144.950 E215.88517 F1080.000
G1 X160.285 Y145.708 E215.97837
G1 X153.629 Y139.052 E217.07571
G1 X153.390 Y139.825 E217.17000
G1 X159.851 Y146.287 E218.23530
G1 X158.262 Y145.709 F7200.000
G1 X153.151 Y140.598 E219.07802 F1080.000
G1 X152.912 Y141.370 E219.17231
G1 X156.673 Y145.132 E219.79245
G1 X155.085 Y144.555 F7200.000
G1 X152.673 Y142.143 E220.19002 F1080.000
G1 X152.434 Y142.916 E220.28431
G1 X153.496 Y143.977 E220.45930
G1 X153.308 Y144.801 E220.55780
G1 X152.195 Y143.689 E220.74120
G1 X151.956 Y144.461 E220.83549
G1 X153.177 Y145.682 E221.03671
G1 X153.046 Y146.563 E221.14051
G1 X151.718 Y145.234 E221.35955
G1 X151.479 Y146.007 E221.45383
G1 X152.915 Y147.443 E221.69068
G1 X152.784 Y148.324 E221.79449
G1 X151.240 Y146.779 E222.04915
G1 X151.001 Y147.552 E222.14344
G1 X152.654 Y149.205 E222.41592
G1 X152.523 Y150.086 E222.51973
G1 X150.100 Y147.662 E222.91924
G1 X148.635 Y147.209 E223.09798
G1 X152.392 Y150.967 E223.71740
G1 X152.261 Y151.847 E223.82121
G1 X147.170 Y146.756 E224.66055
G1 X145.705 Y146.303 E224.83929
G1 X152.130 Y152.728 E225.89854
G1 X151.999 Y153.609 E226.00235
G1 X144.241 Y145.850 E227.28152
G1 X144.193 Y146.814 E227.39409
G1 X151.869 Y154.490 E228.65946
G1 X151.738 Y155.370 E228.76327
G1 X144.193 Y147.826 E230.00707
G1 X144.193 Y148.838 E230.12500
G1 X150.855 Y155.499 E231.22327
G1 X149.843 Y155.499 E231.34123
G1 X144.193 Y149.849 E232.27267
G1 X144.193 Y150.861 E232.39060
G1 X148.831 Y155.499 E233.15522
G1 X147.819 Y155.498 E233.27318
G1 X144.193 Y151.872 E233.87099
G1 X143.230 Y151.920 E233.98346
G1 X146.808 Y155.498 E234.57331
G1 X145.796 Y155.498 E234.69127
G1 X142.218 Y151.920 E235.28108
G1 X141.207 Y151.920 E235.39901
G1 X144.784 Y155.498 E235.98878
G1 X143.772 Y155.497 E236.10674
G1 X140.195 Y151.920 E236.69647
G1 X139.183 Y151.920 E236.81440
G1 X142.760 Y155.497 E237.40408
G1 X141.748 Y155.497 E237.52204
G1 X138.172 Y151.920 E238.11169
G1 X137.160 Y151.920 E238.22962
G1 X140.736 Y155.497 E238.81922
G1 X139.725 Y155.496 E238.93718
G1 X136.617 Y152.389 E239.44944
G1 X136.617 Y153.401 E239.56737
G1 X138.713 Y155.496 E239.91280
G1 X137.701 Y155.496 E240.03076
G1 X136.617 Y154.413 E240.20938
G1 X136.617 Y155.424 E240.32731
G1 X136.689 Y155.496 E240.33911
G1 X158.156 Y141.557 F7200.000
G1 X160.791 Y144.192 E240.77359 F1080.000
G1 X161.045 Y143.434 E240.86678
G1 X159.734 Y142.123 E241.08287
G1 X161.834 Y147.460 F7200.000
G1 X142.169 Y144.257 F7200.000
G1 X143.514 Y140.198 F7200.000
G1 X143.498 Y140.181 E241.08418 F360.000
G1 X143.754 Y138.619 F7200.000
G1 X143.719 Y138.583 E241.09006 F360.000
G1 X144.229 Y135.499 F7200.000
G1 X144.208 Y135.478 E241.09208 F360.000
G1 X144.386 Y135.064 E241.12284 F360.000
G1 X144.208 Y134.886 E241.14004 F360.000
G1 X144.526 Y134.613 E241.16870 F360.000
G1 X144.208 Y134.294 E241.19946 F360.000
G1 X144.629 Y134.124 E241.23050 F360.000
G1 X144.667 Y134.161 E241.23414 F360.000
G1 X143.005 Y143.281 F7200.000
G1 X143.040 Y143.317 E241.24001 F360.000
G1 X146.779 Y134.236 F7200.000
G1 X136.689 Y133.503 F7200.000
G1 X136.617 Y133.431 E241.25199 F1080.000
G1 X136.617 Y132.411 E241.37181
G1 X137.709 Y133.503 E241.55324
G1 X138.729 Y133.503 E241.67305
G1 X136.617 Y131.391 E242.02392
G1 X136.617 Y130.372 E242.14374
G1 X139.748 Y133.503 E242.66405
G1 X140.768 Y133.503 E242.78386
G1 X136.617 Y129.352 E243.47362
G1 X136.617 Y128.332 E243.59344
G1 X141.788 Y133.503 E244.45264
G1 X142.807 Y133.503 E244.57245
G1 X136.617 Y127.313 E245.60110
G1 X136.617 Y126.293 E245.72092
G1 X143.827 Y133.503 E246.91901
G1 X144.592 Y133.248 E247.01377
G1 X136.617 Y125.273 E248.33903
G1 X136.617 Y124.254 E248.45885
G1 X144.834 Y132.471 E249.82433
G1 X145.076 Y131.693 E249.92003
G1 X136.617 Y123.234 E251.32573
G1 X136.617 Y122.214 E251.44554
G1 X145.862 Y131.459 E252.98181
G1 X147.338 Y131.916 E253.16343
G1 X136.617 Y121.195 E254.94507
G1 X136.617 Y120.175 E255.06488
G1 X148.815 Y132.373 E257.09190
G1 X150.292 Y132.830 E257.27352
G1 X136.617 Y119.155 E259.54591
G1 X136.617 Y118.136 E259.66572
G1 X151.768 Y133.287 E262.18348
G1 X153.245 Y133.744 E262.36511
G1 X136.617 Y117.116 E265.12824
G1 X136.620 Y116.099 E265.24777
G1 X154.721 Y134.201 E268.25587
G1 X156.198 Y134.658 E268.43749
G1 X137.644 Y116.103 E271.52081
G1 X138.668 Y116.108 E271.64113
G1 X156.740 Y134.180 E274.64430
G1 X156.290 Y132.710 E274.82489
G1 X139.692 Y116.112 E277.58314
G1 X140.716 Y116.116 E277.70346
G1 X152.885 Y128.286 E279.72574
G1 X150.647 Y125.028 F7200.000
G1 X141.740 Y116.121 E281.20592 F1080.000
G1 X142.764 Y116.125 E281.32625
G1 X150.957 Y124.319 E282.68784
G1 X151.268 Y123.609 E282.77882
G1 X143.787 Y116.129 E284.02183
G1 X144.193 Y115.515 E284.10830
G1 X151.578 Y122.900 E285.33548
G1 X151.888 Y122.191 E285.42645
G1 X144.193 Y114.496 E286.70521
G1 X144.193 Y113.476 E286.82503
G1 X152.199 Y121.481 E288.15536
G1 X152.509 Y120.772 E288.24633
G1 X144.193 Y112.456 E289.62824
G1 X144.193 Y111.437 E289.74806
G1 X152.819 Y120.063 E291.18155
G1 X153.130 Y119.354 E291.27252
G1 X144.193 Y110.417 E292.75759
G1 X144.193 Y109.397 E292.87741
G1 X153.440 Y118.644 E294.41405
G1 X153.751 Y117.935 E294.50503
G1 X144.193 Y108.378 E296.09325
G1 X144.193 Y107.358 E296.21307
G1 X154.061 Y117.226 E297.85287
G1 X154.371 Y116.517 E297.94384
G1 X144.193 Y106.338 E299.63522
G1 X144.193 Y105.319 E299.75504
G1 X154.682 Y115.807 E301.49799
G1 X154.992 Y115.098 E301.58897
G1 X144.193 Y104.299 E303.38350
G1 X144.193 Y103.279 E303.50332
G1 X155.302 Y114.389 E305.34943
G1 X155.613 Y113.679 E305.44041
G1 X144.193 Y102.260 E307.33810
G1 X144.193 Y101.240 E307.45791
G1 X155.923 Y112.970 E309.40718
G1 X156.234 Y112.261 E309.49816
G1 X144.193 Y100.220 E311.49901
G1 X144.193 Y99.201 E311.61882
G1 X156.544 Y111.552 E313.67125
G1 X156.854 Y110.842 E313.76222
G1 X123.657 Y77.645 E319.27886
G1 X123.657 Y76.625 E319.39867
G1 X157.165 Y110.133 E324.96688
G1 X157.475 Y109.424 E325.05786
G1 X123.657 Y75.606 E330.67765
G1 X123.657 Y74.586 E330.79746
G1 X157.785 Y108.714 E336.46883
G1 X158.115 Y108.025 E336.55867
G1 X123.657 Y73.567 E342.28487
G1 X123.657 Y72.547 E342.40468
G1 X130.569 Y79.459 E343.55325
G1 X130.569 Y78.439 E343.67306
G1 X123.657 Y71.527 E344.82163
G1 X123.657 Y70.508 E344.94144
G1 X130.569 Y77.419 E346.09001
G1 X130.569 Y76.400 E346.20982
G1 X123.657 Y69.488 E347.35839
G1 X123.657 Y68.468 E347.47820
G1 X130.569 Y75.380 E348.62677
G1 X130.569 Y74.360 E348.74658
G1 X123.657 Y67.449 E349.89515
G1 X123.657 Y66.429 E350.01496
G1 X130.569 Y73.341 E351.16353
G1 X130.569 Y72.321 E351.28334
