; generated by Slic3r 1.0.0RC2 on 2014-05-17 at 11:50:31

; layer_height = 0.3
; perimeters = 4
; top_solid_layers = 3
; bottom_solid_layers = 3
; fill_density = 0.1
; perimeter_speed = 60
; infill_speed = 60
; travel_speed = 120
; nozzle_diameter = 0.4
; filament_diameter = 1.75
; extrusion_multiplier = 0.98
; perimeters extrusion width = 0.40mm
; infill extrusion width = 0.42mm
; solid infill extrusion width = 0.42mm
; top infill extrusion width = 0.42mm
; first layer extrusion width = 0.80mm

G21 ; set units to millimeters
M107
M104 S220 ; set temperature
G28 ; home all axes
M106 S255;
G1 Z200 F1200 ; lift nozzle
M109 S220 ; wait for temperature to be reached
G90 ; use absolute coordinates
G92 E0
M82 ; use absolute distances for extrusion
G1 F1800.000 E-1.00000
G92 E0
G1 Z0.400 F7200.000
G1 X78.820 Y41.290 F7200.000
G1 E1.00000 F1800.000
G1 X79.480 Y40.110 E1.15736 F1080.000
G1 X80.350 Y39.080 E1.31429
G1 X81.420 Y38.250 E1.47190
G1 X91.400 Y31.960 E2.84493
G1 X93.100 Y31.190 E3.06214
G1 X94.940 Y30.930 E3.27843
G1 X116.640 Y30.810 E5.80412
G1 X129.320 Y30.810 E7.27995
G1 X151.720 Y30.930 E9.88712
G1 X152.900 Y31.040 E10.02505
G1 X154.050 Y31.360 E10.16399
G1 X188.140 Y44.220 E14.40465
G1 X188.580 Y44.400 E14.45998
G1 X207.820 Y53.270 E16.92584
G1 X209.080 Y54.030 E17.09710
G1 X210.150 Y55.050 E17.26916
G1 X210.970 Y56.270 E17.44025
G1 X220.960 Y75.470 E19.95933
G1 X221.520 Y76.970 E20.14568
G1 X221.710 Y78.570 E20.33321
G1 X221.710 Y166.070 E30.51733
G1 X221.580 Y167.420 E30.67518
G1 X221.170 Y168.710 E30.83272
G1 X220.520 Y169.890 E30.98952
G1 X219.640 Y170.920 E31.14720
G1 X218.580 Y171.750 E31.30390
G1 X208.590 Y178.040 E32.67791
G1 X206.890 Y178.810 E32.89512
G1 X205.050 Y179.070 E33.11141
G1 X183.350 Y179.190 E35.63710
G1 X170.670 Y179.190 E37.11293
G1 X148.270 Y179.070 E39.72010
G1 X147.090 Y178.960 E39.85803
G1 X145.940 Y178.640 E39.99697
G1 X111.850 Y165.780 E44.23763
G1 X111.410 Y165.600 E44.29296
G1 X92.170 Y156.730 E46.75882
G1 X90.910 Y155.970 E46.93008
G1 X89.840 Y154.950 E47.10214
G1 X89.020 Y153.730 E47.27323
G1 X79.040 Y134.520 E49.79280
G1 X78.480 Y133.010 E49.98025
G1 X78.290 Y131.420 E50.16663
G1 X78.290 Y43.930 E60.34958
G1 X78.420 Y42.590 E60.50627
G1 X78.788 Y41.392 E60.65211
G1 F1800.000 E59.65211
G92 E0
G1 X104.555 Y63.267 F7200.000
G1 E1.00000 F1800.000
G1 X129.277 Y84.306 E4.77825 F1080.000
G1 X129.277 Y137.398 E10.95763
G1 X104.555 Y137.398 E13.83503
G1 X104.555 Y63.375 E22.45056
G1 X105.269 Y64.813 F7200.000
G1 X128.563 Y84.636 E26.01052 F1080.000
G1 X128.563 Y136.683 E32.06837
G1 X105.269 Y136.683 E34.77953
G1 X105.269 Y64.920 E43.13206
G1 X105.983 Y66.358 F7200.000
G1 X127.848 Y84.966 E46.47373 F1080.000
G1 X127.848 Y135.969 E52.41005
G1 X105.983 Y135.969 E54.95497
G1 X105.983 Y66.466 E63.04450
G1 X106.697 Y67.904 F7200.000
G1 X127.134 Y85.296 E66.16788 F756.000
G1 X127.134 Y135.255 E71.98267
G1 X106.697 Y135.255 E74.36134
G1 X106.697 Y68.011 E82.18787
G1 X107.021 Y67.267 F7200.000
G1 X97.529 Y57.353 F7200.000
G1 X97.529 Y53.103 E82.68247 F1080.000
G1 X87.542 Y53.103 E83.84479
G1 X87.542 Y46.472 E84.61657
G1 X97.529 Y46.472 E85.77888
G1 X97.529 Y40.164 E86.51308
G1 X114.143 Y40.071 E88.44682
G1 X114.143 Y41.378 E88.59893
G1 X109.822 Y48.870 E89.60561
G1 X136.980 Y48.871 E92.76651
G1 X131.828 Y41.277 E93.83447
G1 X131.828 Y40.070 E93.97493
G1 X149.139 Y40.164 E95.98970
G1 X149.139 Y46.472 E96.72384
G1 X159.163 Y46.472 E97.89053
G1 X159.163 Y53.103 E98.66231
G1 X149.139 Y53.103 E99.82899
G1 X149.139 Y57.373 E100.32600
G1 X124.149 Y57.373 E103.23454
G1 X124.149 Y73.899 E105.15797
G1 X126.122 Y76.366 E105.52562
G1 X141.626 Y84.223 E107.54865
G1 X149.139 Y86.432 E108.46000
G1 X149.139 Y91.727 E109.07638
G1 X134.473 Y91.727 E110.78327
G1 X134.473 Y137.398 E116.09881
G1 X145.144 Y137.398 E117.34075
G1 X145.144 Y148.144 E118.59148
G1 X126.743 Y148.144 E120.73310
G1 X126.743 Y156.011 E121.64883
G1 X127.385 Y156.958 E121.78190
G1 X118.624 Y156.958 E122.80158
G1 X119.228 Y155.911 E122.94219
G1 X119.228 Y148.157 E123.84471
G1 X107.104 Y148.094 E125.25586
G1 X97.529 Y148.094 E126.37027
G1 X97.529 Y128.879 E128.60671
G1 X87.542 Y128.879 E129.76903
G1 X87.542 Y122.113 E130.55658
G1 X97.529 Y122.113 E131.71889
G1 X97.529 Y57.460 E139.24383
G1 X96.815 Y57.353 F7200.000
G1 X96.815 Y53.817 E139.65531 F1080.000
G1 X86.828 Y53.817 E140.81762
G1 X86.828 Y45.758 E141.75564
G1 X96.815 Y45.758 E142.91796
G1 X96.815 Y39.454 E143.65169
G1 X114.857 Y39.353 E145.75167
G1 X114.857 Y41.569 E146.00963
G1 X111.058 Y48.156 E146.89467
G1 X135.632 Y48.156 E149.75484
G1 X131.114 Y41.497 E150.69150
G1 X131.114 Y39.352 E150.94108
G1 X149.853 Y39.454 E153.12209
G1 X149.853 Y45.758 E153.85578
G1 X159.877 Y45.758 E155.02247
G1 X159.877 Y53.817 E155.96049
G1 X149.853 Y53.817 E157.12717
G1 X149.853 Y58.087 E157.62418
G1 X124.863 Y58.087 E160.53272
G1 X124.863 Y73.649 E162.34387
G1 X126.583 Y75.799 E162.66435
G1 X141.891 Y83.556 E164.66172
G1 X149.853 Y85.897 E165.62764
G1 X149.853 Y92.442 E166.38934
G1 X135.188 Y92.442 E168.09623
G1 X135.188 Y136.683 E173.24554
G1 X145.858 Y136.683 E174.48747
G1 X145.858 Y148.858 E175.90445
G1 X127.458 Y148.858 E178.04606
G1 X127.458 Y155.792 E178.85314
G1 X128.733 Y157.672 E179.11750
G1 X117.388 Y157.672 E180.43791
G1 X118.514 Y155.720 E180.70016
G1 X118.514 Y148.867 E181.49773
G1 X107.102 Y148.808 E182.82598
G1 X96.815 Y148.808 E184.02329
G1 X96.815 Y129.593 E186.25973
G1 X86.828 Y129.593 E187.42205
G1 X86.828 Y121.398 E188.37584
G1 X96.815 Y121.398 E189.53816
G1 X96.815 Y57.460 E196.97997
G1 X96.101 Y57.353 F7200.000
G1 X96.101 Y54.531 E197.30833 F1080.000
G1 X86.114 Y54.531 E198.47065
G1 X86.114 Y45.044 E199.57491
G1 X96.101 Y45.044 E200.73722
G1 X96.101 Y38.744 E201.47050
G1 X115.571 Y38.635 E203.73672
G1 X115.571 Y41.760 E204.10051
G1 X112.295 Y47.442 E204.86392
G1 X134.285 Y47.442 E207.42337
G1 X130.400 Y41.716 E208.22872
G1 X130.400 Y38.634 E208.58741
G1 X150.567 Y38.744 E210.93466
G1 X150.567 Y45.044 E211.66791
G1 X160.591 Y45.044 E212.83459
G1 X160.591 Y54.531 E213.93886
G1 X150.567 Y54.531 E215.10554
G1 X150.567 Y58.802 E215.60255
G1 X125.577 Y58.802 E218.51109
G1 X125.577 Y73.398 E220.20997
G1 X127.044 Y75.232 E220.48326
G1 X142.155 Y82.890 E222.45498
G1 X150.567 Y85.363 E223.47547
G1 X150.567 Y88.465 E223.83659
G1 X160.591 Y88.465 E225.00327
G1 X160.591 Y90.255 E225.21153
G1 X150.567 Y90.255 E226.37821
G1 X150.567 Y93.156 E226.71586
G1 X135.902 Y93.156 E228.42275
G1 X135.902 Y135.969 E233.40581
G1 X146.572 Y135.969 E234.64775
G1 X146.572 Y149.572 E236.23097
G1 X128.172 Y149.572 E238.37258
G1 X128.172 Y155.573 E239.07100
G1 X130.080 Y158.386 E239.46667
G1 X116.152 Y158.386 E241.08780
G1 X117.800 Y155.529 E241.47169
G1 X117.800 Y149.578 E242.16431
G1 X107.100 Y149.522 E243.40965
G1 X96.101 Y149.522 E244.68987
G1 X96.101 Y130.307 E246.92631
G1 X86.114 Y130.307 E248.08863
G1 X86.114 Y120.684 E249.20866
G1 X96.101 Y120.684 E250.37098
G1 X96.101 Y57.460 E257.72967
G1 X95.386 Y57.353 F7200.000
G1 X95.386 Y55.246 E257.97491 F756.000
G1 X85.400 Y55.246 E259.13723
G1 X85.400 Y44.330 E260.40773
G1 X95.386 Y44.330 E261.57005
G1 X95.386 Y38.034 E262.30285
G1 X116.285 Y37.916 E264.73532
G1 X116.285 Y41.951 E265.20495
G1 X113.531 Y46.728 E265.84672
G1 X132.937 Y46.728 E268.10545
G1 X129.686 Y41.936 E268.77950
G1 X129.686 Y37.916 E269.24730
G1 X151.281 Y38.034 E271.76079
G1 X151.281 Y44.330 E272.49359
G1 X161.305 Y44.330 E273.66027
G1 X161.305 Y55.246 E274.93078
G1 X151.281 Y55.246 E276.09746
G1 X151.281 Y59.516 E276.59447
G1 X126.291 Y59.516 E279.50301
G1 X126.291 Y73.148 E281.08961
G1 X127.505 Y74.665 E281.31573
G1 X142.419 Y82.223 E283.26179
G1 X151.281 Y84.828 E284.33685
G1 X151.281 Y87.751 E284.67705
G1 X161.305 Y87.751 E285.84374
G1 X161.305 Y90.969 E286.21824
G1 X151.281 Y90.969 E287.38492
G1 X151.281 Y93.870 E287.72257
G1 X136.616 Y93.870 E289.42946
G1 X136.616 Y135.255 E294.24628
G1 X147.286 Y135.255 E295.48821
G1 X147.286 Y150.286 E297.23767
G1 X128.886 Y150.286 E299.37929
G1 X128.886 Y155.353 E299.96905
G1 X131.428 Y159.100 E300.49602
G1 X114.916 Y159.100 E302.41788
G1 X117.085 Y155.337 E302.92340
G1 X117.085 Y150.288 E303.51108
G1 X107.098 Y150.237 E304.67351
G1 X95.386 Y150.237 E306.03664
G1 X95.386 Y131.022 E308.27308
G1 X85.400 Y131.022 E309.43540
G1 X85.400 Y119.970 E310.72167
G1 X95.386 Y119.970 E311.88399
G1 X95.386 Y57.460 E319.15956
G1 X96.005 Y56.996 F7200.000
G1 X96.356 Y52.621 F7200.000
G1 X90.688 Y46.954 E320.09586 F1080.000
G1 X89.675 Y46.954 E320.21429
G1 X95.342 Y52.621 E321.15059
G1 X94.328 Y52.621 E321.26902
G1 X88.661 Y46.954 E322.20531
G1 X88.024 Y47.331 E322.29175
G1 X93.314 Y52.621 E323.16573
G1 X92.301 Y52.621 E323.28416
G1 X88.024 Y48.345 E323.99065
G1 X88.024 Y49.359 E324.10908
G1 X91.287 Y52.621 E324.64809
G1 X90.273 Y52.621 E324.76652
G1 X88.024 Y50.372 E325.13804
G1 X88.024 Y51.386 E325.25647
G1 X89.259 Y52.621 E325.46051
G1 X88.246 Y52.621 E325.57894
G1 X88.024 Y52.400 E325.61550
G1 X97.369 Y52.621 F7200.000
G1 X91.702 Y46.954 E326.55179 F1080.000
G1 X92.716 Y46.954 E326.67022
G1 X137.007 Y91.245 E333.98779
G1 X138.021 Y91.245 E334.10622
G1 X93.730 Y46.954 E341.42379
G1 X94.743 Y46.954 E341.54222
G1 X139.035 Y91.245 E348.85979
G1 X140.049 Y91.245 F7200.000
G1 X95.757 Y46.954 E356.17736 F1080.000
G1 X96.771 Y46.954 E356.29579
G1 X123.667 Y73.850 E360.73943
G1 X123.667 Y72.837 E360.85786
G1 X97.785 Y46.954 E365.13401
G1 X98.011 Y46.166 E365.22974
G1 X123.667 Y71.823 E369.46852
G1 X123.667 Y70.809 E369.58695
G1 X98.011 Y45.153 E373.82574
G1 X98.011 Y44.139 E373.94417
G1 X123.667 Y69.795 E378.18296
G1 X123.667 Y68.782 E378.30138
G1 X98.011 Y43.125 E382.54017
G1 X98.011 Y42.112 E382.65860
G1 X123.667 Y67.768 E386.89739
G1 X123.667 Y66.754 E387.01582
G1 X98.011 Y41.098 E391.25461
G1 X98.567 Y40.640 E391.33874
G1 X123.667 Y65.740 E395.48566
G1 X123.667 Y64.727 E395.60408
G1 X99.575 Y40.634 E399.58445
G1 X100.583 Y40.629 E399.70222
G1 X123.667 Y63.713 E403.51603
G1 X123.667 Y62.699 E403.63446
G1 X110.320 Y49.352 E405.83953
G1 X111.334 Y49.352 E405.95796
G1 X123.667 Y61.685 E407.99554
G1 X123.667 Y60.672 E408.11397
G1 X112.348 Y49.352 E409.98407
G1 X113.362 Y49.352 E410.10250
G1 X123.667 Y59.658 E411.80512
G1 X123.667 Y58.644 E411.92355
G1 X114.375 Y49.352 E413.45868
G1 X115.389 Y49.352 E413.57711
G1 X123.667 Y57.630 E414.94476
G1 X123.942 Y56.891 E415.03687
G1 X116.403 Y49.352 E416.28241
G1 X117.417 Y49.352 E416.40084
G1 X124.956 Y56.891 E417.64639
G1 X125.969 Y56.891 E417.76482
G1 X118.430 Y49.352 E419.01037
G1 X119.444 Y49.352 E419.12880
G1 X126.983 Y56.891 E420.37434
G1 X127.997 Y56.891 E420.49277
G1 X120.458 Y49.352 E421.73832
G1 X121.472 Y49.352 E421.85675
G1 X129.011 Y56.891 E423.10230
G1 X130.024 Y56.891 E423.22073
G1 X122.485 Y49.352 E424.46627
G1 X123.499 Y49.352 E424.58470
G1 X131.038 Y56.891 E425.83025
G1 X132.052 Y56.891 E425.94868
G1 X124.513 Y49.352 E427.19422
G1 X125.526 Y49.352 E427.31265
G1 X133.065 Y56.891 E428.55820
G1 X134.079 Y56.891 E428.67663
G1 X126.540 Y49.352 E429.92218
G1 X127.554 Y49.352 E430.04061
G1 X135.093 Y56.891 E431.28615
G1 X136.107 Y56.891 E431.40458
G1 X128.568 Y49.352 E432.65013
G1 X129.581 Y49.352 E432.76856
G1 X137.120 Y56.891 E434.01410
G1 X138.134 Y56.891 E434.13253
G1 X130.595 Y49.352 E435.37808
G1 X131.609 Y49.352 E435.49651
G1 X139.148 Y56.891 E436.74205
G1 X140.162 Y56.891 E436.86048
G1 X132.623 Y49.352 E438.10603
G1 X133.636 Y49.352 E438.22446
G1 X141.175 Y56.891 E439.47000
G1 X142.189 Y56.891 E439.58843
G1 X134.650 Y49.352 E440.83398
G1 X135.664 Y49.352 E440.95241
G1 X143.203 Y56.891 E442.19795
G1 X144.217 Y56.891 E442.31638
G1 X136.678 Y49.352 E443.56193
G1 X137.691 Y49.352 E443.68036
G1 X145.230 Y56.891 E444.92590
G1 X146.244 Y56.891 E445.04433
G1 X136.168 Y46.815 E446.70911
G1 X134.029 Y43.662 F7200.000
G1 X147.258 Y56.891 E448.89473 F1080.000
G1 X148.272 Y56.891 E449.01316
G1 X132.310 Y40.930 E451.65018
G1 X132.952 Y40.558 E451.73686
G1 X148.657 Y56.263 E454.33143
G1 X148.657 Y55.249 E454.44986
G1 X133.972 Y40.564 E456.87603
G1 X134.991 Y40.570 E456.99511
G1 X148.657 Y54.235 E459.25288
G1 X148.657 Y53.222 E459.37131
G1 X136.010 Y40.575 E461.46069
G1 X137.030 Y40.581 E461.57977
G1 X149.070 Y52.621 E463.56904
G1 X150.084 Y52.621 E463.68747
G1 X138.049 Y40.586 E465.67582
G1 X139.068 Y40.592 E465.79490
G1 X151.098 Y52.621 E467.78234
G1 X152.111 Y52.621 E467.90077
G1 X140.087 Y40.597 E469.88730
G1 X141.107 Y40.603 E470.00638
G1 X153.125 Y52.621 E471.99199
G1 X154.139 Y52.621 E472.11042
G1 X142.126 Y40.608 E474.09512
G1 X143.145 Y40.614 E474.21420
G1 X148.657 Y46.125 E475.12479
G1 X148.657 Y45.112 E475.24322
G1 X144.164 Y40.619 E475.98540
G1 X145.184 Y40.625 E476.10448
G1 X148.657 Y44.098 E476.67827
G1 X148.657 Y43.084 E476.79670
G1 X146.203 Y40.630 E477.20209
G1 X147.222 Y40.636 E477.32117
G1 X148.657 Y42.070 E477.55816
G1 X148.657 Y41.057 E477.67659
G1 X148.242 Y40.641 E477.74518
G1 X149.485 Y46.954 F7200.000
G1 X155.153 Y52.621 E478.68147 F1080.000
G1 X156.166 Y52.621 E478.79990
G1 X150.499 Y46.954 E479.73620
G1 X151.513 Y46.954 E479.85463
G1 X157.180 Y52.621 E480.79092
G1 X158.194 Y52.621 E480.90935
G1 X152.527 Y46.954 E481.84565
G1 X153.540 Y46.954 E481.96408
G1 X158.681 Y52.094 E482.81333
G1 X158.681 Y51.081 E482.93176
G1 X154.554 Y46.954 E483.61353
G1 X155.568 Y46.954 E483.73196
G1 X158.681 Y50.067 E484.24625
G1 X158.681 Y49.053 E484.36468
G1 X156.582 Y46.954 E484.71148
G1 X157.595 Y46.954 E484.82991
G1 X158.681 Y48.039 E485.00922
G1 X158.681 Y47.026 E485.12765
G1 X158.609 Y46.954 E485.13949
G1 F1800.000 E484.13949
G92 E0
G1 X147.387 Y86.419 F7200.000
G1 E1.00000 F1800.000
G1 X148.657 Y87.689 E1.20982 F1080.000
G1 X148.657 Y88.702 E1.32824
G1 X145.951 Y85.997 E1.77529
G1 X144.515 Y85.575 E1.95013
G1 X148.657 Y89.716 E2.63440
G1 X148.657 Y90.730 E2.75283
G1 X143.079 Y85.152 E3.67433
G1 X141.643 Y84.730 E3.84917
G1 X148.158 Y91.245 E4.92558
G1 X147.145 Y91.245 E5.04401
G1 X139.672 Y83.773 E6.27860
G1 X137.617 Y82.731 F7200.000
G1 X146.131 Y91.245 E7.68528 F1080.000
G1 X145.117 Y91.245 E7.80371
G1 X135.561 Y81.690 E9.38248
G1 X133.506 Y80.648 F7200.000
G1 X144.104 Y91.245 E11.13335 F1080.000
G1 X143.090 Y91.245 E11.25178
G1 X131.451 Y79.606 E13.17474
G1 X129.395 Y78.565 F7200.000
G1 X142.076 Y91.245 E15.26979 F1080.000
G1 X141.062 Y91.245 E15.38822
G1 X127.340 Y77.523 E17.65537
G1 X123.533 Y78.785 F7200.000
G1 X98.011 Y53.263 E21.87203 F1080.000
G1 X98.011 Y54.276 E21.99046
G1 X116.730 Y72.996 E25.08320
G1 X109.927 Y67.207 F7200.000
G1 X98.011 Y55.290 E27.05200 F1080.000
G1 X98.011 Y56.304 E27.17043
G1 X104.073 Y62.366 E28.17195
G1 X104.073 Y63.380 E28.29038
G1 X98.011 Y57.318 E29.29190
G1 X98.011 Y58.331 E29.41033
G1 X104.073 Y64.393 E30.41185
G1 X104.073 Y65.407 E30.53028
G1 X98.011 Y59.345 E31.53180
G1 X98.011 Y60.359 E31.65023
G1 X104.073 Y66.421 E32.65174
G1 X104.073 Y67.435 E32.77017
G1 X98.011 Y61.373 E33.77169
G1 X98.011 Y62.386 E33.89012
G1 X104.073 Y68.448 E34.89164
G1 X104.073 Y69.462 E35.01007
G1 X98.011 Y63.400 E36.01159
G1 X98.011 Y64.414 E36.13002
G1 X104.073 Y70.476 E37.13154
G1 X104.073 Y71.489 E37.24997
G1 X98.011 Y65.428 E38.25149
G1 X98.011 Y66.441 E38.36992
G1 X104.073 Y72.503 E39.37143
G1 X104.073 Y73.517 E39.48986
G1 X98.011 Y67.455 E40.49138
G1 X98.011 Y68.469 E40.60981
G1 X104.073 Y74.531 E41.61133
G1 X104.073 Y75.544 E41.72976
G1 X98.011 Y69.483 E42.73128
G1 X98.011 Y70.496 E42.84971
G1 X104.073 Y76.558 E43.85123
G1 X104.073 Y77.572 E43.96966
G1 X98.011 Y71.510 E44.97118
G1 X98.011 Y72.524 E45.08960
G1 X104.073 Y78.586 E46.09112
G1 X104.073 Y79.599 E46.20955
G1 X98.011 Y73.537 E47.21107
G1 X98.011 Y74.551 E47.32950
G1 X104.073 Y80.613 E48.33102
G1 X104.073 Y81.627 E48.44945
G1 X98.011 Y75.565 E49.45097
G1 X98.011 Y76.579 E49.56940
G1 X104.073 Y82.641 E50.57091
G1 X104.073 Y83.654 E50.68934
G1 X98.011 Y77.592 E51.69086
G1 X98.011 Y78.606 E51.80929
G1 X104.073 Y84.668 E52.81081
G1 X104.073 Y85.682 E52.92924
G1 X98.011 Y79.620 E53.93076
G1 X98.011 Y80.634 E54.04919
G1 X104.073 Y86.696 E55.05070
G1 X104.073 Y87.709 E55.16913
G1 X98.011 Y81.647 E56.17065
