; generated by Slic3r 1.0.0RC2 on 2014-05-17 at 11:47:28

; layer_height = 0.3
; perimeters = 4
; top_solid_layers = 3
; bottom_solid_layers = 3
; fill_density = 0.1
; perimeter_speed = 60
; infill_speed = 60
; travel_speed = 120
; nozzle_diameter = 0.4
; filament_diameter = 1.75
; extrusion_multiplier = 0.98
; perimeters extrusion width = 0.40mm
; infill extrusion width = 0.42mm
; solid infill extrusion width = 0.42mm
; top infill extrusion width = 0.42mm
; first layer extrusion width = 0.80mm

G21 ; set units to millimeters
M107
M104 S220 ; set temperature
G28 ; home all axes
M106 S255;
G1 Z200 F1200 ; lift nozzle
M109 S220 ; wait for temperature to be reached
G90 ; use absolute coordinates
G92 E0
M82 ; use absolute distances for extrusion
G1 F1800.000 E-1.00000
G92 E0
G1 Z0.400 F7200.000
G1 X92.527 Y72.557 F7200.000
G1 E1.00000 F1800.000
G1 X93.547 Y71.487 E1.17206 F1080.000
G1 X94.767 Y70.667 E1.34315
G1 X113.977 Y60.687 E3.86272
G1 X115.487 Y60.127 E4.05017
G1 X117.077 Y59.937 E4.23654
G1 X204.577 Y59.937 E14.42066
G1 X205.917 Y60.067 E14.57735
G1 X207.217 Y60.467 E14.73566
G1 X208.397 Y61.127 E14.89302
G1 X209.427 Y61.997 E15.04995
G1 X210.257 Y63.067 E15.20756
G1 X216.547 Y73.047 E16.58059
G1 X217.317 Y74.747 E16.79780
G1 X217.577 Y76.587 E17.01408
G1 X217.697 Y98.287 E19.53978
G1 X217.697 Y110.967 E21.01561
G1 X217.577 Y133.367 E23.62278
G1 X217.317 Y135.197 E23.83791
G1 X216.557 Y136.897 E24.05465
G1 X210.267 Y146.917 E25.43161
G1 X209.427 Y147.987 E25.58994
G1 X208.407 Y148.867 E25.74674
G1 X207.217 Y149.517 E25.90456
G1 X205.927 Y149.927 E26.06210
G1 X204.577 Y150.057 E26.21995
G1 X157.137 Y150.057 E31.74149
G1 X156.357 Y150.017 E31.83239
G1 X155.597 Y149.877 E31.92234
G1 X96.277 Y135.857 E39.01679
G1 X94.977 Y135.407 E39.17691
G1 X93.787 Y134.697 E39.33819
G1 X92.777 Y133.767 E39.49799
G1 X91.977 Y132.647 E39.65819
G1 X83.167 Y117.147 E41.73328
G1 X82.517 Y115.547 E41.93428
G1 X82.297 Y113.827 E42.13610
G1 X82.297 Y95.867 E44.22647
G1 X82.447 Y94.427 E44.39497
G1 X82.907 Y93.057 E44.56318
G1 X91.767 Y73.817 E47.02855
G1 X92.472 Y72.649 E47.18734
G1 F1800.000 E46.18734
G92 E0
G1 X111.110 Y86.202 F7200.000
G1 E1.00000 F1800.000
G1 X185.240 Y86.202 E9.62800 F1080.000
G1 X164.202 Y110.924 E13.40625
G1 X111.110 Y110.924 E19.58562
G1 X111.110 Y86.309 E22.45056
G1 X111.824 Y86.916 F7200.000
G1 X183.694 Y86.916 E30.81556 F1080.000
G1 X163.872 Y110.210 E34.37552
G1 X111.824 Y110.210 E40.43337
G1 X111.824 Y87.023 E43.13206
G1 X112.538 Y87.630 F7200.000
G1 X182.149 Y87.630 E51.23406 F1080.000
G1 X163.542 Y109.496 E54.57573
G1 X112.538 Y109.496 E60.51205
G1 X112.538 Y87.738 E63.04450
G1 X113.252 Y88.345 F7200.000
G1 X180.603 Y88.345 E70.88350 F756.000
G1 X163.212 Y108.782 E74.00688
G1 X113.252 Y108.782 E79.82166
G1 X113.252 Y88.452 E82.18788
G1 X113.252 Y87.630 F7200.000
G1 X116.572 Y79.176 F7200.000
G1 X119.628 Y79.176 E82.54351 F1080.000
G1 X119.628 Y69.190 E83.70583
G1 X126.395 Y69.190 E84.49338
G1 X126.395 Y79.176 E85.65569
G1 X195.404 Y79.176 E93.68770
G1 X195.404 Y69.190 E94.85001
G1 X202.035 Y69.190 E95.62179
G1 X202.035 Y79.176 E96.78411
G1 X208.343 Y79.176 E97.51831
G1 X208.436 Y95.790 E99.45204
G1 X207.129 Y95.790 E99.60415
G1 X199.637 Y91.470 E100.61084
G1 X199.637 Y118.627 E103.77174
G1 X207.230 Y113.476 E104.83970
G1 X208.437 Y113.476 E104.98017
G1 X208.343 Y130.786 E106.99494
G1 X202.035 Y130.786 E107.72908
G1 X202.035 Y140.810 E108.89577
G1 X195.404 Y140.810 E109.66755
G1 X195.404 Y130.786 E110.83423
G1 X191.134 Y130.786 E111.33124
G1 X191.134 Y105.796 E114.23977
G1 X174.608 Y105.796 E116.16321
G1 X172.141 Y107.770 E116.53086
G1 X164.284 Y123.274 E118.55389
G1 X162.076 Y130.786 E119.46524
G1 X156.780 Y130.786 E120.08162
G1 X156.780 Y116.121 E121.78851
G1 X111.110 Y116.121 E127.10405
G1 X111.110 Y126.791 E128.34599
G1 X100.363 Y126.791 E129.59672
G1 X100.363 Y108.391 E131.73834
G1 X92.496 Y108.391 E132.65407
G1 X91.550 Y109.033 E132.78713
G1 X91.550 Y100.272 E133.80682
G1 X92.596 Y100.875 E133.94743
G1 X100.350 Y100.875 E134.84995
G1 X100.413 Y88.751 E136.26110
G1 X100.413 Y79.176 E137.37551
G1 X116.465 Y79.176 E139.24385
G1 X116.572 Y78.462 F7200.000
G1 X118.914 Y78.462 E139.51636 F1080.000
G1 X118.914 Y68.476 E140.67868
G1 X127.109 Y68.476 E141.63247
G1 X127.109 Y78.462 E142.79479
G1 X194.690 Y78.462 E150.66055
G1 X194.690 Y68.476 E151.82286
G1 X202.749 Y68.476 E152.76088
G1 X202.749 Y78.462 E153.92320
G1 X209.053 Y78.462 E154.65693
G1 X209.154 Y96.505 E156.75691
G1 X206.938 Y96.505 E157.01486
G1 X200.351 Y92.706 E157.89991
G1 X200.351 Y117.280 E160.76009
G1 X207.010 Y112.762 E161.69675
G1 X209.155 Y112.762 E161.94633
G1 X209.053 Y131.500 E164.12734
G1 X202.749 Y131.500 E164.86103
G1 X202.749 Y141.524 E166.02772
G1 X194.690 Y141.524 E166.96574
G1 X194.690 Y131.500 E168.13242
G1 X190.420 Y131.500 E168.62943
G1 X190.420 Y106.511 E171.53797
G1 X174.858 Y106.511 E173.34913
G1 X172.708 Y108.231 E173.66960
G1 X164.951 Y123.538 E175.66697
G1 X162.610 Y131.500 E176.63289
G1 X156.066 Y131.500 E177.39459
G1 X156.066 Y116.835 E179.10148
G1 X111.824 Y116.835 E184.25079
G1 X111.824 Y127.505 E185.49272
G1 X99.649 Y127.505 E186.90970
G1 X99.649 Y109.105 E189.05132
G1 X92.715 Y109.105 E189.85839
G1 X90.835 Y110.380 E190.12276
G1 X90.835 Y99.036 E191.44317
G1 X92.787 Y100.161 E191.70541
G1 X99.640 Y100.161 E192.50298
G1 X99.699 Y88.749 E193.83123
G1 X99.699 Y78.462 E195.02854
G1 X116.465 Y78.462 E196.98000
G1 X116.572 Y77.748 F7200.000
G1 X118.200 Y77.748 E197.16940 F1080.000
G1 X118.200 Y67.762 E198.33171
G1 X127.823 Y67.762 E199.45175
G1 X127.823 Y77.748 E200.61406
G1 X193.976 Y77.748 E208.31358
G1 X193.976 Y67.762 E209.47590
G1 X203.463 Y67.762 E210.58016
G1 X203.463 Y77.748 E211.74248
G1 X209.763 Y77.748 E212.47575
G1 X209.872 Y97.219 E214.74197
G1 X206.747 Y97.219 E215.10576
G1 X201.065 Y93.942 E215.86917
G1 X201.065 Y115.932 E218.42862
G1 X206.791 Y112.048 E219.23398
G1 X209.873 Y112.048 E219.59267
G1 X209.763 Y132.214 E221.93992
G1 X203.463 Y132.214 E222.67317
G1 X203.463 Y142.238 E223.83985
G1 X193.976 Y142.238 E224.94411
G1 X193.976 Y132.214 E226.11080
G1 X189.705 Y132.214 E226.60780
G1 X189.705 Y107.225 E229.51634
G1 X175.109 Y107.225 E231.21522
G1 X173.275 Y108.692 E231.48852
G1 X165.617 Y123.803 E233.46024
G1 X163.144 Y132.214 E234.48072
G1 X160.042 Y132.214 E234.84185
G1 X160.042 Y142.238 E236.00853
G1 X158.252 Y142.238 E236.21679
G1 X158.252 Y132.214 E237.38347
G1 X155.351 Y132.214 E237.72112
G1 X155.351 Y117.549 E239.42801
G1 X112.538 Y117.549 E244.41107
G1 X112.538 Y128.220 E245.65300
G1 X98.935 Y128.220 E247.23622
G1 X98.935 Y109.819 E249.37784
G1 X92.934 Y109.819 E250.07626
G1 X90.121 Y111.728 E250.47193
G1 X90.121 Y97.799 E252.09306
G1 X92.978 Y99.447 E252.47694
G1 X98.929 Y99.447 E253.16957
G1 X98.985 Y88.747 E254.41491
G1 X98.985 Y77.748 E255.69513
G1 X116.465 Y77.748 E257.72971
G1 X116.572 Y77.034 F7200.000
G1 X117.486 Y77.034 E257.83598 F756.000
G1 X117.486 Y67.047 E258.99830
G1 X128.537 Y67.047 E260.28457
G1 X128.537 Y77.034 E261.44689
G1 X193.261 Y77.034 E268.98017
G1 X193.261 Y67.047 E270.14248
G1 X204.177 Y67.047 E271.41299
G1 X204.177 Y77.034 E272.57530
G1 X210.474 Y77.034 E273.30811
G1 X210.591 Y97.933 E275.74058
G1 X206.556 Y97.933 E276.21020
G1 X201.779 Y95.178 E276.85198
G1 X201.779 Y114.585 E279.11071
G1 X206.572 Y111.333 E279.78476
G1 X210.591 Y111.333 E280.25256
G1 X210.473 Y132.929 E282.76605
G1 X204.177 Y132.929 E283.49885
G1 X204.177 Y142.953 E284.66553
G1 X193.261 Y142.953 E285.93604
G1 X193.261 Y132.929 E287.10272
G1 X188.991 Y132.929 E287.59973
G1 X188.991 Y107.939 E290.50827
G1 X175.359 Y107.939 E292.09487
G1 X173.842 Y109.153 E292.32099
G1 X166.284 Y124.067 E294.26705
G1 X163.679 Y132.929 E295.34211
G1 X160.756 Y132.929 E295.68231
G1 X160.756 Y142.953 E296.84900
G1 X157.538 Y142.953 E297.22350
G1 X157.538 Y132.929 E298.39018
G1 X154.637 Y132.929 E298.72783
G1 X154.637 Y118.263 E300.43472
G1 X113.252 Y118.263 E305.25154
G1 X113.252 Y128.934 E306.49347
G1 X98.221 Y128.934 E308.24293
G1 X98.221 Y110.533 E310.38455
G1 X93.154 Y110.533 E310.97431
G1 X89.407 Y113.075 E311.50128
G1 X89.407 Y96.563 E313.42314
G1 X93.170 Y98.733 E313.92866
G1 X98.219 Y98.733 E314.51634
G1 X98.270 Y88.746 E315.67877
G1 X98.270 Y77.034 E317.04190
G1 X116.465 Y77.034 E319.15960
G1 X116.930 Y77.652 F7200.000
G1 X125.913 Y78.282 F7200.000
G1 X120.110 Y72.479 E320.11873 F1080.000
G1 X120.110 Y71.465 E320.23727
G1 X125.913 Y77.268 E321.19640
G1 X125.913 Y76.254 E321.31494
G1 X120.110 Y70.451 E322.27407
G1 X120.345 Y69.672 E322.36919
G1 X125.913 Y75.240 E323.28947
G1 X125.913 Y74.225 E323.40801
G1 X121.359 Y69.672 E324.16066
G1 X122.373 Y69.672 E324.27919
G1 X125.913 Y73.211 E324.86420
G1 X125.913 Y72.197 E324.98274
G1 X123.388 Y69.672 E325.40011
G1 X124.402 Y69.672 E325.51865
G1 X125.913 Y71.183 E325.76838
G1 X125.913 Y70.169 E325.88692
G1 X125.416 Y69.672 E325.96901
G1 X99.758 Y107.909 F7200.000
G1 X93.206 Y101.357 E327.05196 F1080.000
G1 X92.031 Y101.197 E327.19056
G1 X98.744 Y107.909 E328.30007
G1 X97.730 Y107.909 E328.41861
G1 X92.031 Y102.211 E329.36048
G1 X92.031 Y103.225 E329.47902
G1 X96.716 Y107.909 E330.25325
G1 X95.701 Y107.909 E330.37179
G1 X92.031 Y104.239 E330.97839
G1 X92.031 Y105.253 E331.09693
G1 X94.687 Y107.909 E331.53589
G1 X93.673 Y107.909 E331.65442
G1 X92.031 Y106.268 E331.92575
G1 X92.031 Y107.282 E332.04428
G1 X92.659 Y107.909 E332.14797
G1 F1800.000 E331.14797
G92 E0
G1 X100.917 Y126.309 F7200.000
G1 E1.00000 F1800.000
G1 X100.845 Y126.238 E1.01185 F1080.000
G1 X100.845 Y125.223 E1.13039
G1 X101.931 Y126.309 E1.30988
G1 X102.945 Y126.309 E1.42842
G1 X100.845 Y124.209 E1.77555
G1 X100.845 Y123.195 E1.89409
G1 X103.960 Y126.309 E2.40886
G1 X104.974 Y126.309 E2.52740
G1 X100.845 Y122.181 E3.20980
G1 X100.845 Y121.167 E3.32834
G1 X105.988 Y126.309 E4.17839
G1 X107.002 Y126.309 E4.29692
G1 X100.845 Y120.152 E5.31461
G1 X100.845 Y119.138 E5.43314
G1 X108.016 Y126.309 E6.61847
G1 X109.031 Y126.309 E6.73700
G1 X100.845 Y118.124 E8.08996
G1 X100.845 Y117.110 E8.20850
G1 X110.045 Y126.309 E9.72910
G1 X110.628 Y125.878 E9.81384
G1 X100.845 Y116.096 E11.43076
G1 X100.845 Y115.081 E11.54930
G1 X110.628 Y124.864 E13.16622
G1 X110.628 Y123.850 E13.28476
G1 X100.845 Y114.067 E14.90168
G1 X100.845 Y113.053 E15.02021
G1 X110.628 Y122.835 E16.63713
G1 X110.628 Y121.821 E16.75567
G1 X100.845 Y112.039 E18.37259
G1 X100.845 Y111.025 E18.49113
G1 X110.628 Y120.807 E20.10805
G1 X110.628 Y119.793 E20.22658
G1 X100.845 Y110.010 E21.84350
G1 X100.845 Y108.996 E21.96204
G1 X110.628 Y118.779 E23.57896
G1 X110.628 Y117.764 E23.69750
G1 X94.221 Y101.357 E26.40942
G1 X95.235 Y101.357 E26.52796
G1 X110.628 Y116.750 E29.07225
G1 X110.628 Y115.736 E29.19078
G1 X96.249 Y101.357 E31.56743
G1 X97.263 Y101.357 E31.68597
G1 X111.545 Y115.639 E34.04660
G1 X112.559 Y115.639 E34.16513
G1 X98.277 Y101.357 E36.52576
G1 X99.292 Y101.357 E36.64430
G1 X113.573 Y115.639 E39.00492
G1 X114.588 Y115.639 E39.12346
G1 X100.306 Y101.357 E41.48408
G1 X100.832 Y100.869 E41.56796
G1 X110.628 Y110.665 E43.18704
G1 X110.628 Y109.651 E43.30558
G1 X100.837 Y99.860 E44.92379
G1 X100.843 Y98.851 E45.04173
G1 X110.628 Y108.636 E46.65908
G1 X110.628 Y107.622 E46.77762
G1 X100.848 Y97.842 E48.39411
G1 X100.853 Y96.833 E48.51204
G1 X110.628 Y106.608 E50.12768
G1 X110.628 Y105.594 E50.24622
G1 X100.858 Y95.824 E51.86099
G1 X100.863 Y94.815 E51.97892
G1 X110.628 Y104.580 E53.59283
G1 X110.628 Y103.565 E53.71137
G1 X100.869 Y93.806 E55.32442
G1 X100.874 Y92.797 E55.44235
G1 X110.628 Y102.551 E57.05454
G1 X110.628 Y101.537 E57.17308
G1 X100.879 Y91.788 E58.78441
G1 X100.884 Y90.779 E58.90234
G1 X110.628 Y100.523 E60.51281
G1 X110.628 Y99.509 E60.63135
G1 X100.890 Y89.770 E62.24096
G1 X100.895 Y88.761 E62.35889
G1 X110.628 Y98.494 E63.96764
G1 X110.628 Y97.480 E64.08617
G1 X100.895 Y87.747 E65.69491
G1 X100.895 Y86.733 E65.81345
G1 X110.628 Y96.466 E67.42219
G1 X110.628 Y95.452 E67.54073
G1 X100.895 Y85.719 E69.14947
G1 X100.895 Y84.705 E69.26801
G1 X110.628 Y94.438 E70.87675
G1 X110.628 Y93.423 E70.99528
G1 X100.895 Y83.691 E72.60402
G1 X100.895 Y82.676 E72.72256
G1 X110.628 Y92.409 E74.33130
G1 X110.628 Y91.395 E74.44984
G1 X100.895 Y81.662 E76.05858
G1 X100.895 Y80.648 E76.17711
G1 X110.628 Y90.381 E77.78585
G1 X110.628 Y89.367 E77.90439
G1 X100.943 Y79.682 E79.50517
G1 X101.934 Y79.658 E79.62099
G1 X110.628 Y88.352 E81.05803
G1 X110.628 Y87.338 E81.17657
G1 X102.948 Y79.658 E82.44597
G1 X103.962 Y79.658 E82.56451
G1 X110.628 Y86.324 E83.66628
G1 X111.038 Y85.720 E83.75161
G1 X104.976 Y79.658 E84.75359
G1 X105.990 Y79.658 E84.87213
G1 X112.052 Y85.720 E85.87411
G1 X113.067 Y85.720 E85.99265
G1 X107.005 Y79.658 E86.99463
G1 X108.019 Y79.658 E87.11316
G1 X114.081 Y85.720 E88.11515
G1 X115.095 Y85.720 E88.23369
G1 X109.033 Y79.658 E89.23567
G1 X110.047 Y79.658 E89.35421
G1 X116.109 Y85.720 E90.35619
G1 X117.123 Y85.720 E90.47473
G1 X111.061 Y79.658 E91.47671
G1 X112.076 Y79.658 E91.59525
G1 X118.138 Y85.720 E92.59723
G1 X119.152 Y85.720 E92.71577
G1 X113.090 Y79.658 E93.71775
G1 X114.104 Y79.658 E93.83629
G1 X120.166 Y85.720 E94.83827
G1 X121.180 Y85.720 E94.95681
G1 X115.118 Y79.658 E95.95879
G1 X116.132 Y79.658 E96.07733
G1 X122.194 Y85.720 E97.07931
G1 X123.209 Y85.720 E97.19785
G1 X117.147 Y79.658 E98.19983
G1 X118.161 Y79.658 E98.31837
G1 X124.223 Y85.720 E99.32035
G1 X125.237 Y85.720 E99.43889
G1 X119.175 Y79.658 E100.44087
G1 X120.110 Y79.579 E100.55053
G1 X126.251 Y85.720 E101.56563
G1 X127.265 Y85.720 E101.68416
G1 X120.110 Y78.565 E102.86690
G1 X120.110 Y77.550 E102.98544
G1 X128.280 Y85.720 E104.33581
G1 X129.294 Y85.720 E104.45435
G1 X120.110 Y76.536 E105.97236
G1 X120.110 Y75.522 E106.09090
G1 X130.308 Y85.720 E107.77655
G1 X131.322 Y85.720 E107.89509
G1 X120.110 Y74.508 E109.74838
G1 X120.110 Y73.494 E109.86692
G1 X132.336 Y85.720 E111.88785
G1 X133.351 Y85.720 E112.00638
G1 X127.289 Y79.658 E113.00837
G1 X128.303 Y79.658 E113.12690
G1 X134.365 Y85.720 E114.12889
G1 X135.379 Y85.720 E114.24743
G1 X129.317 Y79.658 E115.24941
G1 X130.331 Y79.658 E115.36795
G1 X136.393 Y85.720 E116.36993
G1 X137.408 Y85.720 E116.48847
G1 X131.346 Y79.658 E117.49045
G1 X132.360 Y79.658 E117.60899
G1 X138.422 Y85.720 E118.61097
G1 X139.436 Y85.720 E118.72951
G1 X133.374 Y79.658 E119.73149
G1 X134.388 Y79.658 E119.85003
G1 X140.450 Y85.720 E120.85201
G1 X141.464 Y85.720 E120.97055
G1 X135.402 Y79.658 E121.97253
G1 X136.417 Y79.658 E122.09107
G1 X142.479 Y85.720 E123.09305
G1 X143.493 Y85.720 E123.21159
G1 X137.431 Y79.658 E124.21357
G1 X138.445 Y79.658 E124.33211
G1 X144.507 Y85.720 E125.33409
G1 X145.521 Y85.720 E125.45263
G1 X139.459 Y79.658 E126.45461
G1 X140.473 Y79.658 E126.57315
G1 X146.535 Y85.720 E127.57513
G1 X147.550 Y85.720 E127.69367
G1 X141.488 Y79.658 E128.69565
G1 X142.502 Y79.658 E128.81419
G1 X148.564 Y85.720 E129.81617
G1 X149.578 Y85.720 E129.93471
G1 X143.516 Y79.658 E130.93669
G1 X144.530 Y79.658 E131.05523
G1 X150.592 Y85.720 E132.05721
G1 X151.606 Y85.720 E132.17575
G1 X145.544 Y79.658 E133.17773
G1 X146.559 Y79.658 E133.29627
G1 X152.621 Y85.720 E134.29826
G1 X153.635 Y85.720 E134.41679
G1 X147.573 Y79.658 E135.41878
G1 X148.587 Y79.658 E135.53731
G1 X154.649 Y85.720 E136.53930
G1 X155.663 Y85.720 E136.65784
G1 X149.601 Y79.658 E137.65982
G1 X150.615 Y79.658 E137.77836
G1 X156.677 Y85.720 E138.78034
G1 X157.692 Y85.720 E138.89888
G1 X151.630 Y79.658 E139.90086
G1 X152.644 Y79.658 E140.01940
G1 X158.706 Y85.720 E141.02138
G1 X159.720 Y85.720 E141.13992
G1 X153.658 Y79.658 E142.14190
G1 X154.672 Y79.658 E142.26044
G1 X160.734 Y85.720 E143.26242
G1 X161.748 Y85.720 E143.38096
G1 X155.686 Y79.658 E144.38294
G1 X156.701 Y79.658 E144.50148
G1 X162.763 Y85.720 E145.50347
G1 X163.777 Y85.720 E145.62200
G1 X157.715 Y79.658 E146.62399
G1 X158.729 Y79.658 E146.74253
G1 X164.791 Y85.720 E147.74451
G1 X165.805 Y85.720 E147.86305
G1 X159.743 Y79.658 E148.86503
G1 X160.758 Y79.658 E148.98357
G1 X166.819 Y85.720 E149.98555
G1 X167.834 Y85.720 E150.10409
G1 X161.772 Y79.658 E151.10607
G1 X162.786 Y79.658 E151.22461
