; generated by Slic3r 1.0.0RC2 on 2014-05-15 at 11:25:00

; layer_height = 0.3
; perimeters = 4
; top_solid_layers = 3
; bottom_solid_layers = 3
; fill_density = 0.1
; perimeter_speed = 60
; infill_speed = 60
; travel_speed = 120
; nozzle_diameter = 0.4
; filament_diameter = 1.75
; extrusion_multiplier = 0.98
; perimeters extrusion width = 0.40mm
; infill extrusion width = 0.42mm
; solid infill extrusion width = 0.42mm
; top infill extrusion width = 0.42mm
; first layer extrusion width = 0.80mm

G21 ; set units to millimeters
M107
M104 S220 ; set temperature
G28 ; home all axes
M106 S255;
G1 Z200 F1200 ; lift nozzle
M109 S220 ; wait for temperature to be reached
G90 ; use absolute coordinates
G92 E0
M82 ; use absolute distances for extrusion
G1 F1800.000 E-1.00000
G92 E0
G1 Z0.400 F7200.000
G1 X96.050 Y76.385 F7200.000
G1 E1.00000 F1800.000
G1 X96.890 Y75.395 E1.15111 F1080.000
G1 X97.890 Y74.585 E1.30090
G1 X99.030 Y73.985 E1.45084
G1 X117.190 Y66.545 E3.73498
G1 X118.440 Y66.165 E3.88704
G1 X119.740 Y66.045 E4.03899
G1 X180.250 Y66.045 E11.08174
G1 X181.550 Y66.165 E11.23369
G1 X182.800 Y66.545 E11.38576
G1 X200.960 Y73.985 E13.66990
G1 X202.100 Y74.585 E13.81984
G1 X203.100 Y75.395 E13.96962
G1 X203.940 Y76.385 E14.12074
G1 X204.560 Y77.515 E14.27076
G1 X204.960 Y78.735 E14.42019
G1 X212.400 Y112.225 E18.41311
G1 X212.520 Y112.955 E18.49922
G1 X212.560 Y113.685 E18.58431
G1 X212.560 Y127.105 E20.14626
G1 X212.420 Y128.515 E20.31118
G1 X211.980 Y129.855 E20.47533
G1 X211.260 Y131.075 E20.64021
G1 X203.820 Y141.215 E22.10401
G1 X202.750 Y142.365 E22.28684
G1 X201.440 Y143.235 E22.46987
G1 X199.970 Y143.775 E22.65214
G1 X198.410 Y143.955 E22.83491
G1 X101.580 Y143.955 E34.10495
G1 X100.020 Y143.775 E34.28772
G1 X98.550 Y143.235 E34.46999
G1 X97.240 Y142.365 E34.65302
G1 X96.170 Y141.215 E34.83585
G1 X88.730 Y131.075 E36.29965
G1 X88.010 Y129.855 E36.46453
G1 X87.570 Y128.515 E36.62868
G1 X87.430 Y127.105 E36.79360
G1 X87.430 Y113.685 E38.35555
G1 X87.470 Y112.955 E38.44064
G1 X87.590 Y112.225 E38.52675
G1 X95.030 Y78.735 E42.51967
G1 X95.430 Y77.515 E42.66911
G1 X95.999 Y76.479 E42.80665
G1 F1800.000 E41.80665
G92 E0
G1 X121.449 Y85.524 F7200.000
G1 E1.00000 F1800.000
G1 X131.387 Y85.498 E2.15662 F1080.000
G1 X131.387 Y99.664 E3.80542
G1 X121.449 Y99.664 E4.96203
G1 X121.449 Y85.631 E6.59533
G1 X122.163 Y86.236 F7200.000
G1 X130.672 Y86.214 E7.58571 F756.000
G1 X130.672 Y98.950 E9.06805
G1 X122.163 Y98.950 E10.05843
G1 X122.163 Y86.343 E11.52570
G1 X122.162 Y85.522 F7200.000
G1 X168.530 Y85.522 F7200.000
G1 X178.482 Y85.521 E12.68391 F1080.000
G1 X178.467 Y99.684 E14.33234
G1 X168.530 Y99.644 E15.48889
G1 X168.530 Y85.629 E17.12011
G1 X169.245 Y86.236 F7200.000
G1 X177.767 Y86.235 E18.11200 F756.000
G1 X177.754 Y98.967 E19.59385
G1 X169.245 Y98.933 E20.58424
G1 X169.245 Y86.343 E22.04955
G1 X169.245 Y85.522 F7200.000
G1 F1800.000 E21.04955
G92 E0
G1 X130.703 Y129.725 F7200.000
G1 E1.00000 F1800.000
G1 X130.688 Y134.573 E1.56431 F540.000
G1 X122.180 Y134.556 E2.55459
G1 X122.180 Y129.725 E3.11688
G1 X130.595 Y129.725 E4.09638
G1 X131.417 Y129.726 F7200.000
G1 F1800.000 E3.09638
G92 E0
G1 X131.689 Y128.736 F7200.000
G1 X131.083 Y125.283 F7200.000
G1 X172.071 Y124.058 F7200.000
G1 X173.414 Y126.755 F7200.000
G1 X169.245 Y129.725 F7200.000
G1 E1.00000 F1800.000
G1 X177.767 Y129.725 E1.99196 F540.000
G1 X177.753 Y134.573 E2.55627
G1 X169.245 Y134.556 E3.54657
G1 X169.245 Y129.832 E4.09639
G1 X169.245 Y129.011 F7200.000
G1 X176.563 Y127.582 F7200.000
G1 X176.494 Y127.214 E4.13999 F1080.000
G1 X194.686 Y120.151 E6.41133
G1 X196.282 Y118.074 E6.71624
G1 X203.317 Y118.074 E7.53511
G1 X203.317 Y122.752 E8.07961
G1 X195.869 Y122.752 E8.94658
G1 X195.869 Y134.703 E10.33750
G1 X179.895 Y134.703 E12.19665
G1 X179.916 Y127.582 E13.02541
G1 X176.670 Y127.582 E13.40329
G1 X179.200 Y128.296 F7200.000
G1 X172.749 Y128.297 E14.15408 F1080.000
G1 X172.680 Y127.929 E14.19768
G1 X194.241 Y119.558 E16.88960
G1 X196.410 Y116.735 E17.30394
G1 X196.583 Y116.794 E17.32516
G1 X196.583 Y117.360 E17.39105
G1 X203.052 Y117.360 E18.14397
G1 X204.032 Y116.809 E18.27479
G1 X204.032 Y124.012 E19.11307
G1 X203.045 Y123.466 E19.24428
G1 X196.583 Y123.466 E19.99642
G1 X196.583 Y135.417 E21.38734
G1 X179.179 Y135.417 E23.41298
G1 X179.200 Y128.403 E24.22926
G1 X197.411 Y130.888 F7200.000
G1 X195.420 Y107.923 F7200.000
G1 X193.275 Y100.290 E25.15198 F1080.000
G1 X179.895 Y100.290 E26.70933
G1 X179.911 Y84.092 E28.59464
G1 X167.102 Y84.094 E30.08550
G1 X167.102 Y100.290 E31.97064
G1 X132.815 Y100.290 E35.96133
G1 X132.815 Y84.066 E37.84972
G1 X120.021 Y84.099 E39.33882
G1 X120.021 Y100.290 E41.22330
G1 X106.725 Y100.290 E42.77084
G1 X104.580 Y107.922 E43.69356
G1 X104.131 Y107.861 E43.74622
G1 X104.131 Y82.746 E46.66928
G1 X124.108 Y82.746 E48.99437
G1 X124.108 Y75.297 E49.86135
G1 X128.786 Y75.297 E50.40584
G1 X128.786 Y82.746 E51.27281
G1 X171.189 Y82.746 E56.20809
G1 X171.189 Y75.297 E57.07506
G1 X175.868 Y75.297 E57.61956
G1 X175.868 Y82.746 E58.48653
G1 X195.869 Y82.746 E60.81444
G1 X195.869 Y107.861 E63.73752
G1 X195.527 Y107.908 E63.77771
G1 X196.135 Y113.103 F7200.000
G1 X192.734 Y101.005 E65.24041 F1080.000
G1 X179.180 Y101.005 E66.81798
G1 X179.196 Y84.806 E68.70328
G1 X167.816 Y84.808 E70.02782
G1 X167.816 Y101.005 E71.91297
G1 X132.101 Y101.004 E76.06990
G1 X132.101 Y84.782 E77.95806
G1 X120.735 Y84.811 E79.28093
G1 X120.735 Y101.004 E81.16562
G1 X107.266 Y101.004 E82.73330
G1 X103.865 Y113.103 E84.19600
G1 X103.417 Y113.041 E84.24866
G1 X103.417 Y82.032 E87.85779
G1 X123.394 Y82.032 E90.18289
G1 X123.394 Y75.570 E90.93502
G1 X122.849 Y74.583 E91.06624
G1 X130.051 Y74.583 E91.90453
G1 X129.501 Y75.563 E92.03534
G1 X129.501 Y82.032 E92.78826
G1 X170.475 Y82.032 E97.55729
G1 X170.475 Y75.570 E98.30943
G1 X169.930 Y74.583 E98.44064
G1 X177.132 Y74.583 E99.27892
G1 X176.582 Y75.563 E99.40974
G1 X176.582 Y82.032 E100.16266
G1 X196.583 Y82.032 E102.49057
G1 X196.583 Y113.041 E106.09973
G1 X196.241 Y113.088 E106.13992
G1 X197.411 Y98.632 F7200.000
G1 X142.263 Y101.833 F7200.000
G1 X122.263 Y101.833 F7200.000
G1 X102.589 Y93.158 F7200.000
G1 X102.589 Y125.414 F7200.000
G1 X123.508 Y127.215 F7200.000
G1 X123.439 Y127.583 E106.18350 F1080.000
G1 X120.037 Y127.583 E106.57944
G1 X120.037 Y134.702 E107.40808
G1 X104.131 Y134.702 E109.25936
G1 X104.131 Y122.752 E110.65026
G1 X96.683 Y122.752 E111.51723
G1 X96.683 Y118.074 E112.06173
G1 X103.718 Y118.074 E112.88061
G1 X105.314 Y120.151 E113.18549
G1 X123.408 Y127.176 E115.44458
G1 X122.733 Y128.297 F7200.000
G1 X120.751 Y128.297 E115.67526 F1080.000
G1 X120.751 Y135.417 E116.50391
G1 X103.417 Y135.417 E118.52143
G1 X103.417 Y123.466 E119.91233
G1 X96.955 Y123.466 E120.66446
G1 X95.968 Y124.012 E120.79567
G1 X95.968 Y116.809 E121.63396
G1 X96.948 Y117.360 E121.76477
G1 X103.417 Y117.360 E122.51769
G1 X103.417 Y116.793 E122.58360
G1 X103.590 Y116.735 E122.60482
G1 X105.759 Y119.557 E123.01915
G1 X127.320 Y127.929 E125.71115
G1 X127.251 Y128.297 E125.75474
G1 X122.841 Y128.297 E126.26808
G1 X122.733 Y129.011 F7200.000
G1 X121.466 Y129.011 E126.41565 F1080.000
G1 X121.466 Y135.269 E127.14402
G1 X131.400 Y135.289 E128.30029
G1 X131.420 Y128.754 E129.06086
G1 X133.095 Y129.404 E129.26999
G1 X133.095 Y136.131 E130.05287
G1 X102.703 Y136.131 E133.59014
G1 X102.703 Y124.180 E134.98103
G1 X97.139 Y124.180 E135.62861
G1 X95.254 Y125.222 E135.87929
G1 X95.254 Y115.589 E137.00051
G1 X97.135 Y116.646 E137.25161
G1 X102.703 Y116.646 E137.89966
G1 X102.703 Y81.318 E142.01145
G1 X122.680 Y81.318 E144.33655
G1 X122.680 Y75.754 E144.98411
G1 X121.638 Y73.869 E145.23480
G1 X131.271 Y73.869 E146.35602
G1 X130.215 Y75.750 E146.60712
G1 X130.215 Y81.318 E147.25517
G1 X169.761 Y81.318 E151.85796
G1 X169.761 Y75.754 E152.50553
G1 X168.719 Y73.869 E152.75621
G1 X178.353 Y73.869 E153.87744
G1 X177.296 Y75.750 E154.12854
G1 X177.296 Y81.318 E154.77659
G1 X197.297 Y81.318 E157.10450
G1 X197.297 Y116.646 E161.21629
G1 X202.865 Y116.646 E161.86434
G1 X204.746 Y115.589 E162.11543
G1 X204.746 Y125.222 E163.23666
G1 X202.861 Y124.180 E163.48735
G1 X197.297 Y124.180 E164.13492
G1 X197.297 Y136.131 E165.52584
G1 X166.905 Y136.131 E169.06311
G1 X166.905 Y129.405 E169.84598
G1 X168.531 Y128.774 E170.04890
G1 X168.530 Y135.269 E170.80490
G1 X178.465 Y135.289 E171.96119
G1 X178.484 Y129.011 E172.69191
G1 X168.936 Y129.011 E173.80315
G1 X168.867 Y128.643 E173.84674
G1 X193.796 Y118.964 E176.95924
G1 X196.171 Y115.874 E177.41291
G1 X192.193 Y101.719 E179.12422
G1 X107.807 Y101.719 E188.94592
G1 X103.829 Y115.873 E190.65723
G1 X106.204 Y118.964 E191.11088
G1 X131.132 Y128.643 E194.22333
G1 X131.063 Y129.011 E194.26692
G1 X122.841 Y129.011 E195.22395
G1 X133.520 Y128.804 F7200.000
G1 X133.809 Y128.916 E195.25999 F756.000
G1 X133.809 Y136.845 E196.18288
G1 X101.989 Y136.845 E199.88639
G1 X101.989 Y124.895 E201.27729
G1 X97.324 Y124.895 E201.82029
G1 X94.540 Y126.433 E202.19045
G1 X94.540 Y114.369 E203.59462
G1 X97.322 Y115.931 E203.96600
G1 X101.989 Y115.931 E204.50918
G1 X101.989 Y80.604 E208.62097
G1 X121.966 Y80.604 E210.94606
G1 X121.966 Y75.938 E211.48906
G1 X120.427 Y73.155 E211.85922
G1 X132.492 Y73.155 E213.26339
G1 X130.929 Y75.937 E213.63477
G1 X130.929 Y80.604 E214.17795
G1 X169.047 Y80.604 E218.61449
G1 X169.047 Y75.938 E219.15750
G1 X167.508 Y73.155 E219.52766
G1 X179.573 Y73.155 E220.93183
G1 X178.010 Y75.937 E221.30322
G1 X178.010 Y80.604 E221.84640
G1 X198.011 Y80.604 E224.17431
G1 X198.011 Y115.931 E228.28609
G1 X202.678 Y115.931 E228.82927
G1 X205.460 Y114.369 E229.20065
G1 X205.460 Y126.433 E230.60483
G1 X202.676 Y124.895 E230.97499
G1 X198.011 Y124.895 E231.51799
G1 X198.011 Y136.845 E232.90891
G1 X166.191 Y136.845 E236.61242
G1 X166.191 Y128.916 E237.53531
G1 X193.352 Y118.371 E240.92643
G1 X195.387 Y115.722 E241.31519
G1 X191.652 Y102.433 E242.92186
G1 X108.348 Y102.433 E252.61761
G1 X104.613 Y115.722 E254.22428
G1 X106.648 Y118.370 E254.61303
G1 X133.420 Y128.765 E257.95565
G1 X133.567 Y129.110 F7200.000
G1 F1800.000 E256.95565
G92 E0
G1 X131.689 Y128.736 F7200.000
G1 X131.083 Y125.283 F7200.000
G1 X172.071 Y124.058 F7200.000
G1 X173.414 Y126.755 F7200.000
G1 X178.369 Y129.125 F7200.000
G1 X180.451 Y134.221 F7200.000
G1 E1.00000 F1800.000
G1 X180.378 Y134.149 E1.01212 F1080.000
G1 X180.381 Y133.125 E1.13318
G1 X181.477 Y134.221 E1.31650
G1 X182.504 Y134.221 E1.43792
G1 X180.384 Y132.102 E1.79243
G1 X180.387 Y131.079 E1.91349
G1 X183.530 Y134.221 E2.43920
G1 X184.556 Y134.221 E2.56062
G1 X180.390 Y130.055 E3.25753
G1 X180.394 Y129.032 E3.37859
G1 X185.583 Y134.221 E4.24670
G1 X186.609 Y134.221 E4.36811
G1 X180.397 Y128.008 E5.40742
G1 X180.756 Y127.341 E5.49706
G1 X187.636 Y134.221 E6.64801
G1 X188.662 Y134.221 E6.76943
G1 X180.759 Y126.318 E8.09157
G1 X181.323 Y125.856 E8.17785
G1 X189.689 Y134.221 E9.57728
G1 X190.715 Y134.221 E9.69870
G1 X182.063 Y125.569 E11.14616
G1 X182.802 Y125.281 E11.23998
G1 X191.742 Y134.221 E12.73546
G1 X192.768 Y134.221 E12.85687
G1 X183.541 Y124.994 E14.40037
G1 X184.281 Y124.707 E14.49419
G1 X193.794 Y134.221 E16.08572
G1 X194.821 Y134.221 E16.20713
G1 X185.020 Y124.420 E17.84668
G1 X185.759 Y124.133 E17.94050
G1 X195.387 Y133.761 E19.55107
G1 X195.387 Y132.734 E19.67249
G1 X186.499 Y123.846 E21.15938
G1 X187.238 Y123.559 E21.25320
G1 X195.387 Y131.708 E22.61640
G1 X195.387 Y130.682 E22.73781
G1 X187.978 Y123.272 E23.97733
G1 X188.717 Y122.985 E24.07115
G1 X195.387 Y129.655 E25.18697
G1 X195.387 Y128.629 E25.30839
G1 X189.456 Y122.698 E26.30052
G1 X190.196 Y122.411 E26.39435
G1 X195.387 Y127.602 E27.26279
G1 X195.387 Y126.576 E27.38421
G1 X190.935 Y122.124 E28.12897
G1 X191.674 Y121.837 E28.22279
G1 X195.387 Y125.549 E28.84387
G1 X195.387 Y124.523 E28.96529
G1 X192.414 Y121.550 E29.46267
G1 X193.153 Y121.263 E29.55649
G1 X195.387 Y123.496 E29.93019
G1 X195.387 Y122.470 E30.05161
G1 X193.893 Y120.975 E30.30162
G1 X194.632 Y120.688 E30.39544
G1 X196.214 Y122.271 E30.66013
G1 X197.241 Y122.271 E30.78155
G1 X195.218 Y120.248 E31.11988
G1 X195.664 Y119.668 E31.20647
G1 X198.267 Y122.271 E31.64190
G1 X199.294 Y122.271 E31.76331
G1 X196.110 Y119.087 E32.29584
G1 X196.605 Y118.555 E32.38175
G1 X200.320 Y122.271 E33.00327
G1 X201.346 Y122.271 E33.12468
G1 X197.631 Y118.555 E33.74620
G1 X198.658 Y118.555 E33.86762
G1 X202.373 Y122.271 E34.48913
G1 X202.836 Y121.707 E34.57540
G1 X199.684 Y118.555 E35.10267
G1 X200.711 Y118.555 E35.22408
G1 X202.836 Y120.681 E35.57964
G1 X202.836 Y119.654 E35.70106
G1 X201.737 Y118.555 E35.88491
G1 X202.763 Y118.555 E36.00632
G1 X202.836 Y118.628 E36.01846
G1 X196.594 Y116.283 F7200.000
G1 X196.524 Y116.213 E36.02816 F360.000
G1 X196.810 Y115.646 E36.09061 F360.000
G1 X196.753 Y115.589 E36.09852 F360.000
G1 X196.540 Y114.386 F7200.000
G1 X196.488 Y114.335 E36.10701 F360.000
G1 X196.066 Y110.947 F7200.000
G1 X196.040 Y110.921 E36.10919 F360.000
G1 X196.084 Y110.454 E36.13685 F360.000
G1 X196.050 Y110.419 E36.13970 F360.000
G1 X195.826 Y109.206 F7200.000
G1 X195.774 Y109.154 E36.14819 F360.000
G1 X195.352 Y105.766 F7200.000
G1 X195.325 Y105.740 E36.15037 F360.000
G1 X195.370 Y105.273 E36.17803 F360.000
G1 X195.335 Y105.239 E36.18087 F360.000
G1 X195.112 Y104.025 F7200.000
G1 X195.060 Y103.974 E36.18937 F360.000
G1 X197.411 Y98.632 F7200.000
G1 X178.460 Y100.477 F7200.000
G1 X178.387 Y100.404 E36.20178 F360.000
G1 X178.460 Y100.477 F7200.000
G1 X177.944 Y100.998 E36.28943 F360.000
G1 X177.345 Y100.400 E36.39062 F360.000
G1 X176.907 Y100.998 E36.47931 F360.000
G1 X176.304 Y100.395 E36.58121 F360.000
G1 X175.870 Y100.998 E36.67001 F360.000
G1 X175.263 Y100.391 E36.77261 F360.000
G1 X174.833 Y100.998 E36.86153 F360.000
G1 X174.222 Y100.387 E36.96483 F360.000
G1 X173.796 Y100.998 E37.05387 F360.000
G1 X173.180 Y100.383 E37.15787 F360.000
G1 X172.759 Y100.998 E37.24703 F360.000
G1 X172.139 Y100.379 E37.35173 F360.000
G1 X171.721 Y100.998 E37.44103 F360.000
G1 X171.098 Y100.375 E37.54643 F360.000
G1 X170.684 Y100.998 E37.63586 F360.000
G1 X170.057 Y100.370 E37.74197 F360.000
G1 X169.647 Y100.998 E37.83154 F360.000
G1 X169.015 Y100.366 E37.93835 F360.000
G1 X168.537 Y100.925 E38.02626 F360.000
G1 X168.610 Y100.998 E38.03866 F360.000
G1 X166.143 Y99.569 F7200.000
G1 X150.041 Y83.467 E40.70676 F360.000
G1 X151.058 Y83.467 E40.82589 F360.000
G1 X166.381 Y98.790 E43.36489 F360.000
G1 X166.381 Y97.773 E43.48402 F360.000
G1 X152.075 Y83.467 E45.85456 F360.000
G1 X153.092 Y83.467 E45.97368 F360.000
G1 X166.381 Y96.757 E48.17574 F360.000
G1 X166.381 Y95.740 E48.29487 F360.000
G1 X154.108 Y83.467 E50.32846 F360.000
G1 X155.125 Y83.467 E50.44759 F360.000
G1 X166.381 Y94.723 E52.31270 F360.000
G1 X166.381 Y93.706 E52.43183 F360.000
G1 X156.142 Y83.467 E54.12847 F360.000
G1 X157.159 Y83.467 E54.24760 F360.000
G1 X166.381 Y92.690 E55.77577 F360.000
G1 X166.381 Y91.673 E55.89490 F360.000
G1 X158.175 Y83.467 E57.25459 F360.000
G1 X159.192 Y83.467 E57.37372 F360.000
G1 X166.381 Y90.656 E58.56494 F360.000
G1 X166.381 Y89.640 E58.68407 F360.000
G1 X160.209 Y83.467 E59.70682 F360.000
G1 X161.225 Y83.467 E59.82594 F360.000
G1 X166.381 Y88.623 E60.68022 F360.000
G1 X166.381 Y87.606 E60.79935 F360.000
G1 X162.242 Y83.467 E61.48515 F360.000
G1 X163.259 Y83.467 E61.60428 F360.000
G1 X166.381 Y86.589 E62.12161 F360.000
G1 X166.381 Y85.573 E62.24074 F360.000
G1 X164.276 Y83.467 E62.58959 F360.000
G1 X165.292 Y83.467 E62.70872 F360.000
G1 X166.381 Y84.556 E62.88910 F360.000
G1 X166.381 Y83.539 E63.00823 F360.000
G1 X166.309 Y83.467 E63.02014 F360.000
G1 X166.888 Y83.560 F7200.000
G1 X167.054 Y83.246 E63.03974 F360.000
G1 X167.401 Y83.593 E63.06686 F360.000
G1 X167.534 Y83.246 E63.08739 F360.000
G1 X167.881 Y83.593 E63.11451 F360.000
G1 X168.013 Y83.246 E63.13503 F360.000
G1 X168.360 Y83.593 E63.16215 F360.000
G1 X168.493 Y83.246 E63.18267 F360.000
G1 X168.840 Y83.593 E63.20978 F360.000
G1 X168.972 Y83.246 E63.23030 F360.000
G1 X169.319 Y83.593 E63.25741 F360.000
G1 X169.452 Y83.246 E63.27793 F360.000
G1 X169.798 Y83.593 E63.30503 F360.000
G1 X169.931 Y83.246 E63.32555 F360.000
