; generated by Slic3r 1.0.0RC2 on 2014-05-15 at 12:50:05

; layer_height = 0.3
; perimeters = 4
; top_solid_layers = 3
; bottom_solid_layers = 3
; fill_density = 0.1
; perimeter_speed = 60
; infill_speed = 60
; travel_speed = 120
; nozzle_diameter = 0.4
; filament_diameter = 1.75
; extrusion_multiplier = 0.98
; perimeters extrusion width = 0.40mm
; infill extrusion width = 0.42mm
; solid infill extrusion width = 0.42mm
; top infill extrusion width = 0.42mm
; first layer extrusion width = 0.80mm

G21 ; set units to millimeters
M107
M104 S220 ; set temperature
G28 ; home all axes
M106 S255;
G1 Z200 F1200 ; lift nozzle
M109 S220 ; wait for temperature to be reached
G90 ; use absolute coordinates
G92 E0
M82 ; use absolute distances for extrusion
G1 F1800.000 E-1.00000
G92 E0
G1 Z0.400 F7200.000
G1 X71.970 Y46.410 F7200.000
G1 E1.00000 F1800.000
G1 X72.880 Y45.090 E1.18661 F1080.000
G1 X79.890 Y37.080 E2.42549
G1 X80.880 Y36.150 E2.58358
G1 X82.040 Y35.450 E2.74127
G1 X83.310 Y34.990 E2.89848
G1 X84.660 Y34.790 E3.05733
G1 X86.010 Y34.870 E3.21473
G1 X130.380 Y42.040 E8.44594
G1 X207.760 Y55.030 E17.57821
G1 X209.180 Y55.430 E17.74991
G1 X210.470 Y56.130 E17.92074
G1 X211.580 Y57.090 E18.09155
G1 X212.450 Y58.270 E18.26218
G1 X213.050 Y59.620 E18.43413
G1 X221.480 Y86.180 E21.67741
G1 X228.510 Y109.900 E24.55688
G1 X228.710 Y110.850 E24.66987
G1 X228.780 Y111.810 E24.78190
G1 X228.780 Y160.480 E30.44660
G1 X228.590 Y162.070 E30.63297
G1 X228.030 Y163.580 E30.82042
G1 X227.120 Y164.900 E31.00703
G1 X220.100 Y172.920 E32.24755
G1 X219.110 Y173.850 E32.40564
G1 X217.950 Y174.550 E32.56333
G1 X216.680 Y175.010 E32.72055
G1 X215.330 Y175.210 E32.87939
G1 X213.980 Y175.130 E33.03679
G1 X169.610 Y167.950 E38.26819
G1 X92.230 Y154.960 E47.40046
G1 X90.810 Y154.560 E47.57216
G1 X89.520 Y153.860 E47.74299
G1 X88.410 Y152.900 E47.91379
G1 X87.540 Y151.720 E48.08443
G1 X86.940 Y150.370 E48.25637
G1 X78.510 Y123.810 E51.49966
G1 X71.490 Y100.090 E54.37880
G1 X71.290 Y99.140 E54.49179
G1 X71.220 Y98.180 E54.60382
G1 X71.220 Y49.510 E60.26852
G1 X71.410 Y47.920 E60.45489
G1 X71.933 Y46.510 E60.62987
G1 F1800.000 E59.62987
G92 E0
G1 X73.999 Y47.175 F7200.000
G1 E1.00000 F1800.000
G1 X78.125 Y44.949 E1.54563 F1080.000
G1 X80.271 Y46.360 E1.84459
G1 X81.022 Y45.955 E1.94380
G1 X81.022 Y39.685 E2.67353
G1 X83.785 Y37.333 E3.09596
G1 X130.063 Y44.821 E8.55231
G1 X158.331 Y50.656 E11.91179
G1 X175.067 Y54.427 E13.90854
G1 X186.300 Y57.410 E15.26126
G1 X186.434 Y57.584 E15.28681
G1 X186.733 Y57.731 E15.32555
G1 X207.934 Y57.731 E17.79313
G1 X210.006 Y59.247 E18.09193
G1 X218.878 Y87.199 E21.50519
G1 X218.971 Y87.796 E21.57553
G1 X218.977 Y108.238 E23.95475
G1 X219.763 Y108.633 E24.05721
G1 X221.674 Y107.214 E24.33421
G1 X226.000 Y109.389 E24.89787
G1 X226.001 Y127.606 E27.01812
G1 X221.875 Y129.832 E27.56376
G1 X219.729 Y128.422 E27.86271
G1 X218.978 Y128.826 E27.96192
G1 X218.978 Y143.455 E29.66452
G1 X219.765 Y143.850 E29.76700
G1 X221.674 Y142.432 E30.04376
G1 X226.000 Y144.608 E30.60741
G1 X226.001 Y162.825 E32.72766
G1 X221.875 Y165.051 E33.27330
G1 X219.729 Y163.640 E33.57226
G1 X218.978 Y164.045 E33.67146
G1 X218.978 Y170.315 E34.40120
G1 X216.215 Y172.667 E34.82362
G1 X169.937 Y165.179 E40.27997
G1 X141.669 Y159.344 E43.63945
G1 X124.933 Y155.573 E45.63620
G1 X113.700 Y152.590 E46.98892
G1 X113.566 Y152.416 E47.01448
G1 X113.267 Y152.269 E47.05322
G1 X92.066 Y152.269 E49.52080
G1 X89.994 Y150.753 E49.81960
G1 X81.122 Y122.801 E53.23286
G1 X81.029 Y122.204 E53.30319
G1 X81.023 Y101.762 E55.68241
G1 X80.237 Y101.367 E55.78488
G1 X78.326 Y102.786 E56.06188
G1 X74.000 Y100.611 E56.62553
G1 X73.999 Y82.394 E58.74579
G1 X78.125 Y80.168 E59.29142
G1 X80.271 Y81.578 E59.59038
G1 X81.022 Y81.174 E59.68958
G1 X81.022 Y66.545 E61.39218
G1 X80.235 Y66.150 E61.49467
G1 X78.326 Y67.568 E61.77143
G1 X74.000 Y65.392 E62.33508
G1 X73.999 Y47.282 E64.44286
G1 X74.713 Y47.601 F7200.000
G1 X78.089 Y45.780 E64.88929 F1080.000
G1 X80.986 Y47.684 E65.29271
G1 X81.736 Y47.279 E65.39192
G1 X81.736 Y40.015 E66.23732
G1 X83.997 Y38.090 E66.58294
G1 X129.926 Y45.522 E71.99820
G1 X158.184 Y51.354 E75.35640
G1 X174.904 Y55.122 E77.35123
G1 X185.882 Y58.038 E78.67330
G1 X186.082 Y58.298 E78.71152
G1 X186.381 Y58.445 E78.75026
G1 X207.700 Y58.445 E81.23164
G1 X209.396 Y59.686 E81.47612
G1 X218.181 Y87.363 E84.85582
G1 X218.257 Y87.851 E84.91336
G1 X218.263 Y109.658 E87.45144
G1 X219.050 Y110.053 E87.55390
G1 X221.746 Y108.050 E87.94491
G1 X225.286 Y109.830 E88.40608
G1 X225.287 Y127.180 E90.42550
G1 X221.911 Y129.001 E90.87192
G1 X219.014 Y127.098 E91.27535
G1 X218.264 Y127.503 E91.37455
G1 X218.264 Y144.875 E93.39653
G1 X219.051 Y145.271 E93.49901
G1 X221.746 Y143.268 E93.88983
G1 X225.286 Y145.048 E94.35100
G1 X225.287 Y162.399 E96.37041
G1 X221.911 Y164.220 E96.81684
G1 X219.014 Y162.316 E97.22026
G1 X218.264 Y162.721 E97.31946
G1 X218.264 Y169.985 E98.16487
G1 X216.003 Y171.910 E98.51049
G1 X170.074 Y164.478 E103.92575
G1 X141.816 Y158.646 E107.28395
G1 X125.096 Y154.878 E109.27878
G1 X114.118 Y151.962 E110.60084
G1 X113.918 Y151.702 E110.63907
G1 X113.619 Y151.555 E110.67781
G1 X92.300 Y151.555 E113.15919
G1 X90.604 Y150.314 E113.40367
G1 X81.819 Y122.637 E116.78337
G1 X81.743 Y122.149 E116.84091
G1 X81.737 Y100.342 E119.37899
G1 X80.950 Y99.947 E119.48145
G1 X78.254 Y101.950 E119.87246
G1 X74.714 Y100.170 E120.33363
G1 X74.713 Y82.820 E122.35304
G1 X78.089 Y80.999 E122.79947
G1 X80.986 Y82.902 E123.20289
G1 X81.736 Y82.497 E123.30210
G1 X81.736 Y65.125 E125.32407
G1 X80.949 Y64.729 E125.42656
G1 X78.254 Y66.732 E125.81738
G1 X74.714 Y64.952 E126.27855
G1 X74.713 Y47.709 E128.28549
G1 X75.427 Y48.028 F7200.000
G1 X78.053 Y46.611 E128.63271 F1080.000
G1 X81.012 Y48.555 E129.04480
G1 X81.222 Y48.615 E129.07025
G1 X82.045 Y48.593 E129.16604
G1 X82.450 Y48.177 E129.23361
G1 X82.450 Y40.345 E130.14520
G1 X84.209 Y38.848 E130.41402
G1 X129.790 Y46.223 E135.78818
G1 X158.036 Y52.053 E139.14511
G1 X174.740 Y55.818 E141.13802
G1 X185.464 Y58.666 E142.42943
G1 X185.946 Y59.293 E142.52146
G1 X186.591 Y59.335 E142.59676
G1 X186.766 Y59.160 E142.62561
G1 X207.467 Y59.160 E145.03494
G1 X208.785 Y60.124 E145.22509
G1 X217.484 Y87.526 E148.57123
G1 X217.543 Y87.906 E148.61599
G1 X217.549 Y110.805 E151.28117
G1 X217.980 Y111.225 E151.35122
G1 X218.577 Y111.211 E151.42075
G1 X218.786 Y111.139 E151.44649
G1 X221.819 Y108.886 E151.88619
G1 X224.572 Y110.270 E152.24487
G1 X224.573 Y126.754 E154.16344
G1 X221.947 Y128.170 E154.51066
G1 X218.988 Y126.226 E154.92275
G1 X218.778 Y126.166 E154.94820
G1 X217.955 Y126.188 E155.04399
G1 X217.550 Y126.604 E155.11156
G1 X217.550 Y146.023 E157.37175
G1 X217.981 Y146.444 E157.44181
G1 X218.577 Y146.429 E157.51125
G1 X218.786 Y146.357 E157.53698
G1 X221.819 Y144.104 E157.97668
G1 X224.572 Y145.488 E158.33536
G1 X224.573 Y161.972 E160.25393
G1 X221.947 Y163.389 E160.60115
G1 X218.988 Y161.445 E161.01323
G1 X218.778 Y161.385 E161.03869
G1 X217.955 Y161.407 E161.13447
G1 X217.550 Y161.823 E161.20205
G1 X217.550 Y169.655 E162.11364
G1 X215.791 Y171.152 E162.38245
G1 X170.210 Y163.777 E167.75661
G1 X141.964 Y157.947 E171.11355
G1 X125.260 Y154.182 E173.10645
G1 X114.536 Y151.334 E174.39786
G1 X114.054 Y150.707 E174.48990
G1 X113.409 Y150.665 E174.56519
G1 X113.233 Y150.840 E174.59404
G1 X92.533 Y150.840 E177.00338
G1 X91.215 Y149.876 E177.19352
G1 X82.516 Y122.474 E180.53967
G1 X82.457 Y122.094 E180.58442
G1 X82.451 Y99.195 E183.24960
G1 X82.020 Y98.775 E183.31965
G1 X81.423 Y98.789 E183.38919
G1 X81.214 Y98.861 E183.41492
G1 X78.181 Y101.114 E183.85462
G1 X75.428 Y99.730 E184.21331
G1 X75.427 Y83.246 E186.13188
G1 X78.053 Y81.830 E186.47910
G1 X81.012 Y83.774 E186.89118
G1 X81.222 Y83.834 E186.91664
G1 X82.045 Y83.812 E187.01243
G1 X82.450 Y83.396 E187.08000
G1 X82.450 Y63.977 E189.34019
G1 X82.019 Y63.556 E189.41025
G1 X81.423 Y63.571 E189.47968
G1 X81.214 Y63.643 E189.50542
G1 X78.181 Y65.896 E189.94511
G1 X75.428 Y64.512 E190.30380
G1 X75.427 Y48.135 E192.20990
G1 X76.141 Y48.454 F7200.000
G1 X78.017 Y47.442 E192.45791 F1080.000
G1 X80.807 Y49.275 E192.84646
G1 X81.017 Y49.335 E192.87192
G1 X82.759 Y49.289 E193.07472
G1 X83.164 Y48.873 E193.14229
G1 X83.164 Y40.675 E194.09642
G1 X84.420 Y39.606 E194.28844
G1 X129.653 Y46.924 E199.62150
G1 X157.889 Y52.752 E202.97716
G1 X174.577 Y56.513 E204.96815
G1 X185.046 Y59.293 E206.22890
G1 X185.875 Y60.373 E206.38738
G1 X186.521 Y60.415 E206.46267
G1 X187.062 Y59.874 E206.55182
G1 X207.234 Y59.874 E208.89956
G1 X208.175 Y60.563 E209.03538
G1 X216.786 Y87.690 E212.34797
G1 X216.828 Y87.962 E212.37994
G1 X216.835 Y111.537 E215.12389
G1 X217.266 Y111.957 E215.19394
G1 X218.821 Y111.919 E215.37501
G1 X219.030 Y111.847 E215.40075
G1 X221.891 Y109.721 E215.81557
G1 X223.858 Y110.710 E216.07178
G1 X223.859 Y126.328 E217.88950
G1 X221.983 Y127.340 E218.13752
G1 X219.193 Y125.506 E218.52607
G1 X218.983 Y125.447 E218.55153
G1 X217.241 Y125.493 E218.75432
G1 X216.836 Y125.909 E218.82190
G1 X216.836 Y146.755 E221.24823
G1 X217.267 Y147.176 E221.31829
G1 X218.821 Y147.137 E221.49928
G1 X219.030 Y147.065 E221.52502
G1 X221.891 Y144.940 E221.93984
G1 X223.858 Y145.929 E222.19604
G1 X223.859 Y161.546 E224.01376
G1 X221.983 Y162.558 E224.26178
G1 X219.193 Y160.725 E224.65033
G1 X218.983 Y160.665 E224.67579
G1 X217.241 Y160.711 E224.87858
G1 X216.836 Y161.127 E224.94616
G1 X216.836 Y169.325 E225.90029
G1 X215.580 Y170.394 E226.09230
G1 X170.347 Y163.076 E231.42537
G1 X142.111 Y157.248 E234.78103
G1 X125.423 Y153.487 E236.77202
G1 X114.954 Y150.707 E238.03277
G1 X114.125 Y149.627 E238.19124
G1 X113.479 Y149.585 E238.26654
G1 X112.938 Y150.126 E238.35569
G1 X92.766 Y150.126 E240.70343
G1 X91.825 Y149.437 E240.83924
G1 X83.214 Y122.310 E244.15183
G1 X83.172 Y122.038 E244.18380
G1 X83.165 Y98.463 E246.92776
G1 X82.734 Y98.043 E246.99781
G1 X81.179 Y98.081 E247.17888
G1 X80.970 Y98.153 E247.20461
G1 X78.109 Y100.279 E247.61944
G1 X76.142 Y99.290 E247.87564
G1 X76.141 Y83.672 E249.69337
G1 X78.017 Y82.660 E249.94138
G1 X80.807 Y84.494 E250.32993
G1 X81.017 Y84.553 E250.35539
G1 X82.759 Y84.507 E250.55819
G1 X83.164 Y84.091 E250.62576
G1 X83.164 Y63.245 E253.05209
G1 X82.733 Y62.824 E253.12215
G1 X81.179 Y62.863 E253.30315
G1 X80.970 Y62.935 E253.32888
G1 X78.109 Y65.060 E253.74370
G1 X76.142 Y64.071 E253.99991
G1 X76.141 Y48.561 E255.80516
G1 F1800.000 E254.80516
G92 E0
G1 X170.114 Y39.500 F7200.000
G1 X176.165 Y58.563 F7200.000
G1 X179.049 Y88.117 F7200.000
G1 X178.736 Y88.887 F7200.000
G1 E1.00000 F1800.000
G1 X179.141 Y88.471 E1.06757 F1080.000
G1 X184.746 Y88.323 E1.72008
G1 X185.126 Y87.932 E1.78355
G1 X186.016 Y88.294 E1.89539
G1 X186.016 Y94.803 E2.65289
G1 X185.143 Y95.171 E2.76323
G1 X184.682 Y94.721 E2.83822
G1 X179.167 Y94.857 E3.48022
G1 X178.737 Y94.436 E3.55028
G1 X178.736 Y88.994 E4.18366
G1 X179.451 Y89.583 F7200.000
G1 X179.856 Y89.167 E4.25123 F1080.000
G1 X184.870 Y89.034 E4.83512
G1 X185.302 Y89.454 E4.90527
G1 X185.302 Y93.585 E5.38604
G1 X184.896 Y94.001 E5.45371
G1 X179.882 Y94.125 E6.03755
G1 X179.451 Y93.704 E6.10761
G1 X179.451 Y89.690 E6.57485
G1 X180.165 Y90.278 F7200.000
G1 X180.570 Y89.862 E6.64243 F1080.000
G1 X184.156 Y89.767 E7.06001
G1 X184.588 Y90.188 E7.13016
G1 X184.588 Y92.888 E7.44448
G1 X184.182 Y93.304 E7.51214
G1 X180.596 Y93.393 E7.92970
G1 X180.165 Y92.972 E7.99976
G1 X180.165 Y90.385 E8.30086
G1 X180.879 Y90.974 F7200.000
G1 X181.284 Y90.558 E8.36843 F1080.000
G1 X183.442 Y90.500 E8.61971
G1 X183.874 Y90.921 E8.68987
G1 X183.874 Y92.191 E8.83773
G1 X183.468 Y92.608 E8.90539
G1 X181.310 Y92.661 E9.15666
G1 X180.879 Y92.240 E9.22672
G1 X180.879 Y91.081 E9.36168
G1 F1800.000 E8.36168
G92 E0
G1 X176.165 Y58.563 F7200.000
G1 X170.114 Y39.500 F7200.000
G1 X150.192 Y39.500 F7200.000
G1 X121.263 Y90.173 F7200.000
G1 E1.00000 F1800.000
G1 X121.264 Y95.722 E1.64585 F1080.000
G1 X120.859 Y96.138 E1.71342
G1 X115.254 Y96.286 E2.36599
G1 X114.874 Y96.676 E2.42935
G1 X113.984 Y96.314 E2.54123
G1 X113.984 Y89.808 E3.29850
G1 X114.859 Y89.441 E3.40900
G1 X115.315 Y89.888 E3.48343
G1 X120.833 Y89.752 E4.12576
G1 X121.187 Y90.098 E4.18336
G1 X120.549 Y90.905 F7200.000
G1 X120.549 Y95.026 E4.66307 F1080.000
G1 X120.144 Y95.442 E4.73064
G1 X115.130 Y95.575 E5.31452
G1 X114.698 Y95.155 E5.38468
G1 X114.698 Y91.024 E5.86545
G1 X115.104 Y90.608 E5.93311
G1 X120.118 Y90.484 E6.51696
G1 X120.473 Y90.830 E6.57455
G1 X119.835 Y91.637 F7200.000
G1 X119.835 Y94.331 E6.88812 F1080.000
G1 X119.430 Y94.747 E6.95569
G1 X115.844 Y94.842 E7.37328
G1 X115.412 Y94.421 E7.44343
G1 X115.412 Y91.721 E7.75775
G1 X115.818 Y91.305 E7.82541
G1 X119.404 Y91.216 E8.24297
G1 X119.758 Y91.562 E8.30056
G1 X119.121 Y92.369 F7200.000
G1 X119.121 Y93.635 E8.44799 F1080.000
G1 X118.716 Y94.051 E8.51556
G1 X116.558 Y94.109 E8.76684
G1 X116.126 Y93.688 E8.83700
G1 X116.126 Y92.418 E8.98486
G1 X116.532 Y92.002 E9.05253
G1 X118.690 Y91.948 E9.30379
G1 X119.044 Y92.294 E9.36138
G1 F1800.000 E8.36138
G92 E0
G1 X150.192 Y39.500 F7200.000
G1 X170.114 Y39.500 F7200.000
G1 X186.073 Y98.922 F7200.000
G1 X183.775 Y107.300 F7200.000
G1 X178.736 Y114.278 F7200.000
G1 E1.00000 F1800.000
G1 X179.141 Y113.862 E1.06757 F1080.000
G1 X184.746 Y113.714 E1.72015
G1 X185.126 Y113.324 E1.78350
G1 X186.016 Y113.686 E1.89538
G1 X186.016 Y120.192 E2.65265
G1 X185.141 Y120.559 E2.76315
G1 X184.685 Y120.112 E2.83758
G1 X179.167 Y120.248 E3.47991
G1 X178.737 Y119.827 E3.54997
G1 X178.736 Y114.385 E4.18335
G1 X179.451 Y114.974 F7200.000
G1 X179.856 Y114.558 E4.25093 F1080.000
G1 X184.870 Y114.425 E4.83481
G1 X185.302 Y114.845 E4.90497
G1 X185.302 Y118.976 E5.38574
G1 X184.896 Y119.392 E5.45340
G1 X179.882 Y119.516 E6.03725
G1 X179.451 Y119.095 E6.10731
G1 X179.451 Y115.081 E6.57455
G1 X180.165 Y115.669 F7200.000
G1 X180.570 Y115.253 E6.64212 F1080.000
G1 X184.156 Y115.158 E7.05970
G1 X184.588 Y115.579 E7.12986
G1 X184.588 Y118.279 E7.44418
G1 X184.182 Y118.695 E7.51184
G1 X180.596 Y118.784 E7.92939
G1 X180.165 Y118.363 E7.99945
G1 X180.165 Y115.776 E8.30056
G1 X180.879 Y116.365 F7200.000
G1 X181.284 Y115.949 E8.36813 F1080.000
G1 X183.442 Y115.891 E8.61941
G1 X183.874 Y116.312 E8.68956
G1 X183.874 Y117.582 E8.83743
G1 X183.468 Y117.998 E8.90509
G1 X181.310 Y118.052 E9.15636
G1 X180.879 Y117.631 E9.22642
G1 X180.879 Y116.472 E9.36138
G1 F1800.000 E8.36138
G92 E0
G1 X186.073 Y98.922 F7200.000
G1 X170.114 Y39.500 F7200.000
G1 X150.192 Y39.500 F7200.000
G1 X121.263 Y115.564 F7200.000
G1 E1.00000 F1800.000
G1 X121.264 Y121.113 E1.64585 F1080.000
G1 X120.859 Y121.529 E1.71342
G1 X115.254 Y121.677 E2.36593
G1 X114.874 Y122.068 E2.42940
G1 X113.984 Y121.706 E2.54124
G1 X113.984 Y115.197 E3.29874
G1 X114.857 Y114.829 E3.40908
G1 X115.318 Y115.279 E3.48407
G1 X120.833 Y115.143 E4.12607
G1 X121.187 Y115.489 E4.18366
G1 X120.549 Y116.296 F7200.000
G1 X120.549 Y120.417 E4.66337 F1080.000
G1 X120.144 Y120.833 E4.73094
G1 X115.130 Y120.966 E5.31483
G1 X114.698 Y120.546 E5.38498
G1 X114.698 Y116.415 E5.86576
G1 X115.104 Y115.999 E5.93342
G1 X120.118 Y115.875 E6.51726
G1 X120.473 Y116.221 E6.57485
G1 X119.835 Y117.028 F7200.000
G1 X119.835 Y119.722 E6.88842 F1080.000
G1 X119.430 Y120.138 E6.95600
G1 X115.844 Y120.233 E7.37358
G1 X115.412 Y119.812 E7.44373
G1 X115.412 Y117.112 E7.75805
G1 X115.818 Y116.696 E7.82572
G1 X119.404 Y116.607 E8.24327
G1 X119.758 Y116.953 E8.30086
G1 X119.121 Y117.760 F7200.000
G1 X119.121 Y119.026 E8.44829 F1080.000
G1 X118.716 Y119.442 E8.51587
G1 X116.558 Y119.500 E8.76715
G1 X116.126 Y119.079 E8.83730
G1 X116.126 Y117.809 E8.98517
G1 X116.532 Y117.392 E9.05283
G1 X118.690 Y117.339 E9.30409
G1 X119.044 Y117.685 E9.36169
G1 F1800.000 E8.36169
G92 E0
G1 X120.716 Y114.432 F7200.000
G1 E1.00000 F1800.000
G1 X115.602 Y114.558 E1.59541 F1080.000
G1 X114.955 Y113.927 E1.70050
G1 X114.955 Y97.617 E3.59891
G1 X115.563 Y96.993 E3.70027
G1 X120.721 Y96.856 E4.30088
G1 X121.410 Y97.052 E4.38423
G1 X121.978 Y96.623 E4.46702
G1 X121.978 Y89.240 E5.32639
G1 X121.379 Y88.813 E5.41202
G1 X120.716 Y89.041 E5.49362
G1 X115.600 Y89.167 E6.08923
