; generated by Slic3r 1.0.0RC2 on 2014-05-15 at 11:42:25

; layer_height = 0.3
; perimeters = 4
; top_solid_layers = 3
; bottom_solid_layers = 3
; fill_density = 0.1
; perimeter_speed = 60
; infill_speed = 60
; travel_speed = 120
; nozzle_diameter = 0.4
; filament_diameter = 1.75
; extrusion_multiplier = 0.98
; perimeters extrusion width = 0.40mm
; infill extrusion width = 0.42mm
; solid infill extrusion width = 0.42mm
; top infill extrusion width = 0.42mm
; first layer extrusion width = 0.80mm

G21 ; set units to millimeters
M107
M104 S220 ; set temperature
G28 ; home all axes
M106 S255;
G1 Z200 F1200 ; lift nozzle
M109 S220 ; wait for temperature to be reached
G90 ; use absolute coordinates
G92 E0
M82 ; use absolute distances for extrusion
G1 F1800.000 E-1.00000
G92 E0
G1 Z0.400 F7200.000
G1 X95.430 Y48.053 F7200.000
G1 E1.00000 F1800.000
G1 X96.050 Y46.923 E1.15002 F1080.000
G1 X96.880 Y45.933 E1.30038
G1 X97.890 Y45.123 E1.45107
G1 X99.030 Y44.523 E1.60101
G1 X117.150 Y37.083 E3.88085
G1 X118.400 Y36.703 E4.03291
G1 X119.700 Y36.583 E4.18486
G1 X180.230 Y36.583 E11.22994
G1 X181.530 Y36.703 E11.38189
G1 X182.770 Y37.083 E11.53284
G1 X200.950 Y44.523 E13.81914
G1 X202.100 Y45.123 E13.97011
G1 X203.100 Y45.933 E14.11989
G1 X203.940 Y46.923 E14.27100
G1 X204.560 Y48.053 E14.42102
G1 X204.960 Y49.273 E14.57045
G1 X212.400 Y82.753 E18.56224
G1 X212.520 Y83.483 E18.64835
G1 X212.560 Y84.213 E18.73344
G1 X212.560 Y144.743 E25.77852
G1 X212.420 Y146.103 E25.93764
G1 X212.010 Y147.413 E26.09741
G1 X211.340 Y148.603 E26.25636
G1 X195.890 Y170.563 E29.38147
G1 X195.060 Y171.543 E29.53094
G1 X194.050 Y172.343 E29.68091
G1 X192.910 Y172.933 E29.83031
G1 X191.680 Y173.293 E29.97947
G1 X190.400 Y173.413 E30.12911
G1 X109.590 Y173.413 E39.53457
G1 X108.310 Y173.293 E39.68420
G1 X107.080 Y172.933 E39.83337
G1 X105.940 Y172.343 E39.98277
G1 X104.930 Y171.543 E40.13273
G1 X104.100 Y170.563 E40.28221
G1 X88.650 Y148.603 E43.40732
G1 X87.980 Y147.413 E43.56627
G1 X87.570 Y146.103 E43.72603
G1 X87.430 Y144.743 E43.88516
G1 X87.430 Y84.213 E50.93024
G1 X87.470 Y83.483 E51.01533
G1 X87.590 Y82.753 E51.10143
G1 X95.030 Y49.273 E55.09322
G1 X95.397 Y48.154 E55.23019
G1 F1800.000 E54.23019
G92 E0
G1 X167.056 Y54.624 F7200.000
G1 E1.00000 F1800.000
G1 X179.911 Y54.623 E2.49629 F1080.000
G1 X179.894 Y71.648 E4.47790
G1 X167.149 Y71.597 E5.96134
G1 X167.056 Y54.731 E7.92440
G1 X167.774 Y55.338 F7200.000
G1 X179.196 Y55.337 E9.25390 F1080.000
G1 X179.181 Y70.931 E11.06893
G1 X167.859 Y70.886 E12.38667
G1 X167.774 Y55.445 E14.18382
G1 X168.492 Y56.052 F7200.000
G1 X178.482 Y56.051 E15.34653 F1080.000
G1 X178.467 Y70.214 E16.99498
G1 X168.569 Y70.174 E18.14701
G1 X168.492 Y56.159 E19.77826
G1 X169.210 Y56.766 F7200.000
G1 X177.767 Y56.765 E20.77419 F756.000
G1 X177.754 Y69.497 E22.25605
G1 X169.279 Y69.463 E23.24238
G1 X169.210 Y56.873 E24.70772
G1 X169.208 Y56.052 F7200.000
G1 X132.809 Y57.380 F7200.000
G1 X132.823 Y71.597 E26.36244 F1080.000
G1 X120.062 Y71.648 E27.84778
G1 X120.044 Y54.630 E29.82857
G1 X132.806 Y54.596 E31.31393
G1 X132.809 Y57.273 E31.62549
G1 X132.095 Y57.381 F7200.000
G1 X132.109 Y70.886 E33.19735 F1080.000
G1 X120.775 Y70.931 E34.51645
G1 X120.759 Y55.342 E36.33088
G1 X132.093 Y55.312 E37.65000
G1 X132.095 Y57.274 E37.87830
G1 X131.381 Y57.381 F7200.000
G1 X131.394 Y70.174 E39.36728 F1080.000
G1 X121.489 Y70.214 E40.52014
G1 X121.474 Y56.054 E42.16822
G1 X131.379 Y56.028 E43.32109
G1 X131.381 Y57.274 E43.46614
G1 X130.667 Y57.382 F7200.000
G1 X130.679 Y69.463 E44.87225 F756.000
G1 X122.202 Y69.497 E45.85887
G1 X122.189 Y56.766 E47.34059
G1 X130.666 Y56.744 E48.32721
G1 X130.666 Y57.275 E48.38901
G1 X131.285 Y57.739 F7200.000
G1 X131.719 Y74.053 F7200.000
G1 X171.633 Y73.965 E53.03458 F1080.000
G1 X171.699 Y128.543 E59.38697
G1 X128.436 Y128.688 E64.42247
G1 X128.369 Y74.060 E70.78064
G1 X131.612 Y74.053 E71.15812
G1 X131.721 Y74.767 F7200.000
G1 X170.920 Y74.681 E75.72049 F1080.000
G1 X170.984 Y127.832 E81.90673
G1 X129.149 Y127.972 E86.77599
G1 X129.084 Y74.773 E92.96782
G1 X131.614 Y74.767 E93.26226
G1 X131.723 Y75.481 F7200.000
G1 X170.207 Y75.396 E97.74143 F1080.000
G1 X170.269 Y127.120 E103.76152
G1 X129.862 Y127.255 E108.46455
G1 X129.799 Y75.485 E114.49003
G1 X131.615 Y75.481 E114.70144
G1 X131.724 Y76.195 F7200.000
G1 X169.493 Y76.112 E119.09740 F756.000
G1 X169.554 Y126.408 E124.95135
G1 X130.575 Y126.538 E129.48813
G1 X130.514 Y76.198 E135.34728
G1 X131.617 Y76.195 E135.47564
G1 X132.080 Y75.576 F7200.000
G1 F1800.000 E134.47564
G92 E0
G1 X167.056 Y130.338 F7200.000
G1 E1.00000 F1800.000
G1 X179.911 Y130.336 E2.49629 F1080.000
G1 X179.894 Y147.362 E4.47789
G1 X167.149 Y147.311 E5.96134
G1 X167.056 Y130.445 E7.92439
G1 X167.774 Y131.052 F7200.000
G1 X179.196 Y131.050 E9.25389 F1080.000
G1 X179.181 Y146.645 E11.06891
G1 X167.859 Y146.599 E12.38665
G1 X167.774 Y131.159 E14.18380
G1 X168.492 Y131.766 F7200.000
G1 X178.482 Y131.765 E15.34652 F1080.000
G1 X178.467 Y145.928 E16.99495
G1 X168.569 Y145.888 E18.14698
G1 X168.492 Y131.873 E19.77823
G1 X169.210 Y132.480 F7200.000
G1 X177.767 Y132.479 E20.77416 F756.000
G1 X177.754 Y145.211 E22.25601
G1 X169.279 Y145.177 E23.24234
G1 X169.210 Y132.587 E24.70768
G1 X169.208 Y131.766 F7200.000
G1 X132.809 Y133.094 F7200.000
G1 X132.823 Y147.311 E26.36240 F1080.000
G1 X120.062 Y147.362 E27.84774
G1 X120.044 Y130.343 E29.82853
G1 X132.806 Y130.310 E31.31389
G1 X132.809 Y132.986 E31.62545
G1 X132.095 Y133.094 F7200.000
G1 X132.109 Y146.599 E33.19730 F1080.000
G1 X120.775 Y146.645 E34.51639
G1 X120.759 Y131.055 E36.33083
G1 X132.093 Y131.026 E37.64994
G1 X132.095 Y132.987 E37.87825
G1 X131.381 Y133.095 F7200.000
G1 X131.394 Y145.888 E39.36722 F1080.000
G1 X121.489 Y145.928 E40.52008
G1 X121.474 Y131.768 E42.16816
G1 X131.379 Y131.742 E43.32103
G1 X131.381 Y132.988 E43.46608
G1 X130.667 Y133.096 F7200.000
G1 X130.679 Y145.177 E44.87218 F756.000
G1 X122.202 Y145.211 E45.85879
G1 X122.189 Y132.480 E47.34052
G1 X130.666 Y132.458 E48.32714
G1 X130.666 Y132.989 E48.38894
G1 X131.285 Y133.452 F7200.000
G1 X131.265 Y131.856 F7200.000
G1 X102.589 Y131.571 F7200.000
G1 X112.133 Y145.282 F7200.000
G1 X104.131 Y145.282 E49.32030 F1080.000
G1 X104.131 Y140.385 E49.89025
G1 X96.683 Y140.385 E50.75722
G1 X96.683 Y135.707 E51.30172
G1 X104.131 Y135.707 E52.16869
G1 X104.131 Y93.286 E57.10606
G1 X96.683 Y93.286 E57.97303
G1 X96.683 Y88.607 E58.51753
G1 X104.131 Y88.607 E59.38450
G1 X104.131 Y53.280 E63.49622
G1 X124.099 Y53.280 E65.82021
G1 X124.099 Y45.835 E66.68673
G1 X128.777 Y45.835 E67.23123
G1 X128.777 Y53.286 E68.09848
G1 X171.198 Y53.280 E73.03586
G1 X171.198 Y45.835 E73.90238
G1 X175.876 Y45.835 E74.44687
G1 X175.876 Y53.281 E75.31351
G1 X195.869 Y53.280 E77.64043
G1 X195.869 Y88.607 E81.75217
G1 X203.317 Y88.607 E82.61914
G1 X203.317 Y93.286 E83.16364
G1 X195.869 Y93.286 E84.03061
G1 X195.869 Y135.707 E88.96798
G1 X203.317 Y135.707 E89.83495
G1 X203.317 Y140.385 E90.37945
G1 X195.869 Y140.385 E91.24642
G1 X195.869 Y145.282 E91.81636
G1 X187.867 Y145.282 E92.74772
G1 X187.867 Y163.256 E94.83979
G1 X168.441 Y157.228 E97.20710
G1 X131.559 Y157.228 E101.49976
G1 X112.133 Y163.256 E103.86706
G1 X112.133 Y145.389 E105.94665
G1 X111.419 Y145.996 F7200.000
G1 X103.417 Y145.996 E106.87801 F1080.000
G1 X103.417 Y141.099 E107.44797
G1 X96.955 Y141.099 E108.20010
G1 X95.968 Y141.644 E108.33131
G1 X95.968 Y134.442 E109.16959
G1 X96.948 Y134.992 E109.30041
G1 X103.417 Y134.992 E110.05333
G1 X103.417 Y94.000 E114.82446
G1 X96.955 Y94.000 E115.57659
G1 X95.968 Y94.545 E115.70780
G1 X95.968 Y87.343 E116.54608
G1 X96.948 Y87.893 E116.67690
G1 X103.417 Y87.893 E117.42982
G1 X103.417 Y52.566 E121.54154
G1 X123.385 Y52.566 E123.86553
G1 X123.385 Y46.101 E124.61799
G1 X122.834 Y45.121 E124.74882
G1 X130.036 Y45.121 E125.58711
G1 X129.491 Y46.108 E125.71833
G1 X129.491 Y52.571 E126.47053
G1 X170.484 Y52.566 E131.24166
G1 X170.484 Y46.101 E131.99412
G1 X169.933 Y45.121 E132.12495
G1 X177.136 Y45.121 E132.96324
G1 X176.590 Y46.108 E133.09446
G1 X176.590 Y52.567 E133.84622
G1 X196.583 Y52.566 E136.17313
G1 X196.583 Y87.893 E140.28488
G1 X203.052 Y87.893 E141.03780
G1 X204.032 Y87.343 E141.16861
G1 X204.032 Y94.545 E142.00690
G1 X203.045 Y94.000 E142.13811
G1 X196.583 Y94.000 E142.89025
G1 X196.583 Y134.992 E147.66137
G1 X203.052 Y134.992 E148.41429
G1 X204.032 Y134.442 E148.54511
G1 X204.032 Y141.644 E149.38339
G1 X203.045 Y141.099 E149.51460
G1 X196.583 Y141.099 E150.26674
G1 X196.583 Y145.996 E150.83668
G1 X188.581 Y145.996 E151.76804
G1 X188.581 Y164.226 E153.88981
G1 X168.333 Y157.942 E156.35735
G1 X131.667 Y157.942 E160.62480
G1 X111.419 Y164.226 E163.09233
G1 X111.419 Y146.103 E165.20163
G1 X110.705 Y146.710 F7200.000
G1 X102.703 Y146.710 E166.13299 F1080.000
G1 X102.703 Y141.813 E166.70294
G1 X97.139 Y141.813 E167.35051
G1 X95.254 Y142.855 E167.60119
G1 X95.254 Y133.222 E168.72241
G1 X97.135 Y134.278 E168.97351
G1 X102.703 Y134.278 E169.62156
G1 X102.703 Y94.714 E174.22645
G1 X97.139 Y94.714 E174.87402
G1 X95.254 Y95.756 E175.12470
G1 X95.254 Y86.122 E176.24592
G1 X97.135 Y87.179 E176.49702
G1 X102.703 Y87.179 E177.14507
G1 X102.703 Y51.852 E181.25679
G1 X122.670 Y51.852 E183.58078
G1 X122.670 Y46.288 E184.22838
G1 X121.614 Y44.407 E184.47948
G1 X131.247 Y44.407 E185.60072
G1 X130.205 Y46.292 E185.85141
G1 X130.205 Y51.855 E186.49884
G1 X169.770 Y51.852 E191.10373
G1 X169.770 Y46.288 E191.75132
G1 X168.713 Y44.407 E192.00243
G1 X178.346 Y44.407 E193.12366
G1 X177.304 Y46.292 E193.37435
G1 X177.304 Y51.852 E194.02151
G1 X197.297 Y51.852 E196.34843
G1 X197.297 Y87.179 E200.46018
G1 X202.865 Y87.179 E201.10822
G1 X204.746 Y86.122 E201.35932
G1 X204.746 Y95.756 E202.48055
G1 X202.861 Y94.714 E202.73124
G1 X197.297 Y94.714 E203.37881
G1 X197.297 Y134.278 E207.98369
G1 X202.865 Y134.278 E208.63174
G1 X204.746 Y133.222 E208.88284
G1 X204.746 Y142.855 E210.00407
G1 X202.861 Y141.813 E210.25475
G1 X197.297 Y141.813 E210.90232
G1 X197.297 Y146.710 E211.47227
G1 X189.295 Y146.710 E212.40363
G1 X189.295 Y165.195 E214.55510
G1 X168.224 Y158.657 E217.12286
G1 X131.776 Y158.657 E221.36511
G1 X110.705 Y165.195 E223.93287
G1 X110.705 Y146.817 E226.07187
G1 X109.991 Y147.424 F7200.000
G1 X101.989 Y147.424 E227.00323 F756.000
G1 X101.989 Y142.527 E227.57318
G1 X97.324 Y142.527 E228.11619
G1 X94.540 Y144.066 E228.48634
G1 X94.540 Y132.001 E229.89050
G1 X97.322 Y133.564 E230.26188
G1 X101.989 Y133.564 E230.80506
G1 X101.989 Y95.428 E235.24371
G1 X97.324 Y95.428 E235.78671
G1 X94.540 Y96.966 E236.15687
G1 X94.540 Y84.902 E237.56104
G1 X97.322 Y86.465 E237.93242
G1 X101.989 Y86.465 E238.47560
G1 X101.989 Y51.138 E242.58732
G1 X121.956 Y51.138 E244.91131
G1 X121.956 Y46.475 E245.45403
G1 X120.393 Y43.693 E245.82542
G1 X132.458 Y43.693 E247.22960
G1 X130.919 Y46.476 E247.59976
G1 X130.919 Y51.139 E248.14242
G1 X169.055 Y51.138 E252.58108
G1 X169.055 Y46.475 E253.12380
G1 X167.493 Y43.693 E253.49518
G1 X179.557 Y43.693 E254.89936
G1 X178.019 Y46.476 E255.26952
G1 X178.019 Y51.138 E255.81209
G1 X198.011 Y51.138 E258.13901
G1 X198.011 Y86.465 E262.25075
G1 X202.678 Y86.465 E262.79393
G1 X205.460 Y84.902 E263.16531
G1 X205.460 Y96.967 E264.56949
G1 X202.676 Y95.428 E264.93964
G1 X198.011 Y95.428 E265.48265
G1 X198.011 Y133.564 E269.92129
G1 X202.678 Y133.564 E270.46447
G1 X205.460 Y132.001 E270.83585
G1 X205.460 Y144.066 E272.24003
G1 X202.676 Y142.527 E272.61019
G1 X198.011 Y142.527 E273.15319
G1 X198.011 Y147.424 E273.72314
G1 X190.009 Y147.424 E274.65450
G1 X190.009 Y166.164 E276.83567
G1 X168.116 Y159.371 E279.50366
G1 X131.884 Y159.371 E283.72071
G1 X109.991 Y166.164 E286.38869
G1 X109.991 Y147.531 E288.55739
G1 X109.991 Y146.710 F7200.000
G1 X111.075 Y144.800 F7200.000
G1 X102.464 Y136.189 E289.97637 F1080.000
G1 X101.453 Y136.189 E290.09418
G1 X110.064 Y144.800 E291.51316
G1 X109.053 Y144.800 E291.63098
G1 X100.442 Y136.189 E293.04996
G1 X99.431 Y136.189 E293.16777
G1 X103.145 Y139.903 E293.77982
G1 X102.134 Y139.903 E293.89763
G1 X98.419 Y136.189 E294.50968
G1 X97.408 Y136.189 E294.62749
G1 X101.123 Y139.903 E295.23954
G1 X100.111 Y139.903 E295.35735
G1 X97.165 Y136.956 E295.84296
G1 X97.165 Y137.967 E295.96077
G1 X99.100 Y139.903 E296.27977
G1 X98.089 Y139.903 E296.39758
G1 X97.165 Y138.978 E296.54997
G1 X104.613 Y141.371 F7200.000
G1 X108.042 Y144.800 E297.11490 F1080.000
G1 X107.031 Y144.800 E297.23271
G1 X104.613 Y142.382 E297.63103
G1 X104.613 Y143.394 E297.74885
G1 X106.020 Y144.800 E297.98055
G1 X105.008 Y144.800 E298.09837
G1 X104.613 Y144.405 E298.16346
G1 X119.579 Y146.226 F7200.000
G1 X104.613 Y131.260 E300.62948 F1080.000
G1 X104.613 Y130.249 E300.74730
G1 X119.578 Y145.213 E303.21315
G1 X119.577 Y144.201 E303.33109
G1 X104.613 Y129.238 E305.79677
G1 X104.613 Y128.227 E305.91459
G1 X119.575 Y143.189 E308.38010
G1 X119.574 Y142.177 E308.49804
G1 X104.613 Y127.216 E310.96338
G1 X104.613 Y126.205 E311.08119
G1 X119.573 Y141.165 E313.54637
G1 X119.572 Y140.153 E313.66430
G1 X104.613 Y125.194 E316.12930
G1 X104.613 Y124.183 E316.24712
G1 X119.571 Y139.141 E318.71195
G1 X119.570 Y138.128 E318.82988
G1 X104.613 Y123.171 E321.29454
G1 X104.613 Y122.160 E321.41236
G1 X119.569 Y137.116 E323.87685
G1 X119.568 Y136.104 E323.99478
G1 X104.613 Y121.149 E326.45910
G1 X104.613 Y120.138 E326.57691
G1 X119.567 Y135.092 E329.04106
G1 X119.566 Y134.080 E329.15900
G1 X104.613 Y119.127 E331.62297
G1 X104.613 Y118.116 E331.74079
G1 X119.565 Y133.068 E334.20459
G1 X119.564 Y132.056 E334.32253
G1 X104.613 Y117.105 E336.78616
G1 X104.613 Y116.094 E336.90398
G1 X119.563 Y131.043 E339.36744
G1 X119.562 Y130.031 E339.48538
G1 X104.613 Y115.083 E341.94867
G1 X104.613 Y114.072 E342.06649
G1 X120.402 Y129.860 E344.66820
G1 X121.410 Y129.858 E344.78571
G1 X104.613 Y113.060 E347.55360
G1 X104.613 Y112.049 E347.67141
G1 X122.419 Y129.855 E350.60548
G1 X123.427 Y129.852 E350.72299
G1 X104.613 Y111.038 E353.82323
G1 X104.613 Y110.027 E353.94105
G1 X124.436 Y129.850 E357.20747
G1 X125.444 Y129.847 E357.32497
G1 X104.613 Y109.016 E360.75757
G1 X104.613 Y108.005 E360.87538
G1 X126.453 Y129.844 E364.47416
G1 X127.461 Y129.842 E364.59166
G1 X104.613 Y106.994 E368.35661
G1 X104.613 Y105.983 E368.47442
G1 X127.597 Y128.966 E372.26172
G1 X127.596 Y127.954 E372.37968
G1 X104.613 Y104.972 E376.16677
G1 X104.613 Y103.961 E376.28458
G1 X127.594 Y126.941 E380.07147
G1 X127.593 Y125.929 E380.18943
G1 X104.613 Y102.949 E383.97612
G1 X104.613 Y101.938 E384.09393
G1 X127.592 Y124.917 E387.88041
G1 X127.591 Y123.904 E387.99837
G1 X104.613 Y100.927 E391.78465
G1 X104.613 Y99.916 E391.90246
G1 X127.589 Y122.892 E395.68854
G1 X127.588 Y121.880 E395.80650
G1 X104.613 Y98.905 E399.59237
G1 X104.613 Y97.894 E399.71019
G1 X127.587 Y120.867 E403.49586
G1 X127.586 Y119.855 E403.61382
G1 X104.613 Y96.883 E407.39928
G1 X104.613 Y95.872 E407.51710
G1 X127.584 Y118.843 E411.30236
G1 X127.583 Y117.830 E411.42032
G1 X104.613 Y94.861 E415.20538
G1 X104.613 Y93.850 E415.32320
G1 X127.582 Y116.818 E419.10806
G1 X127.581 Y115.806 E419.22601
G1 X100.864 Y89.089 E423.62846
G1 X101.875 Y89.089 E423.74627
G1 X127.580 Y114.793 E427.98191
G1 X127.578 Y113.781 E428.09986
G1 X102.887 Y89.089 E432.16868
G1 X103.898 Y89.089 E432.28649
G1 X127.577 Y112.769 E436.18849
G1 X127.576 Y111.756 E436.30645
G1 X104.613 Y88.794 E440.09029
G1 X104.613 Y87.783 E440.20810
G1 X127.575 Y110.744 E443.99174
G1 X127.573 Y109.732 E444.10970
G1 X104.613 Y86.772 E447.89314
G1 X104.613 Y85.761 E448.01095
G1 X127.572 Y108.719 E451.79419
G1 X127.571 Y107.707 E451.91215
G1 X104.613 Y84.750 E455.69518
G1 X104.613 Y83.739 E455.81299
G1 X127.570 Y106.695 E459.59582
G1 X127.568 Y105.682 E459.71378
G1 X104.613 Y82.727 E463.49640
G1 X104.613 Y81.716 E463.61422
G1 X127.567 Y104.670 E467.39664
G1 X127.566 Y103.658 E467.51460
G1 X104.613 Y80.705 E471.29682
G1 X104.613 Y79.694 E471.41463
G1 X127.565 Y102.645 E475.19665
G1 X127.564 Y101.633 E475.31460
G1 X104.613 Y78.683 E479.09642
G1 X104.613 Y77.672 E479.21423
G1 X127.562 Y100.621 E482.99584
G1 X127.561 Y99.608 E483.11380
G1 X104.613 Y76.661 E486.89521
