; generated by Slic3r 1.0.0RC2 on 2014-05-15 at 11:05:49

; layer_height = 0.3
; perimeters = 4
; top_solid_layers = 3
; bottom_solid_layers = 3
; fill_density = 0.1
; perimeter_speed = 60
; infill_speed = 60
; travel_speed = 120
; nozzle_diameter = 0.4
; filament_diameter = 1.75
; extrusion_multiplier = 0.98
; perimeters extrusion width = 0.40mm
; infill extrusion width = 0.42mm
; solid infill extrusion width = 0.42mm
; top infill extrusion width = 0.42mm
; first layer extrusion width = 0.80mm

G21 ; set units to millimeters
M107
M104 S220 ; set temperature
G28 ; home all axes
M106 S255;
G1 Z200 F1200 ; lift nozzle
M109 S220 ; wait for temperature to be reached
G90 ; use absolute coordinates
G92 E0
M82 ; use absolute distances for extrusion
G1 F1800.000 E-1.00000
G92 E0
G1 Z0.400 F7200.000
G1 X96.894 Y74.463 F7200.000
G1 E1.00000 F1800.000
G1 X97.964 Y73.183 E1.19418 F1080.000
G1 X105.034 Y66.593 E2.31909
G1 X106.394 Y65.613 E2.51419
G1 X107.954 Y64.993 E2.70958
G1 X109.614 Y64.793 E2.90418
G1 X190.374 Y64.793 E12.30383
G1 X192.034 Y64.993 E12.49843
G1 X193.594 Y65.613 E12.69381
G1 X194.954 Y66.593 E12.88892
G1 X202.024 Y73.183 E14.01383
G1 X203.094 Y74.463 E14.20801
G1 X203.814 Y75.963 E14.40166
G1 X208.034 Y88.583 E15.95045
G1 X208.194 Y89.163 E16.02047
G1 X208.314 Y89.753 E16.09055
G1 X212.094 Y116.033 E19.18075
G1 X212.154 Y116.723 E19.26137
G1 X212.144 Y117.403 E19.34052
G1 X211.314 Y130.833 E20.90662
G1 X211.074 Y132.263 E21.07538
G1 X210.534 Y133.593 E21.24245
G1 X209.714 Y134.783 E21.41066
G1 X202.814 Y142.853 E22.64645
G1 X201.764 Y143.843 E22.81441
G1 X200.524 Y144.593 E22.98308
G1 X199.154 Y145.053 E23.15128
G1 X197.714 Y145.203 E23.31979
G1 X102.284 Y145.203 E34.42688
G1 X100.844 Y145.053 E34.59538
G1 X99.474 Y144.593 E34.76359
G1 X98.234 Y143.853 E34.93166
G1 X97.184 Y142.863 E35.09962
G1 X90.274 Y134.793 E36.33617
G1 X89.454 Y133.593 E36.50533
G1 X88.914 Y132.253 E36.67348
G1 X88.674 Y130.833 E36.84110
G1 X87.854 Y117.403 E38.40712
G1 X87.844 Y116.723 E38.48628
G1 X87.904 Y116.043 E38.56573
G1 X91.674 Y89.763 E41.65577
G1 X91.794 Y89.163 E41.72698
G1 X91.954 Y88.583 E41.79701
G1 X96.174 Y75.963 E43.34580
G1 X96.847 Y74.559 E43.52698
G1 F1800.000 E42.52698
G92 E0
G1 X120.084 Y78.536 F7200.000
G1 E1.00000 F1800.000
G1 X132.846 Y78.587 E2.48535 F1080.000
G1 X132.837 Y87.448 E3.51660
G1 X133.352 Y87.500 E3.57692
G1 X133.745 Y85.558 E3.80752
G1 X142.537 Y87.155 E4.84760
G1 X140.228 Y99.838 E6.34801
G1 X131.234 Y97.970 E7.41717
G1 X131.716 Y95.586 E7.70035
G1 X120.067 Y95.555 E9.05626
G1 X120.084 Y78.643 E11.02459
G1 X120.797 Y79.253 F7200.000
G1 X132.131 Y79.299 E12.34370 F1080.000
G1 X132.115 Y94.614 E14.12625
G1 X132.631 Y94.666 E14.18658
G1 X134.306 Y86.385 E15.16988
G1 X141.707 Y87.730 E16.04532
G1 X139.656 Y98.990 E17.37739
G1 X132.075 Y97.415 E18.27866
G1 X132.589 Y94.874 E18.58049
G1 X120.781 Y94.843 E19.95476
G1 X120.797 Y79.360 E21.75674
G1 X121.511 Y79.970 F7200.000
G1 X131.416 Y80.010 E22.90960 F1080.000
G1 X131.401 Y94.156 E24.55610
G1 X121.496 Y94.130 E25.70897
G1 X121.511 Y80.077 E27.34459
G1 X122.224 Y80.687 F7200.000
G1 X130.701 Y80.721 E28.33121 F756.000
G1 X130.688 Y93.440 E29.81158
G1 X122.211 Y93.418 E30.79821
G1 X122.224 Y80.794 E32.26747
G1 X122.226 Y79.973 F7200.000
G1 F1800.000 E31.26747
G92 E0
G1 X134.868 Y87.213 F7200.000
G1 E1.00000 F1800.000
G1 X140.876 Y88.305 E1.71080 F540.000
G1 X139.085 Y98.142 E2.87453
G1 X132.915 Y96.861 E3.60791
G1 X134.846 Y87.318 E4.74106
G1 X135.429 Y88.041 F7200.000
G1 X140.046 Y88.880 E5.28723 F540.000
G1 X138.513 Y97.294 E6.28261
G1 X133.756 Y96.306 E6.84810
G1 X135.407 Y88.146 E7.81707
G1 X135.561 Y87.339 F7200.000
G1 X157.463 Y87.155 F7200.000
G1 X166.255 Y85.558 E8.85714 F1080.000
G1 X166.648 Y87.499 E9.08774
G1 X167.163 Y87.448 E9.14807
G1 X167.154 Y78.587 E10.17931
G1 X179.916 Y78.536 E11.66466
G1 X179.933 Y95.555 E13.64545
G1 X168.284 Y95.586 E15.00135
G1 X168.766 Y97.970 E15.28454
G1 X159.772 Y99.838 E16.35371
G1 X157.482 Y87.260 E17.84165
G1 X158.293 Y87.730 F7200.000
G1 X165.694 Y86.385 E18.71708 F1080.000
G1 X167.369 Y94.666 E19.70039
G1 X167.885 Y94.614 E19.76072
G1 X167.869 Y79.299 E21.54327
G1 X179.203 Y79.253 E22.86238
G1 X179.219 Y94.843 E24.67681
G1 X167.411 Y94.874 E26.05108
G1 X167.925 Y97.415 E26.35292
G1 X160.344 Y98.990 E27.25420
G1 X158.312 Y87.835 E28.57380
G1 X165.043 Y87.346 F7200.000
G1 X168.597 Y92.803 F7200.000
G1 X168.584 Y80.010 E30.06278 F1080.000
G1 X178.489 Y79.970 E31.21564
G1 X178.504 Y94.130 E32.86372
G1 X168.599 Y94.156 E34.01659
G1 X168.597 Y92.910 E34.16164
G1 X169.311 Y92.802 F7200.000
G1 X169.299 Y80.721 E35.56774 F756.000
G1 X177.776 Y80.687 E36.55437
G1 X177.789 Y93.418 E38.03609
G1 X169.312 Y93.440 E39.02271
G1 X169.311 Y92.909 E39.08451
G1 X168.692 Y92.446 F7200.000
G1 X167.085 Y96.861 F7200.000
G1 X160.915 Y98.142 E39.81789 F540.000
G1 X159.124 Y88.305 E40.98162
G1 X165.132 Y87.213 E41.69241
G1 X167.063 Y96.756 E42.82557
G1 X166.244 Y96.306 F7200.000
G1 X161.487 Y97.294 E43.39106 F540.000
G1 X159.954 Y88.880 E44.38644
G1 X164.571 Y88.041 E44.93260
G1 X166.222 Y96.201 E45.90158
G1 X166.388 Y97.005 F7200.000
G1 X132.829 Y114.433 F7200.000
G1 X132.922 Y131.406 E47.87710 F1080.000
G1 X120.067 Y131.407 E49.37339
G1 X120.084 Y114.382 E51.35500
G1 X132.722 Y114.433 E52.82597
G1 X132.119 Y115.144 F7200.000
G1 X132.204 Y130.692 E54.63559 F1080.000
G1 X120.781 Y130.693 E55.96510
G1 X120.797 Y115.099 E57.78012
G1 X132.012 Y115.144 E59.08539
G1 X131.409 Y115.856 F7200.000
G1 X131.486 Y129.978 E60.72910 F1080.000
G1 X121.496 Y129.979 E61.89183
G1 X121.511 Y115.816 E63.54027
G1 X131.302 Y115.855 E64.67983
G1 X130.698 Y116.567 F7200.000
G1 X130.768 Y129.264 E66.15764 F756.000
G1 X122.211 Y129.265 E67.15358
G1 X122.224 Y116.533 E68.63543
G1 X130.591 Y116.566 E69.60929
G1 X131.413 Y116.565 F7200.000
G1 X167.154 Y114.433 F7200.000
G1 X179.916 Y114.382 E71.09464 F1080.000
G1 X179.933 Y131.400 E73.07543
G1 X167.172 Y131.434 E74.56078
G1 X167.155 Y114.540 E76.52707
G1 X167.869 Y115.144 F7200.000
G1 X179.203 Y115.099 E77.84617 F1080.000
G1 X179.219 Y130.688 E79.66061
G1 X167.885 Y130.718 E80.97972
G1 X167.869 Y115.251 E82.77987
G1 X168.584 Y115.856 F7200.000
G1 X178.489 Y115.816 E83.93274 F1080.000
G1 X178.504 Y129.976 E85.58082
G1 X168.599 Y130.002 E86.73368
G1 X168.584 Y115.963 E88.36771
G1 X169.299 Y116.567 F7200.000
G1 X177.776 Y116.533 E89.35434 F756.000
G1 X177.789 Y129.264 E90.83606
G1 X169.312 Y129.286 E91.82268
G1 X169.299 Y116.674 E93.29058
G1 X169.297 Y115.853 F7200.000
G1 X187.410 Y114.005 F7200.000
G1 X196.100 Y113.996 E94.30199 F1080.000
G1 X196.448 Y120.427 E95.05152
G1 X202.653 Y120.996 E95.77672
G1 X202.354 Y125.858 E96.34371
G1 X195.892 Y125.278 E97.09886
G1 X195.308 Y135.955 E98.34341
G1 X166.219 Y135.955 E101.72912
G1 X150.084 Y125.544 E103.96398
G1 X133.788 Y135.955 E106.21473
G1 X104.692 Y135.955 E109.60118
G1 X104.108 Y125.278 E110.84573
G1 X97.647 Y125.858 E111.60086
G1 X97.347 Y120.995 E112.16788
G1 X103.552 Y120.427 E112.89307
G1 X103.900 Y113.996 E113.64256
G1 X112.590 Y114.005 E114.65398
G1 X112.590 Y94.734 E116.89704
G1 X106.907 Y94.781 E117.55847
G1 X107.815 Y89.710 E118.15811
G1 X102.044 Y87.639 E118.87182
G1 X103.580 Y83.042 E119.43594
G1 X110.120 Y85.420 E120.24597
G1 X111.810 Y74.045 E121.58437
G1 X134.459 Y74.045 E124.22053
G1 X150.000 Y83.118 E126.31496
G1 X165.541 Y74.046 E128.40937
G1 X188.190 Y74.046 E131.04554
G1 X189.880 Y85.420 E132.38394
G1 X196.421 Y83.042 E133.19398
G1 X197.956 Y87.639 E133.75807
G1 X192.185 Y89.710 E134.47178
G1 X193.093 Y94.781 E135.07142
G1 X187.410 Y94.734 E135.73286
G1 X187.410 Y113.898 E137.96345
G1 X188.124 Y113.291 F7200.000
G1 X196.777 Y113.282 E138.97048 F1080.000
G1 X197.128 Y119.772 E139.72700
G1 X203.408 Y120.348 E140.46105
G1 X203.021 Y126.635 E141.19420
G1 X196.564 Y126.055 E141.94875
G1 X195.984 Y136.669 E143.18592
G1 X166.008 Y136.669 E146.67483
G1 X150.082 Y126.393 E148.88081
G1 X133.996 Y136.669 E151.10248
G1 X104.016 Y136.669 E154.59191
G1 X103.436 Y126.055 E155.82909
G1 X96.979 Y126.635 E156.58363
G1 X96.592 Y120.348 E157.31680
G1 X102.872 Y119.772 E158.05083
G1 X103.223 Y113.282 E158.80732
G1 X111.876 Y113.291 E159.81435
G1 X111.876 Y95.454 E161.89038
G1 X106.052 Y95.503 E162.56818
G1 X107.006 Y90.178 E163.19774
G1 X101.145 Y88.075 E163.92249
G1 X103.135 Y82.120 E164.65325
G1 X109.542 Y84.450 E165.44683
G1 X111.194 Y73.331 E166.75512
G1 X134.652 Y73.331 E169.48546
G1 X150.000 Y82.291 E171.55385
G1 X165.348 Y73.331 E173.62223
G1 X188.806 Y73.331 E176.35256
G1 X190.458 Y84.450 E177.66086
G1 X196.866 Y82.121 E178.45444
G1 X198.855 Y88.075 E179.18517
G1 X192.994 Y90.178 E179.90993
G1 X193.948 Y95.503 E180.53949
G1 X188.124 Y95.454 E181.21729
G1 X188.124 Y113.183 E183.28085
G1 X188.838 Y112.576 F7200.000
G1 X197.453 Y112.567 E184.28350 F1080.000
G1 X197.808 Y119.117 E185.04701
G1 X203.136 Y119.606 E185.66981
G1 X204.207 Y118.993 E185.81344
G1 X203.644 Y128.146 E186.88079
G1 X202.664 Y127.320 E187.02995
G1 X197.237 Y126.832 E187.66413
G1 X196.660 Y137.383 E188.89393
G1 X165.798 Y137.383 E192.48603
G1 X150.080 Y127.241 E194.66313
G1 X134.205 Y137.383 E196.85572
G1 X103.340 Y137.383 E200.44814
G1 X102.763 Y126.832 E201.67793
G1 X97.336 Y127.320 E202.31211
G1 X96.356 Y128.146 E202.46125
G1 X95.793 Y118.993 E203.52861
G1 X96.864 Y119.605 E203.67221
G1 X102.192 Y119.117 E204.29501
G1 X102.547 Y112.567 E205.05850
G1 X111.162 Y112.576 E206.06115
G1 X111.162 Y96.174 E207.97015
G1 X105.198 Y96.224 E208.66431
G1 X106.197 Y90.647 E209.32379
G1 X101.134 Y88.830 E209.94974
G1 X100.043 Y89.118 E210.08109
G1 X102.916 Y80.521 E211.13611
G1 X103.648 Y81.547 E211.28282
G1 X108.965 Y83.480 E211.94122
G1 X110.578 Y72.617 E213.21941
G1 X134.846 Y72.617 E216.04392
G1 X150.000 Y81.464 E218.08627
G1 X165.154 Y72.617 E220.12861
G1 X189.422 Y72.617 E222.95312
G1 X191.036 Y83.480 E224.23132
G1 X196.352 Y81.547 E224.88972
G1 X197.084 Y80.521 E225.03643
G1 X199.957 Y89.118 E226.09143
G1 X198.866 Y88.830 E226.22278
G1 X193.803 Y90.647 E226.84873
G1 X194.802 Y96.224 E227.50822
G1 X188.838 Y96.174 E228.20237
G1 X188.838 Y112.469 E230.09890
G1 X189.553 Y111.861 F7200.000
G1 X198.130 Y111.852 E231.09717 F756.000
G1 X198.487 Y118.462 E231.86768
G1 X202.977 Y118.874 E232.39243
G1 X205.001 Y117.715 E232.66390
G1 X204.269 Y129.607 E234.05063
G1 X202.376 Y128.011 E234.33887
G1 X197.910 Y127.610 E234.86077
G1 X197.337 Y138.097 E236.08318
G1 X165.587 Y138.097 E239.77847
G1 X150.079 Y128.090 E241.92670
G1 X134.414 Y138.097 E244.09021
G1 X102.663 Y138.097 E247.78561
G1 X102.090 Y127.610 E249.00803
G1 X97.624 Y128.011 E249.52992
G1 X95.731 Y129.607 E249.81816
G1 X94.999 Y117.715 E251.20489
G1 X97.023 Y118.874 E251.47633
G1 X101.513 Y118.462 E252.00109
G1 X101.870 Y111.852 E252.77157
G1 X110.447 Y111.861 E253.76984
G1 X110.447 Y96.894 E255.51181
G1 X104.343 Y96.945 E256.22232
G1 X105.387 Y91.115 E256.91172
G1 X101.102 Y89.578 E257.44158
G1 X98.947 Y90.147 E257.70104
G1 X102.683 Y78.965 E259.07318
G1 X104.101 Y80.952 E259.35725
G1 X108.387 Y82.510 E259.88804
G1 X109.962 Y71.903 E261.13613
G1 X135.039 Y71.903 E264.05481
G1 X150.000 Y80.637 E266.07113
G1 X164.961 Y71.903 E268.08743
G1 X190.038 Y71.903 E271.00612
G1 X191.613 Y82.510 E272.25421
G1 X195.899 Y80.952 E272.78500
G1 X197.317 Y78.965 E273.06908
G1 X201.053 Y90.147 E274.44120
G1 X198.898 Y89.578 E274.70066
G1 X194.613 Y91.115 E275.23052
G1 X195.657 Y96.945 E275.91992
G1 X189.553 Y96.894 E276.63044
G1 X189.553 Y111.754 E278.35994
G1 X189.553 Y112.575 F7200.000
G1 X188.273 Y114.487 F7200.000
G1 X198.845 Y125.059 E280.10036 F1080.000
G1 X199.955 Y125.159 E280.23007
G1 X189.282 Y114.486 E281.98707
G1 X190.291 Y114.485 E282.10453
G1 X195.950 Y120.144 E283.03615
G1 X195.892 Y119.076 E283.16064
G1 X191.300 Y114.483 E283.91663
G1 X192.309 Y114.482 E284.03409
G1 X195.834 Y118.008 E284.61444
G1 X195.777 Y116.940 E284.73893
G1 X193.318 Y114.481 E285.14366
G1 X194.327 Y114.480 E285.26112
G1 X195.719 Y115.872 E285.49021
G1 X195.661 Y114.804 E285.61470
G1 X195.336 Y114.479 E285.66816
G1 X196.744 Y120.938 F7200.000
G1 X201.065 Y125.258 E286.37936 F1080.000
G1 X201.917 Y125.101 E286.48028
G1 X197.857 Y121.040 E287.14876
G1 X198.969 Y121.142 E287.27875
G1 X201.976 Y124.149 E287.77380
G1 X202.034 Y123.198 E287.88478
G1 X200.081 Y121.244 E288.20640
G1 X201.193 Y121.346 E288.33639
G1 X202.093 Y122.246 E288.48460
G1 X179.606 Y113.901 F7200.000
G1 X164.959 Y99.253 E290.89595 F1080.000
G1 X164.122 Y99.427 E290.99540
G1 X178.600 Y113.905 E293.37883
G1 X177.594 Y113.909 E293.49594
G1 X163.286 Y99.601 E295.85144
G1 X162.449 Y99.774 E295.95089
G1 X176.588 Y113.913 E298.27847
G1 X175.582 Y113.917 E298.39558
G1 X161.613 Y99.948 E300.69523
G1 X160.776 Y100.122 E300.79467
G1 X174.576 Y113.921 E303.06640
G1 X173.570 Y113.925 E303.18352
G1 X159.940 Y100.295 E305.42732
G1 X159.238 Y99.593 F7200.000
G1 X134.172 Y74.527 E309.55362 F1080.000
G1 X136.379 Y75.724 F7200.000
G1 X159.013 Y98.358 E313.27958 F1080.000
G1 X158.788 Y97.123 E313.42571
G1 X138.806 Y77.141 E316.71515
G1 X141.233 Y78.558 F7200.000
G1 X158.563 Y95.888 E319.56808 F1080.000
G1 X158.338 Y94.653 E319.71420
G1 X143.659 Y79.974 E322.13060
G1 X146.086 Y81.391 F7200.000
G1 X158.113 Y93.418 E324.11049 F1080.000
G1 X157.888 Y92.183 E324.25661
G1 X148.513 Y82.808 E325.79998
G1 X150.247 Y83.531 F7200.000
G1 X157.663 Y90.948 E327.02088 F1080.000
G1 X157.438 Y89.713 E327.16700
G1 X150.885 Y83.159 E328.24588
G1 X151.523 Y82.787 E328.33184
G1 X157.214 Y88.478 E329.26870
G1 X156.989 Y87.243 E329.41483
G1 X152.160 Y82.415 E330.20967
G1 X152.798 Y82.042 E330.29564
G1 X157.427 Y86.671 E331.05771
G1 X158.282 Y86.516 E331.15884
G1 X153.436 Y81.670 E331.95663
G1 X154.074 Y81.298 E332.04260
G1 X159.137 Y86.361 E332.87612
G1 X159.992 Y86.206 E332.97725
G1 X154.712 Y80.925 E333.84649
G1 X155.349 Y80.553 E333.93246
G1 X160.847 Y86.050 E334.83742
G1 X161.701 Y85.895 E334.93855
G1 X155.987 Y80.181 E335.87924
G1 X156.625 Y79.808 E335.96521
G1 X162.556 Y85.740 E336.94162
G1 X163.411 Y85.584 E337.04275
G1 X157.263 Y79.436 E338.05489
G1 X157.901 Y79.064 E338.14086
G1 X164.266 Y85.429 E339.18872
G1 X165.121 Y85.274 E339.28985
G1 X158.538 Y78.691 E340.37344
G1 X159.176 Y78.319 E340.45940
G1 X165.975 Y85.118 E341.57871
G1 X166.679 Y84.812 E341.66803
G1 X159.814 Y77.947 E342.79812
G1 X160.452 Y77.575 E342.88409
G1 X166.678 Y83.800 E343.90902
G1 X166.677 Y82.789 E344.02672
G1 X161.089 Y77.202 E344.94648
G1 X161.727 Y76.830 E345.03245
G1 X166.676 Y81.778 E345.84705
G1 X166.675 Y80.767 E345.96475
G1 X162.365 Y76.458 E346.67419
G1 X163.003 Y76.085 E346.76016
G1 X166.674 Y79.756 E347.36444
G1 X166.673 Y78.745 E347.48214
G1 X163.641 Y75.713 E347.98125
G1 X164.278 Y75.341 E348.06721
G1 X167.044 Y78.106 E348.52242
G1 X168.050 Y78.102 E348.63953
G1 X164.916 Y74.968 E349.15536
G1 X165.554 Y74.596 E349.24132
G1 X169.056 Y78.098 E349.81778
G1 X170.062 Y78.094 E349.93489
G1 X166.496 Y74.528 E350.52194
G1 X167.506 Y74.528 E350.63952
G1 X171.068 Y78.090 E351.22590
G1 X172.074 Y78.086 E351.34301
G1 X168.516 Y74.528 E351.92873
G1 X169.526 Y74.528 E352.04631
G1 X173.080 Y78.082 E352.63137
G1 X174.086 Y78.078 E352.74848
G1 X170.536 Y74.528 E353.33287
G1 X171.546 Y74.528 E353.45045
G1 X175.092 Y78.074 E354.03418
G1 X176.098 Y78.070 E354.15129
G1 X172.556 Y74.528 E354.73435
G1 X173.567 Y74.528 E354.85194
G1 X177.104 Y78.065 E355.43434
G1 X178.110 Y78.061 E355.55145
G1 X174.577 Y74.528 E356.13319
G1 X175.587 Y74.528 E356.25077
G1 X179.116 Y78.057 E356.83184
G1 X180.123 Y78.053 E356.94895
G1 X176.597 Y74.528 E357.52936
G1 X177.607 Y74.528 E357.64694
G1 X192.253 Y89.173 E360.05795
G1 X191.677 Y89.607 E360.14192
G1 X180.398 Y78.329 E361.99862
G1 X180.399 Y79.340 E362.11632
G1 X191.897 Y90.838 E364.00913
G1 X192.117 Y92.068 E364.15464
G1 X180.400 Y80.351 E366.08357
G1 X180.401 Y81.362 E366.20127
G1 X192.338 Y93.299 E368.16630
G1 X192.322 Y94.293 E368.28201
G1 X180.402 Y82.373 E370.24421
G1 X180.403 Y83.384 E370.36191
G1 X191.303 Y94.284 E372.15625
G1 X190.284 Y94.276 E372.27483
G1 X180.404 Y84.396 E373.90130
G1 X180.405 Y85.407 E374.01900
