; generated by Slic3r 1.0.0RC2 on 2014-05-15 at 12:24:35

; layer_height = 0.3
; perimeters = 4
; top_solid_layers = 3
; bottom_solid_layers = 3
; fill_density = 0.1
; perimeter_speed = 60
; infill_speed = 60
; travel_speed = 120
; nozzle_diameter = 0.4
; filament_diameter = 1.75
; extrusion_multiplier = 0.98
; perimeters extrusion width = 0.40mm
; infill extrusion width = 0.42mm
; solid infill extrusion width = 0.42mm
; top infill extrusion width = 0.42mm
; first layer extrusion width = 0.80mm

G21 ; set units to millimeters
M107
M104 S220 ; set temperature
G28 ; home all axes
M106 S255;
G1 Z200 F1200 ; lift nozzle
M109 S220 ; wait for temperature to be reached
G90 ; use absolute coordinates
G92 E0
M82 ; use absolute distances for extrusion
G1 F1800.000 E-1.00000
G92 E0
G1 Z0.400 F7200.000
G1 X115.658 Y47.746 F7200.000
G1 E1.00000 F1800.000
G1 X116.458 Y46.496 E1.17273 F1080.000
G1 X117.518 Y45.446 E1.34639
G1 X118.788 Y44.656 E1.52047
G1 X120.198 Y44.166 E1.69420
G1 X121.678 Y44.006 E1.86746
G1 X178.318 Y44.006 E8.45979
G1 X179.798 Y44.166 E8.63305
G1 X181.208 Y44.656 E8.80678
G1 X182.478 Y45.446 E8.98086
G1 X183.538 Y46.496 E9.15452
G1 X184.338 Y47.746 E9.32725
G1 X194.328 Y68.016 E11.95744
G1 X194.848 Y69.466 E12.13673
G1 X195.018 Y70.986 E12.31474
G1 X195.018 Y149.836 E21.49208
G1 X194.878 Y151.206 E21.65237
G1 X194.468 Y152.516 E21.81213
G1 X193.788 Y153.706 E21.97165
G1 X192.888 Y154.746 E22.13173
G1 X182.898 Y164.066 E23.72190
G1 X181.548 Y165.036 E23.91538
G1 X180.008 Y165.656 E24.10860
G1 X178.358 Y165.866 E24.30220
G1 X156.008 Y165.986 E26.90355
G1 X143.328 Y165.986 E28.37937
G1 X121.638 Y165.866 E30.90391
G1 X119.988 Y165.656 E31.09750
G1 X118.448 Y165.036 E31.29072
G1 X117.098 Y164.066 E31.48420
G1 X107.108 Y154.746 E33.07437
G1 X106.208 Y153.706 E33.23445
G1 X105.528 Y152.516 E33.39397
G1 X105.118 Y151.206 E33.55373
G1 X104.978 Y149.836 E33.71402
G1 X104.978 Y70.996 E42.89019
G1 X105.148 Y69.476 E43.06821
G1 X105.668 Y68.026 E43.24750
G1 X115.611 Y47.842 E45.86626
G1 F1800.000 E44.86626
G92 E0
G1 X138.053 Y80.973 F7200.000
G1 E1.00000 F1800.000
G1 X138.545 Y80.644 E1.06890 F1080.000
G1 X142.652 Y79.832 E1.55617
G1 X146.755 Y80.644 E2.04294
G1 X150.237 Y82.971 E2.53036
G1 X152.563 Y86.452 E3.01762
G1 X153.380 Y90.560 E3.50517
G1 X152.563 Y94.664 E3.99223
G1 X150.237 Y98.145 E4.47946
G1 X146.756 Y100.471 E4.96668
G1 X142.652 Y101.288 E5.45374
G1 X138.544 Y100.471 E5.94129
G1 X135.063 Y98.145 E6.42856
G1 X132.736 Y94.663 E6.91598
G1 X131.924 Y90.560 E7.40275
G1 X132.736 Y86.453 E7.89002
G1 X135.063 Y82.971 E8.37748
G1 X137.964 Y81.033 E8.78357
G1 X138.450 Y81.567 F7200.000
G1 X138.824 Y81.317 E8.83588 F1080.000
G1 X142.652 Y80.560 E9.29012
G1 X146.477 Y81.317 E9.74388
G1 X149.722 Y83.486 E10.19819
G1 X151.890 Y86.731 E10.65239
G1 X152.652 Y90.560 E11.10686
G1 X151.890 Y94.386 E11.56084
G1 X149.722 Y97.630 E12.01502
G1 X146.478 Y99.798 E12.46919
G1 X142.652 Y100.560 E12.92318
G1 X138.823 Y99.798 E13.37765
G1 X135.578 Y97.630 E13.83185
G1 X133.409 Y94.385 E14.28616
G1 X132.652 Y90.560 E14.73992
G1 X133.409 Y86.732 E15.19416
G1 X135.578 Y83.486 E15.64850
G1 X138.361 Y81.626 E16.03805
G1 X138.847 Y82.161 F7200.000
G1 X139.102 Y81.990 E16.07378 F1080.000
G1 X142.652 Y81.288 E16.49500
G1 X146.198 Y81.990 E16.91574
G1 X149.207 Y84.001 E17.33694
G1 X151.217 Y87.009 E17.75807
G1 X151.924 Y90.560 E18.17946
G1 X151.217 Y94.107 E18.60038
G1 X149.207 Y97.115 E19.02150
G1 X146.199 Y99.125 E19.44262
G1 X142.652 Y99.832 E19.86353
G1 X139.101 Y99.125 E20.28492
G1 X136.093 Y97.115 E20.70606
G1 X134.082 Y94.106 E21.12726
G1 X133.380 Y90.560 E21.54800
G1 X134.082 Y87.010 E21.96922
G1 X136.093 Y84.001 E22.39044
G1 X138.758 Y82.220 E22.76346
G1 X139.243 Y82.754 F7200.000
G1 X139.380 Y82.663 E22.78260 F756.000
G1 X142.652 Y82.016 E23.17079
G1 X145.920 Y82.663 E23.55852
G1 X148.692 Y84.516 E23.94661
G1 X150.545 Y87.288 E24.33468
G1 X151.196 Y90.560 E24.72299
G1 X150.545 Y93.828 E25.11083
G1 X148.692 Y96.600 E25.49890
G1 X145.920 Y98.453 E25.88696
G1 X142.652 Y99.104 E26.27481
G1 X139.380 Y98.453 E26.66312
G1 X136.608 Y96.600 E27.05119
G1 X134.755 Y93.828 E27.43928
G1 X134.108 Y90.560 E27.82701
G1 X134.755 Y87.288 E28.21519
G1 X136.608 Y84.516 E28.60329
G1 X139.154 Y82.814 E28.95978
G1 X139.233 Y82.590 F7200.000
G1 F1800.000 E27.95978
G92 E0
G1 X135.590 Y110.502 F7200.000
G1 E1.00000 F1800.000
G1 X165.594 Y101.732 E4.63840 F1080.000
G1 X165.594 Y142.807 E9.41917
G1 X135.590 Y142.938 E12.91148
G1 X135.590 Y110.609 E16.67414
G1 X136.304 Y111.038 F7200.000
G1 X164.880 Y102.685 E20.13934 F1080.000
G1 X164.880 Y142.096 E24.72646
G1 X136.304 Y142.220 E28.05252
G1 X136.304 Y111.145 E31.66940
G1 X137.018 Y111.573 F7200.000
G1 X164.166 Y103.638 E34.96141 F1080.000
G1 X164.166 Y141.385 E39.35487
G1 X137.018 Y141.503 E42.51469
G1 X137.018 Y111.680 E45.98578
G1 X137.732 Y112.108 F7200.000
G1 X163.452 Y104.590 E49.10459 F756.000
G1 X163.452 Y140.674 E53.30439
G1 X137.732 Y140.786 E56.29797
G1 X137.732 Y112.215 E59.62327
G1 X137.597 Y111.407 F7200.000
G1 X124.226 Y99.694 F7200.000
G1 X114.230 Y99.694 E60.78671 F1080.000
G1 X114.230 Y95.066 E61.32525
G1 X124.226 Y95.066 E62.48868
G1 X124.226 Y80.330 E64.20392
G1 X114.230 Y80.330 E65.36735
G1 X114.230 Y73.542 E66.15729
G1 X124.226 Y73.542 E67.32073
G1 X124.226 Y53.258 E69.68158
G1 X131.226 Y53.258 E70.49619
G1 X131.226 Y64.622 E71.81885
G1 X168.266 Y64.622 E76.13004
G1 X168.266 Y53.258 E77.45270
G1 X175.782 Y53.258 E78.32737
G1 X175.782 Y73.534 E80.68729
G1 X185.770 Y73.534 E81.84979
G1 X185.770 Y80.370 E82.64532
G1 X175.782 Y80.370 E83.80783
G1 X175.782 Y104.790 E86.65018
G1 X185.770 Y104.790 E87.81268
G1 X185.770 Y111.542 E88.59844
G1 X175.782 Y111.542 E89.76094
G1 X175.782 Y140.570 E93.13962
G1 X185.770 Y140.570 E94.30212
G1 X185.770 Y147.294 E95.08461
G1 X175.782 Y147.294 E96.24711
G1 X175.782 Y156.635 E97.33438
G1 X158.514 Y156.728 E99.34412
G1 X158.514 Y155.521 E99.48457
G1 X163.666 Y147.930 E100.55236
G1 X136.512 Y147.930 E103.71278
G1 X140.830 Y155.420 E104.71907
G1 X140.830 Y156.727 E104.87121
G1 X124.226 Y156.636 E106.80367
G1 X124.226 Y147.294 E107.89099
G1 X114.230 Y147.294 E109.05442
G1 X114.230 Y140.570 E109.83691
G1 X124.226 Y140.570 E111.00035
G1 X124.226 Y99.801 E115.74554
G1 X123.512 Y100.408 F7200.000
G1 X113.516 Y100.408 E116.90898 F1080.000
G1 X113.516 Y94.352 E117.61376
G1 X123.512 Y94.352 E118.77719
G1 X123.512 Y81.044 E120.32618
G1 X113.516 Y81.044 E121.48962
G1 X113.516 Y72.828 E122.44580
G1 X123.512 Y72.828 E123.60924
G1 X123.512 Y52.544 E125.97009
G1 X131.940 Y52.544 E126.95095
G1 X131.940 Y63.908 E128.27360
G1 X167.552 Y63.908 E132.41855
G1 X167.552 Y52.544 E133.74121
G1 X176.496 Y52.544 E134.78212
G1 X176.496 Y72.820 E137.14204
G1 X186.484 Y72.820 E138.30455
G1 X186.484 Y81.084 E139.26632
G1 X176.496 Y81.084 E140.42882
G1 X176.496 Y104.076 E143.10493
G1 X186.484 Y104.076 E144.26743
G1 X186.484 Y112.256 E145.21943
G1 X176.496 Y112.256 E146.38193
G1 X176.496 Y139.856 E149.59437
G1 X186.484 Y139.856 E150.75687
G1 X186.484 Y148.008 E151.70561
G1 X176.496 Y148.008 E152.86811
G1 X176.496 Y157.345 E153.95493
G1 X157.800 Y157.446 E156.13091
G1 X157.800 Y155.302 E156.38047
G1 X162.318 Y148.644 E157.31695
G1 X137.748 Y148.644 E160.17667
G1 X141.544 Y155.229 E161.06136
G1 X141.544 Y157.446 E161.31932
G1 X123.512 Y157.346 E163.41802
G1 X123.512 Y148.008 E164.50488
G1 X113.516 Y148.008 E165.66831
G1 X113.516 Y139.856 E166.61704
G1 X123.512 Y139.856 E167.78048
G1 X123.512 Y100.515 E172.35943
G1 X122.798 Y101.122 F7200.000
G1 X112.802 Y101.122 E173.52287 F1080.000
G1 X112.802 Y93.638 E174.39389
G1 X122.798 Y93.638 E175.55732
G1 X122.798 Y81.758 E176.94007
G1 X112.802 Y81.758 E178.10351
G1 X112.802 Y72.114 E179.22593
G1 X122.798 Y72.114 E180.38937
G1 X122.798 Y51.830 E182.75022
G1 X132.654 Y51.830 E183.89732
G1 X132.654 Y63.194 E185.21997
G1 X166.838 Y63.194 E189.19868
G1 X166.838 Y51.830 E190.52134
G1 X177.210 Y51.830 E191.72850
G1 X177.210 Y72.106 E194.08842
G1 X187.198 Y72.106 E195.25092
G1 X187.198 Y81.798 E196.37893
G1 X177.210 Y81.798 E197.54144
G1 X177.210 Y103.362 E200.05130
G1 X187.198 Y103.362 E201.21381
G1 X187.198 Y112.970 E202.33204
G1 X177.210 Y112.970 E203.49455
G1 X177.210 Y139.142 E206.54074
G1 X187.198 Y139.142 E207.70324
G1 X187.198 Y148.722 E208.81822
G1 X177.210 Y148.722 E209.98072
G1 X177.210 Y158.056 E211.06710
G1 X157.086 Y158.164 E213.40933
G1 X157.086 Y155.082 E213.76799
G1 X160.970 Y149.358 E214.57316
G1 X138.984 Y149.358 E217.13218
G1 X142.258 Y155.038 E217.89526
G1 X142.258 Y158.164 E218.25904
G1 X122.798 Y158.056 E220.52398
G1 X122.798 Y148.722 E221.61038
G1 X112.802 Y148.722 E222.77382
G1 X112.802 Y139.142 E223.88879
G1 X122.798 Y139.142 E225.05223
G1 X122.798 Y101.229 E229.46494
G1 X122.084 Y101.836 F7200.000
G1 X112.088 Y101.836 E230.62837 F756.000
G1 X112.088 Y92.924 E231.66564
G1 X122.084 Y92.924 E232.82907
G1 X122.084 Y82.472 E234.04558
G1 X112.088 Y82.472 E235.20901
G1 X112.088 Y71.400 E236.49768
G1 X122.084 Y71.400 E237.66112
G1 X122.084 Y51.116 E240.02197
G1 X133.368 Y51.116 E241.33531
G1 X133.368 Y62.480 E242.65797
G1 X166.124 Y62.480 E246.47043
G1 X166.124 Y51.116 E247.79309
G1 X177.924 Y51.116 E249.16649
G1 X177.924 Y71.392 E251.52641
G1 X187.912 Y71.392 E252.68891
G1 X187.912 Y82.512 E253.98317
G1 X177.924 Y82.512 E255.14567
G1 X177.924 Y102.648 E257.48930
G1 X187.912 Y102.648 E258.65180
G1 X187.912 Y113.684 E259.93628
G1 X177.924 Y113.684 E261.09878
G1 X177.924 Y138.428 E263.97873
G1 X187.912 Y138.428 E265.14123
G1 X187.912 Y149.436 E266.42245
G1 X177.924 Y149.436 E267.58496
G1 X177.924 Y158.766 E268.67089
G1 X156.372 Y158.882 E271.17936
G1 X156.372 Y154.863 E271.64713
G1 X159.623 Y150.072 E272.32099
G1 X140.220 Y150.072 E274.57930
G1 X142.972 Y154.847 E275.22078
G1 X142.972 Y158.882 E275.69038
G1 X122.084 Y158.766 E278.12157
G1 X122.084 Y149.436 E279.20751
G1 X112.088 Y149.436 E280.37095
G1 X112.088 Y138.428 E281.65216
G1 X122.084 Y138.428 E282.81560
G1 X122.084 Y101.943 E287.06207
G1 X122.084 Y101.122 F7200.000
G1 X124.708 Y100.820 F7200.000
G1 X135.108 Y111.219 E288.78514 F1080.000
G1 X135.108 Y112.236 E288.90426
G1 X124.708 Y101.836 E290.62733
G1 X124.708 Y102.853 E290.74644
G1 X135.108 Y113.252 E292.46952
G1 X135.108 Y114.269 E292.58863
G1 X124.708 Y103.870 E294.31171
G1 X124.708 Y104.886 E294.43082
G1 X135.108 Y115.286 E296.15389
G1 X135.108 Y116.302 E296.27301
G1 X124.708 Y105.903 E297.99608
G1 X124.708 Y106.920 E298.11519
G1 X135.108 Y117.319 E299.83827
G1 X135.108 Y118.336 E299.95738
G1 X124.708 Y107.936 E301.68046
G1 X124.708 Y108.953 E301.79957
G1 X135.108 Y119.352 E303.52264
G1 X135.108 Y120.369 E303.64176
G1 X124.708 Y109.970 E305.36483
G1 X124.708 Y110.986 E305.48394
G1 X135.108 Y121.386 E307.20702
G1 X135.108 Y122.402 E307.32613
G1 X124.708 Y112.003 E309.04921
G1 X124.708 Y113.020 E309.16832
G1 X135.108 Y123.419 E310.89139
G1 X135.108 Y124.436 E311.01050
G1 X124.708 Y114.036 E312.73358
G1 X124.708 Y115.053 E312.85269
G1 X135.108 Y125.452 E314.57577
G1 X135.108 Y126.469 E314.69488
G1 X124.708 Y116.070 E316.41796
G1 X124.708 Y117.086 E316.53707
G1 X135.108 Y127.486 E318.26014
G1 X135.108 Y128.502 E318.37925
G1 X124.708 Y118.103 E320.10233
G1 X124.708 Y119.120 E320.22144
G1 X135.108 Y129.519 E321.94452
G1 X135.108 Y130.536 E322.06363
G1 X124.708 Y120.136 E323.78671
G1 X124.708 Y121.153 E323.90582
G1 X135.108 Y131.552 E325.62889
G1 X135.108 Y132.569 E325.74800
G1 X124.708 Y122.169 E327.47108
G1 X124.708 Y123.186 E327.59019
G1 X135.108 Y133.586 E329.31327
G1 X135.108 Y134.602 E329.43238
G1 X124.708 Y124.203 E331.15546
G1 X124.708 Y125.219 E331.27457
G1 X135.108 Y135.619 E332.99764
G1 X135.108 Y136.636 E333.11675
G1 X124.708 Y126.236 E334.83983
G1 X124.708 Y127.253 E334.95894
G1 X135.108 Y137.652 E336.68202
G1 X135.108 Y138.669 E336.80113
G1 X124.708 Y128.269 E338.52421
G1 X124.708 Y129.286 E338.64332
G1 X135.108 Y139.686 E340.36639
G1 X135.108 Y140.702 E340.48550
G1 X124.708 Y130.303 E342.20858
G1 X124.708 Y131.319 E342.32769
G1 X135.108 Y141.719 E344.05077
G1 X135.108 Y142.736 F7200.000
G1 X124.708 Y132.336 E345.77384 F1080.000
G1 X124.708 Y133.353 E345.89296
G1 X138.803 Y147.448 E348.22835
G1 X137.787 Y147.448 E348.34746
G1 X124.708 Y134.369 E350.51440
G1 X124.708 Y135.386 E350.63351
G1 X136.770 Y147.448 E352.63200
G1 X135.753 Y147.448 F7200.000
G1 X124.708 Y136.403 E354.46204 F1080.000
G1 X123.934 Y146.812 F7200.000
G1 X118.175 Y141.052 E355.41632 F1080.000
G1 X117.158 Y141.052 E355.53543
G1 X122.917 Y146.812 E356.48971
G1 X121.901 Y146.812 E356.60882
G1 X116.141 Y141.052 E357.56310
G1 X115.125 Y141.052 E357.68221
G1 X120.884 Y146.812 E358.63649
G1 X119.867 Y146.812 E358.75560
G1 X114.712 Y141.657 E359.60975
G1 X114.712 Y142.673 E359.72886
G1 X118.851 Y146.812 E360.41457
G1 X117.834 Y146.812 E360.53368
G1 X114.712 Y143.690 E361.05094
G1 X114.712 Y144.707 E361.17005
G1 X116.817 Y146.812 E361.51886
G1 X115.801 Y146.812 E361.63797
G1 X114.712 Y145.723 E361.81833
G1 X114.712 Y146.740 E361.93745
G1 X114.784 Y146.812 E361.94936
G1 X124.708 Y147.586 F7200.000
G1 X133.326 Y156.204 E363.37730 F1080.000
G1 X132.304 Y156.198 E363.49707
G1 X124.708 Y148.603 E364.75563
G1 X124.708 Y149.619 E364.87474
G1 X131.282 Y156.193 E365.96390
G1 X130.260 Y156.187 E366.08368
G1 X124.708 Y150.636 E367.00346
G1 X124.708 Y151.653 E367.12257
G1 X129.237 Y156.181 E367.87297
G1 X128.215 Y156.176 E367.99274
G1 X124.708 Y152.669 E368.57375
G1 X124.708 Y153.686 E368.69286
G1 X127.193 Y156.170 E369.10448
G1 X126.170 Y156.164 E369.22426
G1 X124.708 Y154.703 E369.46649
G1 X124.708 Y155.719 E369.58560
G1 X125.148 Y156.159 E369.65845
G1 X134.349 Y156.210 F7200.000
G1 X119.191 Y141.052 E372.16988 F1080.000
G1 X120.208 Y141.052 E372.28899
G1 X135.371 Y156.215 E374.80136
G1 X136.393 Y156.221 E374.92114
G1 X121.225 Y141.052 E377.43444
G1 X122.241 Y141.052 E377.55355
G1 X137.416 Y156.227 E380.06779
G1 X138.438 Y156.232 E380.18757
G1 X123.258 Y141.052 E382.70275
G1 X124.275 Y141.052 E382.82186
G1 X139.460 Y156.238 E385.33798
G1 X140.348 Y156.109 E385.44304
G1 X124.708 Y140.469 E388.03433
G1 X124.708 Y139.453 E388.15344
G1 X139.726 Y154.470 E390.64169
G1 X138.343 Y152.070 F7200.000
G1 X124.708 Y138.436 E392.90074 F1080.000
G1 X124.708 Y137.419 E393.01986
G1 X136.959 Y149.670 E395.04972
G1 X135.791 Y143.418 F7200.000
G1 X139.820 Y147.448 E395.71733 F1080.000
G1 X140.837 Y147.448 E395.83644
G1 X136.803 Y143.414 E396.50477
G1 X137.815 Y143.410 E396.62337
G1 X141.853 Y147.448 E397.29243
G1 X142.870 Y147.448 E397.41154
G1 X138.827 Y143.405 E398.08133
G1 X139.840 Y143.401 E398.19993
G1 X143.887 Y147.448 E398.87044
G1 X144.903 Y147.448 E398.98955
G1 X140.852 Y143.397 E399.66080
G1 X141.864 Y143.392 E399.77939
G1 X145.920 Y147.448 E400.45136
G1 X146.937 Y147.448 E400.57047
G1 X142.877 Y143.388 E401.24317
G1 X143.889 Y143.383 E401.36177
G1 X147.953 Y147.448 E402.03519
G1 X148.970 Y147.448 E402.15430
G1 X144.901 Y143.379 E402.82845
G1 X145.913 Y143.375 E402.94705
G1 X149.986 Y147.448 E403.62192
G1 X151.003 Y147.448 E403.74103
G1 X146.926 Y143.370 E404.41664
G1 X147.938 Y143.366 E404.53523
G1 X152.020 Y147.448 E405.21156
G1 X153.036 Y147.448 E405.33068
G1 X148.950 Y143.361 E406.00773
G1 X149.962 Y143.357 E406.12633
G1 X154.053 Y147.448 E406.80411
G1 X155.070 Y147.448 E406.92322
G1 X150.975 Y143.353 E407.60173
G1 X151.987 Y143.348 E407.72033
G1 X156.086 Y147.448 E408.39957
G1 X157.103 Y147.448 E408.51868
G1 X152.999 Y143.344 E409.19864
G1 X154.012 Y143.339 E409.31724
G1 X158.120 Y147.448 E409.99793
G1 X159.136 Y147.448 E410.11705
G1 X155.024 Y143.335 E410.79846
G1 X156.036 Y143.331 E410.91706
G1 X160.153 Y147.448 E411.59921
G1 X161.170 Y147.448 E411.71832
G1 X157.048 Y143.326 E412.40119
G1 X158.061 Y143.322 E412.51979
G1 X162.186 Y147.448 E413.20338
G1 X163.203 Y147.448 E413.32250
G1 X159.073 Y143.318 E414.00682
G1 X160.085 Y143.313 E414.12542
G1 X172.941 Y156.169 E416.25542
G1 X173.952 Y156.163 E416.37390
G1 X161.097 Y143.309 E418.50373
G1 X162.110 Y143.304 E418.62233
G1 X174.963 Y156.158 E420.75199
G1 X175.300 Y155.478 E420.84088
