; generated by Slic3r 1.0.0RC3 on 2014-03-11 at 09:49:32

; layer_height = 0.3
; perimeters = 2
; top_solid_layers = 3
; bottom_solid_layers = 3
; fill_density = 0.1
; perimeter_speed = 60
; infill_speed = 60
; travel_speed = 120
; nozzle_diameter = 0.4
; filament_diameter = 1.75
; extrusion_multiplier = 0.98
; perimeters extrusion width = 0.40mm
; infill extrusion width = 0.42mm
; solid infill extrusion width = 0.42mm
; top infill extrusion width = 0.42mm
; support material extrusion width = 0.40mm
; first layer extrusion width = 0.60mm

G21 ; set units to millimeters
M107
M104 S220 ; set temperature
G28 ; home all axes
M106 S255;
G1 Z200 F1200 ; lift nozzle
M109 S220 ; wait for temperature to be reached
G90 ; use absolute coordinates
G92 E0
M82 ; use absolute distances for extrusion
G1 F1800.000 E-1.00000
G92 E0
G1 Z0.300 F7200.000
G1 X105.872 Y79.072 F7200.000
G1 E1.00000 F1800.000
G1 X106.772 Y77.892 E1.10105 F1080.000
G1 X107.912 Y76.942 E1.20210
G1 X109.242 Y76.272 E1.30350
G1 X130.342 Y68.472 E2.83528
G1 X131.172 Y68.222 E2.89430
G1 X155.792 Y62.662 E4.61296
G1 X156.502 Y62.542 E4.66199
G1 X157.232 Y62.502 E4.71177
G1 X162.802 Y62.502 E5.09104
G1 X163.642 Y62.562 E5.14839
G1 X164.462 Y62.722 E5.20528
G1 X185.652 Y68.282 E6.69700
G1 X186.972 Y68.782 E6.79311
G1 X188.152 Y69.552 E6.88905
G1 X190.862 Y71.772 E7.12760
G1 X191.952 Y72.912 E7.23499
G1 X192.742 Y74.282 E7.34268
G1 X193.172 Y75.792 E7.44959
G1 X195.902 Y92.682 E8.61459
G1 X196.052 Y93.792 E8.69086
G1 X196.102 Y94.302 E8.72576
G1 X196.292 Y97.642 E8.95355
G1 X196.502 Y103.342 E9.34194
G1 X196.632 Y107.852 E9.64917
G1 X196.552 Y109.082 E9.73310
G1 X196.242 Y110.282 E9.81749
G1 X190.582 Y125.882 E10.94749
G1 X190.032 Y127.032 E11.03429
G1 X189.272 Y128.062 E11.12145
G1 X172.022 Y147.002 E12.86585
G1 X171.002 Y147.902 E12.95847
G1 X169.822 Y148.582 E13.05121
G1 X168.522 Y149.002 E13.14423
G1 X167.172 Y149.142 E13.23665
G1 X166.622 Y149.142 E13.27410
G1 X165.162 Y148.972 E13.37419
G1 X163.782 Y148.492 E13.47368
G1 X110.402 Y122.862 E17.50571
G1 X109.562 Y122.382 E17.57159
G1 X108.812 Y121.782 E17.63699
G1 X107.602 Y120.672 E17.74880
G1 X106.902 Y119.922 E17.81866
G1 X106.322 Y119.072 E17.88873
G1 X103.802 Y114.592 E18.23873
G1 X103.132 Y112.882 E18.36379
G1 X102.962 Y111.052 E18.48893
G1 X103.572 Y98.802 E19.32410
G1 X104.982 Y81.882 E20.48021
G1 X105.262 Y80.422 E20.58144
G1 X105.837 Y79.149 E20.67662
G1 F1800.000 E19.67662
G92 E0
G1 X107.575 Y81.359 F7200.000
G1 E1.00000 F1800.000
G1 X108.733 Y79.438 E1.15273 F1080.000
G1 X110.390 Y78.502 E1.28239
G1 X112.109 Y78.502 E1.39944
G1 X112.314 Y78.417 E1.41453
G1 X113.344 Y77.387 E1.51366
G1 X124.179 Y77.387 E2.25147
G1 X124.830 Y78.038 E2.31411
G1 X125.517 Y77.753 E2.36481
G1 X125.517 Y77.280 E2.39700
G1 X125.801 Y76.996 E2.42435
G1 X125.886 Y76.791 E2.43944
G1 X125.886 Y76.166 E2.48203
G1 X126.116 Y75.936 E2.50419
G1 X126.201 Y75.731 E2.51928
G1 X126.201 Y75.052 E2.56554
G1 X128.322 Y72.931 E2.76980
G1 X128.587 Y72.931 E2.78782
G1 X128.785 Y72.852 E2.80236
G1 X130.216 Y71.499 E2.93645
G1 X130.796 Y71.129 E2.98328
G1 X131.542 Y70.832 E3.03795
G1 X132.217 Y70.702 E3.08478
G1 X141.807 Y70.702 E3.73773
G1 X143.928 Y72.824 E3.94199
G1 X143.928 Y72.869 E3.94512
G1 X144.010 Y73.071 E3.95997
G1 X144.270 Y73.338 E3.98535
G1 X145.343 Y75.270 E4.13580
G1 X145.398 Y75.339 E4.14179
G1 X147.301 Y77.106 E4.31863
G1 X147.797 Y79.284 E4.47071
G1 X146.831 Y81.743 E4.65063
G1 X146.434 Y82.014 E4.68334
G1 X146.308 Y82.329 E4.70647
G1 X146.700 Y84.224 E4.83826
G1 X146.969 Y87.291 E5.04784
G1 X147.167 Y87.549 E5.07001
G1 X147.550 Y87.686 E5.09770
G1 X147.942 Y87.531 E5.12641
G1 X148.023 Y87.371 E5.13861
G1 X148.669 Y86.974 E5.19026
G1 X148.809 Y86.746 E5.20850
G1 X148.961 Y84.759 E5.34419
G1 X149.255 Y81.376 E5.57541
G1 X149.378 Y80.107 E5.66220
G1 X149.531 Y78.872 E5.74696
G1 X149.689 Y77.914 E5.81310
G1 X150.066 Y77.086 E5.87500
G1 X150.069 Y76.850 E5.89109
G1 X149.501 Y75.539 E5.98839
G1 X149.468 Y74.564 E6.05482
G1 X148.720 Y72.321 E6.21581
G1 X149.418 Y70.089 E6.37501
G1 X152.284 Y67.940 E6.61898
G1 X152.538 Y67.801 E6.63866
G1 X155.050 Y65.775 E6.85841
G1 X155.588 Y65.475 E6.90034
G1 X156.265 Y65.236 E6.94928
G1 X156.872 Y65.132 E6.99121
G1 X164.608 Y65.132 E7.51794
G1 X166.755 Y67.279 E7.72471
G1 X166.798 Y67.394 E7.73310
G1 X167.630 Y68.371 E7.82048
G1 X167.815 Y68.457 E7.83438
G1 X169.953 Y70.595 E8.04029
G1 X169.953 Y71.381 E8.09378
G1 X169.975 Y71.488 E8.10124
G1 X170.462 Y72.667 E8.18809
G1 X170.461 Y73.995 E8.27849
G1 X171.126 Y74.288 E8.32798
G1 X172.342 Y73.176 E8.44017
G1 X172.437 Y72.961 E8.45614
G1 X172.437 Y72.824 E8.46552
G1 X174.558 Y70.702 E8.66978
G1 X184.456 Y70.702 E9.34377
G1 X185.230 Y70.874 E9.39772
G1 X186.068 Y71.264 E9.46072
G1 X186.697 Y71.746 E9.51467
G1 X187.682 Y72.918 E9.61892
G1 X187.779 Y72.992 E9.62721
G1 X189.103 Y73.610 E9.72670
G1 X190.315 Y75.056 E9.85516
G1 X190.729 Y76.608 E9.96456
G1 X190.513 Y77.824 E10.04864
G1 X190.513 Y77.920 E10.05514
G1 X190.741 Y79.277 E10.14887
G1 X189.837 Y82.179 E10.35583
G1 X189.945 Y82.367 E10.37063
G1 X190.703 Y86.400 E10.65002
G1 X190.948 Y89.287 E10.84730
G1 X191.032 Y89.466 E10.86080
G1 X193.329 Y91.764 E11.08207
G1 X193.329 Y93.399 E11.19339
G1 X193.353 Y93.512 E11.20127
G1 X193.453 Y93.739 E11.21811
G1 X193.527 Y96.650 E11.41638
G1 X193.751 Y98.442 E11.53934
G1 X193.693 Y98.667 E11.55517
G1 X193.676 Y100.178 E11.65808
G1 X193.696 Y100.284 E11.66539
G1 X193.822 Y100.606 E11.68897
G1 X193.774 Y102.463 E11.81548
G1 X193.791 Y102.568 E11.82268
G1 X193.923 Y102.927 E11.84873
G1 X193.827 Y104.736 E11.97207
G1 X193.844 Y104.847 E11.97978
G1 X193.959 Y105.160 E12.00244
G1 X193.883 Y106.547 E12.09701
G1 X193.922 Y106.686 E12.10684
G1 X194.126 Y108.497 E12.23097
G1 X193.069 Y111.189 E12.42788
G1 X192.827 Y111.496 E12.45452
G1 X191.336 Y113.911 E12.64777
G1 X190.667 Y114.551 E12.71084
G1 X189.722 Y115.079 E12.78453
G1 X188.825 Y115.312 E12.84760
G1 X180.981 Y115.312 E13.38175
G1 X180.676 Y115.939 E13.42925
G1 X181.931 Y117.534 E13.56741
G1 X182.019 Y117.938 E13.59561
G1 X182.070 Y118.049 E13.60393
G1 X182.411 Y118.496 E13.64217
G1 X182.645 Y118.611 E13.65991
G1 X185.262 Y118.611 E13.83817
G1 X187.401 Y120.749 E14.04407
G1 X187.504 Y120.954 E14.05967
G1 X187.732 Y121.120 E14.07889
G1 X188.584 Y123.790 E14.26972
G1 X187.835 Y126.033 E14.43069
G1 X185.650 Y127.583 E14.61309
G1 X185.537 Y127.751 E14.62688
G1 X185.503 Y127.893 E14.63681
G1 X182.995 Y130.159 E14.86701
G1 X182.426 Y130.509 E14.91243
G1 X182.216 Y130.590 E14.92779
G1 X182.123 Y130.648 E14.93529
G1 X180.355 Y132.334 E15.10163
G1 X179.949 Y132.611 E15.13508
G1 X178.584 Y134.287 E15.28225
G1 X178.215 Y134.591 E15.31482
G1 X176.949 Y136.363 E15.46313
G1 X176.766 Y136.532 E15.48010
G1 X175.629 Y138.132 E15.61371
G1 X175.578 Y138.266 E15.62351
G1 X175.557 Y138.462 E15.63694
G1 X173.866 Y140.630 E15.82416
G1 X173.805 Y140.806 E15.83684
G1 X173.805 Y141.045 E15.85307
G1 X171.735 Y143.118 E16.05258
G1 X171.159 Y143.857 E16.11642
G1 X171.098 Y144.033 E16.12909
G1 X171.098 Y144.387 E16.15318
G1 X168.977 Y146.508 E16.35744
G1 X165.888 Y146.508 E16.56775
G1 X164.698 Y146.079 E16.65395
G1 X163.556 Y145.133 E16.75489
G1 X163.141 Y144.427 E16.81068
G1 X162.884 Y144.280 E16.83083
G1 X161.268 Y144.280 E16.94087
G1 X159.146 Y142.159 E17.14513
G1 X159.146 Y140.119 E17.28401
G1 X159.062 Y139.914 E17.29910
G1 X157.941 Y138.794 E17.40700
G1 X157.736 Y138.709 E17.42209
G1 X156.664 Y138.709 E17.49509
G1 X155.635 Y137.680 E17.59421
G1 X155.430 Y137.595 E17.60930
G1 X154.358 Y137.595 E17.68230
G1 X153.329 Y136.566 E17.78142
G1 X153.124 Y136.481 E17.79651
G1 X152.052 Y136.481 E17.86951
G1 X151.023 Y135.451 E17.96863
G1 X150.818 Y135.367 E17.98372
G1 X149.819 Y135.367 E18.05177
G1 X148.682 Y134.230 E18.16122
G1 X148.551 Y134.156 E18.17147
G1 X148.204 Y134.068 E18.19584
G1 X147.785 Y133.904 E18.22648
G1 X144.200 Y131.961 E18.50413
G1 X144.041 Y131.786 E18.52025
G1 X143.586 Y131.583 E18.55418
G1 X140.340 Y129.548 E18.81502
G1 X140.306 Y129.459 E18.82153
G1 X140.188 Y129.317 E18.83415
G1 X139.762 Y129.057 E18.86810
G1 X137.230 Y126.799 E19.09912
G1 X137.151 Y126.474 E19.12188
G1 X137.105 Y126.375 E19.12932
G1 X136.469 Y125.502 E19.20287
G1 X135.578 Y122.778 E19.39798
G1 X135.805 Y121.333 E19.49762
G1 X135.776 Y120.712 E19.53996
G1 X137.049 Y118.061 E19.74020
G1 X136.721 Y117.540 E19.78210
G1 X136.114 Y117.540 E19.82342
G1 X134.778 Y116.898 E19.92435
G1 X134.428 Y116.957 E19.94852
G1 X133.846 Y117.540 E20.00462
G1 X130.912 Y117.540 E20.20439
G1 X129.952 Y117.270 E20.27230
G1 X128.956 Y116.664 E20.35168
G1 X128.385 Y116.050 E20.40874
G1 X127.912 Y116.042 E20.44096
G1 X127.528 Y116.426 E20.47793
G1 X124.120 Y116.426 E20.70997
G1 X123.916 Y116.511 E20.72506
G1 X122.886 Y117.540 E20.82418
G1 X122.253 Y117.540 E20.86731
G1 X122.100 Y117.585 E20.87820
G1 X119.406 Y119.311 E21.09606
G1 X118.935 Y119.525 E21.13125
G1 X118.357 Y119.695 E21.17230
G1 X117.845 Y119.768 E21.20749
G1 X117.038 Y119.768 E21.26247
G1 X116.833 Y119.853 E21.27756
G1 X115.804 Y120.883 E21.37669
G1 X112.854 Y120.883 E21.57755
G1 X112.190 Y120.758 E21.62353
G1 X111.456 Y120.471 E21.67720
G1 X110.883 Y120.114 E21.72318
G1 X108.408 Y117.836 E21.95222
G1 X108.216 Y117.059 E22.00671
G1 X106.943 Y114.819 E22.18218
G1 X106.444 Y114.051 E22.24454
G1 X105.584 Y113.191 E22.32737
G1 X105.584 Y109.591 E22.57248
G1 X106.721 Y108.454 E22.68194
G1 X106.803 Y108.199 E22.70020
G1 X106.551 Y106.635 E22.80807
G1 X106.565 Y106.512 E22.81647
G1 X106.457 Y105.530 E22.88373
G1 X106.408 Y105.427 E22.89156
G1 X106.406 Y105.061 E22.91645
G1 X106.315 Y104.232 E22.97323
G1 X106.394 Y103.986 E22.99082
G1 X106.408 Y103.733 E23.00808
G1 X106.126 Y100.844 E23.20576
G1 X106.259 Y100.443 E23.23449
G1 X106.273 Y100.335 E23.24193
G1 X106.146 Y98.528 E23.36530
G1 X106.602 Y97.239 E23.45838
G1 X106.618 Y97.145 E23.46485
G1 X106.618 Y96.221 E23.52780
G1 X108.209 Y94.630 E23.68098
G1 X108.294 Y94.421 E23.69633
G1 X108.279 Y93.261 E23.77534
G1 X108.299 Y90.542 E23.96050
G1 X108.357 Y89.557 E24.02769
G1 X108.543 Y88.990 E24.06836
G1 X108.632 Y88.428 E24.10709
G1 X108.541 Y88.157 E24.12655
G1 X108.494 Y88.114 E24.13091
G1 X107.894 Y86.892 E24.22355
G1 X107.656 Y84.095 E24.41473
G1 X107.735 Y83.862 E24.43146
G1 X107.717 Y83.633 E24.44714
G1 X107.521 Y83.263 E24.47566
G1 X107.572 Y81.443 E24.59963
G1 X108.128 Y81.521 F7200.000
G1 X109.134 Y79.851 E24.73242 F1080.000
G1 X110.537 Y79.059 E24.84212
G1 X112.340 Y79.059 E24.96492
G1 X112.545 Y78.974 E24.98001
G1 X113.574 Y77.944 E25.07913
G1 X123.948 Y77.944 E25.78551
G1 X125.387 Y79.383 E25.92403
G1 X126.074 Y79.098 E25.97472
G1 X126.074 Y77.511 E26.08278
G1 X126.358 Y77.227 E26.11013
G1 X126.443 Y77.022 E26.12522
G1 X126.443 Y76.397 E26.16781
G1 X126.673 Y76.167 E26.18997
G1 X126.758 Y75.962 E26.20506
G1 X126.758 Y75.283 E26.25132
G1 X128.553 Y73.488 E26.42415
G1 X128.809 Y73.488 E26.44156
G1 X129.007 Y73.409 E26.45610
G1 X130.561 Y71.940 E26.60168
G1 X131.051 Y71.627 E26.64131
G1 X131.699 Y71.369 E26.68877
G1 X132.270 Y71.260 E26.72839
G1 X141.576 Y71.260 E27.36204
G1 X143.371 Y73.054 E27.53487
G1 X143.371 Y73.096 E27.53773
G1 X143.453 Y73.298 E27.55258
G1 X143.819 Y73.674 E27.58832
G1 X144.900 Y75.617 E27.73972
G1 X144.954 Y75.687 E27.74571
G1 X146.796 Y77.397 E27.91689
G1 X147.216 Y79.240 E28.04557
G1 X146.375 Y81.380 E28.20209
G1 X145.806 Y81.768 E28.24900
G1 X145.681 Y82.094 E28.27281
G1 X146.146 Y84.290 E28.42565
G1 X146.445 Y87.694 E28.65830
G1 X146.644 Y87.952 E28.68047
G1 X147.824 Y88.377 E28.76592
G1 X148.216 Y88.222 E28.79463
G1 X148.449 Y87.764 E28.82963
G1 X149.203 Y87.300 E28.88992
G1 X149.343 Y87.072 E28.90817
G1 X149.516 Y84.806 E29.06292
G1 X149.809 Y81.425 E29.29394
G1 X149.932 Y80.165 E29.38018
G1 X150.083 Y78.946 E29.46380
G1 X150.227 Y78.078 E29.52373
G1 X150.562 Y77.343 E29.57870
G1 X150.606 Y77.290 E29.58340
G1 X150.671 Y77.107 E29.59661
G1 X150.671 Y76.778 E29.61907
G1 X150.584 Y76.571 E29.63437
G1 X150.533 Y76.521 E29.63920
G1 X150.056 Y75.418 E29.72105
G1 X150.023 Y74.468 E29.78578
G1 X149.306 Y72.315 E29.94028
G1 X149.896 Y70.427 E30.07498
G1 X152.583 Y68.412 E30.30365
G1 X152.845 Y68.269 E30.32400
G1 X155.363 Y66.238 E30.54426
G1 X155.818 Y65.984 E30.57974
G1 X156.406 Y65.777 E30.62222
G1 X156.920 Y65.689 E30.65771
G1 X164.377 Y65.689 E31.16550
G1 X166.213 Y67.525 E31.34228
G1 X166.240 Y67.600 E31.34772
G1 X167.372 Y68.929 E31.46659
G1 X167.601 Y69.031 E31.48367
G1 X169.396 Y70.826 E31.65651
G1 X169.396 Y71.492 E31.70183
G1 X169.417 Y71.599 E31.70929
G1 X169.905 Y72.777 E31.79612
G1 X169.903 Y75.553 E31.98515
G1 X170.890 Y75.668 E32.05279
G1 X171.011 Y75.148 E32.08916
G1 X172.899 Y73.421 E32.26333
G1 X172.994 Y73.207 E32.27931
G1 X172.994 Y73.054 E32.28969
G1 X174.789 Y71.260 E32.46252
G1 X184.395 Y71.260 E33.11665
G1 X185.050 Y71.404 E33.16230
G1 X185.778 Y71.744 E33.21700
G1 X186.310 Y72.151 E33.26265
G1 X187.335 Y73.371 E33.37114
G1 X187.432 Y73.445 E33.37942
G1 X188.755 Y74.063 E33.47888
G1 X189.808 Y75.319 E33.59052
G1 X190.159 Y76.633 E33.68308
G1 X189.948 Y77.821 E33.76530
G1 X189.948 Y77.917 E33.77180
G1 X190.169 Y79.238 E33.86303
G1 X189.385 Y81.757 E34.04265
G1 X188.926 Y82.400 E34.09645
G1 X189.138 Y82.957 E34.13704
G1 X189.505 Y83.041 E34.16266
G1 X190.153 Y86.488 E34.40150
G1 X190.440 Y89.905 E34.63499
G1 X190.760 Y90.200 E34.66462
G1 X190.978 Y90.200 E34.67944
G1 X192.772 Y91.995 E34.85228
G1 X192.772 Y93.516 E34.95586
G1 X192.796 Y93.629 E34.96374
G1 X192.899 Y93.863 E34.98113
G1 X192.972 Y96.450 E35.15733
G1 X192.956 Y96.579 E35.16617
G1 X193.183 Y98.392 E35.29058
G1 X193.137 Y98.580 E35.30376
G1 X193.118 Y100.280 E35.41956
G1 X193.137 Y100.386 E35.42687
G1 X193.262 Y100.704 E35.45015
G1 X193.214 Y102.556 E35.57626
G1 X193.231 Y102.660 E35.58346
G1 X193.361 Y103.012 E35.60898
G1 X193.265 Y104.820 E35.73230
G1 X193.282 Y104.932 E35.74000
G1 X193.396 Y105.244 E35.76264
G1 X193.316 Y106.705 E35.86224
G1 X193.387 Y106.912 E35.87715
G1 X193.557 Y108.422 E35.98063
G1 X192.582 Y110.907 E36.16242
G1 X192.371 Y111.175 E36.18562
G1 X190.899 Y113.558 E36.37630
G1 X190.333 Y114.100 E36.42966
G1 X189.512 Y114.557 E36.49366
G1 X188.754 Y114.755 E36.54702
G1 X181.433 Y114.755 E37.04555
G1 X180.403 Y113.725 E37.14467
G1 X180.199 Y113.640 E37.15976
G1 X178.271 Y113.640 E37.29103
G1 X177.938 Y114.113 E37.33041
G1 X178.148 Y114.699 E37.37279
G1 X178.320 Y114.874 E37.38950
G1 X178.930 Y115.103 E37.43387
G1 X179.937 Y115.985 E37.52502
G1 X180.075 Y116.242 E37.54489
G1 X180.202 Y116.364 E37.55686
G1 X180.362 Y116.441 E37.56897
G1 X181.414 Y117.778 E37.68476
G1 X181.501 Y118.178 E37.71266
G1 X181.552 Y118.289 E37.72098
G1 X182.135 Y119.053 E37.78641
G1 X182.369 Y119.168 E37.80415
G1 X185.032 Y119.168 E37.98547
G1 X186.826 Y120.963 E38.15831
G1 X186.826 Y120.999 E38.16073
G1 X186.947 Y121.237 E38.17889
G1 X187.257 Y121.463 E38.20499
G1 X187.998 Y123.786 E38.37106
G1 X187.364 Y125.684 E38.50726
G1 X185.157 Y127.250 E38.69154
G1 X185.044 Y127.418 E38.70533
G1 X185.001 Y127.595 E38.71775
G1 X182.659 Y129.712 E38.93269
G1 X182.178 Y130.007 E38.97112
G1 X181.912 Y130.110 E38.99056
G1 X181.819 Y130.168 E38.99805
G1 X180.009 Y131.894 E39.16834
G1 X179.573 Y132.190 E39.20422
G1 X178.191 Y133.887 E39.35322
G1 X177.808 Y134.202 E39.38701
G1 X176.534 Y135.986 E39.53623
G1 X176.351 Y136.155 E39.55324
G1 X175.090 Y137.928 E39.70139
G1 X175.039 Y138.063 E39.71119
G1 X175.020 Y138.246 E39.72371
G1 X173.309 Y140.438 E39.91310
G1 X173.248 Y140.615 E39.92579
G1 X173.248 Y140.814 E39.93935
G1 X171.317 Y142.748 E40.12549
G1 X170.602 Y143.666 E40.20471
G1 X170.541 Y143.842 E40.21738
G1 X170.541 Y144.156 E40.23880
G1 X168.746 Y145.951 E40.41163
G1 X165.986 Y145.951 E40.59959
G1 X164.978 Y145.588 E40.67254
G1 X163.987 Y144.766 E40.76021
G1 X163.459 Y143.870 E40.83105
G1 X163.202 Y143.723 E40.85119
G1 X161.498 Y143.723 E40.96720
G1 X159.703 Y141.928 E41.14004
G1 X159.703 Y139.592 E41.29907
G1 X159.377 Y139.266 E41.33049
G1 X159.201 Y139.266 E41.34247
G1 X158.172 Y138.237 E41.44160
G1 X157.967 Y138.152 E41.45669
G1 X156.895 Y138.152 E41.52968
