; generated by Slic3r 1.0.0RC2 on 2014-05-15 at 10:17:52

; layer_height = 0.3
; perimeters = 2
; top_solid_layers = 3
; bottom_solid_layers = 3
; fill_density = 0.1
; perimeter_speed = 60
; infill_speed = 60
; travel_speed = 120
; nozzle_diameter = 0.4
; filament_diameter = 1.75
; extrusion_multiplier = 0.98
; perimeters extrusion width = 0.40mm
; infill extrusion width = 0.42mm
; solid infill extrusion width = 0.42mm
; top infill extrusion width = 0.42mm
; first layer extrusion width = 0.80mm

G21 ; set units to millimeters
M107
M104 S220 ; set temperature
G28 ; home all axes
M106 S255;
G1 Z200 F1200 ; lift nozzle
M109 S220 ; wait for temperature to be reached
G90 ; use absolute coordinates
G92 E0
M82 ; use absolute distances for extrusion
G1 F1800.000 E-1.00000
G92 E0
G1 Z0.400 F7200.000
G1 X97.886 Y71.055 F7200.000
G1 E1.00000 F1800.000
G1 X98.906 Y70.035 E1.16789 F1080.000
G1 X100.116 Y69.255 E1.33545
G1 X117.426 Y59.855 E3.62805
G1 X140.576 Y47.465 E6.68411
G1 X141.316 Y47.105 E6.77989
G1 X142.296 Y46.745 E6.90141
G1 X147.566 Y45.245 E7.53914
G1 X148.086 Y45.125 E7.60126
G1 X148.576 Y45.035 E7.65924
G1 X149.366 Y44.925 E7.75208
G1 X150.466 Y44.865 E7.88029
G1 X174.436 Y45.455 E10.67100
G1 X174.996 Y45.495 E10.73635
G1 X196.496 Y47.845 E13.25363
G1 X197.146 Y47.945 E13.33018
G1 X197.976 Y48.175 E13.43042
G1 X199.266 Y48.735 E13.59410
G1 X200.406 Y49.545 E13.75687
G1 X201.346 Y50.575 E13.91917
G1 X202.066 Y51.785 E14.08305
G1 X202.546 Y52.835 E14.21742
G1 X202.846 Y53.605 E14.31360
G1 X203.126 Y54.645 E14.43896
G1 X203.236 Y55.715 E14.56415
G1 X203.266 Y56.965 E14.70968
G1 X203.406 Y72.655 E16.53591
G1 X203.376 Y73.405 E16.62327
G1 X201.916 Y87.625 E18.28704
G1 X201.506 Y91.185 E18.70412
G1 X200.386 Y99.735 E19.70776
G1 X198.556 Y111.795 E21.12749
G1 X198.256 Y113.565 E21.33644
G1 X195.116 Y131.055 E23.40464
G1 X194.646 Y133.465 E23.69043
G1 X194.376 Y134.565 E23.82226
G1 X192.416 Y141.215 E24.62917
G1 X187.526 Y156.935 E26.54529
G1 X186.976 Y158.225 E26.70851
G1 X186.166 Y159.365 E26.87128
G1 X185.136 Y160.325 E27.03516
G1 X183.936 Y161.035 E27.19744
G1 X182.616 Y161.495 E27.36014
G1 X179.466 Y162.215 E27.73622
G1 X176.996 Y162.635 E28.02783
G1 X176.416 Y162.705 E28.09583
G1 X175.826 Y162.725 E28.16454
G1 X128.346 Y162.295 E33.69095
G1 X127.886 Y162.275 E33.74454
G1 X126.226 Y162.145 E33.93834
G1 X124.826 Y161.885 E34.10407
G1 X123.526 Y161.345 E34.26792
G1 X122.356 Y160.535 E34.43354
G1 X121.386 Y159.505 E34.59822
G1 X120.656 Y158.295 E34.76269
G1 X105.596 Y125.975 E38.91275
G1 X105.296 Y125.205 E39.00893
G1 X105.096 Y124.405 E39.10491
G1 X103.886 Y118.125 E39.84928
G1 X102.746 Y111.945 E40.58070
G1 X96.466 Y76.635 E44.75492
G1 X96.386 Y76.055 E44.82307
G1 X96.366 Y75.345 E44.90574
G1 X96.546 Y73.805 E45.08620
G1 X97.066 Y72.345 E45.26658
G1 X97.828 Y71.145 E45.43203
G1 F1800.000 E44.43203
G92 E0
G1 X171.150 Y67.522 F7200.000
G1 E1.00000 F1800.000
G1 X171.148 Y67.340 E1.02116 F540.000
G1 X171.188 Y66.935 E1.06852
G1 X171.319 Y66.500 E1.12138
G1 X171.535 Y66.084 E1.17588
G1 X171.837 Y65.716 E1.23135
G1 X172.196 Y65.426 E1.28514
G1 X172.603 Y65.209 E1.33869
G1 X173.042 Y65.074 E1.39214
G1 X173.513 Y65.024 E1.44738
G1 X173.977 Y65.075 E1.50159
G1 X174.416 Y65.209 E1.55509
G1 X174.824 Y65.426 E1.60879
G1 X175.505 Y65.977 E1.71086
G1 X175.505 Y66.123 E1.72790
G1 X175.701 Y66.500 E1.77731
G1 X175.829 Y66.926 E1.82910
G1 X175.885 Y67.410 E1.88579
G1 X175.830 Y67.868 E1.93951
G1 X175.699 Y68.302 E1.99223
G1 X175.480 Y68.713 E2.04645
G1 X175.190 Y69.063 E2.09935
G1 X174.825 Y69.373 E2.15507
G1 X174.705 Y69.433 E2.17071
G1 X174.619 Y69.536 E2.18632
G1 X173.964 Y69.714 E2.26538
G1 X173.514 Y69.767 E2.31810
G1 X173.055 Y69.714 E2.37184
G1 X172.618 Y69.595 E2.42452
G1 X172.184 Y69.364 E2.48178
G1 X171.830 Y69.063 E2.53583
G1 X171.540 Y68.713 E2.58873
G1 X171.321 Y68.302 E2.64295
G1 X171.191 Y67.870 E2.69552
G1 X171.163 Y67.628 E2.72380
G1 X171.865 Y67.481 F7200.000
G1 X171.892 Y67.075 E2.77120 F540.000
G1 X171.984 Y66.770 E2.80825
G1 X172.134 Y66.480 E2.84631
G1 X172.343 Y66.226 E2.88456
G1 X172.592 Y66.024 E2.92191
G1 X172.878 Y65.872 E2.95956
G1 X173.185 Y65.777 E2.99701
G1 X173.513 Y65.743 E3.03530
G1 X173.833 Y65.777 E3.07277
G1 X174.142 Y65.872 E3.11038
G1 X174.428 Y66.024 E3.14809
G1 X174.791 Y66.318 E3.20251
G1 X174.791 Y66.365 E3.20795
G1 X174.886 Y66.480 E3.22528
G1 X175.036 Y66.770 E3.26333
G1 X175.127 Y67.072 E3.30000
G1 X175.165 Y67.400 E3.33853
G1 X175.127 Y67.724 E3.37643
G1 X175.036 Y68.028 E3.41344
G1 X174.884 Y68.313 E3.45100
G1 X174.680 Y68.559 E3.48821
G1 X174.428 Y68.773 E3.52663
G1 X174.252 Y68.861 E3.54960
G1 X174.215 Y68.906 E3.55637
G1 X173.828 Y69.011 E3.60300
G1 X173.513 Y69.048 E3.63995
G1 X173.190 Y69.011 E3.67772
G1 X172.883 Y68.927 E3.71472
G1 X172.588 Y68.770 E3.75371
G1 X172.340 Y68.559 E3.79153
G1 X172.136 Y68.313 E3.82875
G1 X171.984 Y68.028 E3.86630
G1 X171.893 Y67.724 E3.90325
G1 X171.877 Y67.587 E3.91929
G1 X171.513 Y67.275 F7200.000
G1 X130.554 Y130.887 F7200.000
G1 X130.921 Y131.179 E3.97389 F540.000
G1 X131.225 Y131.550 E4.02979
G1 X131.442 Y131.969 E4.08459
G1 X131.572 Y132.408 E4.13790
G1 X131.618 Y132.865 E4.19134
G1 X131.572 Y133.324 E4.24506
G1 X131.440 Y133.770 E4.29917
G1 X131.223 Y134.178 E4.35302
G1 X130.925 Y134.544 E4.40793
G1 X130.567 Y134.834 E4.46158
G1 X130.144 Y135.061 E4.51744
G1 X129.709 Y135.184 E4.57000
G1 X129.248 Y135.237 E4.62411
G1 X128.790 Y135.184 E4.67770
G1 X128.348 Y135.059 E4.73116
G1 X127.933 Y134.834 E4.78607
G1 X127.575 Y134.544 E4.83973
G1 X127.277 Y134.178 E4.89464
G1 X127.064 Y133.777 E4.94748
G1 X126.924 Y133.333 E5.00172
G1 X126.878 Y132.865 E5.05646
G1 X126.925 Y132.399 E5.11091
G1 X127.062 Y131.961 E5.16436
G1 X127.275 Y131.550 E5.21815
G1 X127.579 Y131.179 E5.27405
G1 X127.943 Y130.889 E5.32816
G1 X128.343 Y130.680 E5.38067
G1 X128.778 Y130.542 E5.43380
G1 X129.249 Y130.496 E5.48887
G1 X129.716 Y130.541 E5.54349
G1 X130.158 Y130.681 E5.59753
G1 X130.459 Y130.838 E5.63695
G1 X130.118 Y131.466 F7200.000
G1 X130.416 Y131.691 E5.68040 F540.000
G1 X130.626 Y131.946 E5.71881
G1 X130.777 Y132.237 E5.75697
G1 X130.868 Y132.546 E5.79448
G1 X130.900 Y132.865 E5.83180
G1 X130.868 Y133.186 E5.86938
G1 X130.776 Y133.497 E5.90717
G1 X130.625 Y133.781 E5.94459
G1 X130.418 Y134.036 E5.98276
G1 X130.169 Y134.237 E6.02006
G1 X129.877 Y134.395 E6.05862
G1 X129.570 Y134.481 E6.09576
G1 X129.248 Y134.518 E6.13351
G1 X128.928 Y134.481 E6.17094
G1 X128.620 Y134.393 E6.20826
G1 X128.331 Y134.237 E6.24646
G1 X128.082 Y134.036 E6.28377
G1 X127.875 Y133.781 E6.32193
G1 X127.725 Y133.500 E6.35899
G1 X127.628 Y133.189 E6.39692
G1 X127.596 Y132.865 E6.43486
G1 X127.628 Y132.543 E6.47255
G1 X127.725 Y132.234 E6.51019
G1 X127.874 Y131.946 E6.54799
G1 X128.084 Y131.691 E6.58640
G1 X128.335 Y131.490 E6.62377
G1 X128.618 Y131.342 E6.66097
G1 X128.924 Y131.245 E6.69834
G1 X129.248 Y131.213 E6.73627
G1 X129.572 Y131.245 E6.77417
G1 X129.882 Y131.342 E6.81201
G1 X130.023 Y131.416 E6.83053
G1 X130.454 Y131.302 F7200.000
G1 X168.103 Y135.404 F7200.000
G1 X168.248 Y134.969 E6.88389 F540.000
G1 X168.448 Y134.570 E6.93589
G1 X168.756 Y134.190 E6.99276
G1 X169.141 Y133.884 E7.05006
G1 X169.520 Y133.685 E7.09981
G1 X169.960 Y133.551 E7.15335
G1 X170.440 Y133.497 E7.20959
G1 X170.893 Y133.551 E7.26275
G1 X171.344 Y133.689 E7.31764
G1 X171.736 Y133.896 E7.36916
G1 X172.104 Y134.188 E7.42385
G1 X172.417 Y134.570 E7.48133
G1 X172.615 Y134.973 E7.53365
G1 X172.752 Y135.383 E7.58386
G1 X172.807 Y135.867 E7.64065
G1 X172.752 Y136.357 E7.69798
G1 X172.615 Y136.776 E7.74929
G1 X172.412 Y137.182 E7.80220
G1 X172.106 Y137.547 E7.85763
G1 X171.751 Y137.840 E7.91115
G1 X171.338 Y138.066 E7.96591
G1 X170.880 Y138.202 E8.02159
G1 X170.439 Y138.239 E8.07309
G1 X169.981 Y138.202 E8.12653
G1 X169.515 Y138.064 E8.18307
G1 X169.107 Y137.837 E8.23741
G1 X168.753 Y137.545 E8.29082
G1 X168.453 Y137.183 E8.34562
G1 X168.248 Y136.780 E8.39823
G1 X168.103 Y136.336 E8.45262
G1 X168.069 Y135.868 E8.50720
G1 X168.095 Y135.511 E8.54882
G1 X168.809 Y135.546 F7200.000
G1 X168.910 Y135.244 E8.58591 F540.000
G1 X169.052 Y134.959 E8.62293
G1 X169.261 Y134.701 E8.66159
G1 X169.524 Y134.492 E8.70064
G1 X169.795 Y134.348 E8.73646
G1 X170.105 Y134.254 E8.77409
G1 X170.437 Y134.216 E8.81305
G1 X170.751 Y134.254 E8.84986
G1 X171.065 Y134.349 E8.88798
G1 X171.344 Y134.497 E8.92469
G1 X171.600 Y134.700 E8.96281
G1 X171.813 Y134.959 E9.00179
G1 X171.953 Y135.245 E9.03885
G1 X172.051 Y135.538 E9.07481
G1 X172.089 Y135.868 E9.11352
G1 X172.051 Y136.204 E9.15287
G1 X171.953 Y136.504 E9.18950
G1 X171.811 Y136.788 E9.22652
G1 X171.601 Y137.038 E9.26453
G1 X171.349 Y137.246 E9.30250
G1 X171.063 Y137.402 E9.34052
G1 X170.747 Y137.496 E9.37888
G1 X170.437 Y137.522 E9.41504
G1 X170.112 Y137.496 E9.45294
G1 X169.794 Y137.402 E9.49160
G1 X169.512 Y137.245 E9.52921
G1 X169.260 Y137.037 E9.56714
G1 X169.054 Y136.788 E9.60483
G1 X168.910 Y136.505 E9.64180
G1 X168.809 Y136.197 E9.67954
G1 X168.785 Y135.869 E9.71784
G1 X168.801 Y135.653 E9.74304
G1 X168.578 Y135.326 F7200.000
G1 X167.294 Y149.541 F7200.000
G1 X155.473 Y149.860 E11.11936 F1080.000
G1 X139.680 Y150.351 E12.95841
G1 X139.051 Y150.593 E13.03689
G1 X128.255 Y154.463 E14.37172
G1 X127.574 Y154.407 E14.45122
G1 X127.286 Y153.539 E14.55770
G1 X126.555 Y151.619 E14.79679
G1 X123.490 Y143.977 E15.75514
G1 X122.196 Y140.934 E16.13997
G1 X121.758 Y139.961 E16.26416
G1 X119.873 Y136.126 E16.76148
G1 X118.960 Y134.414 E16.98729
G1 X116.686 Y129.441 E17.62378
G1 X116.357 Y128.842 E17.70337
G1 X115.614 Y127.340 E17.89841
G1 X115.456 Y126.993 E17.94275
G1 X115.325 Y126.625 E17.98826
G1 X115.136 Y125.930 E18.07202
G1 X115.059 Y125.347 E18.14047
G1 X115.206 Y125.149 E18.16910
G1 X115.342 Y125.027 E18.19039
G1 X115.758 Y124.296 E18.28831
G1 X116.128 Y124.566 E18.34163
G1 X122.848 Y117.057 E19.51443
G1 X126.749 Y112.665 E20.19815
G1 X135.968 Y100.872 E21.94039
G1 X136.517 Y100.213 E22.04018
G1 X136.924 Y99.661 E22.12004
G1 X144.348 Y90.513 E23.49128
G1 X144.745 Y90.011 E23.56584
G1 X145.141 Y89.452 E23.64552
G1 X157.260 Y74.404 E25.89432
G1 X157.446 Y74.180 E25.92817
G1 X158.000 Y73.982 E25.99664
G1 X157.983 Y73.252 E26.08166
G1 X158.080 Y72.400 E26.18146
G1 X157.238 Y72.036 E26.28826
G1 X157.059 Y71.929 E26.31257
G1 X148.815 Y66.658 E27.45147
G1 X148.191 Y57.732 E28.49287
G1 X148.139 Y56.724 E28.61036
G1 X148.139 Y54.930 E28.81922
G1 X148.114 Y54.447 E28.87548
G1 X148.140 Y53.934 E28.93529
G1 X149.429 Y53.682 E29.08825
G1 X149.577 Y52.803 E29.19194
G1 X150.323 Y52.703 E29.27958
G1 X150.649 Y52.779 E29.31860
G1 X150.920 Y53.666 E29.42658
G1 X152.945 Y53.655 E29.66230
G1 X163.645 Y55.665 E30.92948
G1 X164.055 Y55.679 E30.97722
G1 X165.242 Y55.481 E31.11731
G1 X172.583 Y53.980 E31.98934
G1 X174.467 Y54.558 E32.21877
G1 X174.613 Y53.262 E32.37063
G1 X174.955 Y53.230 E32.41063
G1 X175.366 Y54.562 E32.57284
G1 X176.619 Y54.207 E32.72440
G1 X178.686 Y54.796 E32.97461
G1 X180.043 Y55.077 E33.13593
G1 X180.805 Y55.257 E33.22700
G1 X186.701 Y56.264 E33.92318
G1 X186.841 Y56.279 E33.93960
G1 X187.479 Y56.273 E34.01389
G1 X195.234 Y55.674 E34.91908
G1 X195.420 Y56.078 E34.97082
G1 X195.590 Y72.649 E36.89967
G1 X194.281 Y85.136 E38.36092
G1 X194.136 Y86.821 E38.55775
G1 X193.742 Y90.178 E38.95116
G1 X192.648 Y98.571 E39.93636
G1 X190.825 Y110.611 E41.35369
G1 X190.555 Y112.177 E41.53858
G1 X189.945 Y115.479 E41.92945
G1 X188.695 Y121.941 E42.69546
G1 X188.259 Y124.473 E42.99452
G1 X187.412 Y129.676 E43.60809
G1 X187.013 Y131.741 E43.85286
G1 X186.865 Y132.389 E43.93026
G1 X184.915 Y138.996 E44.73198
G1 X181.843 Y148.829 E45.93104
G1 X181.008 Y151.447 E46.25084
G1 X180.262 Y153.959 E46.55583
G1 X177.724 Y154.580 E46.85995
G1 X176.314 Y154.805 E47.02609
G1 X172.082 Y149.888 E47.78119
G1 X171.253 Y149.439 E47.89091
G1 X167.399 Y149.555 E48.33978
G1 X167.192 Y150.259 F7200.000
G1 X155.468 Y150.574 E49.70488 F756.000
G1 X139.823 Y151.061 E51.52670
G1 X128.357 Y155.185 E52.94488
G1 X127.042 Y155.077 E53.09848
G1 X126.613 Y153.779 E53.25765
G1 X125.892 Y151.883 E53.49374
G1 X122.829 Y144.247 E54.45127
G1 X121.542 Y141.221 E54.83406
G1 X121.112 Y140.265 E54.95602
G1 X119.237 Y136.450 E55.45080
G1 X118.321 Y134.732 E55.67737
G1 X116.047 Y129.762 E56.31354
G1 X115.724 Y129.173 E56.39170
G1 X114.967 Y127.643 E56.59037
G1 X114.793 Y127.261 E56.63926
G1 X114.640 Y126.830 E56.69243
G1 X114.377 Y125.823 E56.81362
G1 X114.389 Y125.739 E56.82353
G1 X114.346 Y125.401 E56.86313
G1 X114.348 Y125.108 E56.89719
G1 X114.674 Y124.667 E56.96111
G1 X114.791 Y124.562 E56.97933
G1 X115.072 Y124.064 E57.04595
G1 X115.782 Y123.429 E57.15683
G1 X116.027 Y123.608 E57.19210
G1 X122.314 Y116.583 E58.28937
G1 X125.449 Y113.034 E58.84046
G1 X126.196 Y112.213 E58.96968
G1 X135.414 Y100.420 E60.71180
G1 X135.954 Y99.773 E60.80992
G1 X136.360 Y99.224 E60.88938
G1 X143.786 Y90.072 E62.26111
G1 X144.169 Y89.587 E62.33304
G1 X144.578 Y89.012 E62.41514
G1 X156.892 Y73.724 E64.69999
G1 X157.046 Y73.564 E64.72579
G1 X157.274 Y73.483 E64.75392
G1 X157.268 Y73.219 E64.78463
G1 X157.311 Y72.845 E64.82845
G1 X156.900 Y72.668 E64.88044
G1 X156.090 Y72.168 E64.99128
G1 X148.132 Y67.083 E66.09049
G1 X147.477 Y57.770 E67.17705
G1 X147.425 Y56.748 E67.29617
G1 X147.425 Y54.948 E67.50567
G1 X147.399 Y54.447 E67.56403
G1 X147.454 Y53.347 E67.69226
G1 X148.807 Y53.076 E67.85280
G1 X148.938 Y52.364 E67.93706
G1 X149.551 Y52.086 E68.01543
G1 X150.306 Y51.985 E68.10412
G1 X151.112 Y52.129 E68.19940
G1 X151.262 Y52.301 E68.22600
G1 X151.447 Y52.946 E68.30416
G1 X153.038 Y52.946 E68.48929
G1 X163.715 Y54.953 E69.75383
G1 X164.021 Y54.963 E69.78938
G1 X165.108 Y54.779 E69.91779
G1 X172.778 Y53.211 E70.82894
G1 X172.927 Y53.338 E70.85180
G1 X173.854 Y53.623 E70.96457
G1 X173.951 Y52.856 E71.05459
G1 X174.098 Y52.681 E71.08111
G1 X174.329 Y52.575 E71.11072
G1 X175.563 Y52.779 E71.25636
G1 X175.842 Y53.684 E71.36660
G1 X176.619 Y53.465 E71.46056
G1 X178.856 Y54.102 E71.73131
G1 X180.195 Y54.379 E71.89043
G1 X180.951 Y54.558 E71.98083
G1 X186.700 Y55.543 E72.65974
G1 X186.880 Y55.565 E72.68076
G1 X187.441 Y55.559 E72.74605
G1 X195.673 Y54.924 E73.70707
G1 X196.072 Y55.786 E73.81756
G1 X196.130 Y55.949 E73.83777
G1 X196.157 Y57.138 E73.97620
G1 X196.303 Y72.695 E75.78685
G1 X194.992 Y85.201 E77.25046
G1 X194.846 Y86.895 E77.44835
G1 X194.450 Y90.266 E77.84345
G1 X193.355 Y98.672 E78.82997
G1 X191.530 Y110.723 E80.24869
G1 X191.258 Y112.304 E80.43538
G1 X190.647 Y115.612 E80.82691
G1 X189.398 Y122.070 E81.59245
G1 X188.963 Y124.591 E81.89017
G1 X188.116 Y129.799 E82.50440
G1 X187.712 Y131.890 E82.75225
G1 X187.556 Y132.570 E82.83345
G1 X185.597 Y139.207 E83.63882
G1 X182.524 Y149.044 E84.83834
G1 X181.690 Y151.659 E85.15777
G1 X180.828 Y154.555 E85.50941
G1 X177.881 Y155.278 E85.86268
G1 X176.033 Y155.573 E86.08046
G1 X171.623 Y150.449 E86.86729
G1 X171.093 Y150.158 E86.93773
G1 X167.297 Y150.273 E87.37972
G1 X166.819 Y149.650 F7200.000
G1 X171.604 Y149.080 F7200.000
G1 X130.795 Y108.272 E94.09772 F1080.000
G1 X130.352 Y108.838 E94.18148
G1 X170.493 Y148.980 E100.78956
G1 X169.512 Y149.009 E100.90375
G1 X129.908 Y109.405 E107.42338
G1 X129.465 Y109.972 E107.50714
G1 X168.532 Y149.039 E113.93833
G1 X167.551 Y149.069 E114.05251
G1 X129.022 Y110.539 E120.39524
G1 X128.579 Y111.106 E120.47900
G1 X166.551 Y149.078 E126.72996
G1 X165.566 Y149.103 E126.84466
G1 X128.136 Y111.673 E133.00642
G1 X127.693 Y112.240 E133.09019
G1 X164.581 Y149.128 E139.16275
G1 X163.596 Y149.153 E139.27745
G1 X127.249 Y112.807 E145.26081
G1 X126.784 Y113.351 E145.34421
G1 X162.612 Y149.180 E151.24235
G1 X161.629 Y149.207 E151.35680
G1 X126.309 Y113.886 E157.17135
G1 X125.833 Y114.421 E157.25464
G1 X160.646 Y149.234 E162.98559
G1 X159.664 Y149.262 E163.10005
G1 X125.358 Y114.956 E168.74741
G1 X124.883 Y115.491 E168.83070
G1 X158.681 Y149.289 E174.39447
G1 X157.698 Y149.316 E174.50893
G1 X124.408 Y116.026 E179.98911
G1 X123.933 Y116.561 E180.07239
G1 X156.715 Y149.343 E185.46898
G1 X155.732 Y149.370 E185.58344
G1 X123.458 Y117.096 E190.89644
G1 X122.982 Y117.630 E190.97972
