; generated by Slic3r 1.0.0RC3 on 2014-03-11 at 10:09:36

; layer_height = 0.3
; perimeters = 2
; top_solid_layers = 3
; bottom_solid_layers = 3
; fill_density = 0.1
; perimeter_speed = 60
; infill_speed = 60
; travel_speed = 120
; nozzle_diameter = 0.4
; filament_diameter = 1.75
; extrusion_multiplier = 0.98
; perimeters extrusion width = 0.40mm
; infill extrusion width = 0.42mm
; solid infill extrusion width = 0.42mm
; top infill extrusion width = 0.42mm
; first layer extrusion width = 0.60mm

G21 ; set units to millimeters
M107
M104 S220 ; set temperature
G28 ; home all axes
M106 S255;
G1 Z200 F1200 ; lift nozzle
M109 S220 ; wait for temperature to be reached
G90 ; use absolute coordinates
G92 E0
M82 ; use absolute distances for extrusion
G1 F1800.000 E-1.00000
G92 E0
G1 Z0.300 F7200.000
G1 X103.882 Y46.861 F7200.000
G1 E1.00000 F1800.000
G1 X104.722 Y45.731 E1.09587 F1080.000
G1 X105.792 Y44.791 E1.19286
G1 X107.032 Y44.111 E1.28915
G1 X108.392 Y43.711 E1.38568
G1 X135.582 Y38.861 E3.26634
G1 X136.152 Y38.791 E3.30544
G1 X136.732 Y38.761 E3.34499
G1 X145.452 Y38.761 E3.93875
G1 X146.852 Y38.911 E4.03463
G1 X148.182 Y39.361 E4.13023
G1 X149.392 Y40.081 E4.22611
G1 X150.422 Y41.041 E4.32198
G1 X151.222 Y42.201 E4.41793
G1 X198.212 Y129.081 E11.14366
G1 X198.712 Y130.291 E11.23280
G1 X198.972 Y131.581 E11.32241
G1 X198.962 Y132.891 E11.41161
G1 X198.692 Y134.171 E11.50069
G1 X198.362 Y135.071 E11.56596
G1 X183.912 Y167.351 E13.97416
G1 X183.292 Y168.441 E14.05955
G1 X182.482 Y169.391 E14.14456
G1 X181.502 Y170.171 E14.22985
G1 X180.382 Y170.751 E14.31573
G1 X179.182 Y171.111 E14.40104
G1 X177.932 Y171.231 E14.48655
G1 X131.492 Y171.231 E17.64876
G1 X130.192 Y171.101 E17.73772
G1 X128.952 Y170.711 E17.82623
G1 X127.802 Y170.091 E17.91519
G1 X126.802 Y169.261 E18.00368
G1 X110.682 Y152.781 E19.57342
G1 X109.822 Y151.681 E19.66850
G1 X109.212 Y150.431 E19.76321
G1 X108.872 Y149.071 E19.85866
G1 X102.522 Y102.421 E23.06447
G1 X98.852 Y63.691 E25.71350
G1 X98.862 Y62.361 E25.80407
G1 X99.142 Y61.061 E25.89462
G1 X103.302 Y48.161 E26.81755
G1 X103.848 Y46.937 E26.90879
G1 F1800.000 E25.90879
G92 E0
G1 X127.646 Y75.081 F7200.000
G1 E1.00000 F1800.000
G1 X127.881 Y74.883 E1.02094 F540.000
G1 X128.151 Y74.741 E1.04166
G1 X128.439 Y74.651 E1.06226
G1 X128.742 Y74.624 E1.08294
G1 X129.046 Y74.651 E1.10376
G1 X129.336 Y74.741 E1.12437
G1 X129.605 Y74.883 E1.14508
G1 X129.840 Y75.081 E1.16603
G1 X130.032 Y75.313 E1.18657
G1 X130.176 Y75.583 E1.20737
G1 X130.266 Y75.870 E1.22788
G1 X130.293 Y76.175 E1.24873
G1 X130.266 Y76.478 E1.26941
G1 X130.176 Y76.768 E1.29008
G1 X130.032 Y77.035 E1.31074
G1 X129.839 Y77.270 E1.33147
G1 X129.605 Y77.463 E1.35214
G1 X129.337 Y77.609 E1.37294
G1 X129.046 Y77.697 E1.39357
G1 X128.742 Y77.726 E1.41441
G1 X128.439 Y77.697 E1.43510
G1 X128.149 Y77.609 E1.45573
G1 X127.881 Y77.463 E1.47652
G1 X127.647 Y77.270 E1.49720
G1 X127.454 Y77.035 E1.51793
G1 X127.310 Y76.768 E1.53858
G1 X127.220 Y76.479 E1.55918
G1 X127.191 Y76.175 E1.57995
G1 X127.220 Y75.869 E1.60089
G1 X127.310 Y75.583 E1.62133
G1 X127.454 Y75.313 E1.64212
G1 X127.593 Y75.145 E1.65697
G1 X127.574 Y74.782 F7200.000
G1 F1800.000 E0.65697
G92 E0
G1 X131.209 Y76.224 F7200.000
G1 E1.00000 F1800.000
G1 X133.886 Y77.626 E1.20580 F540.000
G1 X132.332 Y80.551 E1.43135
G1 X132.409 Y84.195 E1.67950
G1 X129.382 Y84.008 E1.88604
G1 X129.459 Y79.573 E2.18808
G1 X131.170 Y76.298 E2.43969
G1 X131.467 Y75.730 F7200.000
G1 F1800.000 E1.43969
G92 E0
G1 X133.698 Y79.834 F7200.000
G1 E1.00000 F1800.000
G1 X144.493 Y70.920 E1.95329 F540.000
G1 X149.057 Y76.499 E2.44406
G1 X138.261 Y85.412 E3.39735
G1 X133.751 Y79.898 E3.88244
G1 X133.344 Y79.404 F7200.000
G1 F1800.000 E2.88244
G92 E0
G1 X123.385 Y87.214 F7200.000
G1 E1.00000 F1800.000
G1 X123.965 Y94.416 E1.49202 F540.000
G1 X110.010 Y95.539 E2.44532
G1 X109.430 Y88.337 E2.93728
G1 X123.301 Y87.220 E3.88488
G1 X123.940 Y87.169 F7200.000
G1 F1800.000 E2.88488
G92 E0
G1 X171.468 Y140.178 F7200.000
G1 E1.00000 F1800.000
G1 X171.786 Y139.911 E1.02833 F540.000
G1 X172.162 Y139.714 E1.05719
G1 X172.545 Y139.602 E1.08441
G1 X172.960 Y139.554 E1.11280
G1 X173.376 Y139.602 E1.14135
G1 X173.762 Y139.715 E1.16872
G1 X174.129 Y139.909 E1.19700
G1 X174.456 Y140.175 E1.22572
G1 X174.720 Y140.497 E1.25404
G1 X174.913 Y140.863 E1.28225
G1 X175.031 Y141.257 E1.31022
G1 X175.071 Y141.667 E1.33829
G1 X175.031 Y142.077 E1.36637
G1 X174.913 Y142.471 E1.39434
G1 X174.723 Y142.832 E1.42211
G1 X174.456 Y143.167 E1.45129
G1 X174.122 Y143.429 E1.48020
G1 X173.771 Y143.614 E1.50724
G1 X173.376 Y143.740 E1.53544
G1 X172.960 Y143.778 E1.56393
G1 X172.545 Y143.740 E1.59226
G1 X172.153 Y143.615 E1.62032
G1 X171.793 Y143.427 E1.64793
G1 X171.468 Y143.164 E1.67644
G1 X171.201 Y142.832 E1.70547
G1 X171.017 Y142.477 E1.73268
G1 X170.890 Y142.087 E1.76056
G1 X170.849 Y141.667 E1.78932
G1 X170.890 Y141.247 E1.81809
G1 X171.017 Y140.857 E1.84597
G1 X171.204 Y140.497 E1.87362
G1 X171.414 Y140.243 E1.89609
G1 X171.864 Y140.573 F7200.000
G1 X172.098 Y140.376 E1.91687 F540.000
G1 X172.371 Y140.233 E1.93786
G1 X172.656 Y140.150 E1.95809
G1 X172.960 Y140.115 E1.97890
G1 X173.265 Y140.150 E1.99985
G1 X173.551 Y140.234 E2.02013
G1 X173.820 Y140.376 E2.04083
G1 X174.061 Y140.571 E2.06196
G1 X174.253 Y140.806 E2.08263
G1 X174.395 Y141.075 E2.10331
G1 X174.482 Y141.365 E2.12391
G1 X174.511 Y141.667 E2.14459
G1 X174.482 Y141.969 E2.16527
G1 X174.395 Y142.259 E2.18587
G1 X174.254 Y142.526 E2.20640
G1 X174.061 Y142.769 E2.22758
G1 X173.818 Y142.960 E2.24861
G1 X173.554 Y143.099 E2.26888
G1 X173.266 Y143.191 E2.28953
G1 X172.960 Y143.218 E2.31043
G1 X172.656 Y143.191 E2.33119
G1 X172.368 Y143.099 E2.35178
G1 X172.101 Y142.959 E2.37234
G1 X171.864 Y142.768 E2.39302
G1 X171.669 Y142.526 E2.41419
G1 X171.532 Y142.261 E2.43449
G1 X171.439 Y141.973 E2.45514
G1 X171.408 Y141.667 E2.47606
G1 X171.439 Y141.361 E2.49698
G1 X171.532 Y141.073 E2.51762
G1 X171.671 Y140.806 E2.53807
G1 X171.811 Y140.637 E2.55305
G1 X171.793 Y140.276 F7200.000
G1 F1800.000 E1.55305
G92 E0
G1 X133.867 Y144.254 F7200.000
G1 E1.00000 F1800.000
G1 X133.907 Y144.665 E1.02809 F540.000
G1 X133.867 Y145.078 E1.05634
G1 X133.745 Y145.476 E1.08470
G1 X133.548 Y145.842 E1.11301
G1 X133.287 Y146.157 E1.14089
G1 X132.967 Y146.423 E1.16922
G1 X132.605 Y146.614 E1.19711
G1 X132.207 Y146.741 E1.22551
G1 X131.796 Y146.775 E1.25361
G1 X131.377 Y146.741 E1.28226
G1 X131.012 Y146.623 E1.30837
G1 X130.631 Y146.430 E1.33748
G1 X130.242 Y146.092 E1.37254
G1 X130.040 Y145.835 E1.39479
G1 X129.846 Y145.479 E1.42241
G1 X129.723 Y145.078 E1.45096
G1 X129.683 Y144.665 E1.47923
G1 X129.723 Y144.254 E1.50731
G1 X129.846 Y143.853 E1.53590
G1 X130.041 Y143.496 E1.56360
G1 X130.324 Y143.159 E1.59355
G1 X130.681 Y142.878 E1.62450
G1 X130.993 Y142.716 E1.64844
G1 X131.405 Y142.591 E1.67773
G1 X131.796 Y142.556 E1.70447
G1 X132.211 Y142.594 E1.73281
G1 X132.611 Y142.721 E1.76140
G1 X132.967 Y142.916 E1.78906
G1 X133.282 Y143.171 E1.81663
G1 X133.547 Y143.488 E1.84478
G1 X133.745 Y143.856 E1.87324
G1 X133.842 Y144.174 E1.89589
G1 X133.318 Y144.364 F7200.000
G1 X133.347 Y144.665 E1.91648 F540.000
G1 X133.318 Y144.968 E1.93722
G1 X133.228 Y145.261 E1.95807
G1 X133.084 Y145.529 E1.97883
G1 X132.891 Y145.762 E1.99940
G1 X132.656 Y145.958 E2.02025
G1 X132.388 Y146.099 E2.04082
G1 X132.098 Y146.191 E2.06155
G1 X131.796 Y146.216 E2.08222
G1 X131.489 Y146.191 E2.10317
G1 X131.211 Y146.102 E2.12308
G1 X130.937 Y145.960 E2.14408
G1 X130.659 Y145.721 E2.16904
G1 X130.507 Y145.527 E2.18584
G1 X130.362 Y145.262 E2.20640
G1 X130.272 Y144.968 E2.22731
G1 X130.242 Y144.665 E2.24806
G1 X130.272 Y144.364 E2.26865
G1 X130.362 Y144.070 E2.28958
G1 X130.507 Y143.805 E2.31016
G1 X130.706 Y143.566 E2.33134
G1 X130.973 Y143.355 E2.35451
G1 X131.204 Y143.234 E2.37228
G1 X131.511 Y143.141 E2.39412
G1 X131.796 Y143.116 E2.41358
G1 X132.100 Y143.143 E2.43434
G1 X132.390 Y143.236 E2.45513
G1 X132.656 Y143.381 E2.47570
G1 X132.889 Y143.570 E2.49617
G1 X133.084 Y143.802 E2.51677
G1 X133.228 Y144.071 E2.53758
G1 X133.293 Y144.284 E2.55274
G1 X133.601 Y144.470 F7200.000
G1 F1800.000 E1.55274
G92 E0
G1 X132.351 Y147.336 F7200.000
G1 E1.00000 F1800.000
G1 X116.143 Y147.336 E2.10365 F1080.000
G1 X114.547 Y132.911 E3.09189
G1 X128.592 Y131.741 E4.05154
G1 X125.572 Y99.317 E6.26895
G1 X109.801 Y100.625 E7.34653
G1 X109.378 Y96.150 E7.65258
G1 X124.565 Y94.929 E8.69008
G1 X123.895 Y86.614 E9.25811
G1 X108.591 Y87.846 E10.30357
G1 X106.316 Y63.845 E11.94518
G1 X111.656 Y63.325 E12.31053
G1 X110.476 Y50.944 E13.15738
G1 X116.901 Y50.311 E13.59700
G1 X118.074 Y62.687 E14.44346
G1 X123.487 Y62.161 E14.81378
G1 X125.169 Y73.766 E15.61226
G1 X132.539 Y72.930 E16.11732
G1 X132.539 Y59.822 E17.00989
G1 X137.597 Y59.822 E17.35431
G1 X137.597 Y46.178 E18.28336
G1 X144.601 Y46.178 E18.76027
G1 X144.601 Y59.822 E19.68932
G1 X149.726 Y59.822 E20.03830
G1 X149.744 Y76.459 E21.17115
G1 X144.570 Y70.134 E21.72758
G1 X134.304 Y78.611 E22.63415
G1 X134.087 Y78.435 E22.65315
G1 X134.641 Y77.392 E22.73351
G1 X130.661 Y75.308 E23.03942
G1 X130.497 Y75.001 E23.06312
G1 X130.237 Y74.687 E23.09092
G1 X129.918 Y74.418 E23.11934
G1 X129.550 Y74.224 E23.14765
G1 X129.155 Y74.101 E23.17580
G1 X128.742 Y74.064 E23.20406
G1 X128.331 Y74.102 E23.23216
G1 X127.936 Y74.224 E23.26029
G1 X127.568 Y74.418 E23.28860
G1 X127.249 Y74.687 E23.31702
G1 X126.989 Y75.001 E23.34482
G1 X126.794 Y75.367 E23.37301
G1 X126.671 Y75.758 E23.40092
G1 X126.631 Y76.175 E23.42949
G1 X126.671 Y76.590 E23.45784
G1 X126.794 Y76.984 E23.48595
G1 X126.989 Y77.346 E23.51395
G1 X127.251 Y77.666 E23.54211
G1 X127.568 Y77.927 E23.57009
G1 X127.933 Y78.126 E23.59839
G1 X128.331 Y78.246 E23.62666
G1 X128.742 Y78.286 E23.65478
G1 X129.544 Y78.208 E23.70964
G1 X128.904 Y79.432 E23.80367
G1 X128.815 Y84.531 E24.15096
G1 X132.979 Y84.788 E24.43499
G1 X132.892 Y80.685 E24.71448
G1 X133.200 Y80.105 E24.75915
G1 X138.185 Y86.198 E25.29518
G1 X149.744 Y76.653 E26.31597
G1 X149.745 Y77.485 E26.37258
G1 X137.350 Y87.719 E27.46710
G1 X143.278 Y94.967 E28.10467
G1 X151.178 Y104.522 E28.94885
G1 X162.940 Y118.909 E30.21426
G1 X170.670 Y128.260 E31.04035
G1 X177.948 Y136.817 E31.80526
G1 X185.400 Y130.740 E32.46003
G1 X188.551 Y128.144 E32.73801
G1 X191.368 Y132.155 E33.07179
G1 X177.085 Y144.973 E34.37858
G1 X177.085 Y163.820 E35.66192
G1 X171.917 Y163.820 E36.01381
G1 X171.917 Y147.336 E37.13622
G1 X164.177 Y147.336 E37.66323
G1 X137.513 Y147.336 E39.47886
G1 X137.511 Y163.820 E40.60127
G1 X132.351 Y163.820 E40.95262
G1 X132.351 Y147.419 E42.06935
G1 X131.794 Y147.893 F7200.000
G1 X115.644 Y147.893 E43.16903 F540.000
G1 X113.930 Y132.403 E44.23021
G1 X127.985 Y131.233 E45.19053
G1 X125.069 Y99.917 E47.33208
G1 X109.299 Y101.225 E48.40961
G1 X105.709 Y63.345 E51.00057
G1 X111.049 Y62.825 E51.36591
G1 X109.869 Y50.444 E52.21273
G1 X117.402 Y49.703 E52.72817
G1 X118.576 Y62.079 E53.57465
G1 X123.962 Y61.555 E53.94314
G1 X125.643 Y73.152 E54.74103
G1 X131.982 Y72.433 E55.17545
G1 X131.982 Y59.265 E56.07208
G1 X137.040 Y59.265 E56.41649
G1 X137.040 Y45.621 E57.34555
G1 X145.158 Y45.621 E57.89833
G1 X145.158 Y59.265 E58.82738
G1 X150.282 Y59.265 E59.17631
G1 X150.303 Y77.747 E60.43479
G1 X138.133 Y87.796 E61.50945
G1 X143.708 Y94.614 E62.10917
G1 X151.608 Y104.168 E62.95333
G1 X163.370 Y118.556 E64.21875
G1 X171.068 Y127.868 E65.04145
G1 X178.018 Y136.040 E65.77191
G1 X185.037 Y130.317 E66.38854
G1 X188.661 Y127.331 E66.70829
G1 X192.108 Y132.239 E67.11670
G1 X177.642 Y145.221 E68.44022
G1 X177.642 Y164.377 E69.74457
G1 X171.360 Y164.377 E70.17233
G1 X171.360 Y147.893 E71.29474
G1 X164.177 Y147.893 E71.78382
G1 X138.070 Y147.893 E73.56153
G1 X138.068 Y164.377 E74.68394
G1 X131.794 Y164.377 E75.11115
G1 X131.794 Y147.977 E76.22788
G1 X131.794 Y147.336 F7200.000
G1 X130.511 Y146.942 F7200.000
G1 X116.696 Y133.127 E77.56280 F1080.000
G1 X115.966 Y133.188 E77.61283
G1 X129.720 Y146.942 E78.94188
G1 X128.930 Y146.942 F7200.000
G1 X115.236 Y133.249 E80.26506 F1080.000
G1 X115.047 Y133.850 E80.30814
G1 X128.139 Y146.942 E81.57320
G1 X127.349 Y146.942 E81.62721
G1 X115.146 Y134.739 E82.80637
G1 X115.244 Y135.628 E82.86748
G1 X126.558 Y146.942 E83.96075
G1 X125.768 Y146.942 E84.01477
G1 X115.342 Y136.517 E85.02215
G1 X115.441 Y137.406 E85.08325
G1 X124.977 Y146.942 E86.00475
G1 X124.186 Y146.942 E86.05876
G1 X115.539 Y138.294 E86.89437
G1 X115.637 Y139.183 E86.95547
G1 X123.396 Y146.942 E87.70518
G1 X122.605 Y146.942 E87.75920
G1 X115.736 Y140.072 E88.42302
G1 X115.834 Y140.961 E88.48412
G1 X121.815 Y146.942 E89.06206
G1 X121.024 Y146.942 E89.11607
G1 X115.932 Y141.850 E89.60811
G1 X116.031 Y142.739 E89.66922
G1 X120.234 Y146.942 E90.07537
G1 X119.443 Y146.942 E90.12938
G1 X116.129 Y143.628 E90.44965
G1 X116.227 Y144.517 E90.51075
G1 X118.653 Y146.942 E90.74512
G1 X117.862 Y146.942 E90.79914
G1 X116.326 Y145.405 E90.94762
G1 X116.424 Y146.294 E91.00872
G1 X117.072 Y146.942 E91.07131
G1 F1800.000 E90.07131
G92 E0
G1 X129.316 Y144.956 F7200.000
G1 E1.00000 F1800.000
G1 X117.426 Y133.066 E2.14892 F1080.000
G1 X118.155 Y133.005 E2.19895
G1 X129.335 Y144.185 E3.27918
G1 X129.537 Y143.597 E3.32168
G1 X118.885 Y132.945 E4.35096
G1 X119.615 Y132.884 E4.40099
G1 X129.846 Y143.115 E5.38961
G1 X130.243 Y142.721 E5.42781
G1 X120.345 Y132.823 E6.38426
G1 X121.074 Y132.762 E6.43430
G1 X130.724 Y142.412 E7.36671
G1 X131.311 Y142.208 E7.40917
G1 X121.804 Y132.702 E8.32779
G1 X122.534 Y132.641 E8.37782
G1 X132.080 Y142.187 E9.30021
G1 F1800.000 E8.30021
G92 E0
G1 X134.275 Y144.382 F7200.000
G1 E1.00000 F1800.000
G1 X137.119 Y147.226 E1.27485 F1080.000
G1 X137.119 Y148.017 E1.32886
G1 X134.255 Y145.152 E1.60562
G1 X134.051 Y145.739 E1.64805
G1 X137.119 Y148.807 E1.94452
G1 X137.119 Y149.598 E1.99853
G1 X133.744 Y146.223 E2.32462
G1 X133.349 Y146.618 E2.36281
G1 X137.119 Y150.388 E2.72710
G1 X137.119 Y151.178 E2.78111
G1 X132.864 Y146.923 E3.19228
G1 X132.745 Y147.595 E3.23889
G1 X137.119 Y151.969 E3.66153
G1 X137.119 Y152.759 E3.71554
G1 X132.745 Y148.386 E4.13816
G1 X132.745 Y149.176 E4.19218
G1 X137.118 Y153.550 E4.61479
G1 X137.118 Y154.340 E4.66880
G1 X132.745 Y149.967 E5.09140
G1 X132.745 Y150.757 E5.14542
G1 X137.118 Y155.131 E5.56801
G1 X137.118 Y155.921 E5.62202
G1 X132.745 Y151.548 E6.04460
G1 X132.745 Y152.338 E6.09861
G1 X137.118 Y156.711 E6.52118
G1 X137.118 Y157.502 E6.57519
G1 X132.745 Y153.129 E6.99775
G1 X132.745 Y153.919 E7.05176
G1 X137.118 Y158.292 E7.47431
G1 X137.118 Y159.083 E7.52832
G1 X132.745 Y154.710 E7.95086
G1 X132.745 Y155.500 E8.00487
G1 X137.118 Y159.873 E8.42740
G1 X137.117 Y160.663 E8.48140
G1 X132.745 Y156.291 E8.90392
G1 X132.745 Y157.081 E8.95794
G1 X137.117 Y161.454 E9.38044
G1 X137.117 Y162.244 E9.43445
G1 X132.745 Y157.872 E9.85694
G1 X132.745 Y158.662 E9.91096
G1 X137.117 Y163.035 E10.33344
G1 X136.717 Y163.426 E10.37163
G1 X132.745 Y159.453 E10.75551
G1 X132.745 Y160.244 E10.80952
G1 X135.927 Y163.426 E11.11701
G1 X135.136 Y163.426 E11.17102
G1 X132.745 Y161.034 E11.40212
G1 X132.745 Y161.825 E11.45613
G1 X134.346 Y163.426 E11.61084
G1 X133.555 Y163.426 E11.66486
G1 X132.745 Y162.615 E11.74318
G1 X132.745 Y163.406 E11.79719
G1 X132.765 Y163.426 E11.79913
G1 F1800.000 E10.79913
G92 E0
G1 X137.626 Y146.942 F7200.000
G1 E1.00000 F1800.000
G1 X123.264 Y132.580 E2.38777 F1080.000
G1 X123.993 Y132.519 E2.43780
G1 X138.416 Y146.942 E3.83144
G1 X139.207 Y146.942 E3.88545
G1 X124.723 Y132.459 E5.28496
G1 X125.453 Y132.398 E5.33500
G1 X139.997 Y146.942 E6.74038
G1 X140.788 Y146.942 E6.79439
G1 X126.183 Y132.337 E8.20565
G1 X126.913 Y132.276 E8.25568
G1 X141.578 Y146.942 E9.67281
G1 X142.369 Y146.942 E9.72682
G1 X127.642 Y132.216 E11.14982
G1 X128.372 Y132.155 E11.19985
G1 X143.159 Y146.942 E12.62872
G1 X143.950 Y146.942 E12.68273
G1 X129.012 Y132.004 E14.12618
G1 X128.931 Y131.132 E14.18600
G1 X144.740 Y146.942 E15.71367
G1 X145.531 Y146.942 E15.76769
G1 X128.849 Y130.260 E17.37960
G1 X128.768 Y129.389 E17.43941
G1 X146.322 Y146.942 E19.13555
G1 X147.112 Y146.942 E19.18957
G1 X128.687 Y128.517 E20.96994
