; generated by Slic3r 1.0.0RC3 on 2014-03-07 at 10:32:00

; layer_height = 0.3
; perimeters = 2
; top_solid_layers = 3
; bottom_solid_layers = 3
; fill_density = 0.1
; perimeter_speed = 60
; infill_speed = 60
; travel_speed = 120
; nozzle_diameter = 0.4
; filament_diameter = 1.75
; extrusion_multiplier = 0.98
; perimeters extrusion width = 0.40mm
; infill extrusion width = 0.42mm
; solid infill extrusion width = 0.42mm
; top infill extrusion width = 0.42mm
; first layer extrusion width = 0.60mm

G21 ; set units to millimeters
M107
M104 S220 ; set temperature
G28 ; home all axes
M106 S255;
G1 Z200 F1200 ; lift nozzle
M109 S220 ; wait for temperature to be reached
G90 ; use absolute coordinates
G92 E0
M82 ; use absolute distances for extrusion
G1 F1800.000 E-1.00000
G92 E0
G1 Z0.300 F7200.000
G1 X114.459 Y85.089 F7200.000
G1 E1.00000 F1800.000
G1 X117.529 Y81.259 E1.33423 F1080.000
G1 X117.759 Y80.999 E1.35787
G1 X120.399 Y78.039 E1.62794
G1 X123.039 Y75.399 E1.88217
G1 X126.259 Y72.529 E2.17588
G1 X130.089 Y69.459 E2.51011
G1 X130.729 Y68.989 E2.56418
G1 X139.839 Y62.569 E3.32306
G1 X140.149 Y62.359 E3.34856
G1 X142.879 Y60.659 E3.56755
G1 X146.389 Y58.749 E3.83964
G1 X146.739 Y58.569 E3.86644
G1 X148.269 Y57.859 E3.98130
G1 X153.079 Y55.719 E4.33977
G1 X157.019 Y54.059 E4.63090
G1 X157.859 Y53.749 E4.69186
G1 X158.519 Y53.569 E4.73845
G1 X162.989 Y52.559 E5.05049
G1 X166.909 Y51.909 E5.32106
G1 X172.499 Y51.329 E5.70374
G1 X173.119 Y51.289 E5.74605
G1 X177.509 Y51.259 E6.04498
G1 X178.149 Y51.289 E6.08860
G1 X182.509 Y51.719 E6.38693
G1 X183.409 Y51.879 E6.44917
G1 X189.389 Y53.319 E6.86800
G1 X190.039 Y53.509 E6.91412
G1 X197.109 Y56.019 E7.42497
G1 X198.259 Y56.619 E7.51329
G1 X199.269 Y57.439 E7.60188
G1 X200.099 Y58.429 E7.68985
G1 X200.719 Y59.579 E7.77881
G1 X201.099 Y60.819 E7.86712
G1 X201.229 Y62.109 E7.95540
G1 X201.099 Y63.399 E8.04369
G1 X200.429 Y66.729 E8.27498
G1 X200.049 Y67.959 E8.36264
G1 X199.449 Y69.089 E8.44976
G1 X198.639 Y70.079 E8.53685
G1 X115.079 Y153.639 E16.58345
G1 X114.089 Y154.449 E16.67055
G1 X112.959 Y155.049 E16.75767
G1 X111.729 Y155.429 E16.84533
G1 X108.399 Y156.099 E17.07662
G1 X107.069 Y156.229 E17.16761
G1 X105.749 Y156.079 E17.25807
G1 X104.469 Y155.669 E17.34959
G1 X103.309 Y155.019 E17.44014
G1 X102.309 Y154.139 E17.53084
G1 X101.499 Y153.069 E17.62222
G1 X100.929 Y151.859 E17.71330
G1 X98.509 Y145.039 E18.20606
G1 X98.319 Y144.389 E18.25217
G1 X96.879 Y138.409 E18.67100
G1 X96.719 Y137.509 E18.73324
G1 X96.289 Y133.149 E19.03157
G1 X96.259 Y132.459 E19.07859
G1 X96.289 Y128.119 E19.37412
G1 X96.329 Y127.499 E19.41643
G1 X96.859 Y122.309 E19.77167
G1 X96.909 Y121.909 E19.79911
G1 X97.559 Y117.989 E20.06968
G1 X98.569 Y113.519 E20.38173
G1 X98.749 Y112.859 E20.42831
G1 X99.059 Y112.019 E20.48928
G1 X100.719 Y108.079 E20.78040
G1 X102.859 Y103.269 E21.13888
G1 X103.569 Y101.739 E21.25373
G1 X105.659 Y97.879 E21.55262
G1 X107.359 Y95.149 E21.77161
G1 X113.989 Y85.729 E22.55598
G1 X114.409 Y85.156 E22.60436
G1 F1800.000 E21.60436
G92 E0
G1 X116.289 Y86.626 F7200.000
G1 E1.00000 F1800.000
G1 X119.497 Y82.625 E1.34922 F1080.000
G1 X121.970 Y79.853 E1.60213
G1 X123.424 Y78.420 E1.74114
G1 X124.752 Y77.066 E1.87031
G1 X127.709 Y74.425 E2.14026
G1 X131.716 Y71.221 E2.48957
G1 X132.195 Y70.880 E2.52965
G1 X133.326 Y70.143 E2.62158
G1 X140.021 Y65.427 E3.17918
G1 X141.334 Y64.444 E3.29087
G1 X144.296 Y62.597 E3.52860
G1 X147.584 Y60.815 E3.78321
G1 X149.273 Y60.019 E3.91031
G1 X154.111 Y57.870 E4.27082
G1 X158.029 Y56.219 E4.56031
G1 X158.752 Y55.971 E4.61234
G1 X163.192 Y54.945 E4.92263
G1 X167.368 Y54.253 E5.21087
G1 X172.849 Y53.686 E5.58611
G1 X177.601 Y53.646 E5.90968
G1 X182.430 Y54.112 E6.24003
G1 X182.713 Y54.160 E6.25956
G1 X189.145 Y55.716 E6.71018
G1 X196.135 Y58.194 E7.21515
G1 X196.364 Y58.291 E7.23211
G1 X197.801 Y59.003 E7.34131
G1 X199.051 Y61.551 E7.53454
G1 X197.724 Y68.145 E7.99253
G1 X194.378 Y70.022 E8.25375
G1 X186.297 Y67.079 E8.83935
G1 X181.087 Y65.709 E9.20620
G1 X177.323 Y65.463 E9.46305
G1 X170.262 Y65.817 E9.94444
G1 X169.926 Y65.856 E9.96749
G1 X159.728 Y69.239 E10.69907
G1 X151.286 Y73.334 E11.33801
G1 X151.161 Y73.379 E11.34703
G1 X146.039 Y75.949 E11.73729
G1 X142.210 Y78.568 E12.05309
G1 X138.540 Y81.366 E12.36738
G1 X135.868 Y83.722 E12.60990
G1 X135.784 Y83.902 E12.62345
G1 X132.159 Y87.140 E12.95443
G1 X128.854 Y90.830 E13.29172
G1 X128.681 Y90.911 E13.30473
G1 X126.367 Y93.538 E13.54316
G1 X123.568 Y97.210 E13.85755
G1 X120.949 Y101.039 E14.17335
G1 X118.379 Y106.161 E14.56360
G1 X118.334 Y106.285 E14.57257
G1 X114.258 Y114.691 E15.20871
G1 X110.856 Y124.927 E15.94320
G1 X110.817 Y125.262 E15.96617
G1 X110.463 Y132.323 E16.44756
G1 X110.709 Y136.087 E16.70441
G1 X112.079 Y141.297 E17.07126
G1 X115.022 Y149.378 E17.65686
G1 X113.144 Y152.724 E17.91808
G1 X106.414 Y154.078 E18.38555
G1 X103.703 Y152.543 E18.59773
G1 X100.717 Y144.148 E19.20445
G1 X99.160 Y137.713 E19.65528
G1 X99.112 Y137.430 E19.67481
G1 X98.645 Y132.593 E20.00571
G1 X98.686 Y127.849 E20.32872
G1 X99.253 Y122.368 E20.70397
G1 X99.945 Y118.192 E20.99220
G1 X100.971 Y113.752 E21.30249
G1 X101.219 Y113.029 E21.35453
G1 X102.886 Y109.074 E21.64679
G1 X105.001 Y104.312 E22.00155
G1 X105.772 Y102.671 E22.12503
G1 X107.594 Y99.301 E22.38585
G1 X109.444 Y96.334 E22.62397
G1 X110.427 Y95.021 E22.73566
G1 X115.143 Y88.326 E23.29326
G1 X115.880 Y87.195 E23.38519
G1 X116.239 Y86.693 E23.42724
G1 X116.670 Y87.046 F7200.000
G1 X119.918 Y82.990 E23.78107 F1080.000
G1 X122.379 Y80.231 E24.03285
G1 X123.818 Y78.814 E24.17033
G1 X125.143 Y77.462 E24.29923
G1 X128.063 Y74.856 E24.56578
G1 X132.046 Y71.670 E24.91305
G1 X132.505 Y71.344 E24.95138
G1 X133.639 Y70.604 E25.04357
G1 X140.350 Y65.877 E25.60251
G1 X141.640 Y64.910 E25.71231
G1 X144.570 Y63.082 E25.94747
G1 X147.840 Y61.310 E26.20069
G1 X149.507 Y60.525 E26.32616
G1 X154.330 Y58.382 E26.68553
G1 X158.235 Y56.737 E26.97411
G1 X158.916 Y56.504 E27.02306
G1 X163.307 Y55.490 E27.32999
G1 X167.450 Y54.804 E27.61589
G1 X172.893 Y54.242 E27.98848
G1 X177.589 Y54.203 E28.30826
G1 X182.356 Y54.664 E28.63439
G1 X182.601 Y54.706 E28.65132
G1 X188.972 Y56.246 E29.09766
G1 X195.933 Y58.714 E29.60050
G1 X196.132 Y58.798 E29.61520
G1 X197.384 Y59.418 E29.71039
G1 X198.467 Y61.626 E29.87785
G1 X197.228 Y67.784 E30.30554
G1 X194.329 Y69.411 E30.53194
G1 X186.464 Y66.546 E31.10187
G1 X181.176 Y65.157 E31.47415
G1 X177.327 Y64.905 E31.73684
G1 X170.215 Y65.262 E32.22167
G1 X169.804 Y65.309 E32.24987
G1 X159.528 Y68.718 E32.98708
G1 X151.073 Y72.818 E33.62690
G1 X150.945 Y72.864 E33.63617
G1 X145.755 Y75.468 E34.03157
G1 X141.884 Y78.116 E34.35092
G1 X138.186 Y80.935 E34.66754
G1 X135.318 Y83.464 E34.92790
G1 X135.232 Y83.648 E34.94171
G1 X131.765 Y86.745 E35.25832
G1 X128.601 Y90.278 E35.58122
G1 X128.423 Y90.361 E35.59456
G1 X125.936 Y93.185 E35.85084
G1 X123.116 Y96.884 E36.16755
G1 X120.468 Y100.755 E36.48690
G1 X117.864 Y105.945 E36.88230
G1 X117.818 Y106.072 E36.89151
G1 X113.741 Y114.480 E37.52779
G1 X110.309 Y124.805 E38.26865
G1 X110.262 Y125.215 E38.29677
G1 X109.905 Y132.327 E38.78160
G1 X110.157 Y136.176 E39.04429
G1 X111.546 Y141.464 E39.41657
G1 X114.411 Y149.329 E39.98650
G1 X112.784 Y152.228 E40.21290
G1 X106.508 Y153.491 E40.64880
G1 X104.158 Y152.161 E40.83270
G1 X101.247 Y143.975 E41.42426
G1 X99.706 Y137.601 E41.87078
G1 X99.664 Y137.356 E41.88771
G1 X99.203 Y132.582 E42.21432
G1 X99.242 Y127.893 E42.53361
G1 X99.804 Y122.450 E42.90622
G1 X100.490 Y118.307 E43.19211
G1 X101.504 Y113.916 E43.49904
G1 X101.737 Y113.235 E43.54799
G1 X103.396 Y109.297 E43.83898
G1 X105.509 Y104.541 E44.19336
G1 X106.272 Y102.915 E44.31569
G1 X108.079 Y99.574 E44.57429
G1 X109.909 Y96.640 E44.80979
G1 X110.877 Y95.350 E44.91959
G1 X115.604 Y88.639 E45.47853
G1 X116.344 Y87.505 E45.57072
G1 X116.621 Y87.114 E45.60336
G1 X117.118 Y87.376 F7200.000
G1 X120.338 Y83.355 E45.95415 F1080.000
G1 X122.789 Y80.608 E46.20479
G1 X124.212 Y79.208 E46.34074
G1 X125.535 Y77.859 E46.46938
G1 X128.417 Y75.286 E46.73251
G1 X132.376 Y72.118 E47.07775
G1 X132.814 Y71.807 E47.11433
G1 X133.951 Y71.065 E47.20679
G1 X140.679 Y66.327 E47.76706
G1 X141.946 Y65.375 E47.87497
G1 X144.844 Y63.567 E48.10757
G1 X148.095 Y61.805 E48.35939
G1 X149.741 Y61.030 E48.48324
G1 X154.548 Y58.894 E48.84146
G1 X158.442 Y57.255 E49.12913
G1 X159.079 Y57.037 E49.17499
G1 X163.423 Y56.035 E49.47857
G1 X167.532 Y55.355 E49.76212
G1 X172.936 Y54.797 E50.13208
G1 X177.577 Y54.760 E50.44807
G1 X182.282 Y55.217 E50.76998
G1 X182.490 Y55.252 E50.78430
G1 X188.800 Y56.776 E51.22636
G1 X195.731 Y59.233 E51.72707
G1 X196.967 Y59.834 E51.82066
G1 X197.884 Y61.702 E51.96236
G1 X196.732 Y67.423 E52.35976
G1 X194.279 Y68.800 E52.55132
G1 X186.655 Y66.022 E53.10385
G1 X181.266 Y64.604 E53.48330
G1 X177.330 Y64.347 E53.75184
G1 X170.169 Y64.706 E54.24010
G1 X169.683 Y64.763 E54.27344
G1 X159.328 Y68.197 E55.01629
G1 X150.861 Y72.302 E55.65700
G1 X150.729 Y72.349 E55.66650
G1 X145.472 Y74.987 E56.06705
G1 X141.558 Y77.664 E56.38995
G1 X137.832 Y80.504 E56.70891
G1 X134.768 Y83.206 E56.98710
G1 X134.681 Y83.393 E57.00117
G1 X131.348 Y86.372 E57.30553
G1 X128.347 Y89.725 E57.61193
G1 X128.166 Y89.810 E57.62559
G1 X125.505 Y92.831 E57.89972
G1 X122.664 Y96.558 E58.21875
G1 X119.987 Y100.472 E58.54165
G1 X117.349 Y105.729 E58.94219
G1 X117.302 Y105.860 E58.95165
G1 X113.224 Y114.270 E59.58807
G1 X109.762 Y124.683 E60.33531
G1 X109.706 Y125.169 E60.36858
G1 X109.347 Y132.330 E60.85684
G1 X109.604 Y136.266 E61.12538
G1 X111.022 Y141.655 E61.50483
G1 X113.800 Y149.279 E62.05735
G1 X112.423 Y151.732 E62.24892
G1 X106.602 Y152.904 E62.65326
G1 X104.613 Y151.778 E62.80887
G1 X101.777 Y143.802 E63.38528
G1 X100.252 Y137.490 E63.82749
G1 X100.217 Y137.282 E63.84181
G1 X99.767 Y132.732 E64.15317
G1 X99.789 Y128.083 E64.46973
G1 X100.355 Y122.532 E64.84967
G1 X101.034 Y118.423 E65.13322
G1 X102.037 Y114.079 E65.43680
G1 X102.254 Y113.442 E65.48266
G1 X103.906 Y109.521 E65.77237
G1 X106.017 Y104.770 E66.12636
G1 X106.773 Y103.159 E66.24756
G1 X108.565 Y99.847 E66.50393
G1 X110.375 Y96.946 E66.73681
G1 X111.327 Y95.679 E66.84473
G1 X116.065 Y88.951 E67.40500
G1 X116.807 Y87.814 E67.49746
G1 X117.070 Y87.444 E67.52835
G1 X117.567 Y87.707 F7200.000
G1 X120.759 Y83.720 E67.87609 F1080.000
G1 X123.198 Y80.986 E68.12559
G1 X124.606 Y79.602 E68.26001
G1 X125.926 Y78.256 E68.38839
G1 X128.771 Y75.716 E68.64811
G1 X132.707 Y72.567 E68.99131
G1 X133.124 Y72.270 E69.02615
G1 X134.264 Y71.526 E69.11887
G1 X141.007 Y66.777 E69.68048
G1 X142.252 Y65.841 E69.78650
G1 X145.118 Y64.052 E70.01654
G1 X148.351 Y62.300 E70.26696
G1 X149.975 Y61.536 E70.38918
G1 X154.767 Y59.407 E70.74625
G1 X158.648 Y57.772 E71.03302
G1 X159.243 Y57.569 E71.07579
G1 X163.539 Y56.579 E71.37601
G1 X167.614 Y55.906 E71.65723
G1 X172.980 Y55.353 E72.02454
G1 X177.565 Y55.317 E72.33674
G1 X182.208 Y55.769 E72.65443
G1 X188.628 Y57.306 E73.10390
G1 X195.529 Y59.753 E73.60248
G1 X196.551 Y60.249 E73.67980
G1 X197.301 Y61.777 E73.79574
G1 X196.237 Y67.063 E74.16283
G1 X194.229 Y68.189 E74.31957
G1 X186.821 Y65.490 E74.85643
G1 X181.355 Y64.052 E75.24131
G1 X177.334 Y63.789 E75.51569
G1 X170.122 Y64.151 E76.00739
G1 X169.561 Y64.216 E76.04587
G1 X159.128 Y67.677 E76.79436
G1 X150.648 Y71.785 E77.43596
G1 X150.514 Y71.834 E77.44570
G1 X145.189 Y74.506 E77.85139
G1 X141.231 Y77.212 E78.17783
G1 X137.479 Y80.073 E78.49913
G1 X134.218 Y82.949 E78.79516
G1 X134.129 Y83.139 E78.80948
G1 X130.954 Y85.978 E79.09948
G1 X128.094 Y89.173 E79.39149
G1 X127.908 Y89.260 E79.40548
G1 X125.074 Y92.478 E79.69746
G1 X122.212 Y96.231 E80.01882
G1 X119.506 Y100.188 E80.34526
G1 X116.834 Y105.514 E80.75095
G1 X116.786 Y105.648 E80.76065
G1 X112.707 Y114.059 E81.39722
G1 X109.216 Y124.562 E82.15082
G1 X109.151 Y125.122 E82.18924
G1 X108.789 Y132.334 E82.68094
G1 X109.052 Y136.355 E82.95532
G1 X110.490 Y141.821 E83.34020
G1 X113.189 Y149.229 E83.87706
G1 X112.062 Y151.237 E84.03380
G1 X106.695 Y152.317 E84.40658
G1 X105.069 Y151.396 E84.53389
G1 X102.307 Y143.630 E85.09515
G1 X100.769 Y137.208 E85.54474
G1 X100.323 Y132.692 E85.85380
G1 X100.346 Y128.100 E86.16647
G1 X100.896 Y122.690 E86.53675
G1 X101.564 Y118.615 E86.81789
G1 X102.536 Y114.361 E87.11507
G1 X102.738 Y113.738 E87.15968
G1 X104.416 Y109.745 E87.45459
G1 X106.525 Y104.999 E87.80820
G1 X107.307 Y103.339 E87.93317
G1 X109.051 Y100.120 E88.18240
G1 X110.841 Y97.252 E88.41267
G1 X111.777 Y96.007 E88.51869
G1 X116.526 Y89.264 E89.08030
G1 X117.270 Y88.124 E89.17303
G1 X117.518 Y87.775 E89.20217
G1 X118.016 Y88.037 F7200.000
G1 X121.180 Y84.086 E89.54687 F1080.000
G1 X123.608 Y81.364 E89.79523
G1 X124.999 Y79.996 E89.92812
G1 X126.317 Y78.653 E90.05623
G1 X129.125 Y76.146 E90.31255
G1 X133.037 Y73.016 E90.65371
G1 X133.433 Y72.733 E90.68680
G1 X134.577 Y71.987 E90.77979
G1 X141.336 Y67.227 E91.34274
G1 X142.557 Y66.307 E91.44686
G1 X145.391 Y64.538 E91.67434
G1 X148.607 Y62.795 E91.92336
G1 X150.209 Y62.041 E92.04396
G1 X154.986 Y59.919 E92.39987
G1 X158.855 Y58.290 E92.68574
G1 X159.407 Y58.102 E92.72543
G1 X163.655 Y57.124 E93.02228
G1 X167.696 Y56.457 E93.30116
G1 X173.024 Y55.909 E93.66584
G1 X177.553 Y55.874 E93.97424
G1 X182.135 Y56.322 E94.28772
G1 X188.455 Y57.836 E94.73030
G1 X195.327 Y60.272 E95.22676
G1 X196.134 Y60.664 E95.28781
G1 X196.717 Y61.853 E95.37798
G1 X195.741 Y66.702 E95.71478
G1 X194.180 Y67.578 E95.83668
G1 X186.988 Y64.957 E96.35789
G1 X181.445 Y63.499 E96.74819
G1 X177.338 Y63.231 E97.02842
G1 X170.076 Y63.595 E97.52355
G1 X169.439 Y63.669 E97.56717
G1 X158.928 Y67.156 E98.32130
G1 X150.436 Y71.269 E98.96378
G1 X150.298 Y71.319 E98.97376
G1 X144.905 Y74.025 E99.38460
G1 X140.905 Y76.761 E99.71459
G1 X137.125 Y79.642 E100.03822
G1 X133.668 Y82.691 E100.35209
G1 X133.577 Y82.885 E100.36667
G1 X130.560 Y85.583 E100.64230
G1 X127.840 Y88.621 E100.91992
G1 X127.650 Y88.710 E100.93424
G1 X124.642 Y92.125 E101.24407
G1 X121.761 Y95.905 E101.56775
G1 X119.025 Y99.905 E101.89774
G1 X116.319 Y105.298 E102.30857
G1 X116.269 Y105.435 E102.31852
G1 X112.190 Y113.849 E102.95523
G1 X108.669 Y124.440 E103.71520
G1 X108.595 Y125.076 E103.75878
G1 X108.231 Y132.338 E104.25391
G1 X108.499 Y136.445 E104.53414
G1 X109.957 Y141.988 E104.92444
G1 X112.578 Y149.180 E105.44564
G1 X111.702 Y150.741 E105.56755
G1 X106.789 Y151.730 E105.90877
G1 X105.524 Y151.013 E106.00779
G1 X102.837 Y143.457 E106.55390
G1 X101.322 Y137.135 E106.99658
G1 X100.879 Y132.651 E107.30334
G1 X100.903 Y128.117 E107.61211
G1 X101.449 Y122.755 E107.97909
G1 X102.113 Y118.715 E108.25791
G1 X103.076 Y114.498 E108.55240
G1 X103.263 Y113.924 E108.59352
G1 X104.927 Y109.968 E108.88572
G1 X107.033 Y105.228 E109.23895
G1 X107.800 Y103.597 E109.36167
G1 X109.536 Y100.394 E109.60978
G1 X111.307 Y97.557 E109.83743
G1 X112.227 Y96.336 E109.94156
G1 X116.987 Y89.577 E110.50451
G1 X117.733 Y88.433 E110.59750
G1 X117.967 Y88.105 E110.62490
G1 X118.464 Y88.368 F7200.000
G1 X121.600 Y84.451 E110.96654 F1080.000
G1 X124.017 Y81.742 E111.21377
G1 X125.393 Y80.390 E111.34514
G1 X126.708 Y79.049 E111.47298
G1 X129.479 Y76.576 E111.72589
G1 X133.368 Y73.464 E112.06501
G1 X133.742 Y73.197 E112.09635
G1 X134.889 Y72.448 E112.18961
G1 X141.665 Y67.677 E112.75389
G1 X142.863 Y66.773 E112.85612
G1 X145.665 Y65.023 E113.08104
G1 X148.862 Y63.290 E113.32866
G1 X150.443 Y62.547 E113.44764
G1 X155.192 Y60.437 E113.80147
G1 X159.111 Y58.788 E114.09096
G1 X159.636 Y58.616 E114.12858
G1 X163.771 Y57.669 E114.41746
G1 X167.820 Y57.002 E114.69689
G1 X173.067 Y56.464 E115.05604
G1 X177.612 Y56.435 E115.36551
G1 X182.155 Y56.890 E115.67640
G1 X188.283 Y58.366 E116.10560
G1 X195.202 Y60.824 E116.60558
G1 X195.717 Y61.079 E116.64471
G1 X196.134 Y61.928 E116.70912
G1 X195.245 Y66.341 E117.01562
G1 X194.130 Y66.967 E117.10270
G1 X187.155 Y64.425 E117.60824
G1 X181.534 Y62.947 E118.00397
G1 X177.342 Y62.673 E118.29004
G1 X170.029 Y63.040 E118.78861
G1 X169.318 Y63.123 E118.83738
G1 X158.728 Y66.636 E119.59713
G1 X150.223 Y70.753 E120.24051
G1 X150.082 Y70.804 E120.25073
