; generated by Slic3r 1.0.0RC2 on 2014-05-19 at 19:00:00

; layer_height = 0.3
; perimeters = 4
; top_solid_layers = 3
; bottom_solid_layers = 3
; fill_density = 0.1
; perimeter_speed = 60
; infill_speed = 60
; travel_speed = 120
; nozzle_diameter = 0.4
; filament_diameter = 1.75
; extrusion_multiplier = 0.98
; perimeters extrusion width = 0.40mm
; infill extrusion width = 0.42mm
; solid infill extrusion width = 0.42mm
; top infill extrusion width = 0.42mm
; first layer extrusion width = 0.80mm

G21 ; set units to millimeters
M107
M104 S220 ; set temperature
G28 ; home all axes
M106 S255;
G1 Z200 F1200 ; lift nozzle
M109 S220 ; wait for temperature to be reached
G90 ; use absolute coordinates
G92 E0
M82 ; use absolute distances for extrusion
G1 F1800.000 E-1.00000
G92 E0
G1 Z0.400 F7200.000
G1 X92.284 Y115.670 F7200.000
G1 E1.00000 F1800.000
G1 X133.964 Y71.210 E8.09302 F1080.000
G1 X134.794 Y70.460 E8.22322
G1 X135.734 Y69.860 E8.35301
G1 X147.544 Y63.640 E9.90657
G1 X148.604 Y63.190 E10.04060
G1 X189.504 Y49.910 E15.04559
G1 X190.264 Y49.710 E15.13706
G1 X191.054 Y49.610 E15.22974
G1 X200.954 Y48.830 E16.38557
G1 X201.154 Y48.820 E16.40887
G1 X202.454 Y48.880 E16.56034
G1 X203.704 Y49.190 E16.71024
G1 X204.884 Y49.730 E16.86128
G1 X205.934 Y50.490 E17.01214
G1 X206.814 Y51.440 E17.16286
G1 X207.504 Y52.530 E17.31300
G1 X207.964 Y53.740 E17.46367
G1 X212.224 Y69.150 E19.32451
G1 X212.394 Y69.930 E19.41743
G1 X213.974 Y80.290 E20.63717
G1 X214.044 Y81.150 E20.73759
G1 X214.014 Y82.010 E20.83775
G1 X206.874 Y149.040 E28.68350
G1 X206.554 Y150.480 E28.85519
G1 X205.934 Y151.820 E29.02703
G1 X205.024 Y152.990 E29.19955
G1 X203.894 Y153.930 E29.37063
G1 X202.574 Y154.610 E29.54345
G1 X201.144 Y154.980 E29.71537
G1 X180.324 Y157.970 E32.16347
G1 X179.764 Y158.020 E32.22890
G1 X126.234 Y161.160 E38.46996
G1 X125.144 Y161.140 E38.59685
G1 X124.074 Y160.940 E38.72354
G1 X110.714 Y157.280 E40.33581
G1 X109.254 Y156.690 E40.51909
G1 X107.984 Y155.780 E40.70093
G1 X92.994 Y142.220 E43.05354
G1 X92.274 Y141.460 E43.17539
G1 X88.674 Y137.010 E43.84159
G1 X87.944 Y135.900 E43.99622
G1 X87.444 Y134.660 E44.15183
G1 X86.214 Y130.430 E44.66455
G1 X85.974 Y129.120 E44.81956
G1 X85.994 Y127.780 E44.97554
G1 X86.284 Y126.480 E45.13057
G1 X87.744 Y122.010 E45.67788
G1 X88.214 Y120.900 E45.81818
G1 X88.874 Y119.900 E45.95763
G1 X91.934 Y116.070 E46.52821
G1 X92.213 Y115.751 E46.57760
G1 F1800.000 E45.57760
G92 E0
G1 X184.484 Y84.031 F7200.000
G1 E1.00000 F1800.000
G1 X185.345 Y71.183 E2.49872 F1080.000
G1 X194.565 Y71.603 E3.57304
G1 X193.995 Y81.866 E4.76931
G1 X193.867 Y84.576 E5.08518
G1 X184.591 Y84.037 E6.16674
G1 X185.246 Y83.360 F7200.000
G1 X186.011 Y71.928 E7.50025 F540.000
G1 X193.812 Y72.284 E8.40920
G1 X193.282 Y81.829 E9.52186
G1 X193.188 Y83.822 E9.75413
G1 X185.353 Y83.366 E10.66758
G1 X186.009 Y82.689 F7200.000
G1 X186.677 Y72.674 E11.83588 F540.000
G1 X193.059 Y72.964 E12.57945
G1 X192.509 Y83.068 E13.75718
G1 X186.116 Y82.695 E14.50250
G1 X186.772 Y82.018 F7200.000
G1 X187.344 Y73.419 E15.50560 F540.000
G1 X192.306 Y73.645 E16.08380
G1 X191.829 Y82.314 E17.09432
G1 X186.879 Y82.025 E17.67153
G1 X186.059 Y81.973 F7200.000
G1 F1800.000 E16.67153
G92 E0
G1 X139.624 Y101.029 F7200.000
G1 E1.00000 F1800.000
G1 X139.898 Y102.321 E1.15373 F540.000
G1 X139.650 Y103.616 E1.30728
G1 X138.924 Y104.711 E1.46012
G1 X137.837 Y105.452 E1.61322
G1 X136.546 Y105.722 E1.76682
G1 X135.249 Y105.478 E1.92043
G1 X134.143 Y104.756 E2.07408
G1 X133.397 Y103.666 E2.22781
G1 X133.126 Y102.375 E2.38143
G1 X133.371 Y101.068 E2.53615
G1 X134.102 Y99.962 E2.69048
G1 X135.205 Y99.223 E2.84502
G1 X136.502 Y98.972 E2.99877
G1 X138.937 Y99.458 E3.28769
G1 X138.937 Y100.031 E3.35440
G1 X139.563 Y100.940 E3.48290
G1 X138.955 Y101.316 F7200.000
G1 X139.170 Y102.328 E3.60322 F540.000
G1 X138.975 Y103.341 E3.72332
G1 X138.406 Y104.200 E3.84320
G1 X137.553 Y104.782 E3.96347
G1 X136.538 Y104.994 E4.08407
G1 X135.520 Y104.802 E4.20467
G1 X134.652 Y104.236 E4.32528
G1 X134.067 Y103.380 E4.44592
G1 X133.854 Y102.367 E4.56647
G1 X134.046 Y101.341 E4.68789
G1 X134.619 Y100.475 E4.80872
G1 X135.482 Y99.897 E4.92973
G1 X136.500 Y99.700 E5.05033
G1 X138.222 Y100.044 E5.25476
G1 X138.222 Y100.371 E5.29286
G1 X138.371 Y100.469 E5.31360
G1 X138.894 Y101.228 E5.42088
G1 X138.286 Y101.604 F7200.000
G1 X138.441 Y102.335 E5.50780 F540.000
G1 X138.301 Y103.066 E5.59444
G1 X137.888 Y103.689 E5.68136
G1 X137.268 Y104.112 E5.76881
G1 X136.531 Y104.266 E5.85639
G1 X135.791 Y104.126 E5.94398
G1 X135.161 Y103.715 E6.03155
G1 X134.737 Y103.095 E6.11909
G1 X134.582 Y102.359 E6.20658
G1 X134.722 Y101.615 E6.29471
G1 X135.135 Y100.989 E6.38204
G1 X135.760 Y100.570 E6.46952
G1 X136.498 Y100.428 E6.55697
G1 X137.508 Y100.630 E6.67692
G1 X137.508 Y100.756 E6.69157
G1 X137.862 Y100.989 E6.74089
G1 X138.225 Y101.516 E6.81542
G1 X138.988 Y101.734 F7200.000
G1 X158.975 Y99.812 F7200.000
G1 X158.829 Y97.534 E7.08114 F1080.000
G1 X159.131 Y95.271 E7.34688
G1 X159.868 Y93.110 E7.61261
G1 X161.012 Y91.134 E7.87833
G1 X162.520 Y89.420 E8.14406
G1 X164.334 Y88.033 E8.40980
G1 X166.383 Y87.026 E8.67554
G1 X168.589 Y86.439 E8.94127
G1 X170.868 Y86.293 E9.20699
G1 X173.131 Y86.595 E9.47272
G1 X175.292 Y87.332 E9.73847
G1 X177.267 Y88.476 E10.00420
G1 X178.982 Y89.984 E10.26992
G1 X180.369 Y91.798 E10.53567
G1 X181.375 Y93.847 E10.80138
G1 X181.963 Y96.053 E11.06711
G1 X182.109 Y98.332 E11.33286
G1 X181.807 Y100.595 E11.59859
G1 X181.070 Y102.756 E11.86431
G1 X179.925 Y104.731 E12.13003
G1 X178.417 Y106.446 E12.39577
G1 X176.603 Y107.833 E12.66153
G1 X174.554 Y108.839 E12.92722
G1 X172.348 Y109.427 E13.19296
G1 X170.070 Y109.572 E13.45869
G1 X167.807 Y109.271 E13.72443
G1 X165.646 Y108.534 E13.99014
G1 X163.670 Y107.389 E14.25590
G1 X161.956 Y105.881 E14.52162
G1 X160.569 Y104.067 E14.78735
G1 X159.563 Y102.018 E15.05306
G1 X159.003 Y99.916 E15.30634
G1 X159.683 Y99.696 F7200.000
G1 X159.546 Y97.558 E15.55569 F1080.000
G1 X159.829 Y95.435 E15.80505
G1 X160.521 Y93.407 E16.05441
G1 X161.595 Y91.553 E16.30377
G1 X163.010 Y89.945 E16.55312
G1 X164.712 Y88.643 E16.80249
G1 X166.635 Y87.698 E17.05184
G1 X168.705 Y87.147 E17.30120
G1 X170.843 Y87.010 E17.55055
G1 X172.967 Y87.293 E17.79991
G1 X174.995 Y87.985 E18.04928
G1 X176.848 Y89.059 E18.29864
G1 X178.457 Y90.474 E18.54799
G1 X179.759 Y92.176 E18.79736
G1 X180.703 Y94.099 E19.04670
G1 X181.254 Y96.169 E19.29606
G1 X181.391 Y98.307 E19.54544
G1 X181.108 Y100.431 E19.79479
G1 X180.416 Y102.459 E20.04414
G1 X179.342 Y104.312 E20.29349
G1 X177.927 Y105.921 E20.54285
G1 X176.225 Y107.223 E20.79223
G1 X174.303 Y108.167 E21.04156
G1 X172.232 Y108.718 E21.29092
G1 X170.094 Y108.855 E21.54028
G1 X167.971 Y108.572 E21.78964
G1 X165.943 Y107.881 E22.03899
G1 X164.089 Y106.806 E22.28836
G1 X162.481 Y105.391 E22.53772
G1 X161.179 Y103.689 E22.78707
G1 X160.235 Y101.767 E23.03641
G1 X159.711 Y99.800 E23.27332
G1 X160.391 Y99.580 F7200.000
G1 X160.263 Y97.583 E23.50629 F1080.000
G1 X160.528 Y95.599 E23.73928
G1 X161.174 Y93.704 E23.97227
G1 X162.178 Y91.972 E24.20525
G1 X163.500 Y90.469 E24.43823
G1 X165.090 Y89.253 E24.67122
G1 X166.887 Y88.370 E24.90420
G1 X168.821 Y87.855 E25.13719
G1 X170.819 Y87.728 E25.37017
G1 X172.803 Y87.992 E25.60315
G1 X174.698 Y88.638 E25.83615
G1 X176.430 Y89.642 E26.06913
G1 X177.932 Y90.964 E26.30211
G1 X179.149 Y92.554 E26.53510
G1 X180.031 Y94.351 E26.76808
G1 X180.546 Y96.285 E27.00106
G1 X180.674 Y98.283 E27.23406
G1 X180.410 Y100.267 E27.46704
G1 X179.763 Y102.161 E27.70002
G1 X178.760 Y103.893 E27.93300
G1 X177.438 Y105.396 E28.16599
G1 X175.847 Y106.613 E28.39898
G1 X174.051 Y107.495 E28.63195
G1 X172.117 Y108.010 E28.86494
G1 X170.119 Y108.138 E29.09792
G1 X168.135 Y107.874 E29.33091
G1 X166.240 Y107.227 E29.56388
G1 X164.508 Y106.224 E29.79688
G1 X163.005 Y104.901 E30.02986
G1 X161.789 Y103.312 E30.26284
G1 X160.907 Y101.515 E30.49582
G1 X160.419 Y99.684 E30.71634
G1 X161.100 Y99.465 F7200.000
G1 X160.981 Y97.607 E30.93295 F756.000
G1 X161.227 Y95.763 E31.14956
G1 X161.827 Y94.001 E31.36617
G1 X162.760 Y92.391 E31.58278
G1 X163.990 Y90.994 E31.79939
G1 X165.468 Y89.863 E32.01601
G1 X167.138 Y89.042 E32.23262
G1 X168.937 Y88.564 E32.44923
G1 X170.794 Y88.445 E32.66584
G1 X172.639 Y88.690 E32.88245
G1 X174.400 Y89.291 E33.09907
G1 X176.011 Y90.224 E33.31568
G1 X177.408 Y91.454 E33.53229
G1 X178.539 Y92.932 E33.74890
G1 X179.359 Y94.602 E33.96550
G1 X179.838 Y96.401 E34.18211
G1 X179.957 Y98.258 E34.39874
G1 X179.711 Y100.103 E34.61534
G1 X179.110 Y101.864 E34.83195
G1 X178.177 Y103.474 E35.04856
G1 X176.948 Y104.872 E35.26517
G1 X175.470 Y106.002 E35.48179
G1 X173.799 Y106.823 E35.69839
G1 X172.001 Y107.302 E35.91500
G1 X170.144 Y107.421 E36.13161
G1 X168.299 Y107.175 E36.34822
G1 X166.537 Y106.574 E36.56483
G1 X164.927 Y105.641 E36.78146
G1 X163.530 Y104.412 E36.99806
G1 X162.399 Y102.934 E37.21467
G1 X161.579 Y101.263 E37.43127
G1 X161.127 Y99.568 E37.63542
G1 X160.440 Y99.190 F7200.000
G1 X138.142 Y123.045 F7200.000
G1 X138.142 Y134.086 E38.92049 F1080.000
G1 X120.971 Y134.086 E40.91901
G1 X120.971 Y123.045 E42.20407
G1 X138.034 Y123.045 E44.19012
G1 X137.427 Y123.759 F7200.000
G1 X137.427 Y133.371 E45.30894 F1080.000
G1 X121.685 Y133.371 E47.14122
G1 X121.685 Y123.759 E48.26004
G1 X137.320 Y123.759 E50.07985
G1 X136.713 Y124.473 F7200.000
G1 X136.713 Y132.657 E51.03243 F1080.000
G1 X122.399 Y132.657 E52.69846
G1 X122.399 Y124.473 E53.65104
G1 X136.606 Y124.473 E55.30461
G1 X135.999 Y125.187 F7200.000
G1 X135.999 Y131.943 E56.09095 F540.000
G1 X123.113 Y131.943 E57.59074
G1 X123.113 Y125.187 E58.37708
G1 X135.892 Y125.187 E59.86440
G1 X136.713 Y125.187 F7200.000
G1 X141.398 Y152.554 F7200.000
G1 X110.878 Y127.475 F7200.000
G1 X110.960 Y128.755 E60.01360 F1080.000
G1 X110.790 Y130.025 E60.16277
G1 X110.376 Y131.238 E60.31195
G1 X109.734 Y132.347 E60.46111
G1 X108.887 Y133.309 E60.61028
G1 X107.869 Y134.088 E60.75948
G1 X106.719 Y134.653 E60.90862
G1 X105.480 Y134.983 E61.05781
G1 X104.201 Y135.065 E61.20700
G1 X102.931 Y134.895 E61.35617
G1 X101.718 Y134.482 E61.50533
G1 X100.609 Y133.839 E61.65451
G1 X99.647 Y132.992 E61.80369
G1 X98.868 Y131.974 E61.95286
G1 X98.303 Y130.824 E62.10203
G1 X97.973 Y129.585 E62.25120
G1 X97.891 Y128.307 E62.40036
G1 X98.060 Y127.036 E62.54954
G1 X98.474 Y125.823 E62.69872
G1 X99.117 Y124.714 E62.84790
G1 X99.963 Y123.752 E62.99706
G1 X100.981 Y122.973 E63.14624
G1 X102.132 Y122.408 E63.29542
G1 X103.370 Y122.078 E63.44460
G1 X104.649 Y121.996 E63.59379
G1 X105.920 Y122.165 E63.74295
G1 X107.133 Y122.579 E63.89214
G1 X108.242 Y123.222 E64.04132
G1 X109.204 Y124.068 E64.19049
G1 X109.983 Y125.087 E64.33967
G1 X110.548 Y126.237 E64.48883
G1 X110.850 Y127.372 E64.62553
G1 X110.170 Y127.591 F7200.000
G1 X110.242 Y128.730 E64.75835 F540.000
G1 X110.092 Y129.861 E64.89115
G1 X109.723 Y130.941 E65.02395
G1 X109.151 Y131.928 E65.15675
G1 X108.398 Y132.785 E65.28955
G1 X107.491 Y133.478 E65.42236
G1 X106.467 Y133.981 E65.55514
G1 X105.365 Y134.275 E65.68795
G1 X104.226 Y134.347 E65.82076
G1 X103.095 Y134.197 E65.95356
G1 X102.015 Y133.828 E66.08635
G1 X101.028 Y133.256 E66.21916
G1 X100.171 Y132.503 E66.35196
G1 X99.478 Y131.596 E66.48476
G1 X98.975 Y130.572 E66.61756
G1 X98.681 Y129.470 E66.75036
G1 X98.608 Y128.331 E66.88315
G1 X98.759 Y127.200 E67.01596
G1 X99.127 Y126.120 E67.14876
G1 X99.699 Y125.133 E67.28156
G1 X100.453 Y124.276 E67.41435
G1 X101.359 Y123.583 E67.54716
G1 X102.383 Y123.080 E67.67997
G1 X103.486 Y122.786 E67.81277
G1 X104.625 Y122.713 E67.94558
G1 X105.756 Y122.864 E68.07837
G1 X106.836 Y123.233 E68.21119
G1 X107.823 Y123.805 E68.34399
G1 X108.680 Y124.558 E68.47679
G1 X109.373 Y125.465 E68.60960
G1 X109.876 Y126.489 E68.74238
G1 X110.142 Y127.488 E68.86272
G1 X109.461 Y127.707 F7200.000
G1 X109.525 Y128.705 E68.97916 F540.000
G1 X109.393 Y129.697 E69.09558
G1 X109.070 Y130.644 E69.21201
G1 X108.569 Y131.509 E69.32843
G1 X107.908 Y132.260 E69.44486
G1 X107.113 Y132.868 E69.56130
G1 X106.215 Y133.309 E69.67771
G1 X105.249 Y133.566 E69.79415
G1 X104.250 Y133.630 E69.91058
G1 X103.259 Y133.498 E70.02700
G1 X102.312 Y133.175 E70.14343
G1 X101.447 Y132.674 E70.25986
G1 X100.696 Y132.013 E70.37629
G1 X100.088 Y131.218 E70.49272
G1 X99.647 Y130.320 E70.60914
G1 X99.389 Y129.354 E70.72557
G1 X99.325 Y128.356 E70.84199
G1 X99.458 Y127.364 E70.95842
G1 X99.781 Y126.417 E71.07485
G1 X100.282 Y125.552 E71.19128
G1 X100.943 Y124.801 E71.30770
G1 X101.737 Y124.193 E71.42413
G1 X102.635 Y123.752 E71.54056
G1 X103.602 Y123.494 E71.65699
G1 X104.600 Y123.431 E71.77343
G1 X105.592 Y123.563 E71.88985
G1 X106.539 Y123.886 E72.00629
G1 X107.404 Y124.387 E72.12272
G1 X108.155 Y125.048 E72.23914
G1 X108.763 Y125.843 E72.35557
G1 X109.204 Y126.740 E72.47199
G1 X109.434 Y127.603 E72.57595
G1 X108.753 Y127.823 F7200.000
G1 X108.808 Y128.681 E72.67601 F540.000
G1 X108.694 Y129.533 E72.77606
G1 X108.417 Y130.346 E72.87612
G1 X107.986 Y131.090 E72.97617
G1 X107.418 Y131.736 E73.07623
G1 X106.735 Y132.258 E73.17629
G1 X105.964 Y132.637 E73.27633
G1 X105.133 Y132.858 E73.37639
G1 X104.275 Y132.913 E73.47645
G1 X103.423 Y132.799 E73.57650
G1 X102.609 Y132.522 E73.67655
G1 X101.866 Y132.091 E73.77661
G1 X101.220 Y131.523 E73.87667
G1 X100.698 Y130.840 E73.97672
G1 X100.319 Y130.069 E74.07677
G1 X100.098 Y129.238 E74.17683
G1 X100.043 Y128.380 E74.27688
G1 X100.156 Y127.528 E74.37694
G1 X100.434 Y126.714 E74.47699
G1 X100.865 Y125.971 E74.57704
G1 X101.433 Y125.325 E74.67710
G1 X102.115 Y124.803 E74.77715
G1 X102.887 Y124.424 E74.87721
G1 X103.718 Y124.203 E74.97727
G1 X104.576 Y124.148 E75.07732
G1 X105.428 Y124.261 E75.17737
G1 X106.241 Y124.539 E75.27743
G1 X106.985 Y124.970 E75.37749
G1 X107.631 Y125.538 E75.47754
G1 X108.153 Y126.221 E75.57760
G1 X108.532 Y126.992 E75.67765
G1 X108.726 Y127.719 E75.76524
G1 X109.412 Y128.097 F7200.000
G1 X122.513 Y124.587 F7200.000
G1 X172.297 Y123.262 F7200.000
G1 X174.964 Y123.262 E76.07567 F1080.000
G1 X174.032 Y115.864 E76.94354
G1 X184.017 Y114.537 E78.11598
G1 X185.027 Y122.643 E79.06676
G1 X181.791 Y123.053 E79.44641
G1 X181.791 Y137.636 E81.14375
G1 X172.297 Y137.636 E82.24877
G1 X172.297 Y123.369 E83.90927
G1 X175.665 Y123.108 F7200.000
G1 X174.829 Y116.479 E84.68701 F540.000
G1 X183.398 Y115.340 E85.69308
G1 X184.231 Y122.024 E86.47709
G1 X175.771 Y123.095 E87.46955
G1 X176.284 Y122.310 F7200.000
G1 X175.626 Y117.093 E88.08156 F540.000
G1 X182.778 Y116.143 E88.92126
G1 X183.434 Y121.405 E89.53851
G1 X176.390 Y122.297 E90.36485
G1 X176.903 Y121.512 F7200.000
G1 X176.424 Y117.708 E90.81113 F540.000
G1 X182.158 Y116.945 E91.48447
G1 X182.637 Y120.786 E91.93496
G1 X177.009 Y121.498 E92.59517
G1 X176.195 Y121.601 F7200.000
G1 X173.011 Y123.976 F7200.000
G1 X181.077 Y123.976 E93.53395 F1080.000
G1 X181.077 Y136.922 E95.04068
G1 X173.011 Y136.922 E95.97946
G1 X173.011 Y124.083 E97.47372
G1 X173.725 Y124.690 F7200.000
G1 X180.363 Y124.690 E98.24626 F540.000
G1 X180.363 Y136.208 E99.58675
G1 X173.725 Y136.208 E100.35929
G1 X173.725 Y124.798 E101.68731
G1 X174.440 Y125.405 F7200.000
G1 X179.649 Y125.405 E102.29361 F540.000
G1 X179.649 Y135.494 E103.46785
G1 X174.440 Y135.494 E104.07415
G1 X174.440 Y125.512 E105.23592
G1 X174.440 Y124.690 F7200.000
G1 X161.435 Y140.854 F7200.000
G1 X161.913 Y149.161 E106.20436 F1080.000
G1 X147.984 Y150.137 E107.82956
G1 X147.883 Y141.797 E108.80028
G1 X161.328 Y140.861 E110.36890
G1 X160.763 Y141.616 F7200.000
G1 X161.159 Y148.498 E111.17112 F540.000
G1 X148.689 Y149.372 E112.62615
G1 X148.605 Y142.463 E113.43031
G1 X160.656 Y141.624 E114.83632
G1 X160.092 Y142.379 F7200.000
G1 X160.406 Y147.834 E115.47233 F540.000
G1 X149.394 Y148.606 E116.75718
G1 X149.328 Y143.129 E117.39479
G1 X159.985 Y142.386 E118.63820
G1 X160.805 Y142.335 F7200.000
G1 X162.279 Y143.089 F7200.000
G1 X162.106 Y140.091 E118.98774 F1080.000
G1 X147.161 Y141.132 E120.73143
G1 X147.276 Y150.663 E121.84080
G1 X126.116 Y151.907 E124.30792
G1 X114.020 Y148.590 E125.76765
G1 X105.704 Y137.232 E127.40611
G1 X98.997 Y135.056 E128.22679
