; generated by Slic3r 1.0.0RC3 on 2014-03-11 at 20:27:23

; layer_height = 0.3
; perimeters = 2
; top_solid_layers = 3
; bottom_solid_layers = 3
; fill_density = 0.1
; perimeter_speed = 60
; infill_speed = 60
; travel_speed = 120
; nozzle_diameter = 0.4
; filament_diameter = 1.75
; extrusion_multiplier = 0.98
; perimeters extrusion width = 0.40mm
; infill extrusion width = 0.42mm
; solid infill extrusion width = 0.42mm
; top infill extrusion width = 0.42mm
; first layer extrusion width = 0.60mm

G21 ; set units to millimeters
M107
M104 S220 ; set temperature
G28 ; home all axes
M106 S255;
G1 Z200 F1200 ; lift nozzle
M109 S220 ; wait for temperature to be reached
G90 ; use absolute coordinates
G92 E0
M82 ; use absolute distances for extrusion
G1 F1800.000 E-1.00000
G92 E0
G1 Z0.300 F7200.000
G1 X109.838 Y53.880 F7200.000
G1 E1.00000 F1800.000
G1 X110.438 Y52.720 E1.08893 F1080.000
G1 X111.248 Y51.700 E1.17762
G1 X112.248 Y50.860 E1.26655
G1 X113.398 Y50.230 E1.35583
G1 X114.648 Y49.840 E1.44499
G1 X115.948 Y49.710 E1.53396
G1 X175.148 Y49.710 E5.56503
G1 X176.538 Y49.860 E5.66022
G1 X177.858 Y50.300 E5.75497
G1 X179.058 Y51.010 E5.84991
G1 X180.078 Y51.950 E5.94436
G1 X205.748 Y81.270 E8.59788
G1 X206.638 Y82.570 E8.70515
G1 X207.188 Y84.030 E8.81139
G1 X207.378 Y85.590 E8.91840
G1 X207.378 Y90.260 E9.23639
G1 X207.268 Y91.440 E9.31709
G1 X206.948 Y92.590 E9.39837
G1 X193.618 Y127.720 E11.95687
G1 X193.268 Y128.490 E12.01447
G1 X189.018 Y136.420 E12.62710
G1 X188.688 Y136.960 E12.67019
G1 X188.308 Y137.470 E12.71350
G1 X182.608 Y144.430 E13.32607
G1 X182.188 Y144.910 E13.36950
G1 X181.718 Y145.340 E13.41288
G1 X174.768 Y151.080 E14.02665
G1 X174.238 Y151.470 E14.07146
G1 X173.678 Y151.800 E14.11572
G1 X165.888 Y155.960 E14.71706
G1 X165.308 Y156.240 E14.76091
G1 X164.698 Y156.450 E14.80484
G1 X155.928 Y159.110 E15.42888
G1 X155.308 Y159.270 E15.47248
G1 X154.678 Y159.360 E15.51581
G1 X145.728 Y160.250 E16.12824
G1 X145.078 Y160.290 E16.17259
G1 X144.428 Y160.250 E16.21693
G1 X135.468 Y159.360 E16.83004
G1 X134.838 Y159.270 E16.87337
G1 X134.218 Y159.120 E16.91681
G1 X125.568 Y156.500 E17.53223
G1 X124.968 Y156.280 E17.57575
G1 X124.388 Y156.010 E17.61931
G1 X116.478 Y151.810 E18.22914
G1 X115.918 Y151.480 E18.27340
G1 X115.398 Y151.090 E18.31766
G1 X108.568 Y145.480 E18.91950
G1 X108.088 Y145.050 E18.96338
G1 X107.658 Y144.570 E19.00727
G1 X101.838 Y137.480 E19.63186
G1 X101.458 Y136.960 E19.67572
G1 X101.128 Y136.410 E19.71939
G1 X96.888 Y128.480 E20.33171
G1 X96.608 Y127.900 E20.37556
G1 X96.388 Y127.290 E20.41972
G1 X93.778 Y118.680 E21.03234
G1 X93.628 Y118.060 E21.07577
G1 X93.528 Y117.420 E21.11988
G1 X92.648 Y108.460 E21.73292
G1 X92.618 Y107.820 E21.77655
G1 X92.648 Y107.180 E21.82018
G1 X93.528 Y98.230 E22.43254
G1 X93.628 Y97.590 E22.47665
G1 X93.778 Y96.970 E22.52009
G1 X96.388 Y88.360 E23.13271
G1 X96.558 Y87.870 E23.16802
G1 X109.807 Y53.958 E25.64717
G1 F1800.000 E24.64717
G92 E0
G1 X131.813 Y87.971 F7200.000
G1 E1.00000 F1800.000
G1 X135.941 Y85.764 E1.31878 F1080.000
G1 X140.421 Y84.405 E1.63755
G1 X145.080 Y83.946 E1.95634
G1 X149.739 Y84.405 E2.27512
G1 X154.220 Y85.764 E2.59391
G1 X158.348 Y87.971 E2.91269
G1 X161.967 Y90.941 E3.23146
G1 X164.937 Y94.560 E3.55024
G1 X167.144 Y98.689 E3.86902
G1 X168.503 Y103.168 E4.18777
G1 X168.962 Y107.828 E4.50658
G1 X168.503 Y112.487 E4.82540
G1 X167.144 Y116.967 E5.14413
G1 X164.937 Y121.095 E5.46291
G1 X161.960 Y124.720 E5.78225
G1 X158.349 Y127.684 E6.10041
G1 X154.219 Y129.891 E6.41923
G1 X149.738 Y131.251 E6.73813
G1 X149.558 Y131.268 E6.75042
G1 X140.607 Y131.267 E7.35988
G1 X140.422 Y131.250 E7.37255
G1 X135.941 Y129.891 E7.69139
G1 X131.813 Y127.684 E8.01016
G1 X128.194 Y124.714 E8.32894
G1 X125.224 Y121.095 E8.64772
G1 X123.017 Y116.967 E8.96650
G1 X121.659 Y112.492 E9.28493
G1 X121.199 Y107.828 E9.60404
G1 X121.659 Y103.164 E9.92314
G1 X123.017 Y98.689 E10.24161
G1 X125.224 Y94.560 E10.56038
G1 X128.194 Y90.941 E10.87916
G1 X131.748 Y88.024 E11.19225
G1 X132.124 Y88.437 F7200.000
G1 X136.156 Y86.281 E11.50356 F540.000
G1 X140.530 Y84.954 E11.81486
G1 X145.080 Y84.506 E12.12617
G1 X149.630 Y84.954 E12.43749
G1 X154.005 Y86.281 E12.74880
G1 X158.037 Y88.437 E13.06010
G1 X161.571 Y91.337 E13.37141
G1 X164.472 Y94.871 E13.68271
G1 X166.627 Y98.903 E13.99402
G1 X167.954 Y103.278 E14.30532
G1 X168.402 Y107.828 E14.61664
G1 X167.954 Y112.378 E14.92796
G1 X166.627 Y116.752 E15.23924
G1 X164.472 Y120.784 E15.55055
G1 X161.568 Y124.321 E15.86217
G1 X158.037 Y127.219 E16.17314
G1 X154.005 Y129.374 E16.48446
G1 X149.630 Y130.701 E16.79581
G1 X140.531 Y130.701 E17.41536
G1 X136.156 Y129.374 E17.72669
G1 X132.124 Y127.219 E18.03799
G1 X128.590 Y124.318 E18.34930
G1 X125.689 Y120.784 E18.66061
G1 X123.534 Y116.752 E18.97191
G1 X122.207 Y112.379 E19.28310
G1 X121.758 Y107.828 E19.59451
G1 X122.207 Y103.276 E19.90594
G1 X123.534 Y98.903 E20.21714
G1 X125.689 Y94.871 E20.52844
G1 X128.590 Y91.337 E20.83975
G1 X132.059 Y88.490 E21.14537
G1 X132.105 Y87.880 F7200.000
G1 F1800.000 E20.14537
G92 E0
G1 X113.428 Y75.739 F7200.000
G1 E1.00000 F1800.000
G1 X116.649 Y57.127 E2.28614 F1080.000
G1 X174.292 Y57.127 E6.21123
G1 X174.292 Y86.454 E8.20817
G1 X199.965 Y86.454 E9.95630
G1 X199.965 Y89.850 E10.18758
G1 X189.202 Y98.495 E11.12754
G1 X190.122 Y107.828 E11.76611
G1 X189.256 Y116.615 E12.36734
G1 X186.693 Y125.064 E12.96857
G1 X182.531 Y132.851 E13.56980
G1 X176.929 Y139.677 E14.17103
G1 X170.108 Y145.275 E14.77190
G1 X170.050 Y145.342 E14.77796
G1 X162.478 Y149.389 E15.36260
G1 X153.860 Y152.004 E15.97582
G1 X145.080 Y152.869 E16.57653
G1 X136.293 Y152.003 E17.17776
G1 X127.804 Y149.428 E17.78181
G1 X119.981 Y145.255 E18.38558
G1 X113.336 Y139.801 E18.97091
G1 X107.630 Y132.851 E19.58323
G1 X103.468 Y125.064 E20.18446
G1 X100.905 Y116.615 E20.78570
G1 X100.039 Y107.828 E21.38693
G1 X100.905 Y99.041 E21.98816
G1 X103.468 Y90.591 E22.58939
G1 X107.630 Y82.804 E23.19062
G1 X113.375 Y75.803 E23.80731
G1 X112.905 Y75.499 F7200.000
G1 X116.180 Y56.570 E25.11537 F540.000
G1 X174.849 Y56.570 E29.11032
G1 X174.849 Y85.897 E31.10727
G1 X200.522 Y85.897 E32.85540
G1 X200.522 Y90.118 E33.14280
G1 X189.786 Y98.740 E34.08041
G1 X190.681 Y107.828 E34.70218
G1 X189.805 Y116.724 E35.31089
G1 X187.210 Y125.278 E35.91959
G1 X182.996 Y133.162 E36.52829
G1 X177.325 Y140.072 E37.13700
G1 X170.498 Y145.675 E37.73839
G1 X170.403 Y145.785 E37.74825
G1 X162.687 Y149.909 E38.34397
G1 X153.974 Y152.553 E38.96399
G1 X145.080 Y153.429 E39.57251
G1 X136.184 Y152.552 E40.18121
G1 X127.590 Y149.946 E40.79271
G1 X119.799 Y145.781 E41.39426
G1 X119.711 Y145.754 E41.40056
G1 X112.945 Y140.201 E41.99652
G1 X107.165 Y133.162 E42.61674
G1 X102.951 Y125.278 E43.22544
G1 X100.356 Y116.724 E43.83415
G1 X99.479 Y107.828 E44.44285
G1 X100.356 Y98.931 E45.05155
G1 X102.950 Y90.377 E45.66026
G1 X107.164 Y82.493 E46.26896
G1 X112.851 Y75.563 E46.87937
G1 X113.453 Y75.399 F7200.000
G1 F1800.000 E45.87937
G92 E0
G1 X122.570 Y116.850 F7200.000
G1 E1.00000 F1800.000
G1 X102.118 Y96.398 E2.97560 F1080.000
G1 X102.302 Y95.792 E3.01888
G1 X122.226 Y115.716 E4.94348
G1 X121.882 Y114.582 E5.02445
G1 X102.486 Y95.185 E6.89804
G1 X102.670 Y94.579 E6.94132
G1 X121.538 Y113.447 E8.76390
G1 X121.252 Y112.371 E8.83996
G1 X102.853 Y93.973 E10.61715
G1 X103.037 Y93.366 E10.66043
G1 X121.165 Y111.494 E12.41148
G1 X121.078 Y110.617 E12.47167
G1 X103.221 Y92.760 E14.19659
G1 X103.405 Y92.154 E14.23987
G1 X120.992 Y109.740 E15.93865
G1 X120.905 Y108.863 E15.99884
G1 X103.589 Y91.547 E17.67149
G1 X103.773 Y90.941 E17.71477
G1 X120.819 Y107.986 E19.36128
G1 X120.861 Y107.239 E19.41245
G1 X104.018 Y90.396 E21.03935
G1 X104.294 Y89.881 E21.07924
G1 X120.932 Y106.519 E22.68640
G1 X121.003 Y105.800 E22.73577
G1 X104.569 Y89.366 E24.32318
G1 X104.844 Y88.851 E24.36307
G1 X121.073 Y105.080 E25.93073
G1 X121.144 Y104.361 E25.98011
G1 X105.120 Y88.336 E27.52802
G1 X105.395 Y87.821 E27.56790
G1 X121.215 Y103.641 E29.09606
G1 X121.313 Y102.949 E29.14383
G1 X105.670 Y87.306 E30.65486
G1 X105.945 Y86.791 E30.69474
G1 X121.497 Y102.343 E32.19695
G1 X121.681 Y101.736 E32.24023
G1 X106.221 Y86.276 E33.73361
G1 X106.496 Y85.761 E33.77350
G1 X121.865 Y101.130 E35.25806
G1 X122.049 Y100.524 E35.30134
G1 X106.771 Y85.246 E36.77708
G1 X107.046 Y84.731 E36.81696
G1 X122.233 Y99.917 E38.28388
G1 X122.417 Y99.311 E38.32716
G1 X107.322 Y84.216 E39.78525
G1 X107.597 Y83.701 E39.82514
G1 X122.601 Y98.705 E41.27441
G1 X122.851 Y98.164 E41.31506
G1 X107.872 Y83.186 E42.76190
G1 X108.203 Y82.727 E42.80057
G1 X123.126 Y97.649 E44.24205
G1 X123.401 Y97.134 E44.28193
G1 X108.559 Y82.292 E45.71559
G1 X108.915 Y81.858 E45.75395
G1 X123.676 Y96.619 E47.17978
G1 X123.952 Y96.104 E47.21967
G1 X109.272 Y81.424 E48.63769
G1 X109.628 Y80.990 E48.67604
G1 X124.227 Y95.589 E50.08624
G1 X124.502 Y95.074 E50.12613
G1 X109.984 Y80.556 E51.52851
G1 X110.340 Y80.122 E51.56686
G1 X124.777 Y94.559 E52.96143
G1 X125.099 Y94.091 E53.00025
G1 X110.697 Y79.688 E54.39148
G1 X111.053 Y79.254 E54.42984
G1 X125.455 Y93.657 E55.82107
G1 X125.812 Y93.223 E55.85942
G1 X111.409 Y78.820 E57.25065
G1 X111.765 Y78.386 E57.28901
G1 X126.168 Y92.789 E58.68024
G1 X126.524 Y92.355 E58.71859
G1 X112.121 Y77.952 E60.10983
G1 X112.478 Y77.518 E60.14818
G1 X126.880 Y91.921 E61.53941
G1 X127.237 Y91.487 E61.57777
G1 X112.834 Y77.084 E62.96900
G1 X113.190 Y76.650 E63.00735
G1 X127.593 Y91.052 E64.39858
G1 X127.957 Y90.626 E64.43687
G1 X113.546 Y76.216 E65.82885
G1 X113.833 Y75.712 E65.86843
G1 X128.391 Y90.270 E67.27467
G1 X128.825 Y89.914 E67.31302
G1 X113.949 Y75.038 E68.74992
G1 X114.066 Y74.364 E68.79662
G1 X129.259 Y89.557 E70.26420
G1 X129.693 Y89.201 E70.30255
G1 X114.182 Y73.691 E71.80079
G1 X114.299 Y73.017 E71.84749
G1 X130.127 Y88.845 E73.37640
G1 X130.561 Y88.489 E73.41475
G1 X114.416 Y72.343 E74.97432
G1 X114.532 Y71.670 E75.02102
G1 X130.995 Y88.133 E76.61127
G1 X131.429 Y87.776 E76.64962
G1 X114.649 Y70.996 E78.27053
G1 X114.765 Y70.322 E78.31723
G1 X131.914 Y87.471 E79.97368
G1 X132.429 Y87.195 E80.01357
G1 X114.882 Y69.649 E81.70850
G1 X114.998 Y68.975 E81.75520
G1 X132.944 Y86.920 E83.48862
G1 X133.459 Y86.645 E83.52851
G1 X115.115 Y68.301 E85.30042
G1 X115.232 Y67.627 E85.34712
G1 X133.974 Y86.369 E87.15752
G1 X134.489 Y86.094 E87.19740
G1 X115.348 Y66.954 E89.04628
G1 X115.465 Y66.280 E89.09298
G1 X135.004 Y85.819 E90.98035
G1 X135.519 Y85.544 E91.02024
G1 X115.581 Y65.606 E92.94609
G1 X115.698 Y64.933 E92.99279
G1 X136.077 Y85.312 E94.96131
G1 X136.683 Y85.128 E95.00459
G1 X115.814 Y64.259 E97.02041
G1 X115.931 Y63.585 E97.06711
G1 X137.289 Y84.944 E99.13025
G1 X137.896 Y84.760 E99.17353
G1 X116.047 Y62.912 E101.28397
G1 X116.164 Y62.238 E101.33067
G1 X138.502 Y84.576 E103.48842
G1 X139.108 Y84.392 E103.53170
G1 X116.281 Y61.564 E105.73676
G1 X116.397 Y60.890 E105.78346
G1 X139.715 Y84.208 E108.03584
G1 X140.321 Y84.024 E108.07912
G1 X116.514 Y60.217 E110.37880
G1 X116.630 Y59.543 E110.42550
G1 X141.036 Y83.949 E112.78300
G1 X141.756 Y83.878 E112.83237
G1 X116.747 Y58.869 E115.24811
G1 X116.863 Y58.196 E115.29481
G1 X142.475 Y83.807 E117.76877
G1 X143.194 Y83.736 E117.81815
G1 X116.989 Y57.531 E120.34950
G1 X117.769 Y57.521 E120.40281
G1 X143.914 Y83.665 E122.92826
G1 X144.633 Y83.595 E122.97764
G1 X118.559 Y57.521 E125.49625
G1 X119.350 Y57.521 E125.55023
G1 X145.412 Y83.583 E128.06774
G1 X146.289 Y83.670 E128.12791
G1 X120.140 Y57.521 E130.65376
G1 X120.930 Y57.521 E130.70774
G1 X147.165 Y83.756 E133.24194
G1 X148.042 Y83.842 E133.30210
G1 X121.721 Y57.521 E135.84464
G1 X122.511 Y57.521 E135.89862
G1 X148.919 Y83.929 E138.44949
G1 X149.795 Y84.015 E138.50966
G1 X123.301 Y57.521 E141.06888
G1 X124.091 Y57.521 E141.12285
G1 X150.923 Y84.353 E143.71470
G1 X152.058 Y84.697 E143.79567
G1 X124.882 Y57.521 E146.42076
G1 X125.672 Y57.521 E146.47474
G1 X153.192 Y85.041 E149.13307
G1 X154.326 Y85.385 E149.21404
G1 X126.462 Y57.521 E151.90560
G1 X127.252 Y57.521 E151.95958
G1 X156.002 Y86.271 E154.73667
G1 X157.700 Y87.178 F7200.000
G1 X128.043 Y57.521 E157.60143 F1080.000
G1 X128.833 Y57.521 E157.65540
G1 X160.721 Y89.409 E160.73569
G1 F1800.000 E159.73569
G92 E0
G1 X163.499 Y92.187 F7200.000
G1 E1.00000 F1800.000
G1 X188.631 Y117.319 E3.42766 F1080.000
G1 X188.815 Y116.712 E3.47093
G1 X129.623 Y57.521 E9.18859
G1 X130.414 Y57.521 E9.24257
G1 X188.918 Y116.026 E14.89388
G1 X188.989 Y115.306 E14.94326
G1 X131.204 Y57.521 E20.52508
G1 X131.994 Y57.521 E20.57906
G1 X189.060 Y114.587 E26.09139
G1 X189.131 Y113.867 E26.14076
G1 X132.784 Y57.521 E31.58360
G1 X133.575 Y57.521 E31.63758
G1 X189.202 Y113.148 E37.01093
G1 X189.273 Y112.429 E37.06030
G1 X134.365 Y57.521 E42.36416
G1 X135.155 Y57.521 E42.41813
G1 X189.344 Y111.709 E47.65249
G1 X189.414 Y110.990 E47.70187
G1 X135.945 Y57.521 E52.86674
G1 X136.736 Y57.521 E52.92072
G1 X189.485 Y110.270 E58.01609
G1 X189.556 Y109.551 E58.06547
G1 X137.526 Y57.521 E63.09135
G1 X138.316 Y57.521 E63.14533
G1 X189.627 Y108.832 E68.10172
G1 X189.698 Y108.112 E68.15110
G1 X139.107 Y57.521 E73.03800
G1 X139.897 Y57.521 E73.09198
G1 X189.674 Y107.298 E77.90021
G1 X189.587 Y106.421 E77.96037
G1 X140.687 Y57.521 E82.68393
G1 X141.477 Y57.521 E82.73791
G1 X189.501 Y105.545 E87.37678
G1 X189.415 Y104.668 E87.43695
G1 X142.268 Y57.521 E91.99115
G1 X143.058 Y57.521 E92.04513
G1 X189.328 Y103.791 E96.51465
G1 X189.242 Y102.915 E96.57481
G1 X143.848 Y57.521 E100.95966
G1 X144.638 Y57.521 E101.01364
G1 X189.156 Y102.038 E105.31381
G1 X189.069 Y101.161 E105.37398
G1 X174.756 Y86.848 E106.75661
G1 X175.546 Y86.848 E106.81059
G1 X188.983 Y100.285 E108.10854
G1 X188.897 Y99.408 E108.16871
G1 X176.336 Y86.848 E109.38199
G1 X177.127 Y86.848 E109.43596
G1 X188.810 Y98.532 E110.56457
G1 X189.123 Y98.054 E110.60357
G1 X177.917 Y86.848 E111.68600
G1 X178.707 Y86.848 E111.73998
G1 X189.561 Y97.702 E112.78841
G1 X189.999 Y97.350 E112.82680
G1 X179.497 Y86.848 E113.84123
G1 X180.288 Y86.848 E113.89521
G1 X190.437 Y96.998 E114.87564
G1 X190.876 Y96.646 E114.91403
G1 X181.078 Y86.848 E115.86046
G1 X181.868 Y86.848 E115.91444
G1 X191.314 Y96.294 E116.82686
G1 X191.752 Y95.942 E116.86525
G1 X182.658 Y86.848 E117.74367
G1 X183.449 Y86.848 E117.79765
G1 X192.190 Y95.590 E118.64207
G1 X192.629 Y95.238 E118.68047
G1 X184.239 Y86.848 E119.49088
G1 X185.029 Y86.848 E119.54486
G1 X193.067 Y94.886 E120.32127
G1 X193.505 Y94.534 E120.35967
G1 X185.820 Y86.848 E121.10208
G1 X186.610 Y86.848 E121.15606
G1 X193.944 Y94.182 E121.86447
G1 X194.382 Y93.830 E121.90287
G1 X187.400 Y86.848 E122.57727
G1 X188.190 Y86.848 E122.63125
G1 X194.820 Y93.478 E123.27166
G1 X195.258 Y93.126 E123.31005
G1 X188.981 Y86.848 E123.91646
G1 X189.771 Y86.848 E123.97044
G1 X195.697 Y92.774 E124.54284
G1 X196.135 Y92.422 E124.58123
G1 X190.561 Y86.848 E125.11963
G1 X191.351 Y86.848 E125.17361
G1 X196.573 Y92.070 E125.67801
G1 X197.011 Y91.718 E125.71640
G1 X192.142 Y86.848 E126.18680
G1 X192.932 Y86.848 E126.24078
G1 X197.450 Y91.366 E126.67717
G1 X197.888 Y91.014 E126.71556
G1 X193.722 Y86.848 E127.11796
G1 X194.512 Y86.848 E127.17193
G1 X198.326 Y90.662 E127.54032
G1 X198.764 Y90.310 E127.57872
G1 X195.303 Y86.848 E127.91311
G1 X196.093 Y86.848 E127.96708
G1 X199.203 Y89.958 E128.26747
G1 X199.571 Y89.536 E128.30573
G1 X196.883 Y86.848 E128.56536
G1 X197.674 Y86.848 E128.61934
G1 X199.571 Y88.745 E128.80264
G1 X199.571 Y87.955 E128.85662
G1 X198.464 Y86.848 E128.96358
G1 X199.254 Y86.848 E129.01756
G1 X199.571 Y87.165 E129.04819
G1 F1800.000 E128.04819
G92 E0
G1 X173.898 Y85.990 F7200.000
G1 E1.00000 F1800.000
G1 X145.429 Y57.521 E3.75004 F1080.000
G1 X146.219 Y57.521 E3.80401
G1 X173.898 Y85.200 E6.47771
G1 X173.898 Y84.410 E6.53169
G1 X147.009 Y57.521 E9.12905
G1 X147.800 Y57.521 E9.18303
G1 X173.898 Y83.620 E11.70406
G1 X173.898 Y82.829 E11.75804
G1 X148.590 Y57.521 E14.20273
G1 X149.380 Y57.521 E14.25670
G1 X173.898 Y82.039 E16.62506
G1 X173.898 Y81.249 E16.67903
G1 X150.170 Y57.521 E18.97105
G1 X150.961 Y57.521 E19.02503
G1 X173.898 Y80.459 E21.24071
G1 X173.898 Y79.668 E21.29469
