; generated by Slic3r 1.0.0RC3 on 2014-03-11 at 20:28:42

; layer_height = 0.3
; perimeters = 2
; top_solid_layers = 3
; bottom_solid_layers = 3
; fill_density = 0.1
; perimeter_speed = 60
; infill_speed = 60
; travel_speed = 120
; nozzle_diameter = 0.4
; filament_diameter = 1.75
; extrusion_multiplier = 0.98
; perimeters extrusion width = 0.40mm
; infill extrusion width = 0.42mm
; solid infill extrusion width = 0.42mm
; top infill extrusion width = 0.42mm
; first layer extrusion width = 0.60mm

G21 ; set units to millimeters
M107
M104 S220 ; set temperature
G28 ; home all axes
M106 S255;
G1 Z200 F1200 ; lift nozzle
M109 S220 ; wait for temperature to be reached
G90 ; use absolute coordinates
G92 E0
M82 ; use absolute distances for extrusion
G1 F1800.000 E-1.00000
G92 E0
G1 Z0.300 F7200.000
G1 X114.978 Y82.008 F7200.000
G1 E1.00000 F1800.000
G1 X115.968 Y80.978 E1.09728 F1080.000
G1 X117.148 Y80.188 E1.19397
G1 X118.478 Y79.668 E1.29121
G1 X119.888 Y79.448 E1.38838
G1 X168.958 Y77.188 E4.73322
G1 X169.748 Y77.198 E4.78702
G1 X170.538 Y77.308 E4.84133
G1 X174.568 Y78.108 E5.12110
G1 X175.788 Y78.478 E5.20790
G1 X176.928 Y79.078 E5.29563
G1 X180.348 Y81.358 E5.57551
G1 X181.348 Y82.178 E5.66357
G1 X182.168 Y83.178 E5.75162
G1 X184.448 Y86.598 E6.03151
G1 X185.048 Y87.738 E6.11923
G1 X185.418 Y88.958 E6.20603
G1 X186.218 Y92.988 E6.48580
G1 X186.318 Y93.628 E6.52991
G1 X186.348 Y94.268 E6.57354
G1 X186.368 Y125.708 E8.71436
G1 X186.248 Y126.968 E8.80055
G1 X185.878 Y128.178 E8.88670
G1 X185.288 Y129.298 E8.97290
G1 X184.498 Y130.288 E9.05915
G1 X183.528 Y131.108 E9.14563
G1 X182.418 Y131.718 E9.23188
G1 X181.218 Y132.108 E9.31780
G1 X179.958 Y132.268 E9.40428
G1 X156.018 Y132.818 E11.03484
G1 X135.998 Y132.818 E12.39805
G1 X134.658 Y132.678 E12.48979
G1 X133.368 Y132.268 E12.58196
G1 X132.188 Y131.598 E12.67436
G1 X130.688 Y130.528 E12.79982
G1 X129.788 Y129.748 E12.88092
G1 X129.038 Y128.828 E12.96174
G1 X128.438 Y127.928 E13.03540
G1 X128.008 Y127.158 E13.09545
G1 X114.298 Y99.048 E15.22505
G1 X113.798 Y97.658 E15.32563
G1 X113.628 Y96.178 E15.42707
G1 X113.628 Y85.998 E16.12025
G1 X113.788 Y84.578 E16.21756
G1 X114.248 Y83.228 E16.31467
G1 X114.935 Y82.079 E16.40579
G1 F1800.000 E15.40579
G92 E0
G1 X124.377 Y88.545 F7200.000
G1 E1.00000 F1800.000
G1 X125.470 Y87.817 E1.08942 F540.000
G1 X126.759 Y87.564 E1.17884
G1 X128.046 Y87.823 E1.26826
G1 X129.136 Y88.555 E1.35768
G1 X129.863 Y89.648 E1.44709
G1 X130.117 Y90.937 E1.53650
G1 X129.858 Y92.224 E1.62592
G1 X129.126 Y93.314 E1.71533
G1 X128.033 Y94.041 E1.80475
G1 X126.744 Y94.295 E1.89417
G1 X125.457 Y94.036 E1.98358
G1 X124.367 Y93.304 E2.07300
G1 X123.639 Y92.211 E2.16242
G1 X123.386 Y90.922 E2.25183
G1 X123.645 Y89.635 E2.34125
G1 X124.330 Y88.614 E2.42497
G1 X124.777 Y88.947 F7200.000
G1 X125.686 Y88.343 E2.49930 F540.000
G1 X126.757 Y88.132 E2.57362
G1 X127.827 Y88.347 E2.64795
G1 X128.734 Y88.955 E2.72228
G1 X129.338 Y89.864 E2.79660
G1 X129.549 Y90.935 E2.87093
G1 X129.334 Y92.005 E2.94525
G1 X128.725 Y92.912 E3.01957
G1 X127.816 Y93.516 E3.09390
G1 X126.745 Y93.727 E3.16823
G1 X125.675 Y93.512 E3.24255
G1 X124.769 Y92.903 E3.31688
G1 X124.165 Y91.994 E3.39121
G1 X123.954 Y90.923 E3.46553
G1 X124.169 Y89.853 E3.53985
G1 X124.731 Y89.016 E3.60849
G1 X124.670 Y88.401 F7200.000
G1 F1800.000 E2.60849
G92 E0
G1 X142.752 Y90.922 F7200.000
G1 E1.00000 F1800.000
G1 X143.011 Y89.635 E1.08941 F540.000
G1 X143.743 Y88.545 E1.17883
G1 X144.836 Y87.817 E1.26825
G1 X146.125 Y87.564 E1.35766
G1 X147.412 Y87.823 E1.44708
G1 X148.502 Y88.555 E1.53650
G1 X149.229 Y89.648 E1.62591
G1 X149.483 Y90.937 E1.71532
G1 X149.224 Y92.224 E1.80474
G1 X148.492 Y93.314 E1.89416
G1 X147.399 Y94.041 E1.98357
G1 X146.110 Y94.295 E2.07299
G1 X144.823 Y94.036 E2.16240
G1 X143.733 Y93.304 E2.25182
G1 X143.005 Y92.211 E2.34124
G1 X142.768 Y91.004 E2.42497
G1 X143.320 Y90.923 F7200.000
G1 X143.535 Y89.853 E2.49929 F540.000
G1 X144.143 Y88.947 E2.57362
G1 X145.052 Y88.343 E2.64795
G1 X146.123 Y88.132 E2.72227
G1 X147.193 Y88.347 E2.79659
G1 X148.100 Y88.955 E2.87092
G1 X148.704 Y89.864 E2.94525
G1 X148.915 Y90.935 E3.01957
G1 X148.700 Y92.005 E3.09390
G1 X148.091 Y92.912 E3.16822
G1 X147.182 Y93.516 E3.24255
G1 X146.111 Y93.727 E3.31687
G1 X145.041 Y93.512 E3.39120
G1 X144.135 Y92.903 E3.46552
G1 X143.531 Y91.995 E3.53985
G1 X143.336 Y91.005 E3.60849
G1 X142.857 Y90.613 F7200.000
G1 F1800.000 E2.60849
G92 E0
G1 X145.473 Y104.204 F7200.000
G1 E1.00000 F1800.000
G1 X146.170 Y104.067 E1.04840 F1080.000
G1 X146.867 Y104.207 E1.09679
G1 X147.457 Y104.603 E1.14520
G1 X147.851 Y105.195 E1.19361
G1 X147.988 Y105.892 E1.24200
G1 X147.816 Y106.747 E1.30132
G1 X149.079 Y107.001 E1.38902
G1 X151.548 Y108.658 E1.59155
G1 X153.196 Y111.135 E1.79407
G1 X153.770 Y114.053 E1.99660
G1 X153.183 Y116.969 E2.19913
G1 X151.525 Y119.438 E2.40165
G1 X149.049 Y121.086 E2.60417
G1 X147.552 Y121.380 E2.70802
G1 X147.816 Y121.775 E2.74036
G1 X147.953 Y122.473 E2.78876
G1 X147.812 Y123.170 E2.83716
G1 X147.416 Y123.760 E2.88556
G1 X146.825 Y124.153 E2.93396
G1 X146.127 Y124.291 E2.98236
G1 X145.430 Y124.150 E3.03076
G1 X144.840 Y123.754 E3.07915
G1 X144.446 Y123.162 E3.12755
G1 X144.309 Y122.465 E3.17595
G1 X144.449 Y121.768 E3.22435
G1 X144.714 Y121.375 E3.25663
G1 X143.215 Y121.073 E3.36073
G1 X140.745 Y119.416 E3.56326
G1 X139.098 Y116.939 E3.76578
G1 X138.524 Y114.021 E3.96831
G1 X139.110 Y111.105 E4.17083
G1 X140.768 Y108.635 E4.37336
G1 X144.409 Y106.214 E4.67112
G1 X144.344 Y105.885 E4.69394
G1 X144.485 Y105.188 E4.74234
G1 X144.881 Y104.598 E4.79074
G1 X145.403 Y104.250 E4.83345
G1 X145.689 Y104.729 F7200.000
G1 X146.169 Y104.635 E4.86676 F540.000
G1 X146.648 Y104.731 E4.90006
G1 X147.055 Y105.004 E4.93338
G1 X147.325 Y105.411 E4.96669
G1 X147.420 Y105.891 E4.99999
G1 X147.323 Y106.371 E5.03330
G1 X146.824 Y107.115 E5.09435
G1 X148.860 Y107.525 E5.23581
G1 X151.146 Y109.059 E5.42324
G1 X152.670 Y111.351 E5.61067
G1 X153.202 Y114.052 E5.79811
G1 X152.659 Y116.750 E5.98555
G1 X151.125 Y119.036 E6.17298
G1 X148.833 Y120.560 E6.36041
G1 X146.251 Y121.068 E6.53960
G1 X147.019 Y121.584 E6.60265
G1 X147.290 Y121.992 E6.63596
G1 X147.385 Y122.472 E6.66927
G1 X147.288 Y122.951 E6.70257
G1 X147.016 Y123.357 E6.73588
G1 X146.608 Y123.628 E6.76919
G1 X146.128 Y123.723 E6.80250
G1 X145.649 Y123.626 E6.83581
G1 X145.243 Y123.354 E6.86912
G1 X144.972 Y122.946 E6.90243
G1 X144.877 Y122.466 E6.93574
G1 X144.974 Y121.987 E6.96904
G1 X145.246 Y121.581 E7.00236
G1 X146.016 Y121.068 E7.06532
G1 X143.433 Y120.549 E7.24473
G1 X141.148 Y119.015 E7.43216
G1 X139.623 Y116.723 E7.61960
G1 X139.092 Y114.022 E7.80703
G1 X139.635 Y111.323 E7.99447
G1 X141.169 Y109.038 E8.18190
G1 X143.876 Y107.237 E8.40327
G1 X143.876 Y107.432 E8.41650
G1 X145.503 Y107.112 E8.52941
G1 X145.007 Y106.366 E8.59040
G1 X144.912 Y105.886 E8.62371
G1 X145.009 Y105.406 E8.65702
G1 X145.282 Y105.000 E8.69033
G1 X145.619 Y104.776 E8.71795
G1 X145.785 Y104.250 F7200.000
G1 F1800.000 E7.71795
G92 E0
G1 X134.759 Y102.395 F7200.000
G1 E1.00000 F1800.000
G1 X124.183 Y102.395 E1.72017 F1080.000
G1 X121.045 Y95.981 E2.20633
G1 X121.045 Y86.860 E2.82746
G1 X157.113 Y86.860 E5.28338
G1 X157.113 Y124.037 E7.81487
G1 X156.747 Y124.590 E7.86006
G1 X155.596 Y125.405 E7.95607
G1 X136.276 Y125.405 E9.27166
G1 X135.125 Y124.590 E9.36767
G1 X134.759 Y124.037 E9.41286
G1 X134.759 Y102.478 E10.88081
G1 X134.202 Y102.952 F7200.000
G1 X123.835 Y102.952 E11.58672 F540.000
G1 X120.488 Y96.110 E12.10533
G1 X120.488 Y86.302 E12.77318
G1 X157.670 Y86.302 E15.30497
G1 X157.670 Y124.204 E17.88579
G1 X157.154 Y124.985 E17.94950
G1 X155.774 Y125.962 E18.06469
G1 X136.098 Y125.962 E19.40442
G1 X134.718 Y124.985 E19.51961
G1 X134.202 Y124.204 E19.58331
G1 X134.202 Y103.036 E21.02474
G1 X134.202 Y102.395 F7200.000
G1 F1800.000 E20.02474
G92 E0
G1 X166.681 Y96.378 F7200.000
G1 E1.00000 F1800.000
G1 X166.681 Y92.664 E1.25291 F540.000
G1 X171.895 Y92.664 E1.60795
G1 X171.895 Y96.378 E1.86086
G1 X166.764 Y96.378 E2.21021
G1 X167.238 Y95.821 F7200.000
G1 X167.238 Y93.221 E2.38725 F540.000
G1 X171.338 Y93.221 E2.66643
G1 X171.338 Y95.821 E2.84347
G1 X167.321 Y95.821 E3.11696
G1 X166.681 Y95.821 F7200.000
G1 F1800.000 E2.11696
G92 E0
G1 X159.579 Y94.903 F7200.000
G1 E1.00000 F1800.000
G1 X159.578 Y94.360 E1.03699 F1080.000
G1 X160.330 Y90.578 E1.29955
G1 X162.425 Y87.442 E1.55633
G1 X165.560 Y85.347 E1.81310
G1 X169.259 Y84.611 E2.06988
G1 X172.957 Y85.347 E2.32665
G1 X176.093 Y87.442 E2.58342
G1 X178.188 Y90.578 E2.84020
G1 X178.940 Y94.361 E3.10285
G1 X178.955 Y124.852 E5.17904
G1 X159.621 Y124.852 E6.49553
G1 X159.621 Y113.688 E7.25565
G1 X159.579 Y94.986 E8.52913
G1 X159.021 Y94.626 F7200.000
G1 X159.020 Y94.305 E8.55097 F540.000
G1 X159.805 Y90.360 E8.82486
G1 X162.023 Y87.041 E9.09673
G1 X165.343 Y84.822 E9.36859
G1 X169.259 Y84.043 E9.64046
G1 X173.175 Y84.822 E9.91232
G1 X176.494 Y87.041 E10.18418
G1 X178.713 Y90.360 E10.45605
G1 X179.497 Y94.306 E10.72997
G1 X179.512 Y125.409 E12.84784
G1 X159.064 Y125.409 E14.24020
G1 X159.064 Y113.689 E15.03820
G1 X159.021 Y94.710 E16.33057
G1 X159.299 Y94.465 F7200.000
G1 F1800.000 E15.33057
G92 E0
G1 X145.730 Y106.789 F7200.000
G1 E1.00000 F1800.000
G1 X146.085 Y107.062 E1.03048 F540.000
G1 X146.583 Y106.894 E1.06630
G1 X146.231 Y107.063 F7200.000
G1 X146.315 Y107.266 E1.08128 F540.000
G1 X146.046 Y107.123 F7200.000
G1 X146.085 Y107.062 E1.08621 F540.000
G1 F1800.000 E0.08621
G92 E0
G1 X148.349 Y106.095 F7200.000
G1 E1.00000 F1800.000
G1 X148.795 Y106.542 E1.04319 F1080.000
G1 X148.255 Y105.210 F7200.000
G1 X150.576 Y107.531 E1.26779 F1080.000
G1 F1800.000 E0.26779
G92 E0
G1 X152.653 Y109.608 F7200.000
G1 E1.00000 F1800.000
G1 X156.440 Y113.395 E1.36642 F1080.000
G1 X156.440 Y114.187 E1.42058
G1 X153.648 Y111.395 E1.69075
G1 X153.842 Y112.380 E1.75946
G1 X156.440 Y114.979 E2.01089
G1 X156.440 Y115.770 E2.06504
G1 X154.036 Y113.365 E2.29771
G1 X154.131 Y114.253 E2.35875
G1 X156.440 Y116.562 E2.58218
G1 X156.440 Y117.353 E2.63634
G1 X153.999 Y114.912 E2.87260
G1 X153.866 Y115.571 E2.91859
G1 X156.440 Y118.145 E3.16767
G1 X156.440 Y118.936 E3.22183
G1 X153.734 Y116.230 E3.48373
G1 X153.601 Y116.889 E3.52972
G1 X156.440 Y119.728 E3.80445
G1 X156.440 Y120.520 E3.85861
G1 X153.349 Y117.428 E4.15771
G1 X153.031 Y117.902 E4.19674
G1 X156.440 Y121.311 E4.52660
G1 X156.440 Y122.103 E4.58076
G1 X152.713 Y118.376 E4.94138
G1 X152.395 Y118.849 E4.98041
G1 X156.440 Y122.894 E5.37180
G1 X156.440 Y123.686 E5.42595
G1 X152.077 Y119.323 E5.84810
G1 X151.735 Y119.772 E5.88674
G1 X156.151 Y124.188 E6.31403
G1 X155.688 Y124.517 E6.35288
G1 X151.260 Y120.088 E6.78134
G1 X150.784 Y120.404 E6.82040
G1 X155.113 Y124.733 E7.23920
G1 X154.321 Y124.733 E7.29336
G1 X150.309 Y120.721 E7.68157
G1 X149.833 Y121.037 E7.72063
G1 X153.530 Y124.733 E8.07825
G1 X152.738 Y124.733 E8.13241
G1 X149.358 Y121.353 E8.45943
G1 X148.758 Y121.544 E8.50254
G1 X151.946 Y124.733 E8.81106
G1 X151.155 Y124.733 E8.86522
G1 X148.222 Y121.800 E9.14901
G1 X148.312 Y122.682 E9.20968
G1 X150.363 Y124.733 E9.40811
G1 X149.572 Y124.733 E9.46227
G1 X148.175 Y123.336 E9.59741
G1 X148.136 Y124.089 E9.64896
G1 X148.780 Y124.733 E9.71129
G1 X147.988 Y124.733 E9.76544
G1 X147.660 Y124.405 E9.79718
G1 X147.197 Y124.733 E9.83603
G1 X147.185 Y124.721 E9.83717
G1 F1800.000 E8.83717
G92 E0
G1 X144.822 Y124.733 F7200.000
G1 E1.00000 F1800.000
G1 X135.153 Y115.064 E1.93555 F1080.000
G1 X135.153 Y115.855 E1.98971
G1 X144.031 Y124.733 E2.84867
G1 X143.239 Y124.733 E2.90283
G1 X135.153 Y116.647 E3.68520
G1 X135.153 Y117.438 E3.73936
G1 X142.447 Y124.733 E4.44515
G1 X141.656 Y124.733 E4.49930
G1 X135.153 Y118.230 E5.12850
G1 X135.153 Y119.022 E5.18265
G1 X140.864 Y124.733 E5.73526
G1 X140.073 Y124.733 E5.78942
G1 X135.153 Y119.813 E6.26543
G1 X135.153 Y120.605 E6.31959
G1 X139.281 Y124.733 E6.71902
G1 X138.490 Y124.733 E6.77317
G1 X135.153 Y121.396 E7.09601
G1 X135.153 Y122.188 E7.15017
G1 X137.698 Y124.733 E7.39641
G1 X136.906 Y124.733 E7.45057
G1 X135.153 Y122.980 E7.62023
G1 X135.153 Y123.771 E7.67438
G1 X135.205 Y123.823 E7.67942
G1 F1800.000 E6.67942
G92 E0
G1 X143.130 Y121.458 F7200.000
G1 E1.00000 F1800.000
G1 X143.946 Y122.274 E1.07892 F1080.000
G1 X144.045 Y123.165 F7200.000
G1 X135.153 Y114.272 E1.93932 F1080.000
G1 X135.153 Y113.481 E1.99348
G1 X138.718 Y117.045 E2.33837
G1 X138.524 Y116.060 E2.40708
G1 X135.153 Y112.689 E2.73323
G1 X135.153 Y111.897 E2.78738
G1 X138.330 Y115.074 E3.09477
G1 X138.136 Y114.089 E3.16348
G1 X135.153 Y111.106 E3.45211
G1 X135.153 Y110.314 E3.50627
G1 X138.246 Y113.407 E3.80551
G1 X138.378 Y112.748 E3.85150
G1 X135.153 Y109.523 E4.16357
G1 X135.153 Y108.731 E4.21773
G1 X138.511 Y112.089 E4.54262
G1 X138.643 Y111.430 E4.58861
G1 X135.153 Y107.940 E4.92633
G1 X135.153 Y107.148 E4.98048
G1 X138.826 Y110.821 E5.33591
G1 X139.144 Y110.348 E5.37494
G1 X135.153 Y106.356 E5.76113
G1 X135.153 Y105.565 E5.81528
G1 X139.462 Y109.874 E6.23223
G1 X139.780 Y109.400 E6.27126
G1 X135.153 Y104.773 E6.71897
G1 X135.153 Y103.982 E6.77313
G1 X140.098 Y108.927 E7.25160
G1 X140.416 Y108.453 E7.29063
G1 X135.153 Y103.190 E7.79987
G1 X135.265 Y102.510 E7.84700
G1 X140.857 Y108.103 E8.38813
G1 X141.333 Y107.787 E8.42719
G1 X136.056 Y102.510 E8.93772
G1 X136.546 Y102.208 E8.97707
G1 X141.808 Y107.471 E9.48625
G1 X142.284 Y107.154 E9.52531
G1 X129.000 Y93.871 E10.81055
G1 X129.454 Y93.533 E10.84925
G1 X142.759 Y106.838 E12.13660
G1 X143.234 Y106.522 E12.17566
G1 X129.772 Y93.059 E13.47825
G1 X130.090 Y92.586 E13.51728
G1 X143.710 Y106.206 E14.83511
G1 X143.982 Y105.687 E14.87521
G1 X130.303 Y92.008 E16.19876
G1 X130.436 Y91.349 E16.24475
G1 X144.117 Y105.029 E17.56845
G1 X144.435 Y104.556 E17.60748
G1 X130.446 Y90.567 E18.96099
G1 X130.252 Y89.581 E19.02970
G1 X144.829 Y104.159 E20.44015
G1 X145.305 Y103.843 E20.47921
G1 X128.862 Y87.400 E22.07016
G1 X129.507 Y87.253 E22.11542
G1 X145.960 Y103.707 E23.70737
G1 X146.846 Y103.801 E23.76833
G1 X130.298 Y87.253 E25.36941
G1 X131.090 Y87.253 E25.42357
G1 X156.440 Y112.604 E27.87636
G1 X156.440 Y111.812 E27.93052
G1 X131.882 Y87.253 E30.30672
G1 X132.673 Y87.253 E30.36088
G1 X156.440 Y111.021 E32.66049
G1 X156.440 Y110.229 E32.71465
G1 X133.465 Y87.253 E34.93768
G1 X134.256 Y87.253 E34.99183
G1 X156.440 Y109.438 E37.13827
G1 X156.440 Y108.646 E37.19243
G1 X135.048 Y87.253 E39.26227
G1 X135.839 Y87.253 E39.31643
G1 X156.440 Y107.854 E41.30969
G1 X156.440 Y107.063 E41.36384
G1 X143.153 Y93.775 E42.64950
G1 X142.499 Y93.122 F7200.000
G1 X136.631 Y87.253 E43.21729 F1080.000
G1 X137.423 Y87.253 E43.27145
G1 X142.305 Y92.136 E43.74389
G1 X142.112 Y91.151 E43.81261
G1 X138.214 Y87.253 E44.18971
G1 X139.006 Y87.253 E44.24386
G1 X142.168 Y90.416 E44.54982
G1 X142.301 Y89.757 E44.59581
G1 X139.797 Y87.253 E44.83801
G1 X140.589 Y87.253 E44.89217
G1 X142.510 Y89.175 E45.07804
G1 X142.828 Y88.701 E45.11707
G1 X141.380 Y87.253 E45.25712
G1 X142.172 Y87.253 E45.31128
G1 X143.146 Y88.227 E45.40550
G1 X143.565 Y87.855 E45.44387
G1 X142.964 Y87.253 E45.50208
G1 X143.755 Y87.253 E45.55624
G1 X144.041 Y87.539 E45.58385
G1 F1800.000 E44.58385
G92 E0
G1 X148.505 Y87.253 F7200.000
G1 E1.00000 F1800.000
G1 X156.440 Y95.189 E1.76782 F1080.000
G1 X156.440 Y94.398 E1.82198
G1 X149.296 Y87.253 E2.51322
G1 X150.088 Y87.253 E2.56737
G1 X156.440 Y93.606 E3.18202
G1 X156.440 Y92.814 E3.23618
G1 X150.879 Y87.253 E3.77423
G1 X151.671 Y87.253 E3.82839
G1 X156.440 Y92.023 E4.28985
G1 X156.440 Y91.231 E4.34401
G1 X152.463 Y87.253 E4.72889
G1 X153.254 Y87.253 E4.78304
G1 X156.440 Y90.440 E5.09133
G1 X156.440 Y89.648 E5.14549
G1 X154.046 Y87.253 E5.37719
G1 X154.837 Y87.253 E5.43134
G1 X156.440 Y88.857 E5.58645
G1 X156.440 Y88.065 E5.64061
G1 X155.629 Y87.253 E5.71913
G1 X156.420 Y87.253 E5.77328
G1 X156.440 Y87.273 E5.77521
G1 F1800.000 E4.77521
G92 E0
G1 X149.656 Y89.196 F7200.000
G1 E1.00000 F1800.000
G1 X156.440 Y95.981 E1.65643 F1080.000
G1 X156.440 Y96.772 E1.71059
G1 X149.708 Y90.040 E2.36199
G1 X149.873 Y90.996 E2.42839
G1 X156.440 Y97.564 E3.06385
G1 X156.440 Y98.355 E3.11801
