; generated by Slic3r 1.0.0RC2 on 2014-05-19 at 18:39:58

; layer_height = 0.3
; perimeters = 4
; top_solid_layers = 3
; bottom_solid_layers = 3
; fill_density = 0.1
; perimeter_speed = 60
; infill_speed = 60
; travel_speed = 120
; nozzle_diameter = 0.4
; filament_diameter = 1.75
; extrusion_multiplier = 0.98
; perimeters extrusion width = 0.40mm
; infill extrusion width = 0.42mm
; solid infill extrusion width = 0.42mm
; top infill extrusion width = 0.42mm
; first layer extrusion width = 0.80mm

G21 ; set units to millimeters
M107
M104 S220 ; set temperature
G28 ; home all axes
M106 S255;
G1 Z200 F1200 ; lift nozzle
M109 S220 ; wait for temperature to be reached
G90 ; use absolute coordinates
G92 E0
M82 ; use absolute distances for extrusion
G1 F1800.000 E-1.00000
G92 E0
G1 Z0.400 F7200.000
G1 X106.844 Y94.374 F7200.000
G1 E1.00000 F1800.000
G1 X107.884 Y93.534 E1.15560 F1080.000
G1 X109.064 Y92.924 E1.31020
G1 X137.204 Y81.744 E4.83444
G1 X138.424 Y81.394 E4.98216
G1 X139.684 Y81.274 E5.12948
G1 X160.264 Y81.274 E7.52478
G1 X161.524 Y81.394 E7.67209
G1 X162.744 Y81.744 E7.81982
G1 X190.954 Y92.954 E11.35291
G1 X192.134 Y93.564 E11.50752
G1 X193.174 Y94.404 E11.66312
G1 X194.034 Y95.424 E11.81840
G1 X194.664 Y96.594 E11.97306
G1 X195.054 Y97.864 E12.12769
G1 X195.184 Y99.194 E12.28323
G1 X195.184 Y109.354 E13.46575
G1 X195.064 Y110.624 E13.61422
G1 X194.714 Y111.844 E13.76194
G1 X194.124 Y112.974 E13.91031
G1 X193.344 Y113.974 E14.05792
G1 X192.384 Y114.814 E14.20639
G1 X191.284 Y115.454 E14.35451
G1 X162.964 Y128.494 E17.98331
G1 X161.594 Y128.954 E18.15151
G1 X160.154 Y129.104 E18.32002
G1 X139.794 Y129.104 E20.68972
G1 X138.354 Y128.954 E20.85822
G1 X136.974 Y128.484 E21.02790
G1 X108.724 Y115.404 E24.65125
G1 X107.624 Y114.764 E24.79938
G1 X106.664 Y113.934 E24.94708
G1 X105.884 Y112.934 E25.09469
G1 X105.304 Y111.794 E25.24356
G1 X104.954 Y110.574 E25.39128
G1 X104.834 Y109.314 E25.53860
G1 X104.834 Y99.164 E26.71995
G1 X104.964 Y97.834 E26.87549
G1 X105.354 Y96.564 E27.03012
G1 X105.984 Y95.394 E27.18478
G1 X106.775 Y94.456 E27.32760
G1 F1800.000 E26.32760
G92 E0
G1 X141.319 Y102.957 F7200.000
G1 E1.00000 F1800.000
G1 X144.520 Y102.081 E1.38628 F1080.000
G1 X144.885 Y101.347 E1.48176
G1 X145.242 Y100.836 E1.55425
G1 X144.496 Y97.494 E1.95281
G1 X149.201 Y96.219 E2.52012
G1 X150.928 Y95.842 E2.72594
G1 X151.793 Y99.058 E3.11356
G1 X152.344 Y99.296 E3.18340
G1 X153.054 Y99.761 E3.28218
G1 X156.384 Y99.020 E3.67931
G1 X157.659 Y103.727 E4.24691
G1 X158.043 Y105.455 E4.45296
G1 X154.812 Y106.323 E4.84236
G1 X154.704 Y106.670 E4.88461
G1 X154.123 Y107.614 E5.01369
G1 X154.855 Y110.901 E5.40557
G1 X150.153 Y112.180 E5.97267
G1 X148.427 Y112.563 E6.17844
G1 X147.562 Y109.371 E6.56347
G1 X146.605 Y108.881 E6.68858
G1 X146.304 Y108.634 E6.73388
G1 X142.970 Y109.389 E7.13174
G1 X141.698 Y104.680 E7.69948
G1 X141.342 Y103.062 E7.89229
G1 X142.163 Y103.467 F7200.000
G1 X145.073 Y102.671 E8.24348 F756.000
G1 X145.147 Y102.427 E8.27315
G1 X145.500 Y101.716 E8.36552
G1 X146.019 Y100.971 E8.47111
G1 X145.865 Y100.403 E8.53967
G1 X145.339 Y98.006 E8.82530
G1 X149.370 Y96.913 E9.31139
G1 X150.416 Y96.685 E9.43590
G1 X151.191 Y99.564 E9.78296
G1 X151.998 Y99.924 E9.88580
G1 X152.676 Y100.366 E9.97997
G1 X152.875 Y100.549 E10.01146
G1 X153.481 Y100.386 E10.08444
G1 X155.873 Y99.864 E10.36946
G1 X156.966 Y103.898 E10.85590
G1 X157.198 Y104.943 E10.98049
G1 X154.283 Y105.728 E11.33185
G1 X154.058 Y106.343 E11.40810
G1 X153.629 Y107.049 E11.50421
G1 X153.325 Y107.399 E11.55820
G1 X153.490 Y108.007 E11.63155
G1 X154.012 Y110.390 E11.91547
G1 X149.982 Y111.486 E12.40155
G1 X148.938 Y111.718 E12.52599
G1 X148.147 Y108.805 E12.87737
G1 X147.723 Y108.653 E12.92982
G1 X147.000 Y108.278 E13.02466
G1 X146.466 Y107.850 E13.10426
G1 X145.866 Y108.013 E13.17664
G1 X143.481 Y108.545 E13.46096
G1 X142.392 Y104.510 E13.94738
G1 X142.186 Y103.572 E14.05920
G1 X141.986 Y102.775 F7200.000
G1 F1800.000 E13.05920
G92 E0
G1 X144.744 Y110.460 F7200.000
G1 E1.00000 F1800.000
G1 X146.009 Y110.177 E1.15089 F1080.000
G1 X146.348 Y110.353 E1.19541
G1 X147.406 Y114.254 E1.66581
G1 X150.496 Y113.567 E2.03423
G1 X156.541 Y111.922 E2.76337
G1 X155.648 Y107.848 E3.24885
G1 X155.841 Y107.525 E3.29258
G1 X157.781 Y107.004 E3.52637
G1 X157.781 Y119.861 E5.02280
G1 X142.174 Y119.861 E6.83929
G1 X142.174 Y111.028 E7.86744
G1 X144.639 Y110.483 E8.16128
G1 X144.589 Y109.763 F7200.000
G1 X146.092 Y109.426 E8.34057 F1080.000
G1 X146.956 Y109.864 E8.45329
G1 X147.917 Y113.408 E8.88073
G1 X150.325 Y112.873 E9.16782
G1 X155.698 Y111.412 E9.81594
G1 X154.890 Y107.724 E10.25532
G1 X155.217 Y107.178 E10.32934
G1 X155.423 Y106.898 E10.36983
G1 X158.495 Y106.073 E10.74007
G1 X158.494 Y120.576 E12.42801
G1 X141.461 Y120.576 E14.41044
G1 X141.460 Y108.291 E15.84027
G1 X141.917 Y108.230 E15.89394
G1 X142.458 Y110.234 E16.13546
G1 X144.484 Y109.786 E16.37696
G1 X140.634 Y112.523 F7200.000
G1 X142.792 Y108.294 F7200.000
G1 X140.632 Y102.542 F7200.000
G1 X142.175 Y101.242 F7200.000
G1 X142.178 Y90.527 E17.62412 F1080.000
G1 X157.778 Y90.527 E19.43983
G1 X157.778 Y97.250 E20.22234
G1 X153.326 Y98.227 E20.75285
G1 X152.990 Y98.008 E20.79958
G1 X151.954 Y94.156 E21.26378
G1 X148.861 Y94.831 E21.63221
G1 X142.810 Y96.472 E22.36198
G1 X143.699 Y100.526 E22.84502
G1 X143.526 Y100.873 E22.89012
G1 X142.278 Y101.214 E23.04070
G1 X141.461 Y102.178 F7200.000
G1 X141.464 Y89.813 E24.47992 F1080.000
G1 X158.492 Y89.813 E26.46185
G1 X158.495 Y102.333 E27.91914
G1 X158.038 Y102.394 E27.97275
G1 X156.896 Y98.176 E28.48142
G1 X153.179 Y98.990 E28.92431
G1 X152.690 Y98.668 E28.99240
G1 X152.393 Y98.538 E29.03014
G1 X151.441 Y94.999 E29.45671
G1 X149.031 Y95.525 E29.74384
G1 X143.653 Y96.983 E30.39238
G1 X144.469 Y100.703 E30.83561
G1 X144.271 Y100.978 E30.87501
G1 X144.023 Y101.477 E30.93987
G1 X141.564 Y102.150 E31.23664
G1 X140.746 Y103.114 F7200.000
G1 X140.750 Y89.099 E32.86790 F1080.000
G1 X159.206 Y89.099 E35.01607
G1 X159.222 Y103.698 E36.71527
G1 X159.207 Y121.290 E38.76279
G1 X140.749 Y121.290 E40.91117
G1 X140.746 Y103.221 E43.01416
G1 X140.032 Y103.280 F7200.000
G1 X140.035 Y88.384 E44.74786 F756.000
G1 X159.920 Y88.384 E47.06227
G1 X159.923 Y103.279 E48.79585
G1 X159.958 Y104.412 E48.92777
G1 X159.923 Y104.412 E48.93175
G1 X159.919 Y122.004 E50.97927
G1 X140.037 Y122.004 E53.29340
G1 X140.032 Y104.412 E55.34092
G1 X139.992 Y104.412 E55.34555
G1 X140.028 Y103.387 E55.46491
G1 X140.655 Y102.930 F7200.000
G1 X121.735 Y103.989 F7200.000
G1 X121.992 Y104.385 E55.51990 F756.000
G1 X122.260 Y104.403 E55.55106
G1 X139.042 Y104.403 E57.50440
G1 X139.509 Y104.132 E57.56721
G1 X139.164 Y104.379 F7200.000
G1 X139.399 Y104.735 E57.61687 F756.000
G1 X121.992 Y104.385 F7200.000
G1 X121.640 Y104.634 E57.66706 F756.000
G1 F1800.000 E56.66706
G92 E0
G1 X160.438 Y104.631 F7200.000
G1 E1.00000 F1800.000
G1 X160.788 Y104.383 E1.04997 F756.000
G1 X160.523 Y104.022 F7200.000
G1 X160.621 Y104.268 E1.08085 F756.000
G1 X161.042 Y104.403 E1.13222
G1 X177.824 Y104.403 E3.08557
G1 X178.279 Y104.135 E3.14695
G1 X177.926 Y104.384 F7200.000
G1 X178.181 Y104.774 E3.20127 F756.000
G1 F1800.000 E2.20127
G92 E0
G1 X157.299 Y112.668 F7200.000
G1 E1.00000 F1800.000
G1 X157.234 Y112.603 E1.01074 F1080.000
G1 X156.147 Y112.529 E1.13806
G1 X157.299 Y113.682 E1.32844
G1 X157.299 Y114.695 E1.44681
G1 X155.350 Y112.746 E1.76878
G1 X154.553 Y112.963 E1.86521
G1 X157.299 Y115.709 E2.31878
G1 X157.299 Y116.722 E2.43714
G1 X153.756 Y113.179 E3.02230
G1 X152.960 Y113.396 E3.11874
G1 X157.299 Y117.736 E3.83549
G1 X157.299 Y118.749 E3.95385
G1 X152.163 Y113.613 E4.80220
G1 X151.366 Y113.830 E4.89863
G1 X156.916 Y119.379 E5.81531
G1 X155.903 Y119.379 E5.93367
G1 X150.568 Y114.045 E6.81483
G1 X149.739 Y114.229 E6.91404
G1 X154.889 Y119.379 E7.76476
G1 X153.876 Y119.379 E7.88313
G1 X148.909 Y114.413 E8.70342
G1 X148.080 Y114.597 E8.80262
G1 X152.862 Y119.379 E9.59248
G1 X151.849 Y119.379 E9.71084
G1 X143.661 Y111.191 E11.06327
G1 X142.831 Y111.375 E11.16249
G1 X150.835 Y119.379 E12.48451
G1 X149.822 Y119.379 E12.60288
G1 X142.656 Y112.213 E13.78651
G1 X142.656 Y113.227 E13.90488
G1 X148.809 Y119.379 E14.92112
G1 X147.795 Y119.379 E15.03949
G1 X142.656 Y114.240 E15.88832
G1 X142.656 Y115.254 E16.00669
G1 X146.782 Y119.379 E16.68813
G1 X145.768 Y119.379 E16.80649
G1 X142.656 Y116.267 E17.32053
G1 X142.656 Y117.281 E17.43890
G1 X144.755 Y119.379 E17.78554
G1 X143.741 Y119.379 E17.90390
G1 X142.656 Y118.294 E18.08314
G1 X142.656 Y119.308 E18.20151
G1 X142.728 Y119.379 E18.21335
G1 X146.598 Y113.115 F7200.000
G1 X144.490 Y111.007 E18.56145 F1080.000
G1 X145.320 Y110.823 E18.66067
G1 X146.221 Y111.724 E18.80952
G1 X141.535 Y107.553 F7200.000
G1 X141.467 Y107.486 E18.82063 F360.000
G1 X141.281 Y105.645 F7200.000
G1 X141.243 Y105.607 E18.82424 F360.000
G1 X141.292 Y105.081 E18.85926 F360.000
G1 X141.263 Y105.052 E18.86197 F360.000
G1 F1800.000 E17.86197
G92 E0
G1 X141.244 Y99.608 F7200.000
G1 X138.244 Y100.164 F7200.000
G1 X114.484 Y100.164 F7200.000
G1 X112.544 Y108.224 F7200.000
G1 X137.382 Y107.439 F7200.000
G1 E1.00000 F1800.000
G1 X137.337 Y107.394 E1.00750 F360.000
G1 X136.413 Y107.485 E1.11597 F360.000
G1 X136.323 Y107.394 E1.13098 F360.000
G1 X135.399 Y107.485 E1.23945 F360.000
G1 X135.308 Y107.394 E1.25446 F360.000
G1 X134.385 Y107.485 E1.36292 F360.000
G1 X134.294 Y107.394 E1.37793 F360.000
G1 X133.371 Y107.485 E1.48640 F360.000
G1 X133.280 Y107.394 E1.50141 F360.000
G1 X132.356 Y107.485 E1.60988 F360.000
G1 X132.265 Y107.394 E1.62489 F360.000
G1 X131.342 Y107.485 E1.73335 F360.000
G1 X131.251 Y107.394 E1.74836 F360.000
G1 X130.328 Y107.485 E1.85683 F360.000
G1 X130.237 Y107.394 E1.87184 F360.000
G1 X129.313 Y107.485 E1.98030 F360.000
G1 X129.223 Y107.394 E1.99531 F360.000
G1 X128.299 Y107.485 E2.10378 F360.000
G1 X128.208 Y107.394 E2.11879 F360.000
G1 X127.285 Y107.485 E2.22726 F360.000
G1 X127.194 Y107.394 E2.24227 F360.000
G1 X126.270 Y107.485 E2.35073 F360.000
G1 X126.180 Y107.394 E2.36574 F360.000
G1 X125.256 Y107.485 E2.47421 F360.000
G1 X125.165 Y107.394 E2.48922 F360.000
G1 X124.242 Y107.485 E2.59769 F360.000
G1 X124.151 Y107.394 E2.61269 F360.000
G1 X123.228 Y107.485 E2.72116 F360.000
G1 X123.137 Y107.394 E2.73617 F360.000
G1 X122.213 Y107.485 E2.84464 F360.000
G1 X122.122 Y107.394 E2.85965 F360.000
G1 X121.199 Y107.485 E2.96811 F360.000
G1 X121.108 Y107.394 E2.98312 F360.000
G1 X120.139 Y107.439 E3.09650 F360.000
G1 X120.185 Y107.485 E3.10401 F360.000
G1 X120.185 Y101.166 F7200.000
G1 X120.113 Y101.094 E3.11597 F360.000
G1 X121.037 Y100.999 E3.22501 F360.000
G1 X121.204 Y101.166 E3.25271 F360.000
G1 X122.055 Y100.999 E3.35463 F360.000
G1 X122.222 Y101.166 E3.38233 F360.000
G1 X123.074 Y100.999 E3.48424 F360.000
G1 X123.241 Y101.166 E3.51195 F360.000
G1 X124.093 Y100.999 E3.61386 F360.000
G1 X124.260 Y101.166 E3.64156 F360.000
G1 X125.112 Y100.999 E3.74348 F360.000
G1 X125.279 Y101.166 E3.77118 F360.000
G1 X126.130 Y100.999 E3.87310 F360.000
G1 X126.297 Y101.166 E3.90080 F360.000
G1 X127.149 Y100.999 E4.00271 F360.000
G1 X127.316 Y101.166 E4.03042 F360.000
G1 X128.168 Y100.999 E4.13233 F360.000
G1 X128.335 Y101.166 E4.16003 F360.000
G1 X129.187 Y100.999 E4.26195 F360.000
G1 X129.354 Y101.166 E4.28965 F360.000
G1 X130.205 Y100.999 E4.39157 F360.000
G1 X130.372 Y101.166 E4.41927 F360.000
G1 X131.224 Y100.999 E4.52118 F360.000
G1 X131.391 Y101.166 E4.54889 F360.000
G1 X132.243 Y100.999 E4.65080 F360.000
G1 X132.410 Y101.166 E4.67850 F360.000
G1 X133.262 Y100.999 E4.78042 F360.000
G1 X133.429 Y101.166 E4.80812 F360.000
G1 X134.280 Y100.999 E4.91004 F360.000
G1 X134.447 Y101.166 E4.93774 F360.000
G1 X135.299 Y100.999 E5.03965 F360.000
G1 X135.466 Y101.166 E5.06736 F360.000
G1 X136.318 Y100.999 E5.16927 F360.000
G1 X136.485 Y101.166 E5.19697 F360.000
G1 X137.337 Y100.999 E5.29889 F360.000
G1 X137.409 Y101.071 E5.31085 F360.000
G1 F1800.000 E4.31085
G92 E0
G1 X138.244 Y100.164 F7200.000
G1 X141.244 Y99.608 F7200.000
G1 X142.673 Y100.545 F7200.000
G1 E1.00000 F1800.000
G1 X143.134 Y100.455 E1.02989 F360.000
G1 X142.673 Y99.994 E1.07138 F360.000
G1 X143.030 Y99.800 E1.09723 F360.000
G1 X142.673 Y99.442 E1.12934 F360.000
G1 X142.875 Y99.093 E1.15499 F360.000
G1 X142.673 Y98.891 E1.17317 F360.000
G1 X142.720 Y98.387 E1.20535 F360.000
G1 X142.695 Y98.361 E1.20765 F360.000
G1 X142.673 Y100.545 F7200.000
G1 X142.708 Y100.581 E1.21083 F360.000
G1 X147.078 Y88.984 F7200.000
G1 X157.685 Y98.329 F7200.000
G1 X157.735 Y98.380 E1.21918 F360.000
G1 X157.959 Y99.595 F7200.000
G1 X157.998 Y99.634 E1.22283 F360.000
G1 X157.948 Y100.163 E1.25828 F360.000
G1 X157.978 Y100.192 E1.26102 F360.000
G1 X158.405 Y103.757 F7200.000
G1 X158.452 Y103.804 E1.26876 F360.000
G1 X158.674 Y105.040 F7200.000
G1 X158.712 Y105.078 E1.27223 F360.000
G1 X158.560 Y105.487 E1.30050 F360.000
G1 X158.602 Y105.530 E1.30438 F360.000
G1 X156.987 Y107.954 F7200.000
G1 X157.070 Y108.038 E1.32207 F360.000
G1 X156.599 Y108.867 E1.46497 F360.000
G1 X157.070 Y109.338 E1.56473 F360.000
G1 X156.964 Y110.532 E1.74435 F360.000
G1 X157.024 Y110.592 E1.75711 F360.000
G1 X157.060 Y111.957 F7200.000
G1 X157.096 Y111.993 E1.75990 F360.000
G1 F1800.000 E0.75990
G92 E0
G1 X158.776 Y108.924 F7200.000
G1 X165.640 Y108.360 F7200.000
G1 X162.611 Y107.453 F7200.000
G1 E1.00000 F1800.000
G1 X163.529 Y107.351 E1.10842 F360.000
G1 X163.702 Y107.525 E1.13727 F360.000
G1 X164.548 Y107.351 E1.23864 F360.000
G1 X164.722 Y107.525 E1.26750 F360.000
G1 X165.567 Y107.351 E1.36887 F360.000
G1 X165.741 Y107.525 E1.39772 F360.000
G1 X166.586 Y107.351 E1.49909 F360.000
G1 X166.760 Y107.525 E1.52794 F360.000
G1 X167.605 Y107.351 E1.62931 F360.000
G1 X167.779 Y107.525 E1.65817 F360.000
G1 X168.624 Y107.351 E1.75954 F360.000
G1 X168.798 Y107.525 E1.78839 F360.000
G1 X169.644 Y107.351 E1.88976 F360.000
G1 X169.817 Y107.525 E1.91861 F360.000
G1 X170.663 Y107.351 E2.01998 F360.000
G1 X170.837 Y107.525 E2.04884 F360.000
G1 X171.682 Y107.351 E2.15021 F360.000
G1 X171.856 Y107.525 E2.17906 F360.000
G1 X172.701 Y107.351 E2.28043 F360.000
G1 X172.875 Y107.525 E2.30928 F360.000
G1 X173.720 Y107.351 E2.41065 F360.000
G1 X173.894 Y107.525 E2.43951 F360.000
G1 X174.739 Y107.351 E2.54088 F360.000
G1 X174.913 Y107.525 E2.56973 F360.000
G1 X175.759 Y107.351 E2.67110 F360.000
G1 X175.932 Y107.525 E2.69996 F360.000
G1 X176.778 Y107.351 E2.80132 F360.000
G1 X176.951 Y107.525 E2.83018 F360.000
G1 X177.797 Y107.351 E2.93155 F360.000
G1 X177.971 Y107.525 E2.96040 F360.000
G1 X178.816 Y107.351 E3.06177 F360.000
G1 X178.990 Y107.525 E3.09063 F360.000
G1 X179.835 Y107.351 E3.19200 F360.000
G1 X179.907 Y107.423 E3.20396 F360.000
G1 X179.881 Y101.077 F7200.000
G1 X179.835 Y101.031 E3.21147 F360.000
G1 X178.912 Y101.122 E3.31994 F360.000
G1 X178.821 Y101.031 E3.33494 F360.000
G1 X177.898 Y101.122 E3.44341 F360.000
G1 X177.807 Y101.031 E3.45842 F360.000
G1 X176.883 Y101.122 E3.56689 F360.000
G1 X176.792 Y101.031 E3.58190 F360.000
G1 X175.869 Y101.122 E3.69036 F360.000
G1 X175.778 Y101.031 E3.70537 F360.000
G1 X174.855 Y101.122 E3.81384 F360.000
G1 X174.764 Y101.031 E3.82885 F360.000
G1 X173.840 Y101.122 E3.93731 F360.000
G1 X173.750 Y101.031 E3.95232 F360.000
G1 X172.826 Y101.122 E4.06079 F360.000
G1 X172.735 Y101.031 E4.07580 F360.000
G1 X171.812 Y101.122 E4.18427 F360.000
G1 X171.721 Y101.031 E4.19927 F360.000
G1 X170.797 Y101.122 E4.30774 F360.000
G1 X170.707 Y101.031 E4.32275 F360.000
G1 X169.783 Y101.122 E4.43122 F360.000
G1 X169.692 Y101.031 E4.44623 F360.000
G1 X168.769 Y101.122 E4.55469 F360.000
G1 X168.678 Y101.031 E4.56970 F360.000
G1 X167.755 Y101.122 E4.67817 F360.000
G1 X167.664 Y101.031 E4.69318 F360.000
G1 X166.740 Y101.122 E4.80165 F360.000
G1 X166.650 Y101.031 E4.81665 F360.000
G1 X165.726 Y101.122 E4.92512 F360.000
G1 X165.635 Y101.031 E4.94013 F360.000
G1 X164.712 Y101.122 E5.04860 F360.000
G1 X164.621 Y101.031 E5.06361 F360.000
G1 X163.697 Y101.122 E5.17207 F360.000
G1 X163.607 Y101.031 E5.18708 F360.000
G1 X162.638 Y101.077 E5.30046 F360.000
G1 X162.683 Y101.122 E5.30796 F360.000
G1 F1800.000 E4.30796
