; generated by Slic3r 1.0.0RC2 on 2014-05-19 at 21:09:32

; layer_height = 0.3
; perimeters = 4
; top_solid_layers = 3
; bottom_solid_layers = 3
; fill_density = 0.1
; perimeter_speed = 60
; infill_speed = 60
; travel_speed = 120
; nozzle_diameter = 0.4
; filament_diameter = 1.75
; extrusion_multiplier = 0.98
; perimeters extrusion width = 0.40mm
; infill extrusion width = 0.42mm
; solid infill extrusion width = 0.42mm
; top infill extrusion width = 0.42mm
; first layer extrusion width = 0.80mm

G21 ; set units to millimeters
M107
M104 S220 ; set temperature
G28 ; home all axes
M106 S255;
G1 Z200 F1200 ; lift nozzle
M109 S220 ; wait for temperature to be reached
G90 ; use absolute coordinates
G92 E0
M82 ; use absolute distances for extrusion
G1 F1800.000 E-1.00000
G92 E0
G1 Z0.400 F7200.000
G1 X105.687 Y64.386 F7200.000
G1 E1.00000 F1800.000
G1 X106.507 Y63.276 E1.16062 F1080.000
G1 X107.537 Y62.366 E1.32059
G1 X108.737 Y61.676 E1.48170
G1 X110.057 Y61.246 E1.64328
G1 X111.427 Y61.106 E1.80357
G1 X171.057 Y60.836 E8.74396
G1 X188.517 Y60.836 E10.77613
G1 X189.827 Y60.956 E10.92924
G1 X191.087 Y61.346 E11.08276
G1 X192.247 Y61.966 E11.23584
G1 X193.267 Y62.796 E11.38890
G1 X194.097 Y63.816 E11.54195
G1 X194.717 Y64.976 E11.69504
G1 X195.097 Y66.236 E11.84822
G1 X195.227 Y67.546 E12.00144
G1 X195.247 Y141.586 E20.61894
G1 X195.107 Y142.956 E20.77923
G1 X194.687 Y144.276 E20.94045
G1 X194.007 Y145.486 E21.10200
G1 X193.087 Y146.516 E21.26274
G1 X191.987 Y147.346 E21.42312
G1 X190.727 Y147.936 E21.58506
G1 X189.377 Y148.246 E21.74627
G1 X182.597 Y149.106 E22.54172
G1 X181.447 Y149.156 E22.67569
G1 X180.307 Y149.006 E22.80952
G1 X166.287 Y145.906 E24.48072
G1 X165.527 Y145.686 E24.57281
G1 X144.567 Y138.396 E27.15568
G1 X143.807 Y138.076 E27.25166
G1 X143.077 Y137.656 E27.34968
G1 X125.317 Y125.936 E29.82629
G1 X124.257 Y125.066 E29.98590
G1 X123.397 Y124.006 E30.14477
G1 X111.527 Y105.796 E32.67474
G1 X111.007 Y104.846 E32.80080
G1 X110.657 Y103.826 E32.92631
G1 X106.487 Y87.926 E34.83949
G1 X106.357 Y87.356 E34.90754
G1 X106.287 Y86.776 E34.97553
G1 X104.767 Y68.366 E37.12556
G1 X104.797 Y66.986 E37.28622
G1 X105.107 Y65.646 E37.44630
G1 X105.642 Y64.484 E37.59527
G1 F1800.000 E36.59527
G92 E0
G1 X124.363 Y79.413 F7200.000
G1 E1.00000 F1800.000
G1 X141.222 Y79.413 E2.96223 F1080.000
G1 X154.355 Y117.911 E7.69659
G1 X151.443 Y120.148 E8.12404
G1 X139.404 Y112.103 E9.80934
G1 X129.549 Y97.226 E11.88634
G1 X124.393 Y79.515 E14.03323
G1 X125.314 Y80.127 F7200.000
G1 X140.711 Y80.127 E15.82522 F1080.000
G1 X153.514 Y117.657 E20.44049
G1 X151.414 Y119.270 E20.74872
G1 X139.921 Y111.589 E22.35770
G1 X130.204 Y96.922 E24.40536
G1 X125.344 Y80.230 E26.42884
G1 X126.266 Y80.841 F7200.000
G1 X140.200 Y80.841 E28.05059 F1080.000
G1 X152.673 Y117.402 E32.54677
G1 X151.385 Y118.392 E32.73577
G1 X140.437 Y111.075 E34.26843
G1 X130.860 Y96.618 E36.28677
G1 X126.296 Y80.944 E38.18683
G1 X127.218 Y81.555 F7200.000
G1 X139.689 Y81.555 E39.63833 F756.000
G1 X151.831 Y117.148 E44.01544
G1 X151.356 Y117.513 E44.08521
G1 X140.953 Y110.561 E45.54156
G1 X131.515 Y96.314 E47.53055
G1 X127.248 Y81.658 E49.30720
G1 X127.151 Y80.844 F7200.000
G1 X148.842 Y79.413 F7200.000
G1 X170.103 Y79.413 E51.78180 F1080.000
G1 X175.362 Y121.015 E56.66244
G1 X163.514 Y125.860 E58.15221
G1 X148.874 Y79.515 E63.80907
G1 X149.817 Y80.127 F7200.000
G1 X169.474 Y80.127 E66.09696 F1080.000
G1 X174.585 Y120.561 E70.84058
G1 X163.962 Y124.906 E72.17637
G1 X149.849 Y80.229 E77.62955
G1 X150.791 Y80.841 F7200.000
G1 X168.844 Y80.841 E79.73074 F1080.000
G1 X173.807 Y120.108 E84.33735
G1 X164.409 Y123.951 E85.51914
G1 X150.823 Y80.943 E90.76864
G1 X151.766 Y81.555 F7200.000
G1 X168.215 Y81.555 E92.68313 F756.000
G1 X173.030 Y119.654 E97.15273
G1 X164.856 Y122.996 E98.18053
G1 X151.798 Y81.657 E103.22635
G1 X151.693 Y80.845 F7200.000
G1 F1800.000 E102.22635
G92 E0
G1 X184.772 Y136.920 F7200.000
G1 E1.00000 F1800.000
G1 X185.752 Y136.986 E1.11431 F540.000
G1 X185.879 Y139.365 E1.39160
G1 X181.880 Y139.876 E1.86082
G1 X180.417 Y139.552 E2.03519
G1 X184.680 Y136.975 E2.61502
G1 X179.889 Y141.015 F7200.000
G1 X171.347 Y101.554 F7200.000
G1 X181.816 Y68.546 F7200.000
G1 X185.402 Y73.809 F7200.000
G1 X180.786 Y70.261 E3.29268 F540.000
G1 X180.844 Y70.089 E3.31391
G1 X185.977 Y70.089 E3.91128
G1 X185.977 Y73.809 E4.34428
G1 X185.509 Y73.809 E4.39867
G1 X179.414 Y70.089 F7200.000
G1 X179.414 Y92.410 E6.99668 F1080.000
G1 X185.090 Y88.855 E7.77624
G1 X185.977 Y88.855 E7.87944
G1 X185.977 Y92.465 E8.29967
G1 X185.725 Y118.387 E11.31679
G1 X185.873 Y122.159 E11.75623
G1 X179.776 Y117.264 E12.66631
G1 X178.949 Y139.228 E15.22449
G1 X168.435 Y136.902 E16.47786
G1 X147.921 Y129.768 E19.00565
G1 X130.864 Y118.514 E21.38420
G1 X119.508 Y101.092 E23.80462
G1 X115.501 Y85.801 E25.64442
G1 X114.626 Y75.271 E26.87423
G1 X135.699 Y75.187 E29.32695
G1 X132.813 Y70.294 E29.98823
G1 X155.609 Y70.193 E32.64152
G1 X152.965 Y75.140 E33.29443
G1 X177.204 Y74.995 E36.11565
G1 X174.221 Y70.090 E36.78384
G1 X179.307 Y70.089 E37.37579
G1 X180.128 Y70.657 F7200.000
G1 X180.128 Y91.120 E39.75755 F1080.000
G1 X184.885 Y88.141 E40.41085
G1 X186.691 Y88.141 E40.62106
G1 X186.691 Y92.469 E41.12480
G1 X186.439 Y118.376 E44.14030
G1 X186.608 Y122.683 E44.64191
G1 X185.275 Y122.595 E44.79745
G1 X180.436 Y118.710 E45.51968
G1 X179.666 Y139.172 E47.90290
G1 X184.595 Y136.192 E48.57329
G1 X186.431 Y136.316 E48.78746
G1 X186.627 Y139.989 E49.21560
G1 X181.847 Y140.600 E49.77649
G1 X168.239 Y137.591 E51.39851
G1 X147.603 Y130.414 E53.94155
G1 X130.347 Y119.028 E56.34776
G1 X118.847 Y101.385 E58.79893
G1 X114.794 Y85.922 E60.65943
G1 X113.851 Y74.560 E61.98642
G1 X134.452 Y74.478 E64.38422
G1 X131.566 Y69.585 E65.04543
G1 X156.803 Y69.473 E67.98288
G1 X154.160 Y74.419 E68.63554
G1 X175.938 Y74.288 E71.17034
G1 X172.951 Y69.377 E71.83938
G1 X175.283 Y69.375 E72.11073
G1 X186.691 Y69.375 E73.43853
G1 X186.691 Y74.523 E74.03777
G1 X185.160 Y74.523 E74.21599
G1 X180.213 Y70.722 E74.94209
G1 F1800.000 E73.94209
G92 E0
G1 X115.398 Y69.671 F7200.000
G1 E1.00000 F1800.000
G1 X113.904 Y72.490 E1.37132 F540.000
G1 X113.675 Y72.443 E1.39855
G1 X113.444 Y69.663 E1.72323
G1 X115.291 Y69.671 E1.93823
G1 X116.129 Y69.817 F7200.000
G1 X113.994 Y73.845 E2.46890 F1080.000
G1 X133.204 Y73.769 E4.70483
G1 X130.849 Y69.775 E5.24447
G1 X130.844 Y68.874 E5.34938
G1 X157.531 Y68.756 E8.45549
G1 X157.535 Y69.619 E8.55591
G1 X155.355 Y73.697 E9.09420
G1 X174.673 Y73.582 E11.34257
G1 X172.215 Y69.540 E11.89315
G1 X172.210 Y68.664 E11.99515
G1 X187.405 Y68.660 E13.76370
G1 X187.405 Y75.237 E14.52918
G1 X184.917 Y75.237 E14.81877
G1 X180.842 Y72.106 E15.41689
G1 X180.842 Y89.830 E17.47980
G1 X184.680 Y87.427 E18.00684
G1 X187.405 Y87.427 E18.32405
G1 X187.405 Y92.472 E18.91132
G1 X187.154 Y118.366 E21.92519
G1 X187.353 Y123.447 E22.51710
G1 X185.003 Y123.293 E22.79117
G1 X181.097 Y120.156 E23.37431
G1 X180.429 Y137.876 E25.43817
G1 X184.419 Y135.464 E25.98071
G1 X187.111 Y135.646 E26.29475
G1 X187.376 Y140.614 E26.87373
G1 X181.814 Y141.324 E27.52629
G1 X168.044 Y138.279 E29.16765
G1 X147.284 Y131.059 E31.72594
G1 X129.829 Y119.542 E34.15982
G1 X118.185 Y101.678 E36.64173
G1 X114.087 Y86.043 E38.52293
G1 X112.668 Y68.946 E40.51976
G1 X116.125 Y68.960 E40.92215
G1 X116.129 Y69.710 E41.00938
G1 X116.845 Y69.993 F7200.000
G1 X115.183 Y73.126 E41.42218 F756.000
G1 X131.957 Y73.060 E43.37447
G1 X130.136 Y69.972 E43.79170
G1 X130.126 Y68.163 E44.00226
G1 X158.241 Y68.038 E47.27461
G1 X158.250 Y69.796 E47.47914
G1 X156.551 Y72.976 E47.89886
G1 X173.407 Y72.875 E49.86080
G1 X171.501 Y69.742 E50.28763
G1 X171.492 Y67.950 E50.49616
G1 X188.119 Y67.946 E52.43138
G1 X188.119 Y75.952 E53.36311
G1 X184.674 Y75.952 E53.76406
G1 X181.556 Y73.556 E54.22173
G1 X181.556 Y88.540 E55.96581
G1 X184.474 Y86.713 E56.36658
G1 X188.119 Y86.713 E56.79080
G1 X188.119 Y92.476 E57.46159
G1 X187.868 Y118.355 E60.47383
G1 X188.098 Y124.212 E61.15604
G1 X184.732 Y123.991 E61.54865
G1 X181.757 Y121.602 E61.99270
G1 X181.193 Y136.580 E63.73718
G1 X184.242 Y134.736 E64.15187
G1 X187.790 Y134.976 E64.56577
G1 X188.124 Y141.238 E65.29560
G1 X181.781 Y142.048 E66.03984
G1 X167.849 Y138.967 E67.70053
G1 X146.965 Y131.704 E70.27408
G1 X129.312 Y120.057 E72.73562
G1 X117.524 Y101.971 E75.24828
G1 X113.381 Y86.164 E77.15018
G1 X111.892 Y68.228 E79.24493
G1 X116.835 Y68.249 E79.82036
G1 X116.844 Y69.886 E80.01083
G1 X116.145 Y70.135 F7200.000
G1 X115.131 Y73.727 F7200.000
G1 X151.166 Y132.530 F7200.000
G1 X170.125 Y138.856 F7200.000
G1 X185.300 Y137.512 F7200.000
G1 X185.218 Y137.430 E80.02539 F1080.000
G1 X184.402 Y137.703 E80.13327
G1 X185.361 Y138.662 E80.30340
G1 X184.649 Y139.039 E80.40442
G1 X183.724 Y138.113 E80.56863
G1 X183.587 Y139.065 E80.68926
G1 X183.684 Y139.162 E80.70646
G1 X182.791 Y139.257 F7200.000
G1 X182.821 Y138.752 E80.73764 F360.000
G1 X182.777 Y138.708 E80.74152 F360.000
G1 X182.443 Y138.909 F7200.000
G1 X182.791 Y139.257 E80.77184 F360.000
G1 X182.316 Y139.318 F7200.000
G1 X182.443 Y138.909 E80.79820 F360.000
G1 X182.110 Y139.111 F7200.000
G1 X182.316 Y139.318 E80.81623 F360.000
G1 X182.110 Y139.111 F7200.000
G1 X181.790 Y139.326 E80.84000 F360.000
G1 X181.815 Y139.351 E80.84217 F360.000
G1 F1800.000 E79.84217
G92 E0
G1 X114.079 Y71.057 F7200.000
G1 E1.00000 F1800.000
G1 X114.053 Y71.031 E1.00281 F360.000
G1 X114.327 Y70.638 E1.03964 F360.000
G1 X113.992 Y70.304 E1.07605 F360.000
G1 X114.517 Y70.161 E1.11786 F360.000
G1 X114.558 Y70.202 E1.12233 F360.000
G1 F1800.000 E0.12233
G92 E0
G1 X133.889 Y71.170 F7200.000
G1 E1.00000 F1800.000
G1 X151.202 Y88.483 E3.85727 F1080.000
G1 X150.734 Y87.002 E4.03843
G1 X134.500 Y70.768 E6.71774
G1 X135.508 Y70.764 E6.83540
G1 X150.267 Y85.522 E9.27114
G1 X149.799 Y84.042 E9.45230
G1 X136.516 Y70.759 E11.64448
G1 X137.525 Y70.755 E11.76214
G1 X149.331 Y82.562 E13.71074
G1 X148.864 Y81.081 E13.89191
G1 X138.533 Y70.750 E15.59694
G1 X139.541 Y70.746 E15.71460
G1 X148.396 Y79.601 E17.17608
G1 X148.739 Y78.931 E17.26392
G1 X140.549 Y70.741 E18.61549
G1 X141.557 Y70.737 E18.73315
G1 X149.751 Y78.931 E20.08546
G1 X150.764 Y78.931 E20.20364
G1 X142.566 Y70.732 E21.55669
G1 X143.574 Y70.728 E21.67435
G1 X151.777 Y78.931 E23.02813
G1 X152.789 Y78.931 E23.14631
G1 X144.582 Y70.723 E24.50083
G1 X145.590 Y70.719 E24.61849
G1 X153.802 Y78.931 E25.97375
G1 X154.815 Y78.931 E26.09193
G1 X146.598 Y70.714 E27.44792
G1 X154.755 Y70.769 F7200.000
G1 X154.664 Y70.679 E27.46284 F1080.000
G1 X153.656 Y70.683 E27.58050
G1 X154.402 Y71.429 E27.70360
G1 X154.049 Y72.089 E27.79092
G1 X152.648 Y70.688 E28.02221
G1 X151.640 Y70.692 E28.13987
G1 X153.696 Y72.749 E28.47933
G1 X153.344 Y73.409 E28.56666
G1 X150.631 Y70.697 E29.01431
G1 X149.623 Y70.701 E29.13197
G1 X152.991 Y74.069 E29.68780
G1 X152.638 Y74.729 E29.77513
G1 X148.615 Y70.706 E30.43914
G1 X147.607 Y70.710 E30.55680
G1 X155.827 Y78.931 E31.91353
G1 X156.840 Y78.931 E32.03171
G1 X153.528 Y75.619 E32.57832
G1 X154.535 Y75.613 E32.69579
G1 X157.853 Y78.931 E33.24339
G1 X158.865 Y78.931 E33.36157
G1 X155.541 Y75.607 E33.91016
G1 X156.548 Y75.601 E34.02764
G1 X159.878 Y78.931 E34.57723
G1 X160.891 Y78.931 E34.69541
G1 X157.555 Y75.595 E35.24599
G1 X158.561 Y75.589 E35.36347
G1 X161.903 Y78.931 E35.91505
G1 X162.916 Y78.931 E36.03323
G1 X159.568 Y75.583 E36.58580
G1 X160.575 Y75.576 E36.70327
G1 X163.929 Y78.931 E37.25684
G1 X164.941 Y78.931 E37.37502
G1 X161.581 Y75.570 E37.92958
G1 X162.588 Y75.564 E38.04706
G1 X165.954 Y78.931 E38.60261
G1 X166.967 Y78.931 E38.72079
G1 X163.594 Y75.558 E39.27734
G1 X164.601 Y75.552 E39.39482
G1 X167.979 Y78.931 E39.95236
G1 X168.992 Y78.931 E40.07054
G1 X165.608 Y75.546 E40.62908
G1 X166.614 Y75.540 E40.74656
G1 X170.005 Y78.931 E41.30609
G1 X177.064 Y73.838 F7200.000
G1 X178.932 Y75.706 E41.61428 F1080.000
G1 X177.688 Y75.474 E41.76200
G1 X178.932 Y76.718 E41.96736
G1 X178.932 Y77.731 E42.08554
G1 X176.681 Y75.480 E42.45704
G1 X175.674 Y75.486 E42.57452
G1 X178.932 Y78.744 E43.11216
G1 X178.932 Y79.756 E43.23034
G1 X174.668 Y75.492 E43.93412
G1 X173.661 Y75.498 E44.05160
G1 X178.932 Y80.769 E44.92151
G1 X178.932 Y81.782 E45.03969
G1 X172.654 Y75.504 E46.07575
G1 X171.648 Y75.510 E46.19323
G1 X178.932 Y82.794 E47.39541
G1 X178.932 Y83.807 E47.51359
G1 X170.641 Y75.516 E48.88192
G1 X169.634 Y75.522 E48.99940
G1 X178.932 Y84.820 E50.53386
G1 X178.932 Y85.832 E50.65204
G1 X168.628 Y75.528 E52.35264
G1 X167.621 Y75.534 E52.47012
G1 X178.932 Y86.845 E54.33686
G1 X178.932 Y87.858 E54.45504
G1 X170.604 Y79.530 E55.82946
G1 X170.751 Y80.689 E55.96582
G1 X178.932 Y88.870 E57.31606
G1 X178.932 Y89.883 E57.43424
G1 X170.897 Y81.848 E58.76030
G1 X171.044 Y83.008 E58.89666
G1 X178.932 Y90.896 E60.19854
G1 X178.932 Y91.908 E60.31672
G1 X171.190 Y84.167 E61.59442
G1 X171.337 Y85.326 E61.73077
G1 X185.427 Y99.417 E64.05631
G1 X185.418 Y100.420 E64.17336
G1 X171.483 Y86.485 E66.47310
G1 X171.630 Y87.644 E66.60946
G1 X185.408 Y101.422 E68.88341
G1 X185.398 Y102.425 E69.00046
G1 X171.776 Y88.803 E71.24863
G1 X171.923 Y89.963 E71.38499
G1 X185.388 Y103.428 E73.60737
G1 X185.379 Y104.431 E73.72442
G1 X172.069 Y91.122 E75.92102
G1 X172.216 Y92.281 E76.05737
G1 X185.369 Y105.434 E78.22818
G1 X185.359 Y106.437 E78.34523
G1 X172.362 Y93.440 E80.49025
G1 X172.509 Y94.599 E80.62661
G1 X185.349 Y107.440 E82.74584
G1 X185.340 Y108.443 E82.86289
G1 X172.655 Y95.759 E84.95634
G1 X172.802 Y96.918 E85.09269
G1 X185.330 Y109.446 E87.16035
G1 X185.320 Y110.449 E87.27740
G1 X172.948 Y98.077 E89.31927
G1 X173.095 Y99.236 E89.45563
G1 X185.310 Y111.452 E91.47171
G1 X185.301 Y112.455 E91.58876
G1 X173.241 Y100.395 E93.57906
G1 X173.388 Y101.555 E93.71541
G1 X185.291 Y113.458 E95.67992
G1 X185.281 Y114.461 E95.79697
G1 X173.534 Y102.714 E97.73570
G1 X173.681 Y103.873 E97.87205
G1 X185.272 Y115.464 E99.78499
G1 X185.262 Y116.467 E99.90204
G1 X173.827 Y105.032 E101.78919
G1 X173.974 Y106.191 E101.92554
G1 X185.252 Y117.469 E103.78690
G1 X185.246 Y118.476 E103.90441
G1 X174.120 Y107.350 E105.74065
G1 X174.267 Y108.510 E105.87700
G1 X185.288 Y119.530 E107.69587
G1 X185.329 Y120.584 E107.81897
G1 X174.413 Y109.669 E109.62047
G1 X174.560 Y110.828 E109.75683
G1 X182.829 Y119.097 E111.12152
G1 X179.319 Y116.600 F7200.000
G1 X174.706 Y111.987 E111.88275 F1080.000
G1 X174.853 Y113.146 E112.01911
G1 X179.282 Y117.576 E112.75009
G1 X179.245 Y118.551 E112.86406
G1 X174.999 Y114.306 E113.56480
G1 X175.146 Y115.465 E113.70116
G1 X179.209 Y119.527 E114.37165
G1 X179.172 Y120.503 E114.48563
G1 X175.292 Y116.624 E115.12588
G1 X175.439 Y117.783 E115.26223
G1 X179.135 Y121.479 E115.87224
G1 X179.098 Y122.455 E115.98621
G1 X175.585 Y118.942 E116.56598
G1 X175.732 Y120.102 E116.70233
G1 X179.062 Y123.431 E117.25185
G1 X179.025 Y124.407 E117.36582
G1 X175.879 Y121.261 E117.88510
G1 X175.205 Y121.600 E117.97310
G1 X178.988 Y125.383 E118.59748
G1 X178.951 Y126.359 E118.71145
G1 X174.486 Y121.894 E119.44838
G1 X173.767 Y122.188 E119.53900
G1 X178.915 Y127.335 E120.38849
G1 X178.878 Y128.311 E120.50246
G1 X173.049 Y122.482 E121.46451
G1 X172.330 Y122.776 E121.55513
G1 X178.841 Y129.287 E122.62974
G1 X178.804 Y130.263 E122.74371
G1 X171.611 Y123.069 E123.93087
G1 X170.893 Y123.363 E124.02149
G1 X178.768 Y131.239 E125.32121
G1 X178.731 Y132.215 E125.43519
G1 X170.174 Y123.657 E126.84746
G1 X169.455 Y123.951 E126.93808
G1 X178.694 Y133.190 E128.46292
G1 X178.657 Y134.166 E128.57689
G1 X168.736 Y124.245 E130.21429
G1 X168.018 Y124.539 E130.30491
G1 X178.621 Y135.142 E132.05486
G1 X178.584 Y136.118 E132.16883
G1 X167.299 Y124.833 E134.03134
G1 X166.580 Y125.127 E134.12196
G1 X178.547 Y137.094 E136.09702
G1 X178.510 Y138.070 E136.21100
G1 X165.861 Y125.421 E138.29862
G1 X165.143 Y125.715 E138.38924
G1 X177.938 Y138.510 E140.50103
G1 X176.638 Y138.223 E140.65642
G1 X164.424 Y126.009 E142.67225
G1 X163.705 Y126.303 E142.76287
G1 X175.338 Y137.935 E144.68273
G1 X174.038 Y137.648 E144.83813
G1 X154.668 Y118.278 E148.03491
G1 X154.095 Y118.718 E148.11919
G1 X172.737 Y137.360 E151.19590
G1 X171.437 Y137.073 E151.35130
