; generated by Slic3r 1.0.0RC2 on 2014-05-19 at 21:13:51

; layer_height = 0.3
; perimeters = 4
; top_solid_layers = 3
; bottom_solid_layers = 3
; fill_density = 0.1
; perimeter_speed = 60
; infill_speed = 60
; travel_speed = 120
; nozzle_diameter = 0.4
; filament_diameter = 1.75
; extrusion_multiplier = 0.98
; perimeters extrusion width = 0.40mm
; infill extrusion width = 0.42mm
; solid infill extrusion width = 0.42mm
; top infill extrusion width = 0.42mm
; first layer extrusion width = 0.80mm

G21 ; set units to millimeters
M107
M104 S220 ; set temperature
G28 ; home all axes
M106 S255;
G1 Z200 F1200 ; lift nozzle
M109 S220 ; wait for temperature to be reached
G90 ; use absolute coordinates
G92 E0
M82 ; use absolute distances for extrusion
G1 F1800.000 E-1.00000
G92 E0
G1 Z0.400 F7200.000
G1 X67.500 Y64.290 F7200.000
G1 E1.00000 F1800.000
G1 X68.510 Y63.370 E1.15901 F1080.000
G1 X69.690 Y62.670 E1.31870
G1 X70.980 Y62.230 E1.47734
G1 X72.330 Y62.060 E1.63570
G1 X157.020 Y59.890 E11.49600
G1 X157.830 Y59.920 E11.59034
G1 X158.640 Y60.040 E11.68564
G1 X172.660 Y63.130 E13.35659
G1 X173.420 Y63.350 E13.44868
G1 X194.380 Y70.640 E16.03155
G1 X195.140 Y70.960 E16.12753
G1 X195.870 Y71.380 E16.22555
G1 X213.630 Y83.100 E18.70216
G1 X214.690 Y83.970 E18.86176
G1 X215.550 Y85.030 E19.02064
G1 X227.420 Y103.240 E21.55061
G1 X227.940 Y104.190 E21.67666
G1 X228.290 Y105.210 E21.80218
G1 X232.460 Y121.110 E23.71536
G1 X232.590 Y121.680 E23.78341
G1 X232.660 Y122.260 E23.85140
G1 X234.180 Y140.670 E26.00143
G1 X234.160 Y142.030 E26.15974
G1 X233.850 Y143.360 E26.31869
G1 X233.290 Y144.600 E26.47704
G1 X232.490 Y145.700 E26.63535
G1 X231.480 Y146.620 E26.79436
G1 X230.300 Y147.320 E26.95405
G1 X229.020 Y147.760 E27.11159
G1 X227.660 Y147.930 E27.27111
G1 X142.970 Y150.110 E37.13143
G1 X142.160 Y150.080 E37.22577
G1 X141.350 Y149.960 E37.32108
G1 X127.330 Y146.860 E38.99228
G1 X126.570 Y146.640 E39.08436
G1 X105.610 Y139.350 E41.66724
G1 X104.850 Y139.030 E41.76322
G1 X104.120 Y138.610 E41.86124
G1 X86.360 Y126.890 E44.33784
G1 X85.300 Y126.020 E44.49745
G1 X84.440 Y124.960 E44.65632
G1 X72.570 Y106.750 E47.18630
G1 X72.050 Y105.800 E47.31235
G1 X71.700 Y104.780 E47.43786
G1 X67.530 Y88.880 E49.35105
G1 X67.400 Y88.310 E49.41909
G1 X67.330 Y87.730 E49.48709
G1 X65.810 Y69.320 E51.63712
G1 X65.830 Y67.960 E51.79542
G1 X66.140 Y66.630 E51.95437
G1 X66.700 Y65.390 E52.11273
G1 X67.437 Y64.377 E52.25857
G1 F1800.000 E51.25857
G92 E0
G1 X85.406 Y80.366 F7200.000
G1 E1.00000 F1800.000
G1 X102.265 Y80.366 E2.96223 F1080.000
G1 X115.398 Y118.864 E7.69659
G1 X112.486 Y121.102 E8.12404
G1 X100.448 Y113.056 E9.80934
G1 X90.592 Y98.179 E11.88634
G1 X85.436 Y80.469 E14.03323
G1 X86.358 Y81.080 F7200.000
G1 X101.754 Y81.080 E15.82522 F1080.000
G1 X114.557 Y118.610 E20.44049
G1 X112.457 Y120.224 E20.74872
G1 X100.964 Y112.542 E22.35770
G1 X91.248 Y97.875 E24.40536
G1 X86.388 Y81.183 E26.42884
G1 X87.309 Y81.795 F7200.000
G1 X101.243 Y81.795 E28.05059 F1080.000
G1 X113.716 Y118.356 E32.54677
G1 X112.428 Y119.345 E32.73577
G1 X101.480 Y112.028 E34.26843
G1 X91.903 Y97.572 E36.28677
G1 X87.339 Y81.897 E38.18683
G1 X88.261 Y82.509 F7200.000
G1 X100.732 Y82.509 E39.63833 F756.000
G1 X112.875 Y118.102 E44.01544
G1 X112.399 Y118.467 E44.08521
G1 X101.996 Y111.514 E45.54156
G1 X92.558 Y97.268 E47.53055
G1 X88.291 Y82.612 E49.30720
G1 X88.194 Y81.798 F7200.000
G1 X109.885 Y80.366 F7200.000
G1 X131.147 Y80.366 E51.78180 F1080.000
G1 X136.405 Y121.969 E56.66244
G1 X124.557 Y126.814 E58.15221
G1 X109.918 Y80.468 E63.80907
G1 X110.860 Y81.080 F7200.000
G1 X130.517 Y81.080 E66.09696 F1080.000
G1 X135.628 Y121.515 E70.84058
G1 X125.005 Y125.859 E72.17637
G1 X110.892 Y81.183 E77.62955
G1 X111.834 Y81.795 F7200.000
G1 X129.887 Y81.795 E79.73074 F1080.000
G1 X134.851 Y121.061 E84.33735
G1 X125.452 Y124.905 E85.51914
G1 X111.867 Y81.897 E90.76864
G1 X112.809 Y82.509 F7200.000
G1 X129.258 Y82.509 E92.68313 F756.000
G1 X134.073 Y120.608 E97.15273
G1 X125.900 Y123.950 E98.18053
G1 X112.841 Y82.611 E103.22635
G1 X112.736 Y81.798 F7200.000
G1 F1800.000 E102.22635
G92 E0
G1 X145.815 Y137.873 F7200.000
G1 E1.00000 F1800.000
G1 X146.795 Y137.940 E1.11431 F540.000
G1 X146.922 Y140.319 E1.39160
G1 X142.923 Y140.829 E1.86082
G1 X141.460 Y140.506 E2.03519
G1 X145.723 Y137.929 E2.61502
G1 X140.932 Y141.969 F7200.000
G1 X132.390 Y102.508 F7200.000
G1 X142.859 Y69.500 F7200.000
G1 X146.446 Y74.763 F7200.000
G1 X141.829 Y71.215 E3.29268 F540.000
G1 X141.887 Y71.042 E3.31391
G1 X147.020 Y71.042 E3.91128
G1 X147.020 Y74.763 E4.34428
G1 X146.553 Y74.763 E4.39867
G1 X140.457 Y71.042 F7200.000
G1 X140.457 Y93.364 E6.99668 F1080.000
G1 X146.133 Y89.809 E7.77624
G1 X147.020 Y89.809 E7.87944
G1 X147.020 Y93.419 E8.29967
G1 X146.768 Y119.341 E11.31679
G1 X146.916 Y123.113 E11.75623
G1 X140.819 Y118.217 E12.66631
G1 X139.992 Y140.181 E15.22449
G1 X129.478 Y137.856 E16.47786
G1 X108.965 Y130.722 E19.00565
G1 X91.907 Y119.467 E21.38420
G1 X80.551 Y102.046 E23.80462
G1 X76.544 Y86.755 E25.64442
G1 X75.669 Y76.225 E26.87423
G1 X96.743 Y76.141 E29.32695
G1 X93.856 Y71.247 E29.98823
G1 X116.652 Y71.146 E32.64152
G1 X114.008 Y76.094 E33.29443
G1 X138.247 Y75.949 E36.11565
G1 X135.264 Y71.044 E36.78384
G1 X140.350 Y71.042 E37.37579
G1 X141.171 Y71.610 F7200.000
G1 X141.171 Y92.074 E39.75755 F1080.000
G1 X145.928 Y89.095 E40.41085
G1 X147.734 Y89.095 E40.62106
G1 X147.734 Y93.423 E41.12480
G1 X147.483 Y119.330 E44.14030
G1 X147.651 Y123.636 E44.64191
G1 X146.318 Y123.549 E44.79745
G1 X141.480 Y119.663 E45.51968
G1 X140.709 Y140.125 E47.90290
G1 X145.638 Y137.146 E48.57329
G1 X147.474 Y137.270 E48.78746
G1 X147.670 Y140.943 E49.21560
G1 X142.890 Y141.553 E49.77649
G1 X129.283 Y138.544 E51.39851
G1 X108.646 Y131.367 E53.94155
G1 X91.390 Y119.982 E56.34776
G1 X79.890 Y102.339 E58.79893
G1 X75.837 Y86.876 E60.65943
G1 X74.894 Y75.514 E61.98642
G1 X95.495 Y75.432 E64.38422
G1 X92.609 Y70.539 E65.04543
G1 X117.847 Y70.427 E67.98288
G1 X115.203 Y75.372 E68.63554
G1 X136.981 Y75.242 E71.17034
G1 X133.995 Y70.331 E71.83938
G1 X136.326 Y70.328 E72.11073
G1 X147.734 Y70.328 E73.43853
G1 X147.734 Y75.477 E74.03777
G1 X146.203 Y75.477 E74.21599
G1 X141.256 Y71.676 E74.94209
G1 F1800.000 E73.94209
G92 E0
G1 X76.441 Y70.625 F7200.000
G1 E1.00000 F1800.000
G1 X74.947 Y73.444 E1.37132 F540.000
G1 X74.718 Y73.397 E1.39855
G1 X74.487 Y70.617 E1.72323
G1 X76.334 Y70.625 E1.93823
G1 X77.173 Y70.771 F7200.000
G1 X75.037 Y74.799 E2.46890 F1080.000
G1 X94.248 Y74.723 E4.70483
G1 X91.892 Y70.729 E5.24447
G1 X91.887 Y69.828 E5.34938
G1 X118.574 Y69.709 E8.45549
G1 X118.579 Y70.572 E8.55591
G1 X116.399 Y74.651 E9.09420
G1 X135.716 Y74.535 E11.34257
G1 X133.258 Y70.494 E11.89315
G1 X133.253 Y69.617 E11.99515
G1 X148.448 Y69.614 E13.76370
G1 X148.448 Y76.191 E14.52918
G1 X145.960 Y76.191 E14.81877
G1 X141.885 Y73.060 E15.41689
G1 X141.885 Y90.784 E17.47980
G1 X145.723 Y88.380 E18.00684
G1 X148.448 Y88.380 E18.32405
G1 X148.448 Y93.426 E18.91132
G1 X148.197 Y119.319 E21.92519
G1 X148.396 Y124.401 E22.51710
G1 X146.046 Y124.246 E22.79117
G1 X142.140 Y121.109 E23.37431
G1 X141.473 Y138.829 E25.43817
G1 X145.462 Y136.418 E25.98071
G1 X148.154 Y136.600 E26.29475
G1 X148.419 Y141.567 E26.87373
G1 X142.857 Y142.278 E27.52629
G1 X129.088 Y139.233 E29.16765
G1 X108.327 Y132.013 E31.72594
G1 X90.873 Y120.496 E34.15982
G1 X79.228 Y102.632 E36.64173
G1 X75.131 Y86.997 E38.52293
G1 X73.711 Y69.899 E40.51976
G1 X77.168 Y69.914 E40.92215
G1 X77.172 Y70.664 E41.00938
G1 X77.888 Y70.947 F7200.000
G1 X76.226 Y74.080 E41.42218 F756.000
G1 X93.000 Y74.013 E43.37447
G1 X91.179 Y70.926 E43.79170
G1 X91.169 Y69.117 E44.00226
G1 X119.285 Y68.992 E47.27461
G1 X119.294 Y70.749 E47.47914
G1 X117.594 Y73.930 E47.89886
G1 X134.450 Y73.829 E49.86080
G1 X132.545 Y70.696 E50.28763
G1 X132.535 Y68.904 E50.49616
G1 X149.162 Y68.900 E52.43138
G1 X149.162 Y76.905 E53.36311
G1 X145.718 Y76.905 E53.76406
G1 X142.599 Y74.509 E54.22173
G1 X142.599 Y89.494 E55.96581
G1 X145.518 Y87.666 E56.36658
G1 X149.162 Y87.666 E56.79080
G1 X149.162 Y93.430 E57.46159
G1 X148.911 Y119.309 E60.47383
G1 X149.141 Y125.166 E61.15604
G1 X145.775 Y124.944 E61.54865
G1 X142.800 Y122.556 E61.99270
G1 X142.236 Y137.533 E63.73718
G1 X145.285 Y135.690 E64.15187
G1 X148.833 Y135.930 E64.56577
G1 X149.167 Y142.192 E65.29560
G1 X142.824 Y143.002 E66.03984
G1 X128.893 Y139.921 E67.70053
G1 X108.008 Y132.658 E70.27408
G1 X90.355 Y121.010 E72.73562
G1 X78.567 Y102.925 E75.24828
G1 X74.424 Y87.118 E77.15018
G1 X72.935 Y69.182 E79.24493
G1 X77.879 Y69.203 E79.82036
G1 X77.887 Y70.839 E80.01083
G1 X77.188 Y71.089 F7200.000
G1 X76.174 Y74.680 F7200.000
G1 X112.209 Y133.483 F7200.000
G1 X131.168 Y139.810 F7200.000
G1 X146.343 Y138.466 F7200.000
G1 X146.261 Y138.384 E80.02539 F1080.000
G1 X145.445 Y138.657 E80.13327
G1 X146.404 Y139.616 E80.30340
G1 X145.693 Y139.992 E80.40442
G1 X144.767 Y139.067 E80.56863
G1 X144.630 Y140.019 E80.68926
G1 X144.727 Y140.116 E80.70646
G1 X143.834 Y140.211 F7200.000
G1 X143.864 Y139.706 E80.73764 F360.000
G1 X143.820 Y139.661 E80.74152 F360.000
G1 X143.486 Y139.863 F7200.000
G1 X143.834 Y140.211 E80.77184 F360.000
G1 X143.360 Y140.271 F7200.000
G1 X143.486 Y139.863 E80.79820 F360.000
G1 X143.153 Y140.065 F7200.000
G1 X143.360 Y140.271 E80.81623 F360.000
G1 X143.153 Y140.065 F7200.000
G1 X142.833 Y140.280 E80.84000 F360.000
G1 X142.858 Y140.305 E80.84217 F360.000
G1 F1800.000 E79.84217
G92 E0
G1 X75.122 Y72.011 F7200.000
G1 E1.00000 F1800.000
G1 X75.096 Y71.985 E1.00281 F360.000
G1 X75.370 Y71.592 E1.03964 F360.000
G1 X75.035 Y71.257 E1.07605 F360.000
G1 X75.560 Y71.115 E1.11786 F360.000
G1 X75.601 Y71.156 E1.12233 F360.000
G1 F1800.000 E0.12233
G92 E0
G1 X94.932 Y72.124 F7200.000
G1 E1.00000 F1800.000
G1 X112.245 Y89.436 E3.85727 F1080.000
G1 X111.777 Y87.956 E4.03843
G1 X95.543 Y71.722 E6.71774
G1 X96.551 Y71.717 E6.83540
G1 X111.310 Y86.476 E9.27114
G1 X110.842 Y84.995 E9.45230
G1 X97.560 Y71.713 E11.64448
G1 X98.568 Y71.708 E11.76214
G1 X110.375 Y83.515 E13.71074
G1 X109.907 Y82.035 E13.89191
G1 X99.576 Y71.704 E15.59694
G1 X100.584 Y71.699 E15.71460
G1 X109.439 Y80.555 E17.17608
G1 X109.782 Y79.884 E17.26392
G1 X101.592 Y71.695 E18.61549
G1 X102.601 Y71.690 E18.73315
G1 X110.794 Y79.884 E20.08546
G1 X111.807 Y79.884 E20.20364
G1 X103.609 Y71.686 E21.55669
G1 X104.617 Y71.682 E21.67435
G1 X112.820 Y79.884 E23.02813
G1 X113.832 Y79.884 E23.14631
G1 X105.625 Y71.677 E24.50083
G1 X106.633 Y71.673 E24.61849
G1 X114.845 Y79.884 E25.97375
G1 X115.858 Y79.884 E26.09193
G1 X107.642 Y71.668 E27.44792
G1 X115.798 Y71.723 F7200.000
G1 X115.707 Y71.632 E27.46284 F1080.000
G1 X114.699 Y71.637 E27.58050
G1 X115.445 Y72.383 E27.70360
G1 X115.092 Y73.043 E27.79092
G1 X113.691 Y71.641 E28.02221
G1 X112.683 Y71.646 E28.13987
G1 X114.740 Y73.703 E28.47933
G1 X114.387 Y74.363 E28.56666
G1 X111.675 Y71.650 E29.01431
G1 X110.666 Y71.655 E29.13197
G1 X114.034 Y75.023 E29.68780
G1 X113.681 Y75.683 E29.77513
G1 X109.658 Y71.659 E30.43914
G1 X108.650 Y71.664 E30.55680
G1 X116.870 Y79.884 E31.91353
G1 X117.883 Y79.884 E32.03171
G1 X114.571 Y76.572 E32.57832
G1 X115.578 Y76.566 E32.69579
G1 X118.896 Y79.884 E33.24339
G1 X119.909 Y79.884 E33.36157
G1 X116.585 Y76.560 E33.91016
G1 X117.591 Y76.554 E34.02764
G1 X120.921 Y79.884 E34.57723
G1 X121.934 Y79.884 E34.69541
G1 X118.598 Y76.548 E35.24599
G1 X119.604 Y76.542 E35.36347
G1 X122.947 Y79.884 E35.91505
G1 X123.959 Y79.884 E36.03323
G1 X120.611 Y76.536 E36.58580
G1 X121.618 Y76.530 E36.70327
G1 X124.972 Y79.884 E37.25684
G1 X125.985 Y79.884 E37.37502
G1 X122.624 Y76.524 E37.92958
G1 X123.631 Y76.518 E38.04706
G1 X126.997 Y79.884 E38.60261
G1 X128.010 Y79.884 E38.72079
G1 X124.638 Y76.512 E39.27734
G1 X125.644 Y76.506 E39.39482
G1 X129.023 Y79.884 E39.95236
G1 X130.035 Y79.884 E40.07054
G1 X126.651 Y76.500 E40.62908
G1 X127.658 Y76.494 E40.74656
G1 X131.048 Y79.884 E41.30609
G1 X138.108 Y74.792 F7200.000
G1 X139.975 Y76.659 E41.61428 F1080.000
G1 X138.731 Y76.428 E41.76200
G1 X139.975 Y77.672 E41.96736
G1 X139.975 Y78.685 E42.08554
G1 X137.724 Y76.434 E42.45704
G1 X136.717 Y76.440 E42.57452
G1 X139.975 Y79.697 E43.11216
G1 X139.975 Y80.710 E43.23034
G1 X135.711 Y76.446 E43.93412
G1 X134.704 Y76.452 E44.05160
G1 X139.975 Y81.723 E44.92151
G1 X139.975 Y82.735 E45.03969
G1 X133.698 Y76.458 E46.07575
G1 X132.691 Y76.464 E46.19323
G1 X139.975 Y83.748 E47.39541
G1 X139.975 Y84.761 E47.51359
G1 X131.684 Y76.470 E48.88192
G1 X130.678 Y76.476 E48.99940
G1 X139.975 Y85.773 E50.53386
G1 X139.975 Y86.786 E50.65204
G1 X129.671 Y76.482 E52.35264
G1 X128.664 Y76.488 E52.47012
G1 X139.975 Y87.799 E54.33686
G1 X139.975 Y88.811 E54.45504
G1 X131.647 Y80.484 E55.82946
G1 X131.794 Y81.643 E55.96582
G1 X139.975 Y89.824 E57.31606
G1 X139.975 Y90.837 E57.43424
G1 X131.940 Y82.802 E58.76030
G1 X132.087 Y83.961 E58.89666
G1 X139.975 Y91.849 E60.19854
G1 X139.975 Y92.862 E60.31672
G1 X132.233 Y85.120 E61.59442
G1 X132.380 Y86.280 E61.73077
G1 X146.471 Y100.370 E64.05631
G1 X146.461 Y101.373 E64.17336
G1 X132.526 Y87.439 E66.47310
G1 X132.673 Y88.598 E66.60946
G1 X146.451 Y102.376 E68.88341
G1 X146.441 Y103.379 E69.00046
G1 X132.819 Y89.757 E71.24863
G1 X132.966 Y90.916 E71.38499
G1 X146.432 Y104.382 E73.60737
G1 X146.422 Y105.385 E73.72442
G1 X133.112 Y92.076 E75.92102
G1 X133.259 Y93.235 E76.05737
G1 X146.412 Y106.388 E78.22818
G1 X146.402 Y107.391 E78.34523
G1 X133.405 Y94.394 E80.49025
G1 X133.552 Y95.553 E80.62661
G1 X146.393 Y108.394 E82.74584
G1 X146.383 Y109.397 E82.86289
G1 X133.698 Y96.712 E84.95634
G1 X133.845 Y97.871 E85.09269
G1 X146.373 Y110.400 E87.16035
G1 X146.363 Y111.403 E87.27740
G1 X133.991 Y99.031 E89.31927
G1 X134.138 Y100.190 E89.45563
G1 X146.354 Y112.406 E91.47171
G1 X146.344 Y113.408 E91.58876
G1 X134.284 Y101.349 E93.57906
G1 X134.431 Y102.508 E93.71541
G1 X146.334 Y114.411 E95.67992
G1 X146.324 Y115.414 E95.79697
G1 X134.578 Y103.667 E97.73570
G1 X134.724 Y104.827 E97.87205
G1 X146.315 Y116.417 E99.78499
G1 X146.305 Y117.420 E99.90204
G1 X134.871 Y105.986 E101.78919
G1 X135.017 Y107.145 E101.92554
G1 X146.295 Y118.423 E103.78690
G1 X146.290 Y119.430 E103.90441
G1 X135.164 Y108.304 E105.74065
G1 X135.310 Y109.463 E105.87700
G1 X146.331 Y120.484 E107.69587
G1 X146.372 Y121.538 E107.81897
G1 X135.457 Y110.623 E109.62047
G1 X135.603 Y111.782 E109.75683
G1 X143.872 Y120.051 E111.12152
G1 X140.362 Y117.553 F7200.000
G1 X135.750 Y112.941 E111.88275 F1080.000
G1 X135.896 Y114.100 E112.01911
G1 X140.325 Y118.529 E112.75009
G1 X140.289 Y119.505 E112.86406
G1 X136.043 Y115.259 E113.56480
G1 X136.189 Y116.418 E113.70116
G1 X140.252 Y120.481 E114.37165
G1 X140.215 Y121.457 E114.48563
G1 X136.336 Y117.578 E115.12588
G1 X136.482 Y118.737 E115.26223
G1 X140.178 Y122.433 E115.87224
G1 X140.142 Y123.409 E115.98621
G1 X136.629 Y119.896 E116.56598
G1 X136.775 Y121.055 E116.70233
G1 X140.105 Y124.385 E117.25185
G1 X140.068 Y125.361 E117.36582
G1 X136.922 Y122.214 E117.88510
G1 X136.248 Y122.554 E117.97310
G1 X140.031 Y126.337 E118.59748
G1 X139.995 Y127.313 E118.71145
G1 X135.529 Y122.847 E119.44838
G1 X134.811 Y123.141 E119.53900
G1 X139.958 Y128.289 E120.38849
G1 X139.921 Y129.264 E120.50246
G1 X134.092 Y123.435 E121.46451
G1 X133.373 Y123.729 E121.55513
G1 X139.884 Y130.240 E122.62974
G1 X139.848 Y131.216 E122.74371
G1 X132.654 Y124.023 E123.93087
G1 X131.936 Y124.317 E124.02149
G1 X139.811 Y132.192 E125.32121
G1 X139.774 Y133.168 E125.43519
G1 X131.217 Y124.611 E126.84746
G1 X130.498 Y124.905 E126.93808
G1 X139.737 Y134.144 E128.46292
G1 X139.701 Y135.120 E128.57689
G1 X129.780 Y125.199 E130.21429
G1 X129.061 Y125.493 E130.30491
G1 X139.664 Y136.096 E132.05486
G1 X139.627 Y137.072 E132.16883
G1 X128.342 Y125.787 E134.03134
G1 X127.623 Y126.081 E134.12196
G1 X139.590 Y138.048 E136.09702
G1 X139.554 Y139.024 E136.21100
G1 X126.905 Y126.375 E138.29862
G1 X126.186 Y126.669 E138.38924
G1 X138.981 Y139.464 E140.50103
G1 X137.681 Y139.177 E140.65642
G1 X125.467 Y126.962 E142.67225
G1 X124.748 Y127.256 E142.76287
