; generated by Slic3r 1.0.0RC2 on 2014-05-19 at 23:16:44

; layer_height = 0.3
; perimeters = 2
; top_solid_layers = 3
; bottom_solid_layers = 3
; fill_density = 0.1
; perimeter_speed = 60
; infill_speed = 60
; travel_speed = 120
; nozzle_diameter = 0.4
; filament_diameter = 1.75
; extrusion_multiplier = 0.98
; perimeters extrusion width = 0.40mm
; infill extrusion width = 0.42mm
; solid infill extrusion width = 0.42mm
; top infill extrusion width = 0.42mm
; first layer extrusion width = 0.80mm

G21 ; set units to millimeters
M107
M104 S220 ; set temperature
G28 ; home all axes
M106 S255;
G1 Z200 F1200 ; lift nozzle
M109 S220 ; wait for temperature to be reached
G90 ; use absolute coordinates
G92 E0
M82 ; use absolute distances for extrusion
G1 F1800.000 E-1.00000
G92 E0
G1 Z0.400 F7200.000
G1 X79.360 Y70.640 F7200.000
G1 E1.00000 F1800.000
G1 X80.320 Y69.800 E1.14847 F1080.000
G1 X81.420 Y69.160 E1.29659
G1 X82.620 Y68.740 E1.44457
G1 X83.880 Y68.560 E1.59271
G1 X183.900 Y63.300 E13.25011
G1 X184.950 Y63.320 E13.37234
G1 X186.390 Y63.470 E13.54085
G1 X187.080 Y63.580 E13.62217
G1 X187.760 Y63.760 E13.70404
G1 X200.280 Y67.820 E15.23595
G1 X200.930 Y68.070 E15.31700
G1 X201.540 Y68.380 E15.39664
G1 X202.800 Y69.100 E15.56555
G1 X203.400 Y69.490 E15.64884
G1 X203.960 Y69.930 E15.73173
G1 X213.750 Y78.720 E17.26308
G1 X214.250 Y79.220 E17.34538
G1 X214.690 Y79.770 E17.42735
G1 X215.540 Y80.940 E17.59567
G1 X215.920 Y81.530 E17.67735
G1 X216.240 Y82.150 E17.75856
G1 X221.600 Y94.150 E19.28823
G1 X221.850 Y94.810 E19.37038
G1 X222.040 Y95.490 E19.45255
G1 X222.340 Y96.900 E19.62034
G1 X222.450 Y97.600 E19.70281
G1 X222.480 Y98.310 E19.78552
G1 X222.470 Y111.450 E21.31488
G1 X222.440 Y112.120 E21.39294
G1 X222.340 Y112.790 E21.47179
G1 X222.050 Y114.200 E21.63933
G1 X221.860 Y114.910 E21.72488
G1 X221.600 Y115.590 E21.80961
G1 X216.240 Y127.600 E23.34035
G1 X215.920 Y128.220 E23.42155
G1 X215.540 Y128.810 E23.50323
G1 X214.690 Y129.980 E23.67155
G1 X214.250 Y130.530 E23.75353
G1 X213.750 Y131.030 E23.83583
G1 X203.960 Y139.820 E25.36718
G1 X203.420 Y140.250 E25.44752
G1 X202.840 Y140.630 E25.52823
G1 X201.580 Y141.360 E25.69771
G1 X200.940 Y141.680 E25.78099
G1 X200.280 Y141.940 E25.86356
G1 X187.760 Y145.990 E27.39510
G1 X187.080 Y146.170 E27.47697
G1 X186.390 Y146.280 E27.55830
G1 X184.950 Y146.430 E27.72681
G1 X184.280 Y146.460 E27.80486
G1 X129.560 Y146.710 E34.17378
G1 X109.590 Y146.700 E36.49809
G1 X108.360 Y146.590 E36.64182
G1 X107.170 Y146.250 E36.78587
G1 X90.810 Y139.920 E38.82757
G1 X89.590 Y139.300 E38.98685
G1 X88.530 Y138.450 E39.14499
G1 X87.660 Y137.400 E39.30370
G1 X87.010 Y136.200 E39.46254
G1 X86.630 Y134.890 E39.62129
G1 X77.630 Y86.670 E45.33053
G1 X77.540 Y86.060 E45.40230
G1 X77.520 Y85.440 E45.47450
G1 X77.520 Y75.260 E46.65935
G1 X77.640 Y73.990 E46.80782
G1 X77.990 Y72.770 E46.95554
G1 X78.570 Y71.640 E47.10338
G1 X79.294 Y70.724 E47.23924
G1 F1800.000 E46.23924
G92 E0
G1 X88.747 Y78.137 F7200.000
G1 E1.00000 F1800.000
G1 X89.689 Y77.511 E1.13168 F540.000
G1 X90.799 Y77.292 E1.26336
G1 X91.908 Y77.515 E1.39503
G1 X92.848 Y78.146 E1.52671
G1 X93.474 Y79.088 E1.65839
G1 X93.693 Y80.198 E1.79006
G1 X93.470 Y81.307 E1.92173
G1 X92.839 Y82.246 E2.05340
G1 X91.897 Y82.873 E2.18508
G1 X90.787 Y83.091 E2.31675
G1 X89.678 Y82.868 E2.44842
G1 X88.739 Y82.238 E2.58010
G1 X88.112 Y81.296 E2.71178
G1 X87.894 Y80.186 E2.84345
G1 X88.117 Y79.077 E2.97512
G1 X88.688 Y78.226 E3.09432
G1 X88.609 Y77.437 F7200.000
G1 F1800.000 E2.09432
G92 E0
G1 X107.260 Y80.186 F7200.000
G1 E1.00000 F1800.000
G1 X107.483 Y79.077 E1.13167 F540.000
G1 X108.113 Y78.137 E1.26334
G1 X109.055 Y77.511 E1.39502
G1 X110.165 Y77.292 E1.52669
G1 X111.274 Y77.515 E1.65837
G1 X112.214 Y78.146 E1.79005
G1 X112.840 Y79.088 E1.92172
G1 X113.059 Y80.198 E2.05339
G1 X112.836 Y81.307 E2.18507
G1 X112.205 Y82.246 E2.31674
G1 X111.263 Y82.873 E2.44842
G1 X109.723 Y83.176 E2.63108
G1 X109.723 Y83.005 E2.65099
G1 X109.044 Y82.868 E2.73162
G1 X108.105 Y82.238 E2.86330
G1 X107.478 Y81.296 E2.99497
G1 X107.280 Y80.291 E3.11418
G1 X106.667 Y79.788 F7200.000
G1 X109.415 Y93.224 F7200.000
G1 X110.212 Y93.067 E3.20881 F1080.000
G1 X110.780 Y93.181 E3.27616
G1 X111.009 Y93.228 E3.30343
G1 X111.685 Y93.681 E3.39809
G1 X112.135 Y94.358 E3.49270
G1 X112.292 Y95.155 E3.58734
G1 X112.161 Y95.808 E3.66477
G1 X113.221 Y96.021 E3.79072
G1 X115.776 Y97.736 E4.14879
G1 X117.480 Y100.297 E4.50687
G1 X118.073 Y103.316 E4.86495
G1 X117.467 Y106.332 E5.22303
G1 X115.752 Y108.887 E5.58110
G1 X113.191 Y110.590 E5.93918
G1 X112.074 Y110.810 E6.07157
G1 X112.257 Y111.736 E6.18138
G1 X112.096 Y112.533 E6.27602
G1 X111.643 Y113.208 E6.37065
G1 X110.966 Y113.658 E6.46528
G1 X110.168 Y113.815 E6.55992
G1 X109.371 Y113.655 E6.65455
G1 X108.696 Y113.202 E6.74917
G1 X108.246 Y112.525 E6.84382
G1 X108.089 Y111.727 E6.93845
G1 X108.275 Y110.803 E7.04817
G1 X107.156 Y110.578 E7.18103
G1 X104.601 Y108.863 E7.53911
G1 X102.897 Y106.301 E7.89719
G1 X102.304 Y103.283 E8.25527
G1 X102.910 Y100.266 E8.61335
G1 X104.625 Y97.712 E8.97142
G1 X107.187 Y96.008 E9.32950
G1 X108.252 Y95.799 E9.45593
G1 X108.124 Y95.147 E9.53327
G1 X108.284 Y94.349 E9.62790
G1 X108.738 Y93.674 E9.72253
G1 X109.325 Y93.283 E9.80470
G1 X109.692 Y93.897 F7200.000
G1 X110.211 Y93.795 E9.86626 F756.000
G1 X110.729 Y93.900 E9.92782
G1 X111.169 Y94.195 E9.98940
G1 X111.461 Y94.635 E10.05096
G1 X111.564 Y95.154 E10.11252
G1 X111.459 Y95.672 E10.17408
G1 X111.032 Y96.309 E10.26333
G1 X112.941 Y96.693 E10.49002
G1 X115.260 Y98.249 E10.81503
G1 X116.806 Y100.575 E11.14004
G1 X117.345 Y103.315 E11.46505
G1 X116.795 Y106.052 E11.79006
G1 X115.238 Y108.371 E12.11507
G1 X112.913 Y109.917 E12.44008
G1 X110.835 Y110.326 E12.68663
G1 X111.426 Y111.215 E12.81095
G1 X111.528 Y111.734 E12.87250
G1 X111.424 Y112.253 E12.93407
G1 X111.129 Y112.692 E12.99564
G1 X110.689 Y112.985 E13.05720
G1 X110.170 Y113.087 E13.11877
G1 X109.651 Y112.983 E13.18033
G1 X109.212 Y112.688 E13.24189
G1 X108.919 Y112.247 E13.30346
G1 X108.817 Y111.728 E13.36503
G1 X108.921 Y111.210 E13.42659
G1 X109.516 Y110.324 E13.55079
G1 X107.436 Y109.906 E13.79778
G1 X105.117 Y108.349 E14.12279
G1 X103.571 Y106.024 E14.44780
G1 X103.032 Y103.284 E14.77281
G1 X103.582 Y100.547 E15.09783
G1 X105.139 Y98.228 E15.42283
G1 X107.464 Y96.682 E15.74785
G1 X109.378 Y96.305 E15.97496
G1 X108.954 Y95.667 E16.06410
G1 X108.852 Y95.148 E16.12567
G1 X108.957 Y94.630 E16.18724
G1 X109.251 Y94.190 E16.24880
G1 X109.603 Y93.957 E16.29790
G1 X109.796 Y93.379 F7200.000
G1 X109.009 Y84.044 F7200.000
G1 X111.540 Y83.546 E16.59816 F1080.000
G1 X112.719 Y82.762 E16.76291
G1 X113.508 Y81.587 E16.92764
G1 X113.787 Y80.200 E17.09239
G1 X113.514 Y78.811 E17.25713
G1 X112.730 Y77.632 E17.42186
G1 X111.178 Y76.590 E17.63945
G1 X111.242 Y76.379 E17.66516
G1 X120.898 Y76.379 E18.78897
G1 X120.898 Y113.222 E23.07710
G1 X120.601 Y113.671 E23.13975
G1 X119.556 Y114.411 E23.28873
G1 X100.399 Y114.411 E25.51840
G1 X99.355 Y113.671 E25.66738
G1 X99.058 Y113.222 E25.73003
G1 X99.058 Y91.400 E28.26984
G1 X88.385 Y91.400 E29.51207
G1 X85.344 Y85.184 E30.31746
G1 X85.344 Y76.379 E31.34231
G1 X89.715 Y76.379 E31.85101
G1 X89.779 Y76.593 E31.87702
G1 X88.233 Y77.621 E32.09314
G1 X87.445 Y78.797 E32.25787
G1 X87.166 Y80.184 E32.42260
G1 X87.439 Y81.573 E32.58735
G1 X88.223 Y82.752 E32.75210
G1 X89.398 Y83.540 E32.91684
G1 X90.785 Y83.820 E33.08158
G1 X92.174 Y83.546 E33.24631
G1 X93.353 Y82.762 E33.41107
G1 X94.142 Y81.587 E33.57581
G1 X94.421 Y80.200 E33.74055
G1 X94.148 Y78.811 E33.90528
G1 X93.364 Y77.632 E34.07002
G1 X91.812 Y76.590 E34.28761
G1 X91.876 Y76.379 E34.31331
G1 X109.081 Y76.379 E36.31580
G1 X109.146 Y76.593 E36.34181
G1 X107.600 Y77.621 E36.55792
G1 X106.811 Y78.797 E36.72266
G1 X106.532 Y80.184 E36.88740
G1 X106.805 Y81.573 E37.05215
G1 X107.589 Y82.752 E37.21688
G1 X108.764 Y83.540 E37.38164
G1 X109.009 Y83.590 E37.41073
G1 X109.009 Y83.937 E37.45117
G1 X98.344 Y92.114 F7200.000
G1 X87.939 Y92.114 E38.66215 F756.000
G1 X84.630 Y85.350 E39.53865
G1 X84.630 Y75.665 E40.66586
G1 X121.612 Y75.665 E44.97016
G1 X121.612 Y113.437 E49.36639
G1 X121.123 Y114.176 E49.46961
G1 X119.783 Y115.125 E49.66062
G1 X100.172 Y115.125 E51.94320
G1 X98.833 Y114.176 E52.13421
G1 X98.344 Y113.437 E52.23742
G1 X98.344 Y92.222 E54.70664
G1 X98.344 Y91.400 F7200.000
G1 X91.913 Y84.089 F7200.000
G1 X98.743 Y90.919 E55.84068 F1080.000
G1 X97.724 Y90.919 E55.96030
G1 X91.061 Y84.256 E57.06654
G1 X89.924 Y84.138 E57.20081
G1 X96.705 Y90.919 E58.32674
G1 X95.686 Y90.919 E58.44636
G1 X87.866 Y83.098 E59.74487
G1 X87.357 Y83.608 E59.82945
G1 X94.667 Y90.919 E61.04331
G1 X93.648 Y90.919 E61.16293
G1 X85.826 Y83.096 E62.46180
G1 X85.826 Y84.115 E62.58142
G1 X92.630 Y90.919 E63.71113
G1 X91.611 Y90.919 E63.83075
G1 X85.884 Y85.192 E64.78161
G1 X86.860 Y87.186 F7200.000
G1 X90.592 Y90.919 E65.40130 F1080.000
G1 X89.573 Y90.919 E65.52092
G1 X87.836 Y89.181 E65.80941
G1 X86.893 Y83.144 F7200.000
G1 X85.826 Y82.077 E65.98658 F1080.000
G1 X86.643 Y81.876 E66.08544
G1 X85.879 Y81.112 E66.21228
G1 X86.810 Y76.265 F7200.000
G1 X102.005 Y76.861 F7200.000
G1 X106.215 Y81.071 E66.91137 F1080.000
G1 X106.092 Y79.929 E67.04627
G1 X103.024 Y76.861 E67.55567
G1 X104.043 Y76.861 E67.67530
G1 X106.262 Y79.080 E68.04386
G1 X106.538 Y78.338 E68.13689
G1 X105.061 Y76.861 E68.38214
G1 X106.080 Y76.861 E68.50176
G1 X106.948 Y77.728 E68.64579
G1 X107.099 Y76.861 E68.74917
G1 X107.408 Y77.170 E68.80051
G1 X113.212 Y76.861 F7200.000
G1 X120.416 Y84.065 E69.99666 F1080.000
G1 X120.416 Y83.046 E70.11628
G1 X114.231 Y76.861 E71.14325
G1 X115.250 Y76.861 F7200.000
G1 X120.416 Y82.027 E72.00106 F1080.000
G1 X120.416 Y81.008 E72.12068
G1 X116.268 Y76.861 E72.80932
G1 X117.287 Y76.861 E72.92894
G1 X120.416 Y79.989 E73.44841
G1 X120.416 Y78.970 E73.56803
G1 X118.306 Y76.861 E73.91832
G1 X119.325 Y76.861 E74.03795
G1 X120.416 Y77.952 E74.21907
G1 X120.416 Y76.933 E74.33869
G1 X120.344 Y76.861 E74.35065
G1 X113.971 Y78.638 F7200.000
G1 X120.416 Y85.083 E75.42084 F1080.000
G1 X120.416 Y86.102 E75.54046
G1 X114.220 Y79.907 E76.56920
G1 X114.147 Y80.852 E76.68055
G1 X120.416 Y87.121 E77.72145
G1 X120.416 Y88.140 E77.84108
G1 X113.976 Y81.700 E78.91031
G1 X113.588 Y82.331 E78.99726
G1 X120.416 Y89.159 E80.13090
G1 X120.416 Y90.178 E80.25053
G1 X113.179 Y82.941 E81.45211
G1 X112.624 Y83.404 E81.53704
G1 X120.416 Y91.196 E82.83087
G1 X120.416 Y92.215 E82.95049
G1 X112.012 Y83.811 E84.34592
G1 X111.272 Y84.090 E84.43876
G1 X120.416 Y93.234 E85.95706
G1 X120.416 Y94.253 E86.07668
G1 X110.420 Y84.258 E87.73634
G1 X109.569 Y84.425 E87.83821
G1 X120.416 Y95.272 E89.63923
G1 X120.416 Y96.291 E89.75886
G1 X100.986 Y76.861 E92.98504
G1 X99.967 Y76.861 E93.10466
G1 X120.416 Y97.309 E96.50001
G1 X120.416 Y98.328 E96.61963
G1 X98.948 Y76.861 E100.18415
G1 X97.930 Y76.861 E100.30377
G1 X120.416 Y99.347 E104.03745
G1 X120.416 Y100.366 E104.15708
G1 X96.911 Y76.861 E108.05993
G1 X95.892 Y76.861 E108.17955
G1 X120.416 Y101.385 E112.25158
G1 X120.416 Y102.404 E112.37120
G1 X117.559 Y99.547 E112.84558
G1 X120.416 Y103.422 F7200.000
G1 X118.137 Y101.144 E113.22394 F1080.000
G1 X118.387 Y102.412 E113.37571
G1 X120.416 Y104.441 E113.71265
G1 X120.416 Y105.460 E113.83227
G1 X118.516 Y103.560 E114.14776
G1 X118.345 Y104.408 E114.24934
G1 X120.416 Y106.479 E114.59316
G1 X120.416 Y107.498 E114.71278
G1 X118.175 Y105.256 E115.08492
G1 X118.004 Y106.105 E115.18650
G1 X120.416 Y108.517 E115.58697
G1 X120.416 Y109.535 E115.70659
G1 X117.712 Y106.831 E116.15555
G1 X117.303 Y107.441 E116.24176
G1 X120.416 Y110.554 E116.75867
G1 X120.416 Y111.573 E116.87829
G1 X116.894 Y108.051 E117.46314
G1 X116.484 Y108.660 E117.54935
G1 X120.416 Y112.592 E118.20214
G1 X120.166 Y113.361 E118.29708
G1 X116.063 Y109.258 E118.97829
G1 X115.451 Y109.665 E119.06457
G1 X119.586 Y113.799 E119.75104
G1 X118.697 Y113.929 E119.85655
G1 X114.840 Y110.072 E120.49696
G1 X114.228 Y110.479 E120.58324
G1 X117.678 Y113.929 E121.15607
G1 X116.659 Y113.929 E121.27569
G1 X113.616 Y110.886 E121.78096
G1 X112.858 Y111.147 E121.87508
G1 X115.640 Y113.929 E122.33704
G1 X114.621 Y113.929 E122.45666
G1 X112.694 Y112.002 E122.77660
G1 X112.488 Y112.814 E122.87499
G1 X113.602 Y113.929 E123.06009
G1 X112.584 Y113.929 E123.17972
G1 X112.078 Y113.424 E123.26359
G1 X107.665 Y112.067 F7200.000
G1 X105.940 Y110.342 E123.55007 F1080.000
G1 X103.152 Y107.554 F7200.000
G1 X99.540 Y103.942 E124.14992 F1080.000
G1 X99.540 Y104.960 E124.26954
G1 X108.508 Y113.929 E125.75871
G1 X107.489 Y113.929 E125.87833
G1 X99.540 Y105.979 E127.19834
G1 X99.540 Y106.998 E127.31796
G1 X106.471 Y113.929 E128.46879
G1 X105.452 Y113.929 E128.58841
G1 X99.540 Y108.017 E129.57008
G1 X99.540 Y109.036 E129.68970
G1 X104.433 Y113.929 E130.50220
G1 X103.414 Y113.929 E130.62182
G1 X99.540 Y110.055 E131.26514
G1 X99.540 Y111.073 E131.38477
G1 X102.395 Y113.929 E131.85892
G1 X101.376 Y113.929 E131.97854
G1 X99.540 Y112.092 E132.28353
G1 X99.606 Y113.177 E132.41115
G1 X99.884 Y113.456 E132.45742
G1 X102.281 Y105.664 F7200.000
G1 X99.540 Y102.923 E132.91264 F1080.000
G1 X99.540 Y101.904 E133.03226
G1 X102.032 Y104.396 E133.44606
G1 X101.833 Y103.179 E133.59087
G1 X99.540 Y100.885 E133.97171
G1 X99.540 Y99.866 E134.09133
G1 X102.004 Y102.330 E134.50049
G1 X102.174 Y101.482 E134.60207
G1 X99.540 Y98.847 E135.03956
G1 X99.540 Y97.829 E135.15918
G1 X102.345 Y100.634 E135.62499
G1 X102.598 Y99.868 E135.71971
G1 X99.540 Y96.810 E136.22748
G1 X99.540 Y95.791 E136.34710
G1 X103.007 Y99.258 E136.92281
G1 X103.416 Y98.649 E137.00902
G1 X99.540 Y94.772 E137.65268
G1 X99.540 Y93.753 E137.77230
G1 X103.825 Y98.039 E138.48390
G1 X104.234 Y97.429 E138.57011
G1 X99.540 Y92.734 E139.34966
G1 X99.540 Y91.716 E139.46928
G1 X104.825 Y97.001 E140.34682
G1 X105.437 Y96.594 E140.43310
G1 X92.651 Y83.808 E142.55609
G1 X93.263 Y83.401 E142.64237
G1 X106.048 Y96.187 E144.76536
G1 X106.660 Y95.780 E144.85164
G1 X93.817 Y82.936 E146.98425
G1 X94.226 Y82.326 E147.07046
G1 X107.379 Y95.479 E149.25444
G1 X107.705 Y94.787 E149.34432
G1 X94.612 Y81.694 E151.51840
G1 X94.782 Y80.845 E151.61999
G1 X107.938 Y94.001 E153.80443
G1 X108.347 Y93.392 E153.89063
G1 X94.852 Y79.896 E156.13143
G1 X94.603 Y78.628 E156.28320
G1 X108.938 Y92.963 E158.66342
G1 X109.675 Y92.682 E158.75612
G1 X93.854 Y76.861 E161.38311
G1 X94.873 Y76.861 E161.50273
G1 X110.683 Y92.670 E164.12782
G1 X112.688 Y94.676 F7200.000
G1 X113.926 Y95.914 E164.33334 F1080.000
G1 X116.810 Y76.265 F7200.000
G1 X109.959 Y76.598 F7200.000
G1 X109.875 Y76.514 E164.34715 F360.000
G1 X90.593 Y76.598 F7200.000
G1 X90.509 Y76.514 E164.36095 F360.000
G1 X86.687 Y80.050 F7200.000
G1 X86.645 Y80.007 E164.36520 F360.000
G1 X86.687 Y80.050 F7200.000
G1 X86.439 Y80.414 E164.39631 F360.000
G1 X85.965 Y79.940 E164.44368 F360.000
G1 X85.840 Y80.427 E164.47920 F360.000
G1 X85.881 Y80.469 E164.48334 F360.000
G1 X85.910 Y79.318 F7200.000
G1 X85.819 Y79.227 E164.50163 F1080.000
G1 X86.903 Y79.086 E164.65590
G1 X85.819 Y78.002 E164.87226
G1 X85.900 Y76.859 E165.03403
G1 X87.261 Y78.219 E165.30562
G1 X87.753 Y77.486 E165.43020
G1 X87.120 Y76.854 E165.55653
G1 X88.345 Y76.854 E165.72939
G1 X88.419 Y76.928 E165.74427
G1 F1800.000 E164.74427
G92 E0
G1 X90.801 Y76.681 F7200.000
G1 X116.810 Y76.265 F7200.000
G1 X121.012 Y86.265 F7200.000
G1 X124.012 Y83.265 F7200.000
G1 X130.465 Y81.670 F7200.000
G1 E1.00000 F1800.000
G1 X136.194 Y81.670 E1.66672 F540.000
G1 X136.194 Y85.898 E2.15885
G1 X130.465 Y85.898 E2.82557
G1 X130.465 Y81.777 E3.30524
G1 X131.179 Y82.384 F7200.000
G1 X135.479 Y82.384 E3.80571 F540.000
G1 X135.479 Y85.184 E4.13160
G1 X131.179 Y85.184 E4.63208
G1 X131.179 Y82.491 E4.94550
G1 X131.179 Y81.670 F7200.000
G1 X126.652 Y76.890 F7200.000
G1 X129.702 Y74.852 E5.37250 F1080.000
G1 X133.301 Y74.136 E5.79950
G1 X136.899 Y74.852 E6.22650
G1 X139.949 Y76.890 E6.65349
G1 X141.987 Y79.940 E7.08049
G1 X142.725 Y83.649 E7.52056
G1 X142.739 Y113.857 E11.03649
G1 X123.920 Y113.857 E13.22692
G1 X123.920 Y102.951 E14.49629
G1 X123.876 Y83.647 E16.74305
